/* XPM */
static char * Press_E_CLOSE[] = {
"280 56 92 1",
"! c None",
"# c #ffffff",
"$ c #fefefe",
"% c #fdfdfd",
"& c #fbfbfb",
"' c #f9f9f9",
"( c #f6f6f6",
") c #f4f4f4",
"* c #f2f2f2",
"+ c #efefef",
", c #ededed",
"- c #eaeaea",
". c #e6e6e6",
"/ c #e5e5e5",
"0 c #e2e2e2",
"1 c #dfdfdf",
"2 c #dddddd",
"3 c #dadada",
"4 c #d5d5d5",
"5 c #d2d2d2",
"6 c #d0d0d0",
"7 c #cbcbcb",
"8 c #c9c9c9",
"9 c #c8c8c8",
": c #c7c7c7",
"; c #c4c4c4",
"< c #bebebe",
"= c #bbbbbb",
"> c #b9b9b9",
"? c #b3b3b3",
"@ c #aeaeae",
"A c #aaaaaa",
"B c #a3a3a3",
"C c #a0a0a0",
"D c #9d9d9d",
"E c #9b9b9b",
"F c #969696",
"G c #939393",
"H c #8e8e8e",
"I c #888888",
"J c #848484",
"K c #838383",
"L c #808080",
"M c #7d7d7d",
"N c #787878",
"O c #737373",
"P c #6f6f6f",
"Q c #6b6b6b",
"R c #6a6a6a",
"S c #696969",
"T c #646464",
"U c #5f5f5f",
"V c #5c5c5c",
"W c #5b5b5b",
"X c #595959",
"Y c #585858",
"Z c #575757",
"[ c #565656",
"] c #555555",
"^ c #545454",
"_ c #525252",
"` c #505050",
"a c #4e4e4e",
"b c #4c4c4c",
"c c #494949",
"d c #464646",
"e c #444444",
"f c #414141",
"g c #404040",
"h c #3f3f3f",
"i c #3e3e3e",
"j c #3d3d3d",
"k c #3a3a3a",
"l c #383838",
"m c #353535",
"n c #323232",
"o c #2f2f2f",
"p c #2e2e2e",
"q c #2d2d2d",
"r c #2c2c2c",
"s c #2b2b2b",
"t c #2a2a2a",
"u c #292929",
"v c #272727",
"w c #242424",
"x c #232323",
"y c #222222",
"z c #212121",
"{ c #202020",
"| c #171717",
"} c #161616",
"~ c #151515",
"!!!!!!!!!!!!!!!!!!!!!!!!!!!!!!!!!!!!!!!!!!!!!!!!!!!!!!!!!!!!!!!!!!!!!!!!!!!!!!!!!!!!!!!!!!!!!!!!!!!!!!!!!!!!!!!!!!!!!!!!!!!!!!!!!!!!!!!!!!!!!!!!!!!!!!!!!!!!!!!!!!!!!!!!!!!!!!!!!!!!!!!!!!!!!!!!!!!!!!!!!!!!!!!!!!!!!!!!!!!!!!!!!!!!!!!!!!!!!!!!!!!!!!!!!!!!!!!!!!!!!!!!!!!!!!!!!!!!!!!!",
"!!!Q}}}}}}}}}}}}}}}}}}}}}}}}}}}}}}}}}}}}}}}}}}}}}}}}}}}}}}}}}}}}}}}}}}}}}}}}}}}}}}}}}}}}}}}}}}}}}}}}}}}}}}}}}}}}}}}}}}}}}}}}}}}}}}}}}}}}}}}}}}}}}}}}}}}}}}}}}}}}}}}}}}}}}}}}}}}}}}}}}}}}}}}}}}}}}}}}}}}}}}}}}}}}}}}}}}}}}}}}}}}}}}}}}}}}}}}}}}}}}}}}}}}}}}}}}}}}}}}}}}}}}}}}}}}}}|f!!!!!",
"!!!rZ[[[[[[[ZZZZZZZZZZZZZZZZZZZZZZZZZZZZZZZZZZZZZZZZZZZZZZZZZZZZZZZZZZZZZZZZZZZZZZZZZZZZZZZZZZZZZZZZZZZZZZZZZZZZZZZZZZZZZZZZZZZZZZZZZZZZZZZZZZZZZZZZZZZZZZZZZZZZZZZZZZZZZZZZZZZZZZZZZZZZZZZZZZZZZZZZZZZZZZZZZZZZZZZZZZZZZZZZZZZZZZZZZZZZZZZZZZZZZZZZZZZZZZZZZZZZZZZZZZZZZZZZZZZZZZe!!!!!",
"!QrfZ]]]]]]]]]]]]]]]]]]]]]]]]]]]]]]]]]]]]]]]]]]]]]]]]]]]]]]]]]]]]]]]]]]]]]]]]]]]]]]]]]]]]]]]]]]]]]]]]]]]]]]]]]]]]]]]]]]]]]]]]]]]]]]]]]]]]]]]]]]]]]]]]]]]]]]]]]]]]]]]]]]]]]]]]]]]]]]]]]]]]]]]]]]]]]]]]]]]]]]]]]]]]]]]]]]]]]]]]]]]]]]]]]]]]]]]]]]]]]]]]]]]]]]]]]]]]]]]]]]]]]]]]]]]]]br[!!!",
"!}Y[][]ZZZZZZZZZZZZZZZZZZZZZZZZZZZZZZZZZZZZZZZZZZZZZZZZZZZZZZZZZZZZZZZZZZZZZZZZZZZZZZZZZZZZZZZZZZZZZZZZZZZZZZZZZZZZZZZZZZZZZZZZZZZZZZZZZZZZZZZZZZZZZZZZZZZZZZZZZZZZZZZZZZZZZZZZZZZZZZZZZZZZZZZZZZZZZZZZZZZZZZZZZZZZZZZZZZZZZZZZZZZZZZZZZZZZZZZZZZZZZZZZZZZZZZZZZZZZZZZZZZZZZZZZZZ]][s!!!",
"!}Z]][[trrrrrrrrrrrrrrrrrrrrrrrrrrrrrrrrrrrrrrrrrrrrrrrrrrrrrrrrrrrrrrrrrrrrrrrrrrrrrrrrrrrrrrrrrrrrrrrrrrrrrrrrrrrrrrrrrrrrrrrrrrrrrrrrrrrrrrrrrrrrrrrrrrrrrrrrrrrrrrrrrrrrrrrrrrrrrrrrrrrrrrrrrrrrrrrrrrrrrrrrrrrrrrrrrrrrrrrrrrrrrrrrrrrrrrrrrrrrrrrrrrrrrrrrrrrrrrrrrrrrrrrrq[][bee!",
"!}Z]][^{zzzzzzzzzzzzzzzzzzzzzzzzzzzzzzzzzzzzzzzzzzzzzzzzzzzzzzzzzzzzzzzzzzzzzzzzzzzzzzzzzzzzzzzzzzzzzzzzzzzzzzzzzzzzzzzzzzzzzzzzzzzzzzzzzzzzzzzzzzzzzzzzzzzzzzzzzzzzzzzzzzzzzzzzzzzzzzzzzzzzzzzzzzzzzzzzzzzzzzzzzzzzzzzzzzzzzzzzzzzzzzzzzzzzzzzzzzzzzzzzzzzzzzzzzzzzzzzzzzzzzzzzz^^[[X|!",
"!}Z]Zrz{zzzzzzzzzzzzzzzzzzzzzzzzzzzzzzzzzzzzzzzzzzzzzzzzzzzzzzzzzzzzzzzzzzzzzzzzzzzzzzzzzzzzzzzzzzzzzzzzzzzzzzzzzzzzzzzzzzzzzzzzzzzzzzzzzzzzzzzzzzzzzzzzzzzzzzzzzzzzzzzzzzzzzzzzzzzzzzzzzzzzzzzzzzzzzzzzzzzzzzzzzzzzzzzzzzzzzzzzzzzzzzzzzzzzzzzzzzzzzzzzzzzzzzzzzzzzzzzzzzzzzzzzy{r[]Y}!",
"!}Z][pyyzzzzzzzzzzzzzzzzzzzzzzzzzzzzzzzzzzzzzzzzzzzzzzzzzzzzzzzzzzzzzzzzzzzzzzzzzzzzzzzzzzzzzzzzzzzzzzzzzzzzzzzzzzzzzzzzzzzzzzzzzzzzzzzzzzzzzzzzzzzzzzzzzzzzzzzzzzzzzzzzzzzzzzzzzzzzzzzzzzzzzzzzzzzzzzzzzzzzzzzzzzzzzzzzzzzzzzzzzzzzzzzzzzzzzzzzzzzzzzzzzzzzzzzzzzzzzzzzzzzzzzzzyyq[]Y}!",
"!}Z][pyyz{{{{{{{{{{{{{{{{{{{{{{{{{{{{{{{{{{{{{{{{{{{{{{{{{{{{{{{{{{{{{{{{{{{{{{{{{{{{{{{{{{{{{{{{{{{{{{{{{{{{{{{{{{{{{{{{{{{{{{{{{{{{{{{{{{{{{{{{{{{{{{{{{{{{{{{{{{{{{{{{{{{{{{{{{{{{{{{{{{{{{{{{{{{{{{{{{{{{{{{{{{{{{{{{{{{{{{{{{{{{{{{{{{{{{{{{{{{{{{{{zzzzzzzzzzzzzzzzzzzzzzzyyq[]Y}!",
"!}Z][pyyz{{{{{{{{{{{{{{{{{{{{{{{{{{{{{{{{{{{{{{{{{{{{{{{{{{{{{{{{{{{{{{{{{{{{{{{{{{{{{{{{{{{{{{{{{{{{{{{{{{{{{{{{{{{{{{{{{{{{{{{{{{{{{{{{{{{{{{{{{{{{{{{{{{{{{{{{{{{{{{{{{{{{{{{{{{{{{{{{{{{{{{{{{{{{{{{{{{{{{{{{{{{{{{{{{{{{{{{{{{{{{{{{{{{{{{{{{{{{{{{{zzzzzzzzzzzzzzzzzzzzzzzyyq[]Y}!",
"!}Z][pyyz{{{{{{{{{{{{{{{{{{{{{{{{{{{{{{{{{{{{{{{{{{{{{{{{{{{{{{{{{{{{{{{{{{{{{{{{{{{{{{{{{{{{{{{{{{{{{{{{{{{{{{{{{{{{{{{{{{{{{{{{{{{{{{{{{{{{{{{{{{{{{{{{{{{{{{{{{{{{{{{{{{{{{{{{{{{{{{{{{{{{{{{{{{{{{{{{{{{{{{{{{{{{{{{{{{{{{{{{{{{{{{{{{{{{{{{{{{{{{{{{zzzzzzzzzzzzzzzzzzzzzzzyyq[]Y}!",
"!}Z][pyzz{{{{{{{{{{{{{{{{{{{{{{{{{{{{{{{{{{{{{{{{{{{{{{{{{{{{{{{{{{{{{{{{{{{{{{{{{{{{{{{{{{{{{{{{{{{{{{{{{{{{{{{{{{{{{{{{{{{{{{{{{{{{{{{{{{{{{{{{{{{{{{{{{{{{{{{{{{{{{{{{{{{{{{{{{{{{{{{{{{{{{{{{{{{{{{{{{{{{{{{{{{{{{{{{{{{{{{{{{{{{{{{{{{{{{{{{{{{{{{{{{zzzzzzzzzzzzzzzzzzzzzzzzq[]Y}!",
"!}Z][pzzz{{{{{{{{{{{{{{{{{{{{{{{{{{{{{{{{{{{{{{{{{{{{{{{{{{{{{{{{{{{{{{{{{{{{{{{{{{{{{{{{{{{{{{{{{{{{{{{{{{{{{{{{{{{{{{{{{{{{{{{{{{{{{{{{{{{{{{{{{{{{{{{{{{{{{{{{{{{{{{{{{{{{{{{{{{{{{{{{{{{{{{{{{{{{{{{{{{{{{{{{{{{{{{{{{{{{{{{{{{{{{{{{{{{{{{{{{{{{{{{{{zzzzzzzzzzzzzzzzzzzzzzzzq[]Y}!",
"!}Z][pzzz{{{{{{{{{{{{{{{{{{{{{{{{{{{{{{{{{{{{{{{{{{{{{{{{{{{{{{{{{{{{{{{{{{{{{{{{{{{{{{{{{{{{{{{{{{{{{{{{{{{{{{{{{{{{{{{{{{{{{{{{{{{{{{{{{{{{{{{{{{{{{{{{{{{{{{{{{{{{{{{{{{{{{{{{{{{{{{{{{{{{{{{{{{{{{{{{{{{{{{{{{{{{{{{{{{{{{{{{{{{{{{{{{{{{{{{{{{{{{{{{{zzzzzzzzzzzzzzzzzzzzzzzzq[]Y}!",
"!}Z][pzzz{{{{{{{{{{{{{{{{{{{{{{{{{{{{{{{{{{{{{{{{{{{{{{{{{{{{{{{{{{{{{{{{{{{{{{{{{{{{{{{{{{{{{{{{{{{{{{{{{{{{{{{{{{{{{{{{{{{{{{{{{{{{{{{{{{{{{{{{{{{{{{{{{{{{{{{{{{{{{{{{{{{{{{{{{{{{{{{{{{{{{{{{{{{{{{{{{{{{{{{{{{{{{{{{{{{{{{{{{{{{{{{{{{{{{{{{{{{{{{{{{zzzzzzzzzzzzzzzzzzzzzzzzq[]Y}!",
"!}Z][pzzz{{{{{{{{{{{{{{{{{{{{{{{{{{{{{{{{{{{{{{{{{{{{{{{{{{{{{{{{{{{{{{{{{{{{{{{{{{{{{{{{{{{{{{{{{{{{{{{{{{{{{{{{{{{{{{{{{{{{{{{{{{{{{{{{{{{{{{{{{{{{{{{{{{{{{{{{{{{{{{{{{{{{{{{{{{{{{{{{{{{{{{{{{{{{{{{{{{{{{{{{{{{{{{{{{{{{{{{{{{{{{{{{{{{{{{{{{{{{{{{{{zzzzzzzzzzzzzzzzzzzzzzzzq[]Y}!",
"!}Z][pzzz{{{{{{{{{{{{{{{{{{{{{{{{{{{{{{{{{{{{{{{{{{{{{{{{{{{{{{{{{{{{{{{{{{{{{{{{{{{{{{{{{{{{{{{{{{{{{{{{{{{{{{{{{{{{{{{{{{{{{{{{{{{{{{{{{{{{{{{{{{{{{{{{{{{{{{{{{{{{{{{{{{{{{{{{{{{{{{{{{{{{{{{{{{{{{{{{{{{{{{{{{{{{{{{{{{{{{{{{{{{{{{{{{{{{{{{{{{{{{{{{{zzzzzzzzzzzzzzzzzzzzzzzzq[]Y}!",
"!}Z][pzzz{{{{{{{{{{{{{{{{{{{{{{{{{{{{{{{{{{{{{{{{{{{{{{{{{{{{{{{{{{{{{{{{{{{{{{{{{{{{{{{{{{{{{{{{{{{{{{{{{{{{{{{{{{{{{{{{{{{{{{{{{{{{{{{{{{{{{{{{{{{{{{{{{{{{{{{{{{{{{{{{{{{{{{{{{{{{{{{{{{{{{{{{{{{{{{{{{{{{{{{{{{{{{{{{{{{{{{{{{{{{{{{{{{{{{{{{{{{{{{{{{zzzzzzzzzzzzzzzzzzzzzzzzq[]Y}!",
"!}Z][pzzz{{{{{{{{{{{{{{{{{{{{{{{{{{{{{{{{{{{{{{{{{{{{{{{{{{{{{{{{{{{{{{{{{{{{{{{{{{{{{{{{{{{{{{{{{{{{{{{{{{{{{{{{{{{{{{{{{{{{{{{{{{{{{{{{{{{{{{{{{{{{{{{{{{{{{{{{{{{{{{{{{{{{{{{{{{{{{{{{{{{{{{{{{{{{{{{{{{{{{{{{{{{{{{{{{{{{{{{{{{{{{{{{{{{{{{{{{{{{{{{{{zzzzzzzzzzzzzzzzzzzzzzzzq[]Y}!",
"!}Z][pzzz{{{{{{{{{{{{{{{{{{{{{{{{{{{{{{{{{{{{{{{{{{{{{{{{{{{{{{{{{{{{{{{{{{{{{{{{{{{{{{{{{{{{{{{{{{{{{{{{{{{{{{{{{{{{{{{{{{{{{{{{{{{{{{{{{{{{{{{{{{{{{{{{{{{{{{{{{{{{{{{{{{{{{{{{{{{{{{{{{{{{{{{{{{{{{{{{{{{{{{{{{{{{{{{{{{{{{{{{{{{{{{{{{{{{{{{{{{{{{{{{{zzzzzzzzzzzzzzzzzzzzzzzzq[]Y}!",
"!}Z][pzzz{{{{{{{{{{{{{{{{{{{{{{{{{{{{{{{{{{{{{{{{{{{bYYYYYdp{{{{dYYYYZeu{{{{{gYYYYYYYYYk{{{{kQIOf{{{{{{hPIPk{{{{{{{{tYYYYYYYYY_{{{{{{{bYYYYYYYYYYk{{{{s[ML]t{{{{{{{{{{{{{{v`NITo{{nYYYYYk{{{{{{{{{{mUJObw{{{{{{{nTINd{{{uYYYYYYYYY_{{{{{{{{{{{{{{{{{{{{{{{zzzzzzzzzzzzzzzzzzzzzzzzq[]Y}!",
"!}Z][pzzz{{{{{{{{{{{{{{{{{{{{{{{{{{{{{{{{{{{{{{{{{{{N;##67*#1V{{P>##599+;_{{{TA##39991#G{{{K$4E;#?x{{zD#7E5$B{{{{{{{nG-#+9998#,{{{{{{{5#795#'993#H{{zH&-?A-&M{{{{{{{{{{{{N)+?C.&G{dE(#$C]{{{{{{{{r@#2C<),W{{{{{O&2D<#;u{nG-#*9998$+{{{{{{{{{{{{{{{{{{{{{{{zzzzzzzzzzzzzzzzzzzzzzzzq[]Y}!",
"!}Z][pzzz{{{{{{{{{{{{{{{{{{{{{{{{{{{{{{{{{{{{{{{{{{{{v)#j{{T'&e{{z.#a{{q1)g{{{{7#S{{{u2F{{S#Cz{{C#T{{K#I{{{>#c{{{{{{{{P#;{{{{J){{{{{{{3F{{d#2{{w3G{{>#Hz{{{H#A{{{{{{{{{{E#Dx{{l'#l{{F#@{{{{{{{{{r2&U{{{v>$O{{{[#@x{{H#N{{{Q#9{{{{J({{{{{{{{{{{{{{{{{{{{{{{zzzzzzzzzzzzzzzzzzzzzzzzq[]Y}!",
"!}Z][pzzz{{{{{{{{{{{{{{{{{{{{{{{{{{{{{{{{{{{{{{{{{{{{{/#j{{{A#G{{{5#a{{{K#B{{{{>#S{{{{GD{{@#d{{{]+h{{7#r{{{O-o{{{{{{{{V#;{{{{l&{{{{{{{0]{{d#2{{{FE{O#:{{{{{{7#S{{{{{{{{V#4z{{{{A1v{{J#C{{{{{{{{{A#G{{{{{t*'j{{D#X{{{e'a{{{W#9{{{{m%{{{{{{{{{{{{{{{{{{{{{{{zzzzzzzzzzzzzzzzzzzzzzzzq[]Y}!",
"!}Z][pzzz{{{{{{{{{{{{{{{{{{{{{{{{{{{{{{{{{{{{{{{{{{{{{/#j{{{K#<{{{5#a{{{Q#7{{{{>#S{{{{kg{{>#X{{{{{{{{5#i{{{{{{{{{{{{{{V#;{{{{xZ{{{{{{{`u{{d#2{{{kh{5#Q{{{{{{O#8{{{{{{{{<#M{{{{{mz{{{J#C{{{{{{{{q'#j{{{{{{B#F{{B#Q{{{{{{{{{W#9{{{{yY{{{{{{{{{{{{{{{{{{{{{{{zzzzzzzzzzzzzzzzzzzzzzzzq[]Y}!",
"!}Z][pzzz{{{{{{{{{{{{{{{{{{{{{{{{{{{{{{{{{{{{{{{{{{{{{/#j{{{L#<{{{5#a{{{N#?{{{{=#R{{{{{{{{I#>x{{{{{{{B#Bz{{{{{{{{{{{{{U#:{{{{{{{{{{{{{{{{{c#2{{{{{r##m{{{{{{k#&v{{{{{{y'#e{{{{{{{{{{J#C{{{{{{{{U#/{{{{{{{P#6{{N#7v{{{{{{{{W#8{{{{{{{{{{{{{{{{{{{{{{{{{{{{{zzzzzzzzzzzzzzzzzzzzzzzzq[]Y}!",
"!}Z][pzzz{{{{{{{{{{{{{{{{{{{{{{{{{{{{{{{{{{{{{{{{{{{{{.#i{{{A#K{{{4#a{{{<$[{{{{=#R{{{{{{{{n-#/Kx{{{{{e)#3Oz{{{{{{{{{{{U#:{{{{{{{{{{{{{{{{{c#2{{{{{a#'{{{{{{{y$#c{{{{{{f##u{{{{{{{{{{J#C{{{{{{{{K#:{{{{{{{_#){{t1#-Hv{{{{{{W#8{{{{{{{{{{{{{{{{{{{{{{{{{{{{{zzzzzzzzzzzzzzzzzzzzzzzzq[]Y}!",
"!}Z][pzzz{{{{{{{{{{{{{{{{{{{{{{{{{{{{{{{{{{{{{{{{{{{{{/#j{{h'0t{{{5#NYT<,O{{{{{=######e{{{{j3##+Iz{{{{c/##.O{{{{{{{{{{U######C{{{{{{{{{{{{c#2{{{{{V#,{{{{{{{{)#Y{{{{{{`#&{{{{{{{{{{{J#C{{{{{{{{G#<{{{{{{{d##w{{m6##*Gx{{{{W######C{{{{{{{{{{{{{{{{{{{{{{{{zzzzzzzzzzzzzzzzzzzzzzzzq[]Y}!",
"!}Z][pzzz{{{{{{{{{{{{{{{{{{{{{{{{{{{{{{{{{{{{{{{{{{{{{/#DH?&?l{{{{5#57##k{{{{{{=#R{{{{{{{{{{wO>##>w{{{{sN;##C{{{{{{{{{U#:{{{{{{{{{{{{{{{{{c#2{{{{{Y#*{{{{{{{{'#_{{{{{{b##{{{{{{{{{{{J#C{{{{{{{{H#<{{{{{{{b#$z{{{yS@%#:t{{{W#8{{{{{{{{{{{{{{{{{{{{{{{{{{{{{zzzzzzzzzzzzzzzzzzzzzzzzq[]Y}!",
"!}Z][pzzz{{{{{{{{{{{{{{{{{{{{{{{{{{{{{{{{{{{{{{{{{{{{{/#CITn{{{{{{4#`{?#<{{{{{{=#R{{{{{{{{{{{{{X,#F{{{{{{{R(#M{{{{{{{{U#:{{{{{{{{{{{{{{{{{c#2{{{{{g#&z{{{{{{u##l{{{{{{n##m{{{{{{{{{{J#C{{{{{{{{O#7{{{{{{{Y#.{{{{{{{a0#A{{{W#8{{{{{{{{{{{{{{{{{{{{{{{{{{{{{zzzzzzzzzzzzzzzzzzzzzzzzq[]Y}!",
"!}Z][pzzz{{{{{{{{{{{{{{{{{{{{{{{{{{{{{{{{{{{{{{{{{{{{{.#h{{{{{{{{{4#`{m(#S{{{{{=#R{{{{{{{{{{{{{{_#.{{{{{{{{Q#7{{{{{{{{U#:{{{{{{{{{{{{{{{{{c#2{{{{{{*#h{{{{{{d#,{{{{{{{{.#U{{{{{{{{{{K#C{{{{{hj{d#,{{{{{{{N#>{{{{{{{{h$'z{{W#8{{{{{{{{{{{{{{{{{{{{{{{{{{{{{zzzzzzzzzzzzzzzzzzzzzzzzq[]Y}!",
"!}Z][pzzz{{{{{{{{{{{{{{{{{{{{{{{{{{{{{{{{{{{{{{{{{{{{{.#h{{{{{{{{{4#`{{I#-q{{{{>#S{{{{{Nj{MF{{{{{(*{{GL{{{{n#3{{{{{{{{V#:{{{{{aQ{{{{{{{{{{c#2{{{{{{A#L{{{{{{I#D{{{{{{{{D#A{{{{{{{{{{J#C{{{{{@H{{2#a{{{{{{>#R{{PC{{{{{0#v{{W#9{{{{{bP{{{{{{{{{{{{{{{{{{{{{{zzzzzzzzzzzzzzzzzzzzzzzzq[]Y}!",
"!}Z][pzzz{{{{{{{{{{{{{{{{{{{{{{{{{{{{{{{{{{{{{{{{{{{{{.#i{{{{{{{{{4#a{{w1#A{{{{=#S{{{{x)_{.4{{{{m#6{x#>{{{{a#?{{{{{{{{V#;{{{{{D@{{{{{{{{{{c#2{{{{{{e%1w{{{{v0'l{{{{{{{{j&'e{{{{yIt{{K#D{{{{{4J{{O#?{{{{{h&2x{{5/x{{{u'0{{{W#9{{{{{E?{{{{{{{{{{{{{{{{{{{{{{zzzzzzzzzzzzzzzzzzzzzzzzq[]Y}!",
"!}Z][pzzz{{{{{{{{{{{{{{{{{{{{{{{{{{{{{{{{{{{{{{{{{{{{n'#T{{{{{{{{s+#N{{{Z%#N{{w1#S{{{{H#c{@#M{{m;#S{{7#U{{h4%a{{{{{{{{I#;{{{{g+B{{{{{{{{{{P#)o{{{{{{M#<i{{i;&P{{{{{{{{{{N$,KdoS5,t{{A#D{{{vO#M{{y@#Fn{z^1,c{{{D#H{{n>#M{{{J#9{{{{h+A{{{{{{{{{{{{{{{{{{{{{{zzzzzzzzzzzzzzzzzzzzzzzzq[]Y}!",
"!}Z][pzzz{{{{{{{{{{{{{{{{{{{{{{{{{{{{{{{{{{{{{{{{{{{@####0S{{{{{D####.n{{U'#=J%#########f{n>&34%/R{{{i;#53#3X{{{{{{{j-#########D{{{{{{{{a/####:{{{{{{X1####4c{{{{{{{{{{{{Y0####;e{X)#########N{{{{M,####=m{{{{u@'25&,N{{k-#########C{{{{{{{{{{{{{{{{{{{{{{zzzzzzzzzzzzzzzzzzzzzzzzq[]Y}!",
"!}Z][pzzz{{{{{{{{{{{{{{{{{{{{{{{{{{{{{{{{{{{{{{{{{{{{{{{{{{{{{{{{{{{{{{{{{{{{{{{{{{{{{{{{{{{oYYe{{{{{{{mYYl{{{{{{{{{{{{{{{{{{{{{{{{{{{{{{{{{{{{{{{{{{{{aYYb{{{{{{{{{{{{{{{z`YYn{{{{{{{{{{{{{{{{{{{{w]YYj{{{{{{{{tZYd{{{{{{{{{{{{{{{{{{{{{{{{{{{{{{{{{{{{{{zzzzzzzzzzzzzzzzzzzzzzzzq[]Y}!",
"!}Z][pzzz{{{{{{{{{{{{{{{{{{{{{{{{{{{{{{{{{{{{{{{{{{{{{{{{{{{{{{{{{{{{{{{{{{{{{{{{{{{{{{{{{{{{{{{{{{{{{{{{{{{{{{{{{{{{{{{{{{{{{{{{{{{{{{{{{{{{{{{{{{{{{{{{{{{{{{{{{{{{{{{{{{{{{{{{{{{{{{{{{{{{{{{{{{{{{{{{{{{{{{{{{{{{{{{{{{{{{{{{{{{{{{{{{{{{{{{{{{{{{{{{{zzzzzzzzzzzzzzzzzzzzzzzzq[]Y}!",
"!}Z][pzzz{{{{{{{{{{{{{{{{{{{{{{{{{{{{{{{{{{{{{{{{{{{{{{{{{{{{{{{{{{{{{{{{{{{{{{{{{{{{{{{{{{{{{{{{{{{{{{{{{{{{{{{{{{{{{{{{{{{{{{{{{{{{{{{{{{{{{{{{{{{{{{{{{{{{{{{{{{{{{{{{{{{{{{{{{{{{{{{{{{{{{{{{{{{{{{{{{{{{{{{{{{{{{{{{{{{{{{{{{{{{{{{{{{{{{{{{{{{{{{{{{zzzzzzzzzzzzzzzzzzzzzzzzq[]Y}!",
"!}Z][pzzz{{{{{{{{{{{{{{{{{{{{{{{{{{{{{{{{{{{{{{{{{{{{{{{{{{{{{{{{{{{{{{{{{{{{{{{{{{{{{{{{{{{{{{{{{{{{{{{{{{{{{{{{{{{{{{{{{{{{{{{{{{{{{{{{{{{{{{{{{{{{{{{{{{{{{{{{{{{{{{{{{{{{{{{{{{{{{{{{{{{{{{{{{{{{{{{{{{{{{{{{{{{{{{{{{{{{{{{{{{{{{{{{{{{{{{{{{{{{{{{{{zzzzzzzzzzzzzzzzzzzzzzzzq[]Y}!",
"!}Z][pzzz{{{{{{{{{{{{{{{{{{{{{{{{{{{{{{{{{{{{{{{{{{{{{{{{{{{{{{{{{{{{{{{{{{{{{{{{{{{{{{{{{{{{{{{{{{{{{{{{{{{{{{{{{{{{{{{{{{{{{{{{{{{{{{{{{{{{{{{{{{{{{{{{{{{{{{{{{{{{{{{{{{{{{{{{{{{{{{{{{{{{{{{{{{{{{{{{{{{{{{{{{{{{{{{{{{{{{{{{{{{{{{{{{{{{{{{{{{{{{{{{{zzzzzzzzzzzzzzzzzzzzzzzzq[]Y}!",
"!}Z][pzzz{{{{{{{{{{{{{{{{{{{{{{{{{{{{{{{{{{{{{{{{{{{{{{{{{{{{{{{{{{{{{{{{{{{{{{{{{{{{{{{{{{{{{{{{{{{{{{{{{{{{{{{{{{{{{{{{{{{{{{{{{{{{{{{{{{{{{{{{{{{{{{{{{{{{{{{{{{{{{{{{{{{{{{{{{{{{{{{{{{{{{{{{{{{{{{{{{{{{{{{{{{{{{{{{{{{{{{{{{{{{{{{{{{{{{{{{{{{{{{{{{zzzzzzzzzzzzzzzzzzzzzzzzq[]Y}!",
"!}Z][pzzz{{{{{{{{{{{{{{{{{{{{{{{{{{{{{{{{{{{{{{{{{{{{{{{{{{{{{{{{{{{{{{{{{{{{{{{{{{{{{{{{{{{{{{{{{{{{{{{{{{{{{{{{{{{{{{{{{{{{{{{{{{{{{{{{{{{{{{{{{{{{{{{{{{{{{{{{{{{{{{{{{{{{{{{{{{{{{{{{{{{{{{{{{{{{{{{{{{{{{{{{{{{{{{{{{{{{{{{{{{{{{{{{{{{{{{{{{{{{{{{{{zzzzzzzzzzzzzzzzzzzzzzzzq[]Y}!",
"!}Z][pzzz{{{{{{{{{{{{{{{{{{{{{{{{{{{{{{{{{{{{{{{{{{{{{{{{{{{{{{{{{{{{{{{{{{{{{{{{{{{{{{{{{{{{{{{{{{{{{{{{{{{{{{{{{{{{{{{{{{{{{{{{{{{{{{{{{{{{{{{{{{{{{{{{{{{{{{{{{{{{{{{{{{{{{{{{{{{{{{{{{{{{{{{{{{{{{{{{{{{{{{{{{{{{{{{{{{{{{{{{{{{{{{{{{{{{{{{{{{{{{{{{{zzzzzzzzzzzzzzzzzzzzzzzzq[]Y}!",
"!}Z][pzzz{{{{{{{{{{{{{{{{{{{{{{{{{{{{{{{{{{{{{{{{{{{{{{{{{{{{{{{{{{{{{{{{{{{{{{{{{{{{{{{{{{{{{{{{{{{{{{{{{{{{{{{{{{{{{{{{{{{{{{{{{{{{{{{{{{{{{{{{{{{{{{{{{{{{{{{{{{{{{{{{{{{{{{{{{{{{{{{{{{{{{{{{{{{{{{{{{{{{{{{{{{{{{{{{{{{{{{{{{{{{{{{{{{{{{{{{{{{{{{{{{zzzzzzzzzzzzzzzzzzzzzzzzq[]Y}!",
"!}Z][pzzzzzzzzzzzzzzzzzzzzzzzzzzz{{{{{{{{{{{{{{{{{{{{{{{{{{{{{{{{{{{{{{{{{{{{{{{{{{{{{{{{{{{{{{{{{{{{{{{{{{{{{{{{{{{{{{{{{{{{{{{{{{{{{{{{{{{{{{{{{{{{{{{{{{{{{{{{{{{{{{{{{{{{{{{{{{{{{{{{{{{{{{{{{{{{{{{{{{{{{{{{{{{{{{{{{{{{{{{{{{{{{{{{{{{{{{{{{{{{{{{{{zzzzzzzzzzzzzzzzzzzzzzzzq[]Y}!",
"!}Z][pzzzzzzzzzzzzzzzzzzzzzzzzzzzzzzzzzzzzzzzzzzzzzzzyyzzz{{{zzzzzzzzzyyzyyzzzyyzzzzyyyyyyzzzzzzzzzyyzyyyyzzzzzzzzzzzyyyyyyzzz{{{zzzzz{{{z{{zzzyyzzzz{{zzzzzzzzzzzzzzzzzzzzzzzzzzzzzzzzzzzzzzzzzzzzzzzzzzzzzzzzzzzzzzzzzzzzzzzzzzzzzzzzzzzzzzzzzzzzzzzzzzzzzzzzzzzzzzzzzzzzzzzzzzzq[]Y}!",
"!}Z][pzzzzzzzzzzzzzzzzzzzzzzzzzzzzzzzzzzzzzzzzzzzzzzzyyyyyzzzzzzzzzzzzyyyyyyyyyyyyyyyyyyyyyyyzzzzzzyyyyyyyyyyyyyzzzzzyyyyyyyyyzzzzzzzzzzzzzzzzzyyyyyyzzzzzzzzzzzzzzzzzzzzzzzzzzzzzzzzzzzzzzzzzzzzzzzzzzzzzzzzzzzzzzzzzzzzzzzzzzzzzzzzzzzzzzzzzzzzzzzzzzzzzzzzzzzzzzzzzzzzzzzzzzzzzq[]Y}!",
"!}Z][t{zzzzzzzzzzzzzzzzzzzzzzzzzzzzzzzzzzzzzzzzzzzzzzyyyyyyyyyyyyyyyyyyyyyyyyyyyyyyyyyyyyyyyyzzzzzzyyyyyyyyyyyyyzzzzzyyyyyyyyyyyyyyyyyyyyyyyyyyyyyyyyyyyyyyzzzzzzzzzzzzzzzzzzzzzzzzzzzzzzzzzzzzzzzzzzzzzzzzzzzzzzzzzzzzzzzzzzzzzzzzzzzzzzzzzzzzzzzzzzzzzzzzzzzzzzzzzzzzzzzzzzzzzyzq[]Y}!",
"!~Z^^]^zzzzzzzzzzzzzzzzzzzzzzzzzzzzzzzzzzzzzzzzzzzzzzyyyyyyyyyyyyyyyyyyyyyyyyyyyyyyyyyyyyyyyyzzzzzzzyyyyyyyyyyyyzzzzzyyyyyyyyyyyyyyyyyyyyyyyyyyyyyyyyyyyyyyzzzzzzzzzzzzzzzzzzzzzzzzzzzzzzzzzzzzzzzzzzzzzzzzzzzzzzzzzzzzzzzzzzzzzzzzzzzzzzzzzzzzzzzzzzzzzzzzzzzzzzzzzzzzzzzzzzzzzz_[]]Y}!",
"!feb]]^sssssrqqqqqqqqqqqqqqqqqqqqqqqqqqqqqqqqqqqqqqqqqqqqqqqqqqqqqqqqqqqqqqqqqqqqqqqqqqqqqqqqqqqqqqqqqqqqqqqqqqqqqqqqqqqqqqqqqqqqqqqqqqqqqqqqqqqqqqqqqqqqqqqqqqqqqqqqqqqqqqqqqqqqqqqqqqqqqqqqqqqqqqqqqqqqqqqqqqqqqqqqqqqqqqqqqqqqqqqqqqqqqqqqqqqqqqqqqqqqqqqqqqqqqqqqqqqqqqqqqqqs^]]]Y}!",
"!!!r]]][]]]][ZZZZZZZZZZZZZZZZZZZZZZZZZZZZZZZZZZZZZZZZZZZZZZZZZZZZZZZZZZZZZZZZZZZZZZZZZZZZZZZZZZZZZZZZZZZZZZZZZZZZZZZZZZZZZZZZZZZZZZZZZZZZZZZZZZZZZZZZZZZZZZZZZZZZZZZZZZZZZZZZZZZZZZZZZZZZZZZZZZZZZZZZZZZZZZZZZZZZZZZZZZZZZZZZZZZZZZZZZZZZZZZZZZZZZZZZZZZZZZZZZZZZZZZZZZZZZZZZZZZZ[[^[X}!",
"!!![sb]]^^^^^]]]]]]]]]]]]]]]]]]]]]]]]]]]]]]]]]]]]]]]]]]]]]]]]]]]]]]]]]]]]]]]]]]]]]]]]]]]]]]]]]]]]]]]]]]]]]]]]]]]]]]]]]]]]]]]]]]]]]]]]]]]]]]]]]]]]]]]]]]]]]]]]]]]]]]]]]]]]]]]]]]]]]]]]]]]]]]]]]]]]]]]]]]]]]]]]]]]]]]]]]]]]]]]]]]]]]]]]]]]]]]]]]]]]]]]]]]]]]]]]]]]]]]]]]]]]]]]]]]][[[[fsQ!",
"!!!!!eYYZ[[[ZZZZZZZZZZZZZZZZZZZZZZZZZZZZZZZZZZZZZZZZZZZZZZZZZZZZZZZZZZZZZZZZZZZZZZZZZZZZZZZZZZZZZZZZZZZZZZZZZZZZZZZZZZZZZZZZZZZZZZZZZZZZZZZZZZZZZZZZZZZZZZZZZZZZZZZZZZZZZZZZZZZZZZZZZZZZZZZZZZZZZZZZZZZZZZZZZZZZZZZZZZZZZZZZZZZZZZZZZZZZZZZZZZZZZZZZZZZZZZZZZZZZZZZZZZZZZZZZZZZZYYYXs!!!",
"!!!!!e|}~~~~~}}}}}}}}}}}}}}}}}}}}}}}}}}}}}}}}}}}}}}}}}}}}}}}}}}}}}}}}}}}}}}}}}}}}}}}}}}}}}}}}}}}}}}}}}}}}}}}}}}}}}}}}}}}}}}}}}}}}}}}}}}}}}}}}}}}}}}}}}}}}}}}}}}}}}}}}}}}}}}}}}}}}}}}}}}}}}}}}}}}}}}}}}}}}}}}}}}}}}}}}}}}}}}}}}}}}}}}}}}}}}}}}}}}}}}}}}}}}}}}}}}}}}}}}}}}}}}}}}}}}}}~Q!!!",
"!!!!!!!!!!!!!!!!!!!!!!!!!!!!!!!!!!!!!!!!!!!!!!!!!!!!!!!!!!!!!!!!!!!!!!!!!!!!!!!!!!!!!!!!!!!!!!!!!!!!!!!!!!!!!!!!!!!!!!!!!!!!!!!!!!!!!!!!!!!!!!!!!!!!!!!!!!!!!!!!!!!!!!!!!!!!!!!!!!!!!!!!!!!!!!!!!!!!!!!!!!!!!!!!!!!!!!!!!!!!!!!!!!!!!!!!!!!!!!!!!!!!!!!!!!!!!!!!!!!!!!!!!!!!!!!!!!!!!!!!"
};