/* XPM */
static char * Press_E_OPEN[] = {
"280 56 92 1",
"! c None",
"# c #ffffff",
"$ c #fefefe",
"% c #fcfcfc",
"& c #fbfbfb",
"' c #fafafa",
"( c #f6f6f6",
") c #f4f4f4",
"* c #f3f3f3",
"+ c #f2f2f2",
", c #eeeeee",
"- c #ebebeb",
". c #e9e9e9",
"/ c #e6e6e6",
"0 c #e4e4e4",
"1 c #e1e1e1",
"2 c #dcdcdc",
"3 c #dbdbdb",
"4 c #d8d8d8",
"5 c #d4d4d4",
"6 c #d0d0d0",
"7 c #cacaca",
"8 c #c8c8c8",
"9 c #c7c7c7",
": c #c5c5c5",
"; c #c3c3c3",
"< c #bdbdbd",
"= c #b7b7b7",
"> c #b5b5b5",
"? c #b4b4b4",
"@ c #b2b2b2",
"A c #aeaeae",
"B c #ababab",
"C c #a3a3a3",
"D c #9c9c9c",
"E c #9a9a9a",
"F c #929292",
"G c #8f8f8f",
"H c #8b8b8b",
"I c #898989",
"J c #878787",
"K c #838383",
"L c #7e7e7e",
"M c #787878",
"N c #747474",
"O c #707070",
"P c #6f6f6f",
"Q c #6c6c6c",
"R c #6b6b6b",
"S c #696969",
"T c #676767",
"U c #646464",
"V c #616161",
"W c #5e5e5e",
"X c #5d5d5d",
"Y c #5c5c5c",
"Z c #5a5a5a",
"[ c #585858",
"] c #575757",
"^ c #565656",
"_ c #555555",
"` c #545454",
"a c #515151",
"b c #4e4e4e",
"c c #4d4d4d",
"d c #4b4b4b",
"e c #474747",
"f c #444444",
"g c #434343",
"h c #424242",
"i c #3f3f3f",
"j c #3c3c3c",
"k c #383838",
"l c #363636",
"m c #313131",
"n c #303030",
"o c #2f2f2f",
"p c #2e2e2e",
"q c #2d2d2d",
"r c #2c2c2c",
"s c #2b2b2b",
"t c #2a2a2a",
"u c #282828",
"v c #262626",
"w c #242424",
"x c #232323",
"y c #222222",
"z c #212121",
"{ c #202020",
"| c #171717",
"} c #161616",
"~ c #151515",
"!!!!!!!!!!!!!!!!!!!!!!!!!!!!!!!!!!!!!!!!!!!!!!!!!!!!!!!!!!!!!!!!!!!!!!!!!!!!!!!!!!!!!!!!!!!!!!!!!!!!!!!!!!!!!!!!!!!!!!!!!!!!!!!!!!!!!!!!!!!!!!!!!!!!!!!!!!!!!!!!!!!!!!!!!!!!!!!!!!!!!!!!!!!!!!!!!!!!!!!!!!!!!!!!!!!!!!!!!!!!!!!!!!!!!!!!!!!!!!!!!!!!!!!!!!!!!!!!!!!!!!!!!!!!!!!!!!!!!!!!",
"!!!R}}}}}}}}}}}}}}}}}}}}}}}}}}}}}}}}}}}}}}}}}}}}}}}}}}}}}}}}}}}}}}}}}}}}}}}}}}}}}}}}}}}}}}}}}}}}}}}}}}}}}}}}}}}}}}}}}}}}}}}}}}}}}}}}}}}}}}}}}}}}}}}}}}}}}}}}}}}}}}}}}}}}}}}}}}}}}}}}}}}}}}}}}}}}}}}}}}}}}}}}}}}}}}}}}}}}}}}}}}}}}}}}}}}}}}}}}}}}}}}}}}}}}}}}}}}}}}}}}}}}}}}}}}}}}|h!!!!!",
"!!!r]^^^^^^^]]]]]]]]]]]]]]]]]]]]]]]]]]]]]]]]]]]]]]]]]]]]]]]]]]]]]]]]]]]]]]]]]]]]]]]]]]]]]]]]]]]]]]]]]]]]]]]]]]]]]]]]]]]]]]]]]]]]]]]]]]]]]]]]]]]]]]]]]]]]]]]]]]]]]]]]]]]]]]]]]]]]]]]]]]]]]]]]]]]]]]]]]]]]]]]]]]]]]]]]]]]]]]]]]]]]]]]]]]]]]]]]]]]]]]]]]]]]]]]]]]]]]]]]]]]]]]]]]]]]]]f!!!!!",
"!Rrh]_____________________________________________________________________________________________________________________________________________________________________________________________________________________________________________________________________________dr^!!!",
"!}[^_^_]]]]]]]]]]]]]]]]]]]]]]]]]]]]]]]]]]]]]]]]]]]]]]]]]]]]]]]]]]]]]]]]]]]]]]]]]]]]]]]]]]]]]]]]]]]]]]]]]]]]]]]]]]]]]]]]]]]]]]]]]]]]]]]]]]]]]]]]]]]]]]]]]]]]]]]]]]]]]]]]]]]]]]]]]]]]]]]]]]]]]]]]]]]]]]]]]]]]]]]]]]]]]]]]]]]]]]]]]]]]]]]]]]]]]]]]]]]]]]]]]]]]]]]]]]]]]]]]]]]]]]]]]]__^s!!!",
"!}]__^^trrrrrrrrrrrrrrrrrrrrrrrrrrrrrrrrrrrrrrrrrrrrrrrrrrrrrrrrrrrrrrrrrrrrrrrrrrrrrrrrrrrrrrrrrrrrrrrrrrrrrrrrrrrrrrrrrrrrrrrrrrrrrrrrrrrrrrrrrrrrrrrrrrrrrrrrrrrrrrrrrrrrrrrrrrrrrrrrrrrrrrrrrrrrrrrrrrrrrrrrrrrrrrrrrrrrrrrrrrrrrrrrrrrrrrrrrrrrrrrrrrrrrrrrrrrrrrrrrrrrrrrrq^_^dgf!",
"!}]__^`{zzzzzzzzzzzzzzzzzzzzzzzzzzzzzzzzzzzzzzzzzzzzzzzzzzzzzzzzzzzzzzzzzzzzzzzzzzzzzzzzzzzzzzzzzzzzzzzzzzzzzzzzzzzzzzzzzzzzzzzzzzzzzzzzzzzzzzzzzzzzzzzzzzzzzzzzzzzzzzzzzzzzzzzzzzzzzzzzzzzzzzzzzzzzzzzzzzzzzzzzzzzzzzzzzzzzzzzzzzzzzzzzzzzzzzzzzzzzzzzzzzzzzzzzzzzzzzzzzzzzzzzzz``^^Z|!",
"!}]_]rz{zzzzzzzzzzzzzzzzzzzzzzzzzzzzzzzzzzzzzzzzzzzzzzzzzzzzzzzzzzzzzzzzzzzzzzzzzzzzzzzzzzzzzzzzzzzzzzzzzzzzzzzzzzzzzzzzzzzzzzzzzzzzzzzzzzzzzzzzzzzzzzzzzzzzzzzzzzzzzzzzzzzzzzzzzzzzzzzzzzzzzzzzzzzzzzzzzzzzzzzzzzzzzzzzzzzzzzzzzzzzzzzzzzzzzzzzzzzzzzzzzzzzzzzzzzzzzzzzzzzzzzzzy{r^_[}!",
"!}]_^pyyzzzzzzzzzzzzzzzzzzzzzzzzzzzzzzzzzzzzzzzzzzzzzzzzzzzzzzzzzzzzzzzzzzzzzzzzzzzzzzzzzzzzzzzzzzzzzzzzzzzzzzzzzzzzzzzzzzzzzzzzzzzzzzzzzzzzzzzzzzzzzzzzzzzzzzzzzzzzzzzzzzzzzzzzzzzzzzzzzzzzzzzzzzzzzzzzzzzzzzzzzzzzzzzzzzzzzzzzzzzzzzzzzzzzzzzzzzzzzzzzzzzzzzzzzzzzzzzzzzzzzzzzyyq^_[}!",
"!}]_^pyyz{{{{{{{{{{{{{{{{{{{{{{{{{{{{{{{{{{{{{{{{{{{{{{{{{{{{{{{{{{{{{{{{{{{{{{{{{{{{{{{{{{{{{{{{{{{{{{{{{{{{{{{{{{{{{{{{{{{{{{{{{{{{{{{{{{{{{{{{{{{{{{{{{{{{{{{{{{{{{{{{{{{{{{{{{{{{{{{{{{{{{{{{{{{{{{{{{{{{{{{{{{{{{{{{{{{{{{{{{{{{{{{{{{{{{{{{{{{{{{{{zzzzzzzzzzzzzzzzzzzzzzzyyq^_[}!",
"!}]_^pyyz{{{{{{{{{{{{{{{{{{{{{{{{{{{{{{{{{{{{{{{{{{{{{{{{{{{{{{{{{{{{{{{{{{{{{{{{{{{{{{{{{{{{{{{{{{{{{{{{{{{{{{{{{{{{{{{{{{{{{{{{{{{{{{{{{{{{{{{{{{{{{{{{{{{{{{{{{{{{{{{{{{{{{{{{{{{{{{{{{{{{{{{{{{{{{{{{{{{{{{{{{{{{{{{{{{{{{{{{{{{{{{{{{{{{{{{{{{{{{{{{zzzzzzzzzzzzzzzzzzzzzzzyyq^_[}!",
"!}]_^pyyz{{{{{{{{{{{{{{{{{{{{{{{{{{{{{{{{{{{{{{{{{{{{{{{{{{{{{{{{{{{{{{{{{{{{{{{{{{{{{{{{{{{{{{{{{{{{{{{{{{{{{{{{{{{{{{{{{{{{{{{{{{{{{{{{{{{{{{{{{{{{{{{{{{{{{{{{{{{{{{{{{{{{{{{{{{{{{{{{{{{{{{{{{{{{{{{{{{{{{{{{{{{{{{{{{{{{{{{{{{{{{{{{{{{{{{{{{{{{{{{{zzzzzzzzzzzzzzzzzzzzzzzyyq^_[}!",
"!}]_^pyzz{{{{{{{{{{{{{{{{{{{{{{{{{{{{{{{{{{{{{{{{{{{{{{{{{{{{{{{{{{{{{{{{{{{{{{{{{{{{{{{{{{{{{{{{{{{{{{{{{{{{{{{{{{{{{{{{{{{{{{{{{{{{{{{{{{{{{{{{{{{{{{{{{{{{{{{{{{{{{{{{{{{{{{{{{{{{{{{{{{{{{{{{{{{{{{{{{{{{{{{{{{{{{{{{{{{{{{{{{{{{{{{{{{{{{{{{{{{{{{{{{zzzzzzzzzzzzzzzzzzzzzzzzq^_[}!",
"!}]_^pzzz{{{{{{{{{{{{{{{{{{{{{{{{{{{{{{{{{{{{{{{{{{{{{{{{{{{{{{{{{{{{{{{{{{{{{{{{{{{{{{{{{{{{{{{{{{{{{{{{{{{{{{{{{{{{{{{{{{{{{{{{{{{{{{{{{{{{{{{{{{{{{{{{{{{{{{{{{{{{{{{{{{{{{{{{{{{{{{{{{{{{{{{{{{{{{{{{{{{{{{{{{{{{{{{{{{{{{{{{{{{{{{{{{{{{{{{{{{{{{{{{{zzzzzzzzzzzzzzzzzzzzzzzzq^_[}!",
"!}]_^pzzz{{{{{{{{{{{{{{{{{{{{{{{{{{{{{{{{{{{{{{{{{{{{{{{{{{{{{{{{{{{{{{{{{{{{{{{{{{{{{{{{{{{{{{{{{{{{{{{{{{{{{{{{{{{{{{{{{{{{{{{{{{{{{{{{{{{{{{{{{{{{{{{{{{{{{{{{{{{{{{{{{{{{{{{{{{{{{{{{{{{{{{{{{{{{{{{{{{{{{{{{{{{{{{{{{{{{{{{{{{{{{{{{{{{{{{{{{{{{{{{{{zzzzzzzzzzzzzzzzzzzzzzzzq^_[}!",
"!}]_^pzzz{{{{{{{{{{{{{{{{{{{{{{{{{{{{{{{{{{{{{{{{{{{{{{{{{{{{{{{{{{{{{{{{{{{{{{{{{{{{{{{{{{{{{{{{{{{{{{{{{{{{{{{{{{{{{{{{{{{{{{{{{{{{{{{{{{{{{{{{{{{{{{{{{{{{{{{{{{{{{{{{{{{{{{{{{{{{{{{{{{{{{{{{{{{{{{{{{{{{{{{{{{{{{{{{{{{{{{{{{{{{{{{{{{{{{{{{{{{{{{{{{zzzzzzzzzzzzzzzzzzzzzzzzq^_[}!",
"!}]_^pzzz{{{{{{{{{{{{{{{{{{{{{{{{{{{{{{{{{{{{{{{{{{{{{{{{{{{{{{{{{{{{{{{{{{{{{{{{{{{{{{{{{{{{{{{{{{{{{{{{{{{{{{{{{{{{{{{{{{{{{{{{{{{{{{{{{{{{{{{{{{{{{{{{{{{{{{{{{{{{{{{{{{{{{{{{{{{{{{{{{{{{{{{{{{{{{{{{{{{{{{{{{{{{{{{{{{{{{{{{{{{{{{{{{{{{{{{{{{{{{{{{{zzzzzzzzzzzzzzzzzzzzzzzzq^_[}!",
"!}]_^pzzz{{{{{{{{{{{{{{{{{{{{{{{{{{{{{{{{{{{{{{{{{{{{{{{{{{{{{{{{{{{{{{{{{{{{{{{{{{{{{{{{{{{{{{{{{{{{{{{{{{{{{{{{{{{{{{{{{{{{{{{{{{{{{{{{{{{{{{{{{{{{{{{{{{{{{{{{{{{{{{{{{{{{{{{{{{{{{{{{{{{{{{{{{{{{{{{{{{{{{{{{{{{{{{{{{{{{{{{{{{{{{{{{{{{{{{{{{{{{{{{{{zzzzzzzzzzzzzzzzzzzzzzzzq^_[}!",
"!}]_^pzzz{{{{{{{{{{{{{{{{{{{{{{{{{{{{{{{{{{{{{{{{{{{{{{{{{{{{{{{{{{{{{{{{{{{{{{{{{{{{{{{{{{{{{{{{{{{{{{{{{{{{{{{{{{{{{{{{{{{{{{{{{{{{{{{{{{{{{{{{{{{{{{{{{{{{{{{{{{{{{{{{{{{{{{{{{{{{{{{{{{{{{{{{{{{{{{{{{{{{{{{{{{{{{{{{{{{{{{{{{{{{{{{{{{{{{{{{{{{{{{{{{zzzzzzzzzzzzzzzzzzzzzzzzq^_[}!",
"!}]_^pzzz{{{{{{{{{{{{{{{{{{{{{{{{{{{{{{{{{{{{{{{{{{{{{{{{{{{{{{{{{{{{{{{{{{{{{{{{{{{{{{{{{{{{{{{{{{{{{{{{{{{{{{{{{{{{{{{{{{{{{{{{{{{{{{{{{{{{{{{{{{{{{{{{{{{{{{{{{{{{{{{{{{{{{{{{{{{{{{{{{{{{{{{{{{{{{{{{{{{{{{{{{{{{{{{{{{{{{{{{{{{{{{{{{{{{{{{{{{{{{{{{{zzzzzzzzzzzzzzzzzzzzzzzzq^_[}!",
"!}]_^pzzz{{{{{{{{{{{{{{{{{{{{{{{{{{{{{{{{{{{{{{{{{{{{{{{{{{{{{{{{{{{{{{{{{{{{{{{{{{{{{{{{{{{{{{{{{{{{{{{{{{{{{{{{{{{{{{{{{{{{{{{{{{{{{{{{{{{{{{{{{{{{{{{{{{{{{{{{{{{{{{{{{{{{{{{{{{{{{{{{{{{{{{{{{{{{{{{{{{{{{{{{{{{{{{{{{{{{{{{{{{{{{{{{{{{{{{{{{{{{{{{{{zzzzzzzzzzzzzzzzzzzzzzzzq^_[}!",
"!}]_^pzzz{{{{{{{{{{{{{{{{{{{{{{{{{{{{{{{{{{{{{{{{{{{{{{{f[[[[[dm{{{{i[[[[[eo{{{{{k[[[[[[[[[g{{{{nUJMd{{{{{{kSJNh{{{{{{{{y[[[[[[[[[[y{{{{{{f[[[[[[[[[[h{{{{uaMKZq{{{{{{{{{{{{{{vbMJZo{{{{{f[[[[[dm{{{{i[[[[[[[[[i{w[[[f{{{{t[[[[b{{{{{{{{{{{{{{{{{{{{{{{{{{zzzzzzzzzzzzzzzzzzzzzzzzq^_[}!",
"!}]_^pzzz{{{{{{{{{{{{{{{{{{{{{{{{{{{{{{{{{{{{{{{{{{{{{{{T?##47-#-N{{WB##388.5V{{{aC%#18884#@{{{R'1D<$7p{{{L%4E;#<w{{{{{{xG1#'8888(#q{{{{{{?#687#$885#A{{{M(+=C1$Fx{{{{{{{{{{{O)*=C3#Ew{{{T?##47-#-N{{WC##38882#E{tF/#(l{{{lF-#9L{{{{{{{{{{{{{{{{{{{{{{{{{{zzzzzzzzzzzzzzzzzzzzzzzzq^_[}!",
"!}]_^pzzz{{{{{{{{{{{{{{{{{{{{{{{{{{{{{{{{{{{{{{{{{{{{{{{{{2#Y{{c-#X{{{7#Q{{v:$]{{{{A#I{{{y;={{d$<w{{L#K{{U#Cz{{D#S{{{{{{{{a#0{{{{T#m{{{{{{<={{u#'{{{<@{{E#Bw{{{O#;y{{{{{{{{{G#@w{{{S$9w{{{{2#Y{{c-#W{{{9#Q{{{u5D{{{V##<{{{{{O'u{{{{{{{{{{{{{{{{{{{{{{{{{{{zzzzzzzzzzzzzzzzzzzzzzzzq^_[}!",
"!}]_^pzzz{{{{{{{{{{{{{{{{{{{{{{{{{{{{{{{{{{{{{{{{{{{{{{{{{8#Y{{{J#@{{{?#P{{{U#;{{{{E#I{{{{M<{{F#T{{{k'[{{B#d{{{a+g{{{{{{{{i#0{{{{{'k{{{{{{;O{{u#'{{{M={_#1x{{{{{B#J{{{{{{{{b#.v{{{{{C#G{{{{:#Y{{{J#@{{{?#P{{{{GC{{{c#,#P{{{{X+{{{{{{{{{{{{{{{{{{{{{{{{{{{{zzzzzzzzzzzzzzzzzzzzzzzzq^_[}!",
"!}]_^pzzz{{{{{{{{{{{{{{{{{{{{{{{{{{{{{{{{{{{{{{{{{{{{{{{{{8#Y{{{U#2{{{?#P{{{c#-{{{{E#I{{{{me{{E#M{{{{{{{{>#Y{{{{{{{{{{{{{{i#0{{{{{au{{{{{{em{{u#'{{{me{?#H{{{{{{_#/y{{{{{{{B#F{{{{{{d#,x{{{:#Y{{{V#2{{{?#P{{{{kh{{{c#Q#,m{{{W*{{{{{{{{{{{{{{{{{{{{{{{{{{{{zzzzzzzzzzzzzzzzzzzzzzzzq^_[}!",
"!}]_^pzzz{{{{{{{{{{{{{{{{{{{{{{{{{{{{{{{{{{{{{{{{{{{{{{{{{8#Y{{{V#4{{{?#P{{{]#5{{{{D#I{{{{{{{{Q#5u{{{{{{{J#<x{{{{{{{{{{{{{i#/{{{{{{{{{{{{{{{{{t#&{{{{{{,#`{{{{{{x&#h{{{{{{{0#Y{{{{{{{)#d{{{:#Y{{{V#3{{{>#O{{{{{{{{{c#x<#@{{{W*{{{{{{{{{{{{{{{{{{{{{{{{{{{{zzzzzzzzzzzzzzzzzzzzzzzzq^_[}!",
"!}]_^pzzz{{{{{{{{{{{{{{{{{{{{{{{{{{{{{{{{{{{{{{{{{{{{{{{{{8#X{{{G#C{{{>#P{{{D#O{{{{D#I{{{{{{{{v4#,Ft{{{{{o/#0Kw{{{{{{{{{{{i#/{{{{{{{{{{{{{{{{{t#&{{{{{n##k{{{{{{{1#T{{{{{{u##i{{{{{{{4#P{{{9#X{{{H#C{{{>#O{{{{{{{{{c#xl+#V{{W*{{{{{{{{{{{{{{{{{{{{{{{{{{{{zzzzzzzzzzzzzzzzzzzzzzzzq^_[}!",
"!}]_^pzzz{{{{{{{{{{{{{{{{{{{{{{{{{{{{{{{{{{{{{{{{{{{{{{{{{8#Y{{n,*k{{{@#F[WA(H{{{{{D######V{{{{n9##(Ew{{{{j4##+Hz{{{{{{{{{i######<{{{{{{{{{{{{t#&{{{{{i##r{{{{{{{4#M{{{{{{l##l{{{{{{{6#L{{{:#Y{{n,*k{{{>######e{{{{c#x{N#-t{W*{{{{{{{{{{{{{{{{{{{{{{{{{{{{zzzzzzzzzzzzzzzzzzzzzzzzq^_[}!",
"!}]_^pzzz{{{{{{{{{{{{{{{{{{{{{{{{{{{{{{{{{{{{{{{{{{{{{{{{{8#AGB(8f{{{{?#38&#Z{{{{{{D#I{{{{{{{{{{zTB%#6q{{{{wO=##<v{{{{{{{{i#/{{{{{{{{{{{{{{{{{t#&{{{{{k##m{{{{{{{3#O{{{{{{m##k{{{{{{{6#M{{{:#AGB(8f{{{{>#O{{{{{{{{{c#x{{;#C{W*{{{{{{{{{{{{{{{{{{{{{{{{{{{{zzzzzzzzzzzzzzzzzzzzzzzzq^_[}!",
"!}]_^pzzz{{{{{{{{{{{{{{{{{{{{{{{{{{{{{{{{{{{{{{{{{{{{{{{{{8#AHTj{{{{{{=#P{E#5x{{{{{D#I{{{{{{{{{{{{{e3#={{{{{{{]-#E{{{{{{{{i#/{{{{{{{{{{{{{{{{{t#&{{{{{w$#i{{{{{{{.#[{{{{{{y(#e{{{{{{{1#W{{{:#AHTj{{{{{{>#O{{{{{{{{{c#x{{k)#^W*{{{{{{{{{{{{{{{{{{{{{{{{{{{{zzzzzzzzzzzzzzzzzzzzzzzzq^_[}!",
"!}]_^pzzz{{{{{{{{{{{{{{{{{{{{{{{{{{{{{{{{{{{{{{{{{{{{{{{{{8#X{{{{{{{{{=#P{u.#J{{{{{D#I{{{{{{{{{{{{{{k&%v{{{{{{{b#.{{{{{{{{i#/{{{{{{{{{{{{{{{{{t#&{{{{{{5#W{{{{{{t#$t{{{{{{{6#T{{{{{{w'#m{{{9#W{{{{{{{{{>#O{{{{{{{{{c#x{{{L#0T+{{{{{{{{{{{{{{{{{{{{{{{{{{{{zzzzzzzzzzzzzzzzzzzzzzzzq^_[}!",
"!}]_^pzzz{{{{{{{{{{{{{{{{{{{{{{{{{{{{{{{{{{{{{{{{{{{{{{{{{8#X{{{{{{{{{=#P{{R#'j{{{{D#I{{{{{Qc{TB{{{{{4#m{LE{{{{{)({{{{{{{{i#/{{{{{iL{{{{{{{{{{t#&{{{{{{H#D{{{{{{S#<{{{{{{{{K#C{{{{{{W#;{{{{9#W{{{{{{{{{>#P{{{{{Mi{{c#x{{{z7#5+{{{{{{{{{{{{{{{{{{{{{{{{{{{{zzzzzzzzzzzzzzzzzzzzzzzzq^_[}!",
"!}]_^pzzz{{{{{{{{{{{{{{{{{{{{{{{{{{{{{{{{{{{{{{{{{{{{{{{{{8#X{{{{{{{{{>#P{{{:#8{{{{E#I{{{{{3O{9,v{{{x+,y{04{{{{m#6{{{{{{{{i#0{{{{{L6{{{{{{{{{{u#&{{{{{{n)+m{{{{z7#c{{{{{{{{t,(l{{{{{;#`{{{{9#X{{{{{{{{{?#Q{{{{y)[{{c#x{{{{i'#+{{{{{{{{{{{{{{{{{{{{{{{{{{{{zzzzzzzzzzzzzzzzzzzzzzzzq^_[}!",
"!}]_^pzzz{{{{{{{{{{{{{{{{{{{{{{{{{{{{{{{{{{{{{{{{{{{{{{{{u/#K{{{{{{{{x3#F{{{i)#Fx{{:#I{{{{Q#S{G#Ez{rA#J{{B#L{{l;#R{{{{{{{{T#0{{{{m2;{{{{{{{{{{a##i{{{{{{T&6d{{lB#I{{{{{{{{{{X(5c{{mC#F{{{{u/#K{{{{{{{{x4#Q{{{{K#a{{N#e{{{{{J#+{{{{{{{{{{{{{{{{{{{{{{{{{{{{zzzzzzzzzzzzzzzzzzzzzzzzq^_[}!",
"!}]_^pzzz{{{{{{{{{{{{{{{{{{{{{{{{{{{{{{{{{{{{{{{{{{{{{{{F$###.K{{{{{K%###,d{{e,#4R'#########W{vB'16&,K{{{o=&45%0Q{{{{{{{w1#########<{{{{{{{{k2####5q{{{{{e6####1Z{{{{{{{{{{{{g7####/V{{{{F%###.K{{{{{L%#########en/###6{{{{x5+{{{{{{{{{{{{{{{{{{{{{{{{{{{{zzzzzzzzzzzzzzzzzzzzzzzzq^_[}!",
"!}]_^pzzz{{{{{{{{{{{{{{{{{{{{{{{{{{{{{{{{{{{{{{{{{{{{{{{{{{{{{{{{{{{{{{{{{{{{{{{{{{{{{{{{{{{{{{{t^[dz{{{{{{o[[e{{{{{{{{{{{{{{{{{{{{{{{{{{{{{{{{{{{{{{{{{{{{e[[az{{{{{{{{{{{{{{{g[[ay{{{{{{{{{{{{{{{{{{{{{{{{{{{{{{{{{{{{{{{{{{{{{{{{{{{{{{{{{{{{{{{{{{{{{{zzzzzzzzzzzzzzzzzzzzzzzzq^_[}!",
"!}]_^pzzz{{{{{{{{{{{{{{{{{{{{{{{{{{{{{{{{{{{{{{{{{{{{{{{{{{{{{{{{{{{{{{{{{{{{{{{{{{{{{{{{{{{{{{{{{{{{{{{{{{{{{{{{{{{{{{{{{{{{{{{{{{{{{{{{{{{{{{{{{{{{{{{{{{{{{{{{{{{{{{{{{{{{{{{{{{{{{{{{{{{{{{{{{{{{{{{{{{{{{{{{{{{{{{{{{{{{{{{{{{{{{{{{{{{{{{{{{{{{{{{{{zzzzzzzzzzzzzzzzzzzzzzzzq^_[}!",
"!}]_^pzzz{{{{{{{{{{{{{{{{{{{{{{{{{{{{{{{{{{{{{{{{{{{{{{{{{{{{{{{{{{{{{{{{{{{{{{{{{{{{{{{{{{{{{{{{{{{{{{{{{{{{{{{{{{{{{{{{{{{{{{{{{{{{{{{{{{{{{{{{{{{{{{{{{{{{{{{{{{{{{{{{{{{{{{{{{{{{{{{{{{{{{{{{{{{{{{{{{{{{{{{{{{{{{{{{{{{{{{{{{{{{{{{{{{{{{{{{{{{{{{{{{zzzzzzzzzzzzzzzzzzzzzzzzq^_[}!",
"!}]_^pzzz{{{{{{{{{{{{{{{{{{{{{{{{{{{{{{{{{{{{{{{{{{{{{{{{{{{{{{{{{{{{{{{{{{{{{{{{{{{{{{{{{{{{{{{{{{{{{{{{{{{{{{{{{{{{{{{{{{{{{{{{{{{{{{{{{{{{{{{{{{{{{{{{{{{{{{{{{{{{{{{{{{{{{{{{{{{{{{{{{{{{{{{{{{{{{{{{{{{{{{{{{{{{{{{{{{{{{{{{{{{{{{{{{{{{{{{{{{{{{{{{{zzzzzzzzzzzzzzzzzzzzzzzzq^_[}!",
"!}]_^pzzz{{{{{{{{{{{{{{{{{{{{{{{{{{{{{{{{{{{{{{{{{{{{{{{{{{{{{{{{{{{{{{{{{{{{{{{{{{{{{{{{{{{{{{{{{{{{{{{{{{{{{{{{{{{{{{{{{{{{{{{{{{{{{{{{{{{{{{{{{{{{{{{{{{{{{{{{{{{{{{{{{{{{{{{{{{{{{{{{{{{{{{{{{{{{{{{{{{{{{{{{{{{{{{{{{{{{{{{{{{{{{{{{{{{{{{{{{{{{{{{{{zzzzzzzzzzzzzzzzzzzzzzzzq^_[}!",
"!}]_^pzzz{{{{{{{{{{{{{{{{{{{{{{{{{{{{{{{{{{{{{{{{{{{{{{{{{{{{{{{{{{{{{{{{{{{{{{{{{{{{{{{{{{{{{{{{{{{{{{{{{{{{{{{{{{{{{{{{{{{{{{{{{{{{{{{{{{{{{{{{{{{{{{{{{{{{{{{{{{{{{{{{{{{{{{{{{{{{{{{{{{{{{{{{{{{{{{{{{{{{{{{{{{{{{{{{{{{{{{{{{{{{{{{{{{{{{{{{{{{{{{{{{zzzzzzzzzzzzzzzzzzzzzzzzq^_[}!",
"!}]_^pzzz{{{{{{{{{{{{{{{{{{{{{{{{{{{{{{{{{{{{{{{{{{{{{{{{{{{{{{{{{{{{{{{{{{{{{{{{{{{{{{{{{{{{{{{{{{{{{{{{{{{{{{{{{{{{{{{{{{{{{{{{{{{{{{{{{{{{{{{{{{{{{{{{{{{{{{{{{{{{{{{{{{{{{{{{{{{{{{{{{{{{{{{{{{{{{{{{{{{{{{{{{{{{{{{{{{{{{{{{{{{{{{{{{{{{{{{{{{{{{{{{{zzzzzzzzzzzzzzzzzzzzzzzzq^_[}!",
"!}]_^pzzz{{{{{{{{{{{{{{{{{{{{{{{{{{{{{{{{{{{{{{{{{{{{{{{{{{{{{{{{{{{{{{{{{{{{{{{{{{{{{{{{{{{{{{{{{{{{{{{{{{{{{{{{{{{{{{{{{{{{{{{{{{{{{{{{{{{{{{{{{{{{{{{{{{{{{{{{{{{{{{{{{{{{{{{{{{{{{{{{{{{{{{{{{{{{{{{{{{{{{{{{{{{{{{{{{{{{{{{{{{{{{{{{{{{{{{{{{{{{{{{{{zzzzzzzzzzzzzzzzzzzzzzzzq^_[}!",
"!}]_^pzzz{{{{{{{{{{{{{{{{{{{{{{{{{{{{{{{{{{{{{{{{{{{{{{{{{{{{{{{{{{{{{{{{{{{{{{{{{{{{{{{{{{{{{{{{{{{{{{{{{{{{{{{{{{{{{{{{{{{{{{{{{{{{{{{{{{{{{{{{{{{{{{{{{{{{{{{{{{{{{{{{{{{{{{{{{{{{{{{{{{{{{{{{{{{{{{{{{{{{{{{{{{{{{{{{{{{{{{{{{{{{{{{{{{{{{{{{{{{{{{{{{zzzzzzzzzzzzzzzzzzzzzzzzq^_[}!",
"!}]_^pzzzzzzzzzzzzzzzzzzzzzzzzzzz{{{{{{{{{{{{{{{{{{{{{{{{{{{{{{{{{{{{{{{{{{{{{{{{{{{{{{{{{{{{{{{{{{{{{{{{{{{{{{{{{{{{{{{{{{{{{{{{{{{{{{{{{{{{{{{{{{{{{{{{{{{{{{{{{{{{{{{{{{{{{{{{{{{{{{{{{{{{{{{{{{{{{{{{{{{{{{{{{{{{{{{{{{{{{{{{{{{{{{{{{{{{{{{{{{{{{{{{{zzzzzzzzzzzzzzzzzzzzzzzzq^_[}!",
"!}]_^pzzzzzzzzzzzzzzzzzzzzzzzzzzzzzzzzzzzzzzzzzzzzzzzyyzzz{{{zzzzzzzzzyyzyyzzzyyzzzzyyyyyyzzzzzzzzzyyzyyyyzzzzzzzzzzzyyyyyyzzz{{{zzzzz{{{z{{zzzyyzzzz{{zzzzzzzzzzzzzzzzzzzzzzzzzzzzzzzzzzzzzzzzzzzzzzzzzzzzzzzzzzzzzzzzzzzzzzzzzzzzzzzzzzzzzzzzzzzzzzzzzzzzzzzzzzzzzzzzzzzzzzzzzzzq^_[}!",
"!}]_^pzzzzzzzzzzzzzzzzzzzzzzzzzzzzzzzzzzzzzzzzzzzzzzzyyyyyzzzzzzzzzzzzyyyyyyyyyyyyyyyyyyyyyyyzzzzzzyyyyyyyyyyyyyzzzzzyyyyyyyyyzzzzzzzzzzzzzzzzzyyyyyyzzzzzzzzzzzzzzzzzzzzzzzzzzzzzzzzzzzzzzzzzzzzzzzzzzzzzzzzzzzzzzzzzzzzzzzzzzzzzzzzzzzzzzzzzzzzzzzzzzzzzzzzzzzzzzzzzzzzzzzzzzzzzq^_[}!",
"!}]_^t{zzzzzzzzzzzzzzzzzzzzzzzzzzzzzzzzzzzzzzzzzzzzzzyyyyyyyyyyyyyyyyyyyyyyyyyyyyyyyyyyyyyyyyzzzzzzyyyyyyyyyyyyyzzzzzyyyyyyyyyyyyyyyyyyyyyyyyyyyyyyyyyyyyyyzzzzzzzzzzzzzzzzzzzzzzzzzzzzzzzzzzzzzzzzzzzzzzzzzzzzzzzzzzzzzzzzzzzzzzzzzzzzzzzzzzzzzzzzzzzzzzzzzzzzzzzzzzzzzzzzzzzzzyzq^_[}!",
"!~]``_`zzzzzzzzzzzzzzzzzzzzzzzzzzzzzzzzzzzzzzzzzzzzzzyyyyyyyyyyyyyyyyyyyyyyyyyyyyyyyyyyyyyyyyzzzzzzzyyyyyyyyyyyyzzzzzyyyyyyyyyyyyyyyyyyyyyyyyyyyyyyyyyyyyyyzzzzzzzzzzzzzzzzzzzzzzzzzzzzzzzzzzzzzzzzzzzzzzzzzzzzzzzzzzzzzzzzzzzzzzzzzzzzzzzzzzzzzzzzzzzzzzzzzzzzzzzzzzzzzzzzzzzzzza^__[}!",
"!hfd__`sssssrqqqqqqqqqqqqqqqqqqqqqqqqqqqqqqqqqqqqqqqqqqqqqqqqqqqqqqqqqqqqqqqqqqqqqqqqqqqqqqqqqqqqqqqqqqqqqqqqqqqqqqqqqqqqqqqqqqqqqqqqqqqqqqqqqqqqqqqqqqqqqqqqqqqqqqqqqqqqqqqqqqqqqqqqqqqqqqqqqqqqqqqqqqqqqqqqqqqqqqqqqqqqqqqqqqqqqqqqqqqqqqqqqqqqqqqqqqqqqqqqqqqqqqqqqqqqqqqqqqqs`___[}!",
"!!!r___^____^]]]]]]]]]]]]]]]]]]]]]]]]]]]]]]]]]]]]]]]]]]]]]]]]]]]]]]]]]]]]]]]]]]]]]]]]]]]]]]]]]]]]]]]]]]]]]]]]]]]]]]]]]]]]]]]]]]]]]]]]]]]]]]]]]]]]]]]]]]]]]]]]]]]]]]]]]]]]]]]]]]]]]]]]]]]]]]]]]]]]]]]]]]]]]]]]]]]]]]]]]]]]]]]]]]]]]]]]]]]]]]]]]]]]]]]]]]]]]]]]]]]]]]]]]]]]]]]]]]]]^^`^Z}!",
"!!!^sd__`````___________________________________________________________________________________________________________________________________________________________________________________________________________________________________________________________________^^^^hsQ!",
"!!!!!e[[]^^^]]]]]]]]]]]]]]]]]]]]]]]]]]]]]]]]]]]]]]]]]]]]]]]]]]]]]]]]]]]]]]]]]]]]]]]]]]]]]]]]]]]]]]]]]]]]]]]]]]]]]]]]]]]]]]]]]]]]]]]]]]]]]]]]]]]]]]]]]]]]]]]]]]]]]]]]]]]]]]]]]]]]]]]]]]]]]]]]]]]]]]]]]]]]]]]]]]]]]]]]]]]]]]]]]]]]]]]]]]]]]]]]]]]]]]]]]]]]]]]]]]]]]]]]]]]]]]]]]]]][[[Zs!!!",
"!!!!!f|}~~~~~}}}}}}}}}}}}}}}}}}}}}}}}}}}}}}}}}}}}}}}}}}}}}}}}}}}}}}}}}}}}}}}}}}}}}}}}}}}}}}}}}}}}}}}}}}}}}}}}}}}}}}}}}}}}}}}}}}}}}}}}}}}}}}}}}}}}}}}}}}}}}}}}}}}}}}}}}}}}}}}}}}}}}}}}}}}}}}}}}}}}}}}}}}}}}}}}}}}}}}}}}}}}}}}}}}}}}}}}}}}}}}}}}}}}}}}}}}}}}}}}}}}}}}}}}}}}}}}}}}}}}}~Q!!!",
"!!!!!!!!!!!!!!!!!!!!!!!!!!!!!!!!!!!!!!!!!!!!!!!!!!!!!!!!!!!!!!!!!!!!!!!!!!!!!!!!!!!!!!!!!!!!!!!!!!!!!!!!!!!!!!!!!!!!!!!!!!!!!!!!!!!!!!!!!!!!!!!!!!!!!!!!!!!!!!!!!!!!!!!!!!!!!!!!!!!!!!!!!!!!!!!!!!!!!!!!!!!!!!!!!!!!!!!!!!!!!!!!!!!!!!!!!!!!!!!!!!!!!!!!!!!!!!!!!!!!!!!!!!!!!!!!!!!!!!!!"
};