/* XPM */
static char * Press_F_ESCAPE[] = {
"280 56 92 1",
"! c None",
"# c #ffffff",
"$ c #fff8f8",
"% c #fef7f7",
"& c #fdf6f6",
"' c #fcf5f5",
"( c #fbf4f4",
") c #faf4f4",
"* c #f9f2f2",
"+ c #f7f0f0",
", c #f6f0f0",
"- c #f4eeee",
". c #f0eaea",
"/ c #efe7e7",
"0 c #ece4e4",
"1 c #e8e2e2",
"2 c #e5dfdf",
"3 c #e4dede",
"4 c #e1dbdb",
"5 c #dfd9d9",
"6 c #dcd6d6",
"7 c #d9d3d3",
"8 c #d4cfcf",
"9 c #d2cccc",
": c #cec9c9",
"; c #cac5c5",
"< c #c5c0c0",
"= c #c2bdbd",
"> c #c0bbbb",
"? c #beb9b9",
"@ c #b9b5b5",
"A c #b5b1b1",
"B c #b0acac",
"C c #aaa6a6",
"D c #a8a4a4",
"E c #a4a0a0",
"F c #9c9898",
"G c #989595",
"H c #928e8e",
"I c #8c8888",
"J c #858181",
"K c #7f7c7c",
"L c #7c7979",
"M c #767373",
"N c #6f6d6d",
"O c #6a6868",
"P c #656363",
"Q c #626060",
"R c #605e5e",
"S c #5e5c5c",
"T c #5b5a5a",
"U c #5b5858",
"V c #585858",
"W c #595757",
"X c #575757",
"Y c #585656",
"Z c #565656",
"[ c #565556",
"] c #555555",
"^ c #545454",
"_ c #535252",
"` c #515050",
"a c #4e4c4c",
"b c #4a4949",
"c c #484646",
"d c #444444",
"e c #414040",
"f c #3f3e3e",
"g c #3c3b3b",
"h c #383838",
"i c #363535",
"j c #353434",
"k c #343333",
"l c #313131",
"m c #2f2e2e",
"n c #2e2e2e",
"o c #2e2d2d",
"p c #2d2d2d",
"q c #2c2c2c",
"r c #2b2b2b",
"s c #292828",
"t c #262626",
"u c #252525",
"v c #242424",
"w c #232323",
"x c #232222",
"y c #222222",
"z c #212121",
"{ c #202020",
"| c #171717",
"} c #161616",
"~ c #151515",
"!!!!!!!!!!!!!!!!!!!!!!!!!!!!!!!!!!!!!!!!!!!!!!!!!!!!!!!!!!!!!!!!!!!!!!!!!!!!!!!!!!!!!!!!!!!!!!!!!!!!!!!!!!!!!!!!!!!!!!!!!!!!!!!!!!!!!!!!!!!!!!!!!!!!!!!!!!!!!!!!!!!!!!!!!!!!!!!!!!!!!!!!!!!!!!!!!!!!!!!!!!!!!!!!!!!!!!!!!!!!!!!!!!!!!!!!!!!!!!!!!!!!!!!!!!!!!!!!!!!!!!!!!!!!!!!!!!!!!!!!",
"!!!O}}}}}}}}}}}}}}}}}}}}}}}}}}}}}}}}}}}}}}}}}}}}}}}}}}}}}}}}}}}}}}}}}}}}}}}}}}}}}}}}}}}}}}}}}}}}}}}}}}}}}}}}}}}}}}}}}}}}}}}}}}}}}}}}}}}}}}}}}}}}}}}}}}}}}}}}}}}}}}}}}}}}}}}}}}}}}}}}}}}}}}}}}}}}}}}}}}}}}}}}}}}}}}}}}}}}}}}}}}}}}}}}}}}}}}}}}}}}}}}}}}}}}}}}}}}}}}}}}}}}}}}}}}}}}|e!!!!!",
"!!!pXZZZZZZZXXXXXXXXXXXXXXXXXXXXXXXXXXXXXXXXXXXXXXXXXXXXXXXXXXXXXXXXXXXXXXXXXXXXXXXXXXXXXXXXXXXXXXXXXXXXXXXXXXXXXXXXXXXXXXXXXXXXXXXXXXXXXXXXXXXXXXXXXXXXXXXXXXXXXXXXXXXXXXXXXXXXXXXXXXXXXXXXXXXXXXXXXXXXXXXXXXXXXXXXXXXXXXXXXXXXXXXXXXXXXXXXXXXXXXXXXXXXXXXXXXXXXXXXXXXXXXXXXXXXXXd!!!!!",
"!OpeX]]]]]]]]]]]]]]]]]]]]]]]]]]]]]]]]]]]]]]]]]]]]]]]]]]]]]]]]]]]]]]]]]]]]]]]]]]]]]]]]]]]]]]]]]]]]]]]]]]]]]]]]]]]]]]]]]]]]]]]]]]]]]]]]]]]]]]]]]]]]]]]]]]]]]]]]]]]]]]]]]]]]]]]]]]]]]]]]]]]]]]]]]]]]]]]]]]]]]]]]]]]]]]]]]]]]]]]]]]]]]]]]]]]]]]]]]]]]]]]]]]]]]]]]]]]]]]]]]]]]]]]]]]]]]bqZ!!!",
"!}VZ]Z]XXXXXXXXXXXXXXXXXXXXXXXXXXXXXXXXXXXXXXXXXXXXXXXXXXXXXXXXXXXXXXXXXXXXXXXXXXXXXXXXXXXXXXXXXXXXXXXXXXXXXXXXXXXXXXXXXXXXXXXXXXXXXXXXXXXXXXXXXXXXXXXXXXXXXXXXXXXXXXXXXXXXXXXXXXXXXXXXXXXXXXXXXXXXXXXXXXXXXXXXXXXXXXXXXXXXXXXXXXXXXXXXXXXXXXXXXXXXXXXXXXXXXXXXXXXXXXXXXXXXXXXXXX]]Zr!!!",
"!}X]]ZZrqqqqqqqqqqqqqqqqqqqqqqqqqqqqqqqqqqqqqqqqqqqqqqqqqqqqqqqqqqqqqqqqqqqqqqqqqqqqqqqqqqqqqqqqqqqqqqqqqqqqqqqqqqqqqqqqqqqqqqqqqqqqqqqqqqqqqqqqqqqqqqqqqqqqqqqqqqqqqqqqqqqqqqqqqqqqqqqqqqqqqqqqqqqqqqqqqqqqqqqqqqqqqqqqqqqqqqqqqqqqqqqqqqqqqqqqqqqqqqqqqqqqqqqqqqqqqqqqqqqqqqqqpZ]Zbdd!",
"!}X]][^{zzzzzzzzzzzzzzzzzzzzzzzzzzzzzzzzzzzzzzzzzzzzzzzzzzzzzzzzzzzzzzzzzzzzzzzzzzzzzzzzzzzzzzzzzzzzzzzzzzzzzzzzzzzzzzzzzzzzzzzzzzzzzzzzzzzzzzzzzzzzzzzzzzzzzzzzzzzzzzzzzzzzzzzzzzzzzzzzzzzzzzzzzzzzzzzzzzzzzzzzzzzzzzzzzzzzzzzzzzzzzzzzzzzzzzzzzzzzzzzzzzzzzzzzzzzzzzzzzzzzzzzzz^^ZZV|!",
"!}X]Xqz{zzzzzzzzzzzzzzzzzzzzzzzzzzzzzzzzzzzzzzzzzzzzzzzzzzzzzzzzzzzzzzzzzzzzzzzzzzzzzzzzzzzzzzzzzzzzzzzzzzzzzzzzzzzzzzzzzzzzzzzzzzzzzzzzzzzzzzzzzzzzzzzzzzzzzzzzzzzzzzzzzzzzzzzzzzzzzzzzzzzzzzzzzzzzzzzzzzzzzzzzzzzzzzzzzzzzzzzzzzzzzzzzzzzzzzzzzzzzzzzzzzzzzzzzzzzzzzzzzzzzzzzzy{qZ]V}!",
"!}X]ZnyyzzzzzzzzzzzzzzzzzzzzzzzzzzzzzzzzzzzzzzzzzzzzzzzzzzzzzzzzzzzzzzzzzzzzzzzzzzzzzzzzzzzzzzzzzzzzzzzzzzzzzzzzzzzzzzzzzzzzzzzzzzzzzzzzzzzzzzzzzzzzzzzzzzzzzzzzzzzzzzzzzzzzzzzzzzzzzzzzzzzzzzzzzzzzzzzzzzzzzzzzzzzzzzzzzzzzzzzzzzzzzzzzzzzzzzzzzzzzzzzzzzzzzzzzzzzzzzzzzzzzzzzzyypZ]V}!",
"!}X]Znyyz{{{{{{{{{{{{{{{{{{{{{{{{{{{{{{{{{{{{{{{{{{{{{{{{{{{{{{{{{{{{{{{{{{{{{{{{{{{{{{{{{{{{{{{{{{{{{{{{{{{{{{{{{{{{{{{{{{{{{{{{{{{{{{{{{{{{{{{{{{{{{{{{{{{{{{{{{{{{{{{{{{{{{{{{{{{{{{{{{{{{{{{{{{{{{{{{{{{{{{{{{{{{{{{{{{{{{{{{{{{{{{{{{{{{{{{{{{{{{{{{zzzzzzzzzzzzzzzzzzzzzzzyypZ]V}!",
"!}X]Znyyz{{{{{{{{{{{{{{{{{{{{{{{{{{{{{{{{{{{{{{{{{{{{{{{{{{{{{{{{{{{{{{{{{{{{{{{{{{{{{{{{{{{{{{{{{{{{{{{{{{{{{{{{{{{{{{{{{{{{{{{{{{{{{{{{{{{{{{{{{{{{{{{{{{{{{{{{{{{{{{{{{{{{{{{{{{{{{{{{{{{{{{{{{{{{{{{{{{{{{{{{{{{{{{{{{{{{{{{{{{{{{{{{{{{{{{{{{{{{{{{{zzzzzzzzzzzzzzzzzzzzzzzyypZ]V}!",
"!}X]Znyyz{{{{{{{{{{{{{{{{{{{{{{{{{{{{{{{{{{{{{{{{{{{{{{{{{{{{{{{{{{{{{{{{{{{{{{{{{{{{{{{{{{{{{{{{{{{{{{{{{{{{{{{{{{{{{{{{{{{{{{{{{{{{{{{{{{{{{{{{{{{{{{{{{{{{{{{{{{{{{{{{{{{{{{{{{{{{{{{{{{{{{{{{{{{{{{{{{{{{{{{{{{{{{{{{{{{{{{{{{{{{{{{{{{{{{{{{{{{{{{{{zzzzzzzzzzzzzzzzzzzzzzzyypZ]V}!",
"!}X]Znyzz{{{{{{{{{{{{{{{{{{{{{{{{{{{{{{{{{{{{{{{{{{{{{{{{{{{{{{{{{{{{{{{{{{{{{{{{{{{{{{{{{{{{{{{{{{{{{{{{{{{{{{{{{{{{{{{{{{{{{{{{{{{{{{{{{{{{{{{{{{{{{{{{{{{{{{{{{{{{{{{{{{{{{{{{{{{{{{{{{{{{{{{{{{{{{{{{{{{{{{{{{{{{{{{{{{{{{{{{{{{{{{{{{{{{{{{{{{{{{{{{{zzzzzzzzzzzzzzzzzzzzzzzzpZ]V}!",
"!}X]Znzzz{{{{{{{{{{{{{{{{{{{{{{{{{{{{{{{{{{{{{{{{{{{{{{{{{{{{{{{{{{{{{{{{{{{{{{{{{{{{{{{{{{{{{{{{{{{{{{{{{{{{{{{{{{{{{{{{{{{{{{{{{{{{{{{{{{{{{{{{{{{{{{{{{{{{{{{{{{{{{{{{{{{{{{{{{{{{{{{{{{{{{{{{{{{{{{{{{{{{{{{{{{{{{{{{{{{{{{{{{{{{{{{{{{{{{{{{{{{{{{{{{zzzzzzzzzzzzzzzzzzzzzzzzpZ]V}!",
"!}X]Znzzz{{{{{{{{{{{{{{{{{{{{{{{{{{{{{{{{{{{{{{{{{{{{{{{{{{{{{{{{{{{{{{{{{{{{{{{{{{{{{{{{{{{{{{{{{{{{{{{{{{{{{{{{{{{{{{{{{{{{{{{{{{{{{{{{{{{{{{{{{{{{{{{{{{{{{{{{{{{{{{{{{{{{{{{{{{{{{{{{{{{{{{{{{{{{{{{{{{{{{{{{{{{{{{{{{{{{{{{{{{{{{{{{{{{{{{{{{{{{{{{{{zzzzzzzzzzzzzzzzzzzzzzzzpZ]V}!",
"!}X]Znzzz{{{{{{{{{{{{{{{{{{{{{{{{{{{{{{{{{{{{{{{{{{{{{{{{{{{{{{{{{{{{{{{{{{{{{{{{{{{{{{{{{{{{{{{{{{{{{{{{{{{{{{{{{{{{{{{{{{{{{{{{{{{{{{{{{{{{{{{{{{{{{{{{{{{{{{{{{{{{{{{{{{{{{{{{{{{{{{{{{{{{{{{{{{{{{{{{{{{{{{{{{{{{{{{{{{{{{{{{{{{{{{{{{{{{{{{{{{{{{{{{{zzzzzzzzzzzzzzzzzzzzzzzzpZ]V}!",
"!}X]Znzzz{{{{{{{{{{{{{{{{{{{{{{{{{{{{{{{{{{{{{{{{{{{{{{{{{{{{{{{{{{{{{{{{{{{{{{{{{{{{{{{{{{{{{{{{{{{{{{{{{{{{{{{{{{{{{{{{{{{{{{{{{{{{{{{{{{{{{{{{{{{{{{{{{{{{{{{{{{{{{{{{{{{{{{{{{{{{{{{{{{{{{{{{{{{{{{{{{{{{{{{{{{{{{{{{{{{{{{{{{{{{{{{{{{{{{{{{{{{{{{{{{zzzzzzzzzzzzzzzzzzzzzzzzpZ]V}!",
"!}X]Znzzz{{{{{{{{{{{{{{{{{{{{{{{{{{{{{{{{{{{{{{{{{{{{{{{{{{{{{{{{{{{{{{{{{{{{{{{{{{{{{{{{{{{{{{{{{{{{{{{{{{{{{{{{{{{{{{{{{{{{{{{{{{{{{{{{{{{{{{{{{{{{{{{{{{{{{{{{{{{{{{{{{{{{{{{{{{{{{{{{{{{{{{{{{{{{{{{{{{{{{{{{{{{{{{{{{{{{{{{{{{{{{{{{{{{{{{{{{{{{{{{{{zzzzzzzzzzzzzzzzzzzzzzzzpZ]V}!",
"!}X]Znzzz{{{{{{{{{{{{{{{{{{{{{{{{{{{{{{{{{{{{{{{{{{{{{{{{{{{{{{{{{{{{{{{{{{{{{{{{{{{{{{{{{{{{{{{{{{{{{{{{{{{{{{{{{{{{{{{{{{{{{{{{{{{{{{{{{{{{{{{{{{{{{{{{{{{{{{{{{{{{{{{{{{{{{{{{{{{{{{{{{{{{{{{{{{{{{{{{{{{{{{{{{{{{{{{{{{{{{{{{{{{{{{{{{{{{{{{{{{{{{{{{{zzzzzzzzzzzzzzzzzzzzzzzzpZ]V}!",
"!}X]Znzzz{{{{{{{{{{{{{{{{{{{{{{{{{{{{{{{{{{{{{{{{{{{{{{{{{{{{{{{{{{{{{{{{{{{{{{{{{{{{{{{{{{{{{{{{{{{{{{{{{{{{{{{{{{{{{{{{{{{{{{{{{{{{{{{{{{{{{{{{{{{{{{{{{{{{{{{{{{{{{{{{{{{{{{{{{{{{{{{{{{{{{{{{{{{{{{{{{{{{{{{{{{{{{{{{{{{{{{{{{{{{{{{{{{{{{{{{{{{{{{{{{zzzzzzzzzzzzzzzzzzzzzzzzpZ]V}!",
"!}X]Znzzz{{{{{{{{{{{{{{{{{{{{{{{{{{{{{{{{{{{{{tSSSSSTas{{{ySSSSSWer{{{{{WSSSSSSSSSr{{{{bLIMh{{{{{z_KJNl{{{{{{{{fSSSSSSSSSd{{{{{{`SSSSSSSSSSf{{{{mOJJOp{{{{{{{{{{dSSSSSSSSSg{{{{iNJKa{{{{{{{{cMJK]w{{{{{{{fSr{{{{{{YSSSSS_l{{{{_SSSSSSSSSl{{{{{{{{{{{{{{{{{zzzzzzzzzzzzzzzzzzzzzzzzpZ]V}!",
"!}X]Znzzz{{{{{{{{{{{{{{{{{{{{{{{{{{{{{{{{{{{{{mE1$.@?3)Co{vE4$,@@7)Bh{{{G7$$>>><,$c{{q?,BF5(K{{{i:.DF1-O{{{{{{{RA&$7>>>3$E{{{{{{9%:>;$->>4$H{{vG)4BB5+Iy{{{{{{{{N?$$8>>=1$I{{{I(=G=$@v{{{{a9+?D8$7i{{{{{{>$K{{{{{{H7$$@@7%=e{{I9$$<>>=-$S{{{{{{{{{{{{{{{{{zzzzzzzzzzzzzzzzzzzzzzzzpZ]V}!",
"!}X]Znzzz{{{{{{{{{{{{{{{{{{{{{{{{{{{{{{{{{{{{{{{Q$8{{zI$<{{{`$2{{{P%8s{{{h$%{{{{b%a{{C%`{{r4)t{{<,f{{i.2{{{{{{{{{@$L{{{v;C{{{{{{7G{{c$6{{w8G{z@$Hy{{zI$D{{{{{{{{{{8$Q{{{s5H{{O$H{{{C$P{{{`-8h{{y@$H{{{{{h-%:{{{{{{{k$$w{{Q'1o{{s*$j{{{g*P{{{{{{{{{{{{{{{{{zzzzzzzzzzzzzzzzzzzzzzzzpZ]V}!",
"!}X]Znzzz{{{{{{{{{{{{{{{{{{{{{{{{{{{{{{{{{{{{{{{`$8{{{w/$a{{f$2{{{{:$S{{{u$%{{{{{4^{z,5{{{{F;z{k$={{{{@B{{{{{{{{{D$L{{{{JB{{{{{{5W{{c$6{{{GF{N$={{{{{{=$Q{{{{{{{{{=$Q{{{{FG{{A$e{{{W0e{{u4'e{{{{T*R{{{{{J?8$e{{{{{{y$$w{{{>$K{{{/$j{{{{;O{{{{{{{{{{{{{{{{{zzzzzzzzzzzzzzzzzzzzzzzzpZ]V}!",
"!}X]Znzzz{{{{{{{{{{{{{{{{{{{{{{{{{{{{{{{{{{{{{{{`$8{{{{;$M{{f$2{{{{A$J{{{u$%{{{{{dq{w%1{{{{w{{{f$:{{{{w{{{{{{{{{{D$L{{{{le{{{{{{bs{{c$6{{{ig{:$O{{{{{{O$<{{{{{{{{{=$Q{{{{hg{{?$a{{{xz{{{O$={{{{{tn{{{{{{6MI$H{{{{{{y$$w{{{F$E{{{/$j{{{{el{{{{{{{{{{{{{{{{{zzzzzzzzzzzzzzzzzzzzzzzzpZ]V}!",
"!}X]Znzzz{{{{{{{{{{{{{{{{{{{{{{{{{{{{{{{{{{{{{{{`$8{{{{;$N{{f$2{{{{=$N{{{u$%{{{{{{{{{7$M{{{{{{{w.&T{{{{{{{{{{{{{{D$L{{{{{{{{{{{{{{{{c$6{{{{{q&$i{{{{{{h$(s{{{{{{{{=$Q{{{{{{{{H$Aw{{{{{{{C$H{{{{{{{{{{{{a*oe$3z{{{{{y$$w{{{F$E{{{/$j{{{{{{{{{{{{{{{{{{{{{{{zzzzzzzzzzzzzzzzzzzzzzzzpZ]V}!",
"!}X]Znzzz{{{{{{{{{{{{{{{{{{{{{{{{{{{{{{{{{{{{{{{`$8{{{w/$e{{f$2{{{l-3s{{{u$%{{{{{{{{{O%%Ce{{{{{{J$(Fh{{{{{{{{{{{{D$L{{{{{{{{{{{{{{{{c$6{{{{{a$)z{{{{{{y'$b{{{{{{{{=$Q{{{{{{{{h/$9Sz{{{{{8$M{{{{{{{{{{{{EA{{9$[{{{{{y$$w{{{?$N{{{/$j{{{{{{{{{{{{{{{{{{{{{{{zzzzzzzzzzzzzzzzzzzzzzzzpZ]V}!",
"!}X]Znzzz{{{{{{{{{{{{{{{{{{{{{{{{{{{{{{{{{{{{{{{`$8{{{K$B{{{f$0^YM7:e{{{{u$$,,,,:{{{{{M-$&?b{{{{{I*$(Bf{{{{{{{{{{D$?HHHHh{{{{{{{{{{{c$6{{{{{S$.{{{{{{{{-$U{{{{{{{{=$*,,,,h{{{{c6$$7Nz{{{3$O{{{{{{{{{{{t.R{{J$D{{{{{y$$w{{_'6t{{{/$+,,,3{{{{{{{{{{{{{{{{{{{zzzzzzzzzzzzzzzzzzzzzzzzpZ]V}!",
"!}X]Znzzz{{{{{{{{{{{{{{{{{{{{{{{{{{{{{{{{{{{{{{{`$1HG<(Es{{{f$+?8$9z{{{{{u$%wwwww{{{{{{kH/$'K{{{{{gE-$,O{{{{{{{{{D$@IIIIh{{{{{{{{{{{c$6{{{{{W$-{{{{{{{{,$^{{{{{{{{=$Pwwwwz{{{{{vM7$$@u{{4$N{{{{{{{{{{{O0w{{i'-s{{{{y$$HG@*>h{{{{/$hwwww{{{{{{{{{{{{{{{{{{{zzzzzzzzzzzzzzzzzzzzzzzzpZ]V}!",
"!}X]Znzzz{{{{{{{{{{{{{{{{{{{{{{{{{{{{{{{{{{{{{{{`$2JLPk{{{{{f$2{m0$N{{{{{u$%{{{{{{{{{{{{{rG%&`{{{{{{lC$*g{{{{{{{{D$L{{{{{{{{{{{{{{{{c$6{{{{{d$&v{{{{{{t%$e{{{{{{{{=$Q{{{{{{{{{{{{zO/$H{{;$K{{{{{{{{{{{?.::::*$O{{{{y$$JKNf{{{{{{/$j{{{{{{{{{{{{{{{{{{{{{{{zzzzzzzzzzzzzzzzzzzzzzzzpZ]V}!",
"!}X]Znzzz{{{{{{{{{{{{{{{{{{{{{{{{{{{{{{{{{{{{{{{`$8{{{{{{{{{f$2{{M$0l{{{{u$%{{{{{{{{{{{{{{{F$F{{{{{{{{@$J{{{{{{{{D$L{{{{{{{{{{{{{{{{c$6{{{{{w,$e{{{{{{d$.y{{{{{{{{=$Q{{{{{{{{{{{{{{U$4{{E$C{{{{{{{{{{j'O____I$?{{{{y$$w{{{{{{{{{/$j{{{{{{{{{{{{{{{{{{{{{{{zzzzzzzzzzzzzzzzzzzzzzzzpZ]V}!",
"!}X]Znzzz{{{{{{{{{{{{{{{{{{{{{{{{{{{{{{{{{{{{{{{`$8{{{{{{{{{f$2{{z:$C{{{{u$%{{{{{lJ{r:_{{{{R$D{h7h{{{{L$I{{{{{{{{D$L{{{{{{{{{{{{{{{{c$6{{{{{{B$K{{{{{{K$D{{{{{{{{{=$Q{{{{{Kh{FH{{{{z&0{{U$0s{{{{{{{{{J8{{{{{r,'k{{{y$$w{{{{{{{{{/$j{{{{uIw{{{{{{{{{{{{{{{{zzzzzzzzzzzzzzzzzzzzzzzzpZ]V}!",
"!}X]Znzzz{{{{{{{{{{{{{{{{{{{{{{{{{{{{{{{{{{{{{{{`$8{{{{{{{{{f$2{{{b'%U{{{t$%{{{{{R1{_$I{{{{L$L{N$N{{{{G$Q{{{{{{{{D$L{{{{{{{{{{{{{{{{c$6{{{{{{b(4r{{{{r4,f{{{{{{{{{=$Q{{{{v,a{.:{{{{h$?{{z;$G{{{{{_P{{7I{{{{{{A$J{{{w$$w{{{{{{{{{/$j{{{{c%z{{{{{{{{{{{{{{{{zzzzzzzzzzzzzzzzzzzzzzzzpZ]V}!",
"!}X]Znzzz{{{{{{{{{{{{{{{{{{{{{{{{{{{{{{{{{{{{{{{K$/p{{{{{{{{O$+j{{{F$1e{{a$%{{{{h;4{q..a{{c16s{f)3f{{[-<y{{{{{{{w:$D{{{{{{{{{{{{{{{{N$-k{{{{{{M&<d{{d;(O{{{{{{{{{s4$Q{{{sH$d{@$K{{l?*a{{{f2$BWf`G+P{Q$J{{{{{{B$6t{{a$$b{{{{{{{{g'$j{{{l@,{{{{{{{{{{{{{{{{{zzzzzzzzzzzzzzzzzzzzzzzzpZ]V}!",
"!}X]Znzzz{{{{{{{{{{{{{{{{{{{{{{{{{{{{{{{{{{{{{i4%$$-6k{{{{t4'$$,A{{tE1+M:)$$%%%%$$7{{_8&74-Dl{{{Q5(82.Fr{{{{{{{K/$$$1E{{{{{{{{{{{{^4&$$,9{{{{{{^<'..)?a{{{{{{{{{H.$$%%%%$$$g{lA(27-;a{{{{{kD-$$$5M{B)$&4i{{f1$$$/R;($$)5T{{{{{?+$$%%%%$$/{{{{{{{{{{{{{{{{{zzzzzzzzzzzzzzzzzzzzzzzzpZ]V}!",
"!}X]Znzzz{{{{{{{{{{{{{{{{{{{{{{{{{{{{{{{{{{{{{{{{{{{{{{{{{{{{{{{{{{{{{{{{{{{{{{{{{{{{{{kcew{{{{{{{hcfy{{{{{{{{{{{{{{{{{{{{{{{{{{{{{{{{{{{{{{{{{{{rees{{{{{{{{{{{{{{{{{{{{{{{{{{sddr{{{{{{{{{ufcj{{{{{{{{{{{{{{{{{{{{{{{{{{{{{{{{{{{{{{{{{{{{{{{{{{{{{{{{{{zzzzzzzzzzzzzzzzzzzzzzzzpZ]V}!",
"!}X]Znzzz{{{{{{{{{{{{{{{{{{{{{{{{{{{{{{{{{{{{{{{{{{{{{{{{{{{{{{{{{{{{{{{{{{{{{{{{{{{{{{{{{{{{{{{{{{{{{{{{{{{{{{{{{{{{{{{{{{{{{{{{{{{{{{{{{{{{{{{{{{{{{{{{{{{{{{{{{{{{{{{{{{{{{{{{{{{{{{{{{{{{{{{{{{{{{{{{{{{{{{{{{{{{{{{{{{{{{{{{{{{{{{{{{{{{{{{{{{{{{{{{{zzzzzzzzzzzzzzzzzzzzzzzzpZ]V}!",
"!}X]Znzzz{{{{{{{{{{{{{{{{{{{{{{{{{{{{{{{{{{{{{{{{{{{{{{{{{{{{{{{{{{{{{{{{{{{{{{{{{{{{{{{{{{{{{{{{{{{{{{{{{{{{{{{{{{{{{{{{{{{{{{{{{{{{{{{{{{{{{{{{{{{{{{{{{{{{{{{{{{{{{{{{{{{{{{{{{{{{{{{{{{{{{{{{{{{{{{{{{{{{{{{{{{{{{{{{{{{{{{{{{{{{{{{{{{{{{{{{{{{{{{{{{zzzzzzzzzzzzzzzzzzzzzzzzpZ]V}!",
"!}X]Znzzz{{{{{{{{{{{{{{{{{{{{{{{{{{{{{{{{{{{{{{{{{{{{{{{{{{{{{{{{{{{{{{{{{{{{{{{{{{{{{{{{{{{{{{{{{{{{{{{{{{{{{{{{{{{{{{{{{{{{{{{{{{{{{{{{{{{{{{{{{{{{{{{{{{{{{{{{{{{{{{{{{{{{{{{{{{{{{{{{{{{{{{{{{{{{{{{{{{{{{{{{{{{{{{{{{{{{{{{{{{{{{{{{{{{{{{{{{{{{{{{{{zzzzzzzzzzzzzzzzzzzzzzzzpZ]V}!",
"!}X]Znzzz{{{{{{{{{{{{{{{{{{{{{{{{{{{{{{{{{{{{{{{{{{{{{{{{{{{{{{{{{{{{{{{{{{{{{{{{{{{{{{{{{{{{{{{{{{{{{{{{{{{{{{{{{{{{{{{{{{{{{{{{{{{{{{{{{{{{{{{{{{{{{{{{{{{{{{{{{{{{{{{{{{{{{{{{{{{{{{{{{{{{{{{{{{{{{{{{{{{{{{{{{{{{{{{{{{{{{{{{{{{{{{{{{{{{{{{{{{{{{{{{{zzzzzzzzzzzzzzzzzzzzzzzzpZ]V}!",
"!}X]Znzzz{{{{{{{{{{{{{{{{{{{{{{{{{{{{{{{{{{{{{{{{{{{{{{{{{{{{{{{{{{{{{{{{{{{{{{{{{{{{{{{{{{{{{{{{{{{{{{{{{{{{{{{{{{{{{{{{{{{{{{{{{{{{{{{{{{{{{{{{{{{{{{{{{{{{{{{{{{{{{{{{{{{{{{{{{{{{{{{{{{{{{{{{{{{{{{{{{{{{{{{{{{{{{{{{{{{{{{{{{{{{{{{{{{{{{{{{{{{{{{{{{zzzzzzzzzzzzzzzzzzzzzzzzpZ]V}!",
"!}X]Znzzz{{{{{{{{{{{{{{{{{{{{{{{{{{{{{{{{{{{{{{{{{{{{{{{{{{{{{{{{{{{{{{{{{{{{{{{{{{{{{{{{{{{{{{{{{{{{{{{{{{{{{{{{{{{{{{{{{{{{{{{{{{{{{{{{{{{{{{{{{{{{{{{{{{{{{{{{{{{{{{{{{{{{{{{{{{{{{{{{{{{{{{{{{{{{{{{{{{{{{{{{{{{{{{{{{{{{{{{{{{{{{{{{{{{{{{{{{{{{{{{{{zzzzzzzzzzzzzzzzzzzzzzzzpZ]V}!",
"!}X]Znzzz{{{{{{{{{{{{{{{{{{{{{{{{{{{{{{{{{{{{{{{{{{{{{{{{{{{{{{{{{{{{{{{{{{{{{{{{{{{{{{{{{{{{{{{{{{{{{{{{{{{{{{{{{{{{{{{{{{{{{{{{{{{{{{{{{{{{{{{{{{{{{{{{{{{{{{{{{{{{{{{{{{{{{{{{{{{{{{{{{{{{{{{{{{{{{{{{{{{{{{{{{{{{{{{{{{{{{{{{{{{{{{{{{{{{{{{{{{{{{{{{{zzzzzzzzzzzzzzzzzzzzzzzzpZ]V}!",
"!}X]Znzzz{{{{{{{{{{{{{{{{{{{{{{{{{{{{{{{{{{{{{{{{{{{{{{{{{{{{{{{{{{{{{{{{{{{{{{{{{{{{{{{{{{{{{{{{{{{{{{{{{{{{{{{{{{{{{{{{{{{{{{{{{{{{{{{{{{{{{{{{{{{{{{{{{{{{{{{{{{{{{{{{{{{{{{{{{{{{{{{{{{{{{{{{{{{{{{{{{{{{{{{{{{{{{{{{{{{{{{{{{{{{{{{{{{{{{{{{{{{{{{{{{zzzzzzzzzzzzzzzzzzzzzzzzpZ]V}!",
"!}X]Znzzz{{{{{{{{{{{{{{{{{{{{{{{{{{{{{{{{{{{{{{{{{{{{{{{{{{{{{{{{{{{{{{{{{{{{{{{{{{{{{{{{{{{{{{{{{{{{{{{{{{{{{{{{{{{{{{{{{{{{{{{{{{{{{{{{{{{{{{{{{{{{{{{{{{{{{{{{{{{{{{{{{{{{{{{{{{{{{{{{{{{{{{{{{{{{{{{{{{{{{{{{{{{{{{{{{{{{{{{{{{{{{{{{{{{{{{{{{{{{{{{{{zzzzzzzzzzzzzzzzzzzzzzzzpZ]V}!",
"!}X]Znzzzzzzzzzzzzzzzzzzzzzzzzzzz{{{{{{{{{{{{{{{{{{{{{{{{{{{{{{{{{{{{{{{{{{{{{{{{{{{{{{{{{{{{{{{{{{{{{{{{{{{{{{{{{{{{{{{{{{{{{{{{{{{{{{{{{{{{{{{{{{{{{{{{{{{{{{{{{{{{{{{{{{{{{{{{{{{{{{{{{{{{{{{{{{{{{{{{{{{{{{{{{{{{{{{{{{{{{{{{{{{{{{{{{{{{{{{{{{{{{{{{{zzzzzzzzzzzzzzzzzzzzzzzzpZ]V}!",
"!}X]Znzzzzzzzzzzzzzzzzzzzzzzzzzzzzzzzzzzzzzzzzzzzzzzzyyzzz{{{zzzzzzzzzyyzyyzzzyyzzzzyyyyyyzzzzzzzzzyyzyyyyzzzzzzzzzzzyyyyyyzzz{{{zzzzz{{{z{{zzzyyzzzz{{zzzzzzzzzzzzzzzzzzzzzzzzzzzzzzzzzzzzzzzzzzzzzzzzzzzzzzzzzzzzzzzzzzzzzzzzzzzzzzzzzzzzzzzzzzzzzzzzzzzzzzzzzzzzzzzzzzzzzzzzzzzpZ]V}!",
"!}X]ZnzzzzzzzzzzzzzzzzzzzzzzzzzzzzzzzzzzzzzzzzzzzzzzzyyyyyzzzzzzzzzzzzyyyyyyyyyyyyyyyyyyyyyyyzzzzzzyyyyyyyyyyyyyzzzzzyyyyyyyyyzzzzzzzzzzzzzzzzzyyyyyyzzzzzzzzzzzzzzzzzzzzzzzzzzzzzzzzzzzzzzzzzzzzzzzzzzzzzzzzzzzzzzzzzzzzzzzzzzzzzzzzzzzzzzzzzzzzzzzzzzzzzzzzzzzzzzzzzzzzzzzzzzzzzpZ]V}!",
"!}X]Zr{zzzzzzzzzzzzzzzzzzzzzzzzzzzzzzzzzzzzzzzzzzzzzzyyyyyyyyyyyyyyyyyyyyyyyyyyyyyyyyyyyyyyyyzzzzzzyyyyyyyyyyyyyzzzzzyyyyyyyyyyyyyyyyyyyyyyyyyyyyyyyyyyyyyyzzzzzzzzzzzzzzzzzzzzzzzzzzzzzzzzzzzzzzzzzzzzzzzzzzzzzzzzzzzzzzzzzzzzzzzzzzzzzzzzzzzzzzzzzzzzzzzzzzzzzzzzzzzzzzzzzzzzzyzpZ]V}!",
"!}X^^]^zzzzzzzzzzzzzzzzzzzzzzzzzzzzzzzzzzzzzzzzzzzzzzyyyyyyyyyyyyyyyyyyyyyyyyyyyyyyyyyyyyyyyyzzzzzzzyyyyyyyyyyyyzzzzzyyyyyyyyyyyyyyyyyyyyyyyyyyyyyyyyyyyyyyzzzzzzzzzzzzzzzzzzzzzzzzzzzzzzzzzzzzzzzzzzzzzzzzzzzzzzzzzzzzzzzzzzzzzzzzzzzzzzzzzzzzzzzzzzzzzzzzzzzzzzzzzzzzzzzzzzzzzz_Z]]V}!",
"!eda]]^rrrrrqpppppppppppppppppppppppppppppppppppppppppppppppppppppppppppppppppppppppppppppppppppppppppppppppppppppppppppppppppppppppppppppppppppppppppppppppppppppppppppppppppppppppppppppppppppppppppppppppppppppppppppppppppppppppppppppppppppppppppppppppppppppppppppppppppppr^]]]V}!",
"!!!q]]]Z]]]]ZXXXXXXXXXXXXXXXXXXXXXXXXXXXXXXXXXXXXXXXXXXXXXXXXXXXXXXXXXXXXXXXXXXXXXXXXXXXXXXXXXXXXXXXXXXXXXXXXXXXXXXXXXXXXXXXXXXXXXXXXXXXXXXXXXXXXXXXXXXXXXXXXXXXXXXXXXXXXXXXXXXXXXXXXXXXXXXXXXXXXXXXXXXXXXXXXXXXXXXXXXXXXXXXXXXXXXXXXXXXXXXXXXXXXXXXXXXXXXXXXXXXXXXXXXXXXXXXXXXXXZZ^ZV}!",
"!!!Zra]]^^^^^]]]]]]]]]]]]]]]]]]]]]]]]]]]]]]]]]]]]]]]]]]]]]]]]]]]]]]]]]]]]]]]]]]]]]]]]]]]]]]]]]]]]]]]]]]]]]]]]]]]]]]]]]]]]]]]]]]]]]]]]]]]]]]]]]]]]]]]]]]]]]]]]]]]]]]]]]]]]]]]]]]]]]]]]]]]]]]]]]]]]]]]]]]]]]]]]]]]]]]]]]]]]]]]]]]]]]]]]]]]]]]]]]]]]]]]]]]]]]]]]]]]]]]]]]]]]]]]]]]]ZZZZeqN!",
"!!!!!cVVXZZZXXXXXXXXXXXXXXXXXXXXXXXXXXXXXXXXXXXXXXXXXXXXXXXXXXXXXXXXXXXXXXXXXXXXXXXXXXXXXXXXXXXXXXXXXXXXXXXXXXXXXXXXXXXXXXXXXXXXXXXXXXXXXXXXXXXXXXXXXXXXXXXXXXXXXXXXXXXXXXXXXXXXXXXXXXXXXXXXXXXXXXXXXXXXXXXXXXXXXXXXXXXXXXXXXXXXXXXXXXXXXXXXXXXXXXXXXXXXXXXXXXXXXXXXXXXXXXXXXXXXVVVVq!!!",
"!!!!!d|}~~~~~}}}}}}}}}}}}}}}}}}}}}}}}}}}}}}}}}}}}}}}}}}}}}}}}}}}}}}}}}}}}}}}}}}}}}}}}}}}}}}}}}}}}}}}}}}}}}}}}}}}}}}}}}}}}}}}}}}}}}}}}}}}}}}}}}}}}}}}}}}}}}}}}}}}}}}}}}}}}}}}}}}}}}}}}}}}}}}}}}}}}}}}}}}}}}}}}}}}}}}}}}}}}}}}}}}}}}}}}}}}}}}}}}}}}}}}}}}}}}}}}}}}}}}}}}}}}}}}}}}}}}}~O!!!",
"!!!!!!!!!!!!!!!!!!!!!!!!!!!!!!!!!!!!!!!!!!!!!!!!!!!!!!!!!!!!!!!!!!!!!!!!!!!!!!!!!!!!!!!!!!!!!!!!!!!!!!!!!!!!!!!!!!!!!!!!!!!!!!!!!!!!!!!!!!!!!!!!!!!!!!!!!!!!!!!!!!!!!!!!!!!!!!!!!!!!!!!!!!!!!!!!!!!!!!!!!!!!!!!!!!!!!!!!!!!!!!!!!!!!!!!!!!!!!!!!!!!!!!!!!!!!!!!!!!!!!!!!!!!!!!!!!!!!!!!!"
};