/* XPM */
static char * Enemy_monster3[] = {
"128 128 92 1",
"! c None",
"# c #ffffff",
"$ c #fffffe",
"% c #feffff",
"& c #fffefe",
"' c #fefeff",
"( c #fefefe",
") c #fefefd",
"* c #fdfdfd",
"+ c #fcfbfc",
", c #f9f9f9",
"- c #f6f5f5",
". c #f2f1f1",
"/ c #f0efef",
"0 c #eceaea",
"1 c #e4e2e2",
"2 c #dbd8d8",
"3 c #d0cccb",
"4 c #c7c3c2",
"5 c #c1b9b8",
"6 c #bfadaa",
"7 c #ada8a7",
"8 c #af9c9b",
"9 c #ac9391",
": c #9f9798",
"; c #a38a88",
"< c #90888a",
"= c #998280",
"> c #977d7b",
"? c #8b7e80",
"@ c #927776",
"A c #88777a",
"B c #8b7070",
"C c #807779",
"D c #7c7073",
"E c #7f6a6b",
"F c #736a6e",
"G c #7f6563",
"H c #756569",
"I c #785e5f",
"J c #6e6367",
"K c #6e5b5c",
"L c #676267",
"M c #675d61",
"N c #645a5f",
"O c #655759",
"P c #5d565c",
"Q c #695254",
"R c #615053",
"S c #5d5154",
"T c #57525c",
"U c #575155",
"V c #564e52",
"W c #62494c",
"X c #584a4c",
"Y c #53494c",
"Z c #574445",
"[ c #563f41",
"] c #4e494e",
"^ c #4d464c",
"_ c #4e4447",
"` c #494448",
"a c #4c4143",
"b c #484145",
"c c #454046",
"d c #4a3d40",
"e c #453d40",
"f c #47393a",
"g c #413b3f",
"h c #3e383c",
"i c #4b3334",
"j c #433132",
"k c #3e3335",
"l c #3f2c2d",
"m c #3a3438",
"n c #3a3136",
"o c #3a2d2e",
"p c #363137",
"q c #342e33",
"r c #322c30",
"s c #32282b",
"t c #2c282c",
"u c #352325",
"v c #2e2021",
"w c #292124",
"x c #252125",
"y c #221c1f",
"z c #281718",
"{ c #221719",
"| c #1b1719",
"} c #1c0f10",
"~ c #150808",
"!!!!!!!!!!!!!!!!!!!!!!!!!!!!!!!!!!!!!!!!!!!!!!!!!!!!!!!!!!!!!!!!!!!!!!!!!!!!!!!!!!!!!!!!!!!!!!!!!!!!!!!!!!!!!!!!!!!!!!!!!!!!!!!!",
"!!!!!!!!!!!!!!!!!!!!!!!!!!!!!!!!!!!!!!!!!!!!!!!!!!!!!!!!!!!!!!!!!!!!!!!!!!!!!!!!!!!!!!!!!!!!!!!!!!!!!!!!!!!!!!!!!!!!!!!!!!!!!!!!",
"!!!!!!!!!!!!!!!!!!!!!!!!!!!!!!!!!!!!!!!!!!!!!!!!!!!!!!!!!!!!!!!!!!!!!!!!!!!!!!!!!!!!!!!!!!!!!!!!!!!!!!!!!!!!!!!!!!!!!!!!!!!!!!!!",
"!!!!!!!!!!!!!!!!!!!!!!!!!!!!!!!!!!!!!!!!!!!!!!!!!!!!!!!!!!!!!!!!!!!!!!!!!!!!!!!!!!!!!!!!!!!!!!!!!!!!!!!!!!!!!!!!!!!!!!!!!!!!!!!!",
"!!!!!!!!!!!!!!!!!!!!!!!!!!!!!!!!!!!!!!!!!!!!!!!!!!!!!!!!!!!!!!!!!!!!!!!!!!!!!!!!!!!!!!!!!!!!!!!!!!!!!!!!!!!!!!!!!!!!!!!!!!!!!!!!",
"!!!!!!!!!!!!!!!!!!!!!!!!!!!!!!!!!!!!!!!!!!!!!!!!!!!!!!!!!!!!!!!!!!!!!!!!!!!!!!!!!!!!!!!!!!!!!!!!!!!!!!!!!!!!!!!!!!!!!!!!!!!!!!!!",
"!!!!!!!!!!!!!!!!!!!!!!!!!!!!!!!!!!!!!!!!!!!!!!!!!!!!!!!!!!!!!!!!!!!!!!!!!!!!!!!!!!!!!!!!!!!!!!!!!!!!!!!!!!!!!!!!!!!!!!!!!!!!!!!!",
"!!!!!!!!!!!!!!!!!!!!!!!!!!!!!!!!!!!!!!!!!!!!!!!!!!!!!!!!!!!!!!!!!!!!!!!!!!!!!!!!!!!!!!!!!!!!!!!!!!!!!!!!!!!!!!!!!!!!!!!!!!!!!!!!",
"!!!!!!!!!!!!!!!!!!!!!!!!!!!!!!!!!!!!!!!!!!!!!!!!!!!!!!!!!!!!!!!!!!!!!!!!!!!!!!!!!!!!!!!!!!!!!!!!!!!!!!!!!!!!!!!!!!!!!!!!!!!!!!!!",
"!!!!!!!!!!!!!!!!!!!!!!!!!!!!!!!!!!!!!!!!!!!!!!!!!!!!!!!!!!!!!!!!!!!!!!!!!!!!!!!!!!!!!!!!!!!!!!!!!!!!!!!!!!!!!!!!!!!!!!!!!!!!!!!!",
"!!!!!!!!!!!!!!!!!!!!!!!!!!!!!!!!!!!!!!!!!!!!!!!!!!!!!!!!!!!!!!!!!!!!!!!!!!!!!!!!!!!!!!!!!!!!!!!!!!!!!!!!!!!!!!!!!!!!!!!!!!!!!!!!",
"!!!!!!!!!!!!!!!!!!!!!!!!!!!!!!!!!!!!!!!!!!!!!!!!!!!!!!!!!!!!!!!!!!!!!!!!!!!!!!!!!!!!!!!!!!!!!!!!!!!!!!!!!!!!!!!!!!!!!!!!!!!!!!!!",
"!!!!!!!!!!!!!!!!!!!!!!!!!!!!!!!!!!!!!!!!!!!!!!!!!!!!!!!!!!!!!!!!!!!!!!!!!!!!!!!!!!!!!!!!!!!!!!!!!!!!!!!!!!!!!!!!!!!!!!!!!!!!!!!!",
"!!!!!!!!!!!!!!!!!!!!!!!!!!!!!!!!!!!!!!!!!!!!!!!!!!!!!!!!!!!!!!!!!!!!!!!!!!!!!!!!!!!!!!!!!!!!!!!!!!!!!!!!!!!!!!!!!!!!!!!!!!!!!!!!",
"!!!!!!!!!!!!!!!!!!!!!!!!!!!!!!!!!!!!!!!!!!!!!!!!!!!!!!!!!!!!!!!!!!!!!!!!!!!!!!!!!!!!!!!!!!!!!!!!!!!!!!!!!!!!!!!!!!!!!!!!!!!!!!!!",
"!!!!!!!!!!!!!!!!!!!!!!!!!!!!!!!!!!!!!!!!!!!!!!!!!!!!!!!!!!!!!!!!!!!!!!!!!!!!!!!!!!!!!!!!!!!!!!!!!!!!!!!!!!!!!!!!!!!!!!!!!!!!!!!!",
"!!!!!!!!!!!!!!!!!!!!!!!!!!!!!!!!!!!!!!!!!!!!!!!!!!!!!!!!!!!!!!!!!!!!!!!!!!!!!!!!!!!!!!!!!!!!!!!!!!!!!!!!!!!!!!!!!!!!!!!!!!!!!!!!",
"!!!!!!!!!!!!!!!!!!!!!!!!!!!!!!!!!!!!!!!!!!!!!!!!!!!!!!!!!!!!!!!!!!!!!!!!!!!!!!!!!!!!!!!!!!!!!!!!!!!!!!!!!!!!!!!!!!!!!!!!!!!!!!!!",
"!!!!!!!!!!!!!!!!!!!!!!!!!!!!!!!!!!!!!!!!!!!!!!!!!!!!!!!!!!!!!!!!!!!!!!!!!!!!!!!!!!!!!!!!!!!!!!!!!!!!!!!!!!!!!!!!!!!!!!!!!!!!!!!!",
"!!!!!!!!!!!!!!!!!!!!!!!!!!!!!!!!!!!!!!!!!!!!!!!!!!!!!!!!!!!!!!!!!!!!!!!!!!!!!!!!!!!!!!!!!!!!!!!!!!!!!!!!!!!!!!!!!!!!!!!!!!!!!!!!",
"!!!!!!!!!!!!!!!!!!!!!!!!!!!!!!!!!!!!!!!!!!!!!!!!!!!!!!!!!!!!!!!!!!!!!!!!!!!!!!!!!!!!!!!!!!!!!!!!!!!!!!!!!!!!!!!!!!!!!!!!!!!!!!!!",
"!!!!!!!!!!!!!!!!!!!!!!!!!!!!!!!!!!!!!!!!!!!!!!!!!!!!!!!!!!!!!!!!!!!!!!!!!!!!!!!!!!!!!!!!!!!!!!!!!!!!!!!!!!!!!!!!!!!!!!!!!!!!!!!!",
"!!!!!!!!!!!!!!!!!!!!!!!!!!!!!!!!!!!!!!!!!!!!!!!!!!!!!!!!!!!!!!!!!!!!!!!!!!!!!!!!!!!!!!!!!!!!!!!!!!!!!!!!!!!!!!!!!!!!!!!!!!!!!!!!",
"!!!!!!!!!!!!!!!!!!!!!!!!!!!!!!!!!!!!!!!!!!!!!!!!!!!!!!!!!!!!!!!!!!!!!!!!!!!!!!!!!!!!!!!!!!!!!!!!!!!!!!!!!!!!!!!!!!!!!!!!!!!!!!!!",
"!!!!!!!!!!!!!!!!!!!!!!!!!!!!!!!!!!!!!!!!!!!!!!!!!!!!!!!!!!!!!!!!!!!!!!!!!!!!!!!!!!!!!!!!!!!!!!!!!!!!!!!!!!!!!!!!!!!!!!!!!!!!!!!!",
"!!!!!!!!!!!!!!!!!!!!!!!!!!!!!!!!!!!!!!!!!!!!!!!!!!!!!!!!!!!!!!!!!!!!!!!!!!!!!!!!!!!!!!!!!!!!!!!!!!!!!!!!!!!!!!!!!!!!!!!!!!!!!!!!",
"!!!!!!!!!!!!!!!!!!!!!!!!!!!!!!!!!!!!!!!!!!!!!!!!!!!!!!!!!!!!!!!!!!!!!!!!!!!!!!!!!!!!!!!!!!!!!!!!!!!!!!!!!!!!!!!!!!!!!!!!!!!!!!!!",
"!!!!!!!!!!!!!!!!!!!!!!!!!!!!!!!!!!!!!!!!!!!!!!!!!!!!!!!!!!!!!!!!!!!!!!!!!!!!!!!!!!!!!!!!!!!!!!!!!!!!!!!!!!!!!!!!!!!!!!!!!!!!!!!!",
"!!!!!!!!!!!!!!!!!!!!!!!!!!!!!!!!!!!!!!!!!!!!!!!!!!!!!!!!!!!!!!!!!!!!!!!!!!!!!!!!!!!!!!!!!!!!!!!!!!!!!!!!!!!!!!!!!!!!!!!!!!!!!!!!",
"!!!!!!!!!!!!!!!!!!!!!!!!!!!!!!!!!!!!!!!!!!!!!!!!!!!!!!!!!!!!!!!!!!!!!!!!!!!!!!!!!!!!!!!!!!!!!!!!!!!!!!!!!!!!!!!!!!!!!!!!!!!!!!!!",
"!!!!!!!!!!!!!!!!!!!!!!!!!!!!!!!!!!!!!!!!!!!!!!!!!!!!!!!!!!!!!!!!!!!!!!!!!!!!!!!!!!!!!!!!!!!!!!!!!!!!!!!!!!!!!!!!!!!!!!!!!!!!!!!!",
"!!!!!!!!!!!!!!!!!!!!!!!!!!!!!!!!!!!!!!!!!!!!!!!!!!!!!!!!!!!!!!!!!!!!!!!!!!!!!!!!!!!!!!!!!!!!!!!!!!!!!!!!!!!!!!!!!!!!!!!!!!!!!!!!",
"!!!!!!!!!!!!!!!!!!!!!!!!!!!!!!!!!!!!!!!!!!!!!!!!!!!!!!!!!!!!!!!!!!!!!!!!!!!!!!!!!!!!!!!!!!!!!!!!!!!!!!!!!!!!!!!!!!!!!!!!!!!!!!!!",
"!!!!!!!!!!!!!!!!!!!!!!!!!!!!!!!!!!!!!!!!!!!!!!!!!!!!!!!!!!!!!!!!!!!!!!!!!!!!!!!!!!!!!!!!!!!!!!!!!!!!!!!!!!!!!!!!!!!!!!!!!!!!!!!!",
"!!!!!!!!!!!!!!!!!!!!!!!!!!!!!!!!!!!!!!!!!!!!!!!!!!!!!!!!!!!!!!!!!!!!!!!!!!!!!!!!!!!!!!!!!!!!!!!!!!!!!!!!!!!!!!!!!!!!!!!!!!!!!!!!",
"!!!!!!!!!!!!!!!!!!!!!!!!!!!!!!!!!!!!!!!!!!!!!!!!!!!!!!!!!!!!!!!!!!!!!!!!!!!!!!!!!!!!!!!!!!!!!!!!!!!!!!!!!!!!!!!!!!!!!!!!!!!!!!!!",
"!!!!!!!!!!!!!!!!!!!!!!!!!!!!!!!!!!!!!!!!!!!!!!!!!!!!!!!!!!!!!!!!!!!!!!!!!!!!!!!!!!!!!!!!!!!!!!!!!!!!!!!!!!!!!!!!!!!!!!!!!!!!!!!!",
"!!!!!!!!!!!!!!!!!!!!!!!!!!!!!!!!!!!!!!!!!!!!!!!!!!!!!!!!!!!!!!!!!!!!!!!!!!!!!!!!!!!!!!!!!!!!!!!!!!!!!!!!!!!!!!!!!!!!!!!!!!!!!!!!",
"!!!!!!!!!!!!!!!!!!!!!!!!!!!!!!!!!!!!!!!!!!!!!!!!!!!!!!!!!!!!!!!!!!!!!!!!!!!!!!!!!!!!!!!!!!!!!!!!!!!!!!!!!!!!!!!!!!!!!!!!!!!!!!!!",
"!!!!!!!!!!!!!!!!!!!!!!!!!!!!!!!!!!!!!!!!!!!!!!!!!!!!!!!!!!!!!!!!!!!!!!!!!!!!!!!!!!!!!!!!!!!!!!!!!!!!!!!!!!!!!!!!!!!!!!!!!!!!!!!!",
"!!!!!!!!!!!!!!!!!!!!!!!!!!!!!!!!!!!!!!!!!!!!!!!!!!!!!!!!!!!!!!!!!!!!!!!!!!!!!!!!!!!!!!!!!!!!!!!!!!!!!!!!!!!!!!!!!!!!!!!!!!!!!!!!",
"!!!!!!!!!!!!!!!!!!!!!!!!!!!!!!!!!!!!!!!!!!!!!!!!!!!!!!!!!!!!!!!!!!!!!!!!!!!!!!!!!!!!!!!!!!!!!!!!!!!!!!!!!!!!!!!!!!!!!!!!!!!!!!!!",
"!!!!!!!!!!!!!!!!!!!!!!!!!!!!!!!!!!!!!!!!!!!!!!!!!!!!!!!!!!!!!!!!!!!!!!!!!!!!!!!!!!!!!!!!!!!!!!!!!!!!!!!!!!!!!!!!!!!!!!!!!!!!!!!!",
"!!!!!!!!!!!!!!!!!!!!!!!!!!!!!!!!!!!!!!!!!!!!!!!!!!!!!!!!!!!!!!!!!!!!!!!!!!!!!!!!!!!!!!!!!!!!!!!!!!!!!!!!!!!!!!!!!!!!!!!!!!!!!!!!",
"!!!!!!!!!!!!!!!!!!!!!!!!!!!!!!!!!!!!!!!!!!!!!!!!!!!!!!!!!!!!!!!!!!!!!!!!!!!!!!!!!!!!!!!!!!!!!!!!!!!!!!!!!!!!!!!!!!!!!!!!!!!!!!!!",
"!!!!!!!!!!!!!!!!!!!!!!!!!!!!!!!!!!!!!!!!!!!!!!!!!!!!!!!!!!!!!!!!!!!!!!!!!!!!!!!!!!!!!!!!!!!!!!!!!!!!!!!!!!!!!!!!!!!!!!!!!!!!!!!!",
"!!!!!!!!!!!!!!!!!!!!!!!!!!!!!!!!!!!!!!!!!!!!!!!!!!!!!!!!!!!!!!!!!!!!!!!!!!!!!!!!!!!!!!!!!!!!!!!!!!!!!!!!!!!!!!!!!!!!!!!!!!!!!!!!",
"!!!!!!!!!!!!!!!!!!!!!!!!!!!!!!!!!!!!!!!!!!!!!!!!!!!!!!!!!!!!!!!!!!!!!!!!!!!!!!!!!!!!!!!!!!!!!!!!!!!!!!!!!!!!!!!!!!!!!!!!!!!!!!!!",
"!!!!!!!!!!!!!!!!!!!!!!!!!!!!!!!!!!!!!!!!!!!!!!!!!!!!!!!!!!!!!!!!!!!!!!!!!!!!!!!!!!!!!!!!!!!!!!!!!!!!!!!!!!!!!!!!!!!!!!!!!!!!!!!!",
"!!!!!!!!!!!!!!!!!!!!!!!!!!!!!!!!!!!!!!!!!!!!!!!!!!!!!!!!!!!!!!!!!!!!!!!!!!!!!!!!!!!!!!!!!!!!!!!!!!!!!!!!!!!!!!!!!!!!!!!!!!!!!!!!",
"!!!!!!!!!!!!!!!!!!!!!!!!!!!!!!!!!!!!!!!!!!!!!!!!!!!!!!!!!!!!!!!!!!!!!!!!!!!!!!!!!!!!!!!!!!!!!!!!!!!!!!!!!!!!!!!!!!!!!!!!!!!!!!!!",
"!!!!!!!!!!!!!!!!!!!!!!!!!!!!!!!!!!!!!!!!!!!!!!!!!!!!!!!!!!!!!!!!!!!!!!!!!!!!!!!!!!!!!!!!!!!!!!!!!!!!!!!!!!!!!!!!!!!!!!!!!!!!!!!!",
"!!!!!!!!!!!!!!!!!!!!!!!!!!!!!!!!!!!!!!!!!!!!!!!!!!!!!!!!!!!!!!!!!!!!!!!!!!!!!!!!!!!!!!!!!!!!!!!!!!!!!!!!!!!!!!!!!!!!!!!!!!!!!!!!",
"!!!!!!!!!!!!!!!!!!!!!!!!!!!!!!!!!!!!!!!!!!!!!!!!!!!!!!!!!!!!!!!!!!!!!!!!!!!!!!!!!!!!!!!!!!!!!!!!!!!!!!!!!!!!!!!!!!!!!!!!!!!!!!!!",
"!!!!!!!!!!!!!!!!!!!!!!!!!!!!!!!!!!!!!!!!!!!!!!!!!!!!!!!!!!!!!!!!!!!!!!!!!!!!!!!!!!!!!!!!!!!!!!!!!!!!!!!!!!!!!!!!!!!!!!!!!!!!!!!!",
"!!!!!!!!!!!!!!!!!!!!!!!!!!!!!!!!!!!!!!!!!!!!!!!!!!!!!!!!!!!!!!!!!!!!!!!!!!!!!!!!!!!!!!!!!!!!!!!!!!!!!!!!!!!!!!!!!!!!!!!!!!!!!!!!",
"!!!!!!!!!!!!!!!!!!!!!!!!!!!!!!!!!!!!!!!!!!!!!!!!!!!!!!!!!!!!!!!!!!!!!!!!!!!!!!!!!!!!!!!!!!!!!!!!!!!!!!!!!!!!!!!!!!!!!!!!!!!!!!!!",
"!!!!!!!!!!!!!!!!!!!!!!!!!!!!!!!!!!!!!!!!!!!!!!!!!!!!!!!!!!!!!!!!!!!!!!!!!!!!!!!!!!!!!!!!!!!!!!!!!!!!!!!!!!!!!!!!!!!!!!!!!!!!!!!!",
"!!!!!!!!!!!!!!!!!!!!!!!!!!!!!!!!!!!!!!!!!!!!!!!!!!!!!!!!!!!!!!!!!!!!!!!!!!!!!!!!!!!!!!!!!!!!!!!!!!!!!!!!!!!!!!!!!!!!!!!!!!!!!!!!",
"!!!!!!!!!!!!!!!!!!!!!!!!!!!!!!!!!!!!!!!!!!!!!!!!!!!!!!!!!!!!!!!!!!!!!!!!!!!!!!!!!!!!!!!!!!!!!!!!!!!!!!!!!!!!!!!!!!!!!!!!!!!!!!!!",
"!!!!!!!!!!!!!!!!!!!!!!!!!!!!!!!!!!!!!!!!!!!!!!!!!!!!!!!!!!!!!!!!!!!!!!!!!!!!!!!!!!!!!!!!!!!!!!!!!!!!!!!!!!!!!!!!!!!!!!!!!!!!!!!!",
"!!!!!!!!!!!!!!!!!!!!!!!!!!!!!!!!!!!!!!!!!!!!!!!!!!!!!!!!!!!!!!!!!!!!!!!!!!!!!!!!!!!!!!!!!!!!!!!!!!!!!!!!!!!!!!!!!!!!!!!!!!!!!!!!",
"!!!!!!!!!!!!!!!!!!!!!!!!!!!!!!!!!!!!!!!!!!!!!!!!!!!!!!!!!!!!!!!!!!!!!!!!!!!!!!!!!!!!!!!!!!!!!!!!!!!!!!!!!!!!!!!!!!!!!!!!!!!!!!!!",
"!!!!!!!!!!!!!!!!!!!!!!!!!!!!!!!!!!!!!!!!!!!!!!!!!!!!!!!!!!!!!!!!!!!!!!!!!!!!!!!!!!!!!!!!!!!!!!!!!!!!!!!!!!!!!!!!!!!!!!!!!!!!!!!!",
"!!!!!!!!!!!!!!!!!!!!!!!!!!!!!!!!!!!!!!!!!!!!!!!!!!!!!!!!!!!!!!!!!!!!!!!!!!!!!!!!!!!!!!!!!!!!!!!!!!!!!!!!!!!!!!!!!!!!!!!!!!!!!!!!",
"!!!!!!!!!!!!!!!!!!!!!!!!!!!!!!!!!!!!!!(+.,(#!!!!!!!!!!!!!!!!!!!!!!!!!!!!!!!!!!!!!!!!!(,.+#!!!!!!!!!!!!!!!!!!!!!!!!!!!!!!!!!!!!!!",
"!!!!!!!!!!!!!!!!!!!!!!!!!!#,00/0--,/148?AA:731../..+#!!!!!!!!!!!!!!!!!!!!!!!*-....137<C?;631/---//00,#!!!!!!!!!!!!!!!!!!!!!!!!!!",
"!!!!!!!!!!!!!!!!!!!!!!!!047=@E@=;=8=@BFFSP^MJHPVNNJA62-#!!!!&#!!!!$(!!!!#,28DJSPOSXXNPNMDA;=9899;>B>;73.#!!!!!!!!!!!!!!!!!!!!!!!",
"!!!!!!!!!!!!!!!!!!!!!!!*AKEB>;=>=>BEFDOSaOMPPSgegeSPMJA4-+04?<4114:<40+,4J__bPe__aaRJMJHHF<?>>;9;;8>BESJ,!!!!!!!!!!!!!!!!!!!!!!!",
"!!!!!!!!!!!!!!!!!!!!!!!.E9==668>DAEPCCFLLLNMOY_b]`ggPLSSSVaahbYgVpVJORVYm`]V^SNNYYRJCCAAC<::?99=9669B>@Z2!!!!!!!!!!!!!!!!!!!!!!!",
"!!!!!!!!!!!!!!!!!!!!!!!+==@9669IZQIPFFMNJHNNYh^VVYUcTTVwwh_nqgqten`eVYkrpPFDLDDDMSMMAA:<AA<?HGGG9658BG@K/!!!!!!!!!!!!!!!!!!!!!!!",
"!!!!!!!!!!!!!!!!!!!!!!!(8@>;689W[QHRKDSdXaUXaobgbFP]TVPxtapqYbhYtqmrnregpJFCDA?Yga_aOJOKQI@GB@>G;668@BEA+!!!!!!!!!!!!!!!!!!!!!!!",
"!!!!!!!!!!!!!!!!!!!!!!!,;E=;68>[[KAEKRWQWisrrne_aTT]TTVc^drrr^qhxqp|tkh^TDCDJFMY_dXdfkZEBIEE;9>G>659=>EI0!!!!!!!!!!!!!!!!!!!!!!!",
"!!!!!!!!!!!!!!!!!!!!!!!,=@>E;8=[jZKGIOOOK_foqeVDDFFVVLVUSarxf`qtwrp||yYdOCAED<A?CVfofXQG@BBB@BIW955;@BAQ1!!!!!!!!!!!!!!!!!!!!!!!",
"!!!!!!!!!!!!!!!!!!!!!!!-@EE@=9=[ziQQZfjliWJ_aeVOPPFJHIObnnqtccwenxpx|xskZO@;<<FMS_f[O=EXiWWIGGWl954;@EQR1!!!!!!!!!!!!!!!!!!!!!!!",
"!!!!!!!!!!!!!!!!!!!!!!!+?B=E>9@i~~viZZZZfjz{ofXRSNSMABHXhrhrh]VgmmmxyytkW@;;AJJNXafjuuiWGGEI[lul966@GEQR.!!!!!!!!!!!!!!!!!!!!!!!",
"!!!!!!!!!!!!!!!!!!!!!!!(?I;>E=Bu}yvvuiijjjujojffSJFFJRIFatrnhpTrmhxxy||sOIEA?AHSkjlsllRRQKWju[RIB68@;DRN*!!!!!!!!!!!!!!!!!!!!!!!",
"!!!!!!!!!!!!!!!!!!!!!!!#<B;;IAJd746<CMSjzuuz}z[[_REBOZKCOtkqpq`bgtyxx|}uSQQH>AKZjjz}vj[ojdXN?534@99B=DOF+!!!!!!!!!!!!!!!!!!!!!!!",
"!!!!!!!!!!!!!!!!!!!!!!!*?G::Q=EA*!!!##(15?Sr{{dRRKNJOR@AQfor_Vhmtpqt|}}vRKWIISKZjl}yuM<:51,(#!!(698B9?KJ,!!!!!!!!!!!!!!!!!!!!!!!",
"!!!!!!!!!!!!!!!!!!!!!!!,CB<<E;I:#!!!!!!!!!(07SkoZaSVKWHAZffiZRVegkrv{|~z[dWKYZouz}V71#!!!!!!!!!#368G9FKO-!!!!!!!!!!!!!!!!!!!!!!!",
"!!!!!!!!!!!!!!!!!!!!!!!,DA<?DBE5#!!!!!!!!!!!!(7fksvjjaD;BQdW[iKRYXvvv{}uRSflzzvzz<*!!!!!!!!!!!!!389D<FJa/!!!!!!!!!!!!!!!!!!!!!!!",
"!!!!!!!!!!!!!!!!!!!!!!!-H=:<HHK3!!!!!!!!!!!!!!,Cff__dff>=H[WWjKjoOyuvywk[uuufkszJ.!!!!!!!!!!!!!!0;;=:?Je1!!!!!!!!!!!!!!!!!!!!!!!",
"!!!!!!!!!!!!!!!!!!!!!!!0DA87AKK/!!!!!!!!!!!!!!!1Jk_NKW[XDd[QI[lzzvudl{{ovudVYnvf1#!!!!!!!!!!!!!!,9;87<N_1!!!!!!!!!!!!!!!!!!!!!!!",
"!!!!!!!!!!!!!!!!!!!!!!!0?E<8AKC*!!!!!!!!!!!!!!!#1YvYEHJQKM[GBQi[ilWWl{sssdQOf}o3#!!!!!!!!!!!!!!!(6=97JKO2!!!!!!!!!!!!!!!!!!!!!!!",
"!!!!!!!!!!!!!!!!!!!!!!!1?HC<HS5#!!!!!!!!!!!!!!!!!,CvZQRYXHKB>IQBIWQZu{syrodj}D-!!!!!!!!!!!!!!!!!#5@;<JJS2!!!!!!!!!!!!!!!!!!!!!!!",
"!!!!!!!!!!!!!!!!!!!!!!!2A@H?JX1!!!!!!!!!!!!!!!!!!!(4iZHKZX[jG@G>>IQo~{vvjZlz:*!!!!!!!!!!!!!!!!!!!2=;:PEO4!!!!!!!!!!!!!!!!!!!!!!!",
"!!!!!!!!!!!!!!!!!!!!!!!2AD?<MY,!!!!!!!!!!!!!!!!!!!!(4WiKJXXsuQGKI[l~~zvklzi4*!!!!!!!!!!!!!!!!!!!!.H;8FJS5!!!!!!!!!!!!!!!!!!!!!!!",
"!!!!!!!!!!!!!!!!!!!!!!#4CF?FND(!!!!!!!!!!!!!!!!!!!!+6@WjRJZsywdY_y~~~zko}lG6.!!!!!!!!!!!!!!!!!!!!*<=?AJS7#!!!!!!!!!!!!!!!!!!!!!!",
"!!!!!!!!!!!!!!!!!!!!!!#5FJCL]:#!!!!!!!!!!!!!!!!!!!#2BIZzv[Yoyyy|y}~~}vz~~zlG5*!!!!!!!!!!!!!!!!!!!#7D?DFV:#!!!!!!!!!!!!!!!!!!!!!!",
"!!!!!!!!!!!!!!!!!!!!!!#5LNDDV3!!!!!!!!!!!!!!!!!!!!0>BIiiiv}uvv}~~}}}}~~~~~vZG1!!!!!!!!!!!!!!!!!!!!2?<FF]:#!!!!!!!!!!!!!!!!!!!!!!",
"!!!!!!!!!!!!!!!!!!!!!!(7JDCFY-!!!!!!!!!!!!!!!!!!!#8IQQW[uz~vuz}~~}}}~~~~}}vld8*!!!!!!!!!!!!!!!!!!!,A:CCT?#!!!!!!!!!!!!!!!!!!!!!!",
"!!!!!!!!!!!!!!!!!!!!!!(7JNFLP(!!!!!!!!!!!!!!!!!!!0IIQQ[so{{|vuz}}}}~~~~~}{slfO1!!!!!!!!!!!!!!!!!!!(<:CD^C#!!!!!!!!!!!!!!!!!!!!!!",
"!!!!!!!!!!!!!!!!!!!!!!+?PTTPD(!!!!!!!!!!!!!!!!!!#7IIGIZsk{yyF7FfkM:Fz~~}{vjZfd<(!!!!!!!!!!!!!!!!!!#7AJL^C#!!!!!!!!!!!!!!!!!!!!!!",
"!!!!!!!!!!!!!!!!!!!!!!,CNTV]<#!!!!!!!!!!!!!!!!!!(@GIGQZowyo6(!*//(#*4f}|ylldfdR-!!!!!!!!!!!!!!!!!!!5FLF`F(!!!!!!!!!!!!!!!!!!!!!!",
"!!!!!!!!!!!!!!!!!!!!!!-DT]hm7!!!!!!!!!!!!!!!!!!!/RQIBdao{N0!!!!!!!!!!-JwukkO_jk2!!!!!!!!!!!!!!!!!!!4TMLcV(!!!!!!!!!!!!!!!!!!!!!!",
"!!!!!!!!!!!!!!!!!!!!!!.FU]hm4!!!!!!!!!!!!!!!!!!#4QKBEksvS.!!!!!!!!!!!!,<suoKOfk:#!!!!!!!!!!!!!!!!!!1UPLg`(!!!!!!!!!!!!!!!!!!!!!!",
"!!!!!!!!!!!!!!!!!!!!!!1UT`p^1!!!!!!!!!!!!!!!!!!#7GBGRsvJ0!!!!!!!!!!!!!!-CosOOR[C#!!!!!!!!!!!!!!!!!!0NUPcc+!!!!!!!!!!!!!!!!!!!!!!",
"!!!!!!!!!!!!!!!!!!!!!!1^Uhq]/!!!!!!!!!!!!!!!!!!#7E@GZsd/#!!!!!!!!!!!!!!!.JkSKKRD#!!!!!!!!!!!!!!!!!!+NVTcr/!!!!!!!!!!!!!!!!!!!!!!",
"!!!!!!!!!!!!!!!!!!!!!!1UUmr]-!!!!!!!!!!!!!!!!!!(8GIRow_,!!!!!!!!!!!!!!!!-JoaRRQD#!!!!!!!!!!!!!!!!!!(UT]`p1!!!!!!!!!!!!!!!!!!!!!!",
"!!!!!!!!!!!!!!!!!!!!!!4^TmtV+!!!!!!!!!!!!!!!!!!!1Z_dyyy0!!!!!!!!!!!!!!!!0YnodYj4!!!!!!!!!!!!!!!!!!!*UMUcp2!!!!!!!!!!!!!!!!!!!!!!",
"!!!!!!!!!!!!!!!!!!!!!!5`Tcq],!!!!!!!!!!!!!!!!!!!#7v{}|}A2#!!!!!!!!!!!!!0Fwww{w<*!!!!!!!!!!!!!!!!!!!(ULTcq5!!!!!!!!!!!!!!!!!!!!!!",
"!!!!!!!!!!!!!!!!!!!!!#:cPqtb-!!!!!!!!!!!!!!!!!!!!(3P|}}fH.!!!!!!!!!!!!,Dsyyy^4(!!!!!!!!!!!!!!!!!!!!(]YTcr7!!!!!!!!!!!!!!!!!!!!!!",
"!!!!!!!!!!!!!!!!!!!!!#<`Pxmc-!!!!!!!!!!!!!!!!!!!!!!,5h}yf4#!!!!!!!!!!!2asyb4-!!!!!!!!!!!!!!!!!!!!!!(]hVcr<#!!!!!!!!!!!!!!!!!!!!!",
"!!!!!!!!!!!!!!!!!!!!!+L]Lqte-!!!!!!!!!!!!!!!!!!!!!!!#2wws7#!!!!!!!!!!!4ety7!!!!!!!!!!!!!!!!!!!!!!!!*`bV`qL(!!!!!!!!!!!!!!!!!!!!!",
"!!!!!!!!!!!!!!!!!!!!!/VUPmtg/!!!!!!!!!!!!!!!!!!!!!!!#6acs4!!!!!!!!!!!!2Vcp<#!!!!!!!!!!!!!!!!!!!!!!!,cb]Tph,!!!!!!!!!!!!!!!!!!!!!",
"!!!!!!!!!!!!!!!!!!!!!3`UVqtr2!!!!!!!!!!!!!!!!!!!!!!!#7a^p1!!!!!!!!!!!!-N]q?#!!!!!!!!!!!!!!!!!!!!!!!1mg]Tpr4!!!!!!!!!!!!!!!!!!!!!",
"!!!!!!!!!!!!!!!!!!!!#7gTTtxw4!!!!!!!!!!!!!!!!!!!!!!!#6^e`-!!!!!!!!!!!!(C`p?#!!!!!!!!!!!!!!!!!!!!!!!1khhPhx<#!!!!!!!!!!!!!!!!!!!!",
"!!!!!!!!!!!!!!!!!!!!#:hN^xpw5!!!!!!!!!!!!!!!!!!!!!!!#6YVP+!!!!!!!!!!!!#?gtL#!!!!!!!!!!!!!!!!!!!!!!!2qagN^tL(!!!!!!!!!!!!!!!!!!!!",
"!!!!!!!!!!!!!!!!!!!!,M^Pgwxy5!!!!!!!!!!!!!!!!!!!!!!!(:Y`L(!!!!!!!!!!!!#:ptL#!!!!!!!!!!!!!!!!!!!!!!!2shmP`g`-!!!!!!!!!!!!!!!!!!!!",
"!!!!!!!!!!!!!!!!!!!#7aYTrmty:!!!!!!!!!!!!!!!!!!!!!!!-LebC%!!!!!!!!!!!!!7pqm,!!!!!!!!!!!!!!!!!!!!!!!5s_hUVhe6(!!!!!!!!!!!!!!!!!!!",
"!!!!!!!!!!!!!!!!!!!2_YVgxqw{<#!!!!!!!!!!!!!!!!!!!!!!2^ah<#!!!!!!!!!!!!!7rpt2#!!!!!!!!!!!!!!!!!!!!!!7s_me_ee_2!!!!!!!!!!!!!!!!!!!",
"!!!!!!!!!!!!!!!!!!!6aSPbhgrwL#!!!!!!!!!!!!!!!!!!!!!#7e_a?(!!!!!!!!!!!!#7e`b:*!!!!!!!!!!!!!!!!!!!!!#<sYXhVSan:#!!!!!!!!!!!!!!!!!!",
"!!!!!!!!!!!!!!!!!!!7eOXq^SoyU#!!!!!!!!!!!!!!!!!!!!!2UrkaJ+!!!!!!!!!!!!#<rqbN3#!!!!!!!!!!!!!!!!!!!!#CwXEXeN_q7#!!!!!!!!!!!!!!!!!!",
"!!!!!!!!!!!!!!!!!!!7fSqm`ptu<#!!!!!!!!!!!!!!!!!*.2:ghhqnM0!!!!!!!!!!!!,CqxtgM:3/+#!!!!!!!!!!!!!!!!!7oaOSab_r7#!!!!!!!!!!!!!!!!!!",
"!!!!!!!!!!!!!!!!!!+JeeqpmtwwC(!!!!!!!!!!!!!!!!+<fgtycNee[E,!!!!!!!!!!#:Re`Jbgh`iA-!!!!!!!!!!!!!!!!#:o_VX_nadM,!!!!!!!!!!!!!!!!!!",
"!!!!!!!!!!!!!!!!!#2_V_rgmwwyb+!!!!!!!!!!!!!!!!#4SPU^:04DHD/!!!!!!!!!!#<OS:.7JMMf6*!!!!!!!!!!!!!!!!(LkYYLFdSXh5#!!!!!!!!!!!!!!!!!",
"!!!!!!!!!!!!!!!!!1FRPgxpt|||y3!!!!!!!!!!!!!!!!!*020-#!#--+#!!!!!!!!!!!,..*!#+011*!!!!!!!!!!!!!!!!!3nqsnYYmSMaV.!!!!!!!!!!!!!!!!!",
"!!!!!!!!!!!!!!!!+?aMhxmtt}y|y<#!!!!!!!!!!!!!!!!!!!!!!!!!!!!!!!!!!!!!!!!!!!!!!!!!!!!!!!!!!!!!!!!!!#?ksnreV^kPSn<#!!!!!!!!!!!!!!!!",
"!!!!!!!!!!!!!!!*7r`ctphtxyt|y`(!!!!!!!!!!(1574+!!!!!!!!!!!!!!!!!!!!!!!!!!!!!!!!!!)3750#!!!!!!!!!!.PgwkhgULNULet:+!!!!!!!!!!!!!!!",
"!!!!!!!!!!!!!!1Fqectxqtyxxt||x2!!!!!!!#-5DaJ<O<+!!!!!!!!!!!!!!!!!!!!!!!!!!!!!!!!*7R?HK?4,#!!!!!!!3qswhcqgVUpVPhxF0#!!!!!!!!!!!!!",
"!!!!!!!!!!!!!/Pmg`tyxh|||||x|y:'#(,.37:OjZ70+2E1!!!!!!!!!!!!!!!!!!!!!!!!!!!!!!!!0B2+07JKA753-,(##:ewq|xxxp]^n^]rtU1!!!!!!!!!!!!!",
"!!!!!!!!#*.27FrtnqyxrxN75h}y||pCCLP`ptwf:0#!!#51!!!!!!!!!!!!!!!!!!!!!!!!!!!!!!!!17(!!#0:R_a_LND<<Vomy}b57MmUcq^b_tP52-(#!!!!!!!!",
"!!!!!!.5:FSehttrqyyxyF,!!1gxgnxxmmhYhrr2#!!!!#1,!!!!!!!!!!!!!!!!!!!!!!!!!!!!!!!!+1#!!!!#2Y_XXaemekX`yq2#!,CmheeYYYhdYNA:4.#!!!!!",
"!!!!#2Qlvz{yy|y|qxxyL.!!!!/<VVhYMDE=BIK?#!!!!!!!!!!!!!!!!!!!!!!!!!!!!!!!!!!!!!!!!!!!!!!*;=;;AHJHMOMY?/#!!!-Dfanhresdolii[B3#!!!!",
"!!!#5[uokv|wrxxySV_J,!!!!!!(16:75555542+!!!!!!!!!!!!!!!!!!!!!!!!!!!!!!!!!!!!!!!!!!!!!!!!,13456556:71#!!!!!!/A@ADdddefvj[i[G3#!!!",
"!!!1QR710?_YSMXwOF:/!!!!!!!!!#%#######!!!!!!!!!!!!!!!!!!!!!!!!!!!!!!!!!!!!!!!!!!!!!!!!!!!!#########!!!!!!!!#/59>K@>IIX:027G@1!!!",
"!!,>7-#!+9;?CA:4/*#!!!!!!!!!!!!!!!!!!!!!!!!!!!!!!!!!!!!!!!!!!!!!!!!!!!!!!!!!!!!!!!!!!!!!!!!!!!!!!!!!!!!!!!!!!#*.36999;:-!#-8=,!!",
"!#47(!!!#.000-#!!!!!!!!!!!!!!!!!!!!!!!!!!!!!!!!!!!!!!!!!!!!!!!!!!!!!!!!!!!!!!!!!!!!!!!!!!!!!!!!!!!!!!!!!!!!!!!!!!#-000.#!!!,62!!"
};