/* XPM */
static char * Enemy_monster1[] = {
"128 128 92 1",
"! c None",
"# c #ffffff",
"$ c #fefefe",
"% c #fdfdfd",
"& c #fcfcfc",
"' c #fafafa",
"( c #f6f5f5",
") c #f0efef",
"* c #e9e8e8",
"+ c #e0dede",
", c #d9d5d5",
"- c #ccc7c7",
". c #c3b9b7",
"/ c #c3a8a5",
"0 c #b1acac",
"1 c #b69d9c",
"2 c #b39695",
"3 c #a39c9c",
"4 c #a49494",
"5 c #ab8d8c",
"6 c #a38c8c",
"7 c #988c8d",
"8 c #a28584",
"9 c #a07f7e",
": c #978081",
"; c #917f80",
"< c #898082",
"= c #957777",
"> c #8d7677",
"? c #867679",
"@ c #8e7070",
"A c #847071",
"B c #86696a",
"C c #7c7577",
"D c #7b6e70",
"E c #7a6b6d",
"F c #7c6768",
"G c #726669",
"H c #7f6163",
"I c #776162",
"J c #716062",
"K c #785c5e",
"L c #76565a",
"M c #6e595b",
"N c #685f63",
"O c #675a5d",
"P c #665759",
"Q c #675355",
"R c #5d5356",
"S c #6c4e52",
"T c #634d4f",
"U c #5f4d50",
"V c #5e4a4c",
"W c #5a4d4f",
"X c #554d50",
"Y c #56494b",
"Z c #5e4549",
"[ c #564547",
"] c #5b4044",
"^ c #524445",
"_ c #523d40",
"` c #4c464a",
"a c #4b4246",
"b c #494043",
"c c #4b3d42",
"d c #4b3c3b",
"e c #433c40",
"f c #4b383b",
"g c #453839",
"h c #40383b",
"i c #3d373c",
"j c #463436",
"k c #462f34",
"l c #3f3133",
"m c #3b3338",
"n c #3b3131",
"o c #3a2c30",
"p c #363135",
"q c #352e32",
"r c #342c2f",
"s c #352a2c",
"t c #2e292e",
"u c #382528",
"v c #322528",
"w c #2e2427",
"x c #2a2529",
"y c #282226",
"z c #282023",
"{ c #291c1f",
"| c #211c1f",
"} c #231518",
"~ c #180f11",
"!!!!!!!!!!!!!!!!!!!!!!!!!!!!!!!!!!!!!!!!!!!!!!!!!!!!!!!!!!!!!!!!!!!!!!!!!!!!!!!!!!!!!!!!!!!!!!!!!!!!!!!!!!!!!!!!!!!!!!!!!!!!!!!!",
"!!!!!!!!!!!!!!!!!!!!!!!!!!!!!!!!!!!!!!!!!!!!!!!!!!!!!!!!!!!!!!!!!!!!!!!!!!!!!!!!!!!!!!!!!!!!!!!!!!!!!!!!!!!!!!!!!!!!!!!!!!!!!!!!",
"!!!!!!!!!!!!!!!!!!!!!!!!!!!!!!!!!!!!!!!!!!!!!!!!!!!!!!!!!!!!!!!!!!!!!!!!!!!!!!!!!!!!!!!!!!!!!!!!!!!!!!!!!!!!!!!!!!!!!!!!!!!!!!!!",
"!!!!!!!!!!!!!!!!!!!!!!!!!!!!!!!!!!!!!!!!!!!!!!!!!!!!!!!!!!!!!!!!!!!!!!!!!!!!!!!!!!!!!!!!!!!!!!!!!!!!!!!!!!!!!!!!!!!!!!!!!!!!!!!!",
"!!!!!!!!!!!!!!!!!!!!!!!!!!!!!!!!!!!!!!!!!!!!!!!!!!!!!!!!!!!!!!!!!!!!!!!!!!!!!!!!!!!!!!!!!!!!!!!!!!!!!!!!!!!!!!!!!!!!!!!!!!!!!!!!",
"!!!!!!!!!!!!!!!!!!!!!!!!!!!!!!!!!!!!!!!!!!!!!!!!!!!!!!!!!!!!!!!!!!!!!!!!!!!!!!!!!!!!!!!!!!!!!!!!!!!!!!!!!!!!!!!!!!!!!!!!!!!!!!!!",
"!!!!!!!!!!!!!!!!!!!!!!!!!!!!!!!!!!!!!!!!!!!!!!!!!!!!!!!!!!!!!,*()(*.(!!!!!!!!!!!!!!!!!!!!!!!!!!!!!!!!!!!!!!!!!!!!!!!!!!!!!!!!!!!",
"!!!!!!!!!!!!!!!!!!!!!!!!!!!!!!!!!!!!!!!!!!!!!!!!!!!!!!!!!!!+Ge`RXRbON,'!!!!!!!!!!!!!!!!!!!!!!!!!!!!!!!!!!!!!!!!!!!!!!!!!!!!!!!!!",
"!!!!!!!!!!!!!!!!!!!!!!!!!!!!!!!!!!!!!!!!!!!!!!!!!!!!!!!!!*Cimeeqhmt`mR<,!!!!!!!!!!!!!!!!!!!!!!!!!!!!!!!!!!!!!!!!!!!!!!!!!!!!!!!!",
"!!!!!!!!!!!!!!!!!!!!!!!!!!!!!!!!!!!!!!!!!!!!!!!!!!!!!!!!)GqrXbibRyteyzeG+!!!!!!!!!!!!!!!!!!!!!!!!!!!!!!!!!!!!!!!!!!!!!!!!!!!!!!!",
"!!!!!!!!!!!!!!!!!!!!!!!!!!!!!!!!!!!!!!!!!!!!!!!!!!!!!!!!3hrxpemxzzxp~|mX7'!!!!!!!!!!!!!!!!!!!!!!!!!!!!!!!!!!!!!!!!!!!!!!!!!!!!!!",
"!!!!!!!!!!!!!!!!!!!!!!!!!!!!!!!!!!!!!!!!!!!!!!!!!!!!!!!'Nryrh`pwsxxi|~}YP*!!!!!!!!!!!!!!!!!!!!!!!!!!!!!!!!!!!!!!!!!!!!!!!!!!!!!!",
"!!!!!!!!!!!!!!!!!!!!!!!!!!!!!!!!!!!!!!!!!!!!!!!!!!!!!!!+Ytzaeezbvq|pt||id-!!!!!!!!!!!!!!!!!!!!!!!!!!!!!!!!!!!!!!!!!!!!!!!!!!!!!!",
"!!!!!!!!!!!!!!!!!!!!!!!!!!!!!!!!!!!!!!!!!!!!!!!!!!!!!!!<chrqiXbRwbmit||tO<'!!!!!!!!!!!!!!!!!!!!!!!!!!!!!!!!!!!!!!!!!!!!!!!!!!!!!",
"!!!!!!!!!!!!!!!!!!!!!!!!!!!!!!!!!!!!!!!!!!!!!!!!!!!!!!!OsnqmmqRXqi`z|||ybN)!!!!!!!!!!!!!!!!!!!!!!!!!!!!!!!!!!!!!!!!!!!!!!!!!!!!!",
"!!!!!!!!!!!!!!!!!!!!!!!!!!!!!!!!!!!!!!!!!!!!!!!!!!!!!!'hyrmbatXReep|yt||wX-!!!!!!!!!!!!!!!!!!!!!!!!!!!!!!!!!!!!!!!!!!!!!!!!!!!!!",
"!!!!!!!!!!!!!!!!!!!!!!!!!!!!!!!!!!!!!!!!!!!!!!!!!!!!!!+Rxynzqqqmqyx|y~|~~s0&!!!!!!!!!!!!!!!!!!!!!!!!!!!!!!!!!!!!!!!!!!!!!!!!!!!!",
"!!!!!!!!!!!!!!!!!!!!!!!!!!!!!!!!!!!!!!!!!!!!!%&*(#!!!-Ghtglh`RWipxhppt||~}l<(!!%()&!!!!!!!!!!!!!!!!!!!!!!!!!!!!!!!!!!!!!!!!!!!!!",
"!!!!!!!!!!!!!!!!!!!!!!!!!!!!!!!!!!!!!!!!!!!&,3?DGGC3?XUgsllgZJ[X`enss{}~~{vsN3GOG<73,#!!!!!!!!!!!!!!!!!!!!!!!!!!!!!!!!!!!!!!!!!!",
"!!!!!!!!!!!!!!!!!!!!!!!!!!!!!!!!!!!!!!!!!!)4GCC<;<JEGJT_lvku_fFTVVJz{}~~}{o_WRJ???<<73-'!!!!!!!!!!!!!!!!!!!!!!!!!!!!!!!!!!!!!!!!",
"!!!!!!!!!!!!!!!!!!!!!!!!!!!!!!!!!!!!!!!!!,P?<?:>>IIFIKLZ_fTfTsJn^gJws{{|}}u_ZPOUJFAJDC?.$!!!!!!!!!!!!!!!!!!!!!!!!!!!!!!!!!!!!!!!",
"!!!!!!!!!!!!!!!!!!!!!!!!!!!!!!!!!!!!!!!!-RDD;8222226:BHT^fZSZ}jz~~s~}uwz{wofMA?7642:?PND0&!!!!!!!!!!!!!!!!!!!!!!!!!!!!!!!!!!!!!!",
"!!!!!!!!!!!!!!!!!!!!!!!!!!!!!!!!!!!!!!!-GEG;112:B@925HM[uj_KSuu~~~~~kk{{~~wjK?EHB:842:NNA0#!!!!!!!!!!!!!!!!!!!!!!!!!!!!!!!!!!!!!",
"!!!!!!!!!!!!!!!!!!!!!!!!!!!!!!!!!!!!!!+ODA<442:662225HSffTTLHS{u~v}fZ]o{~}wjQA>=:7A;?;C<WP-!!!!!!!!!!!!!!!!!!!!!!!!!!!!!!!!!!!!!",
"!!!!!!!!!!!!!!!!!!!!!!!!!!!!!!!!!!!!!!7WOAA///45@@H@25=;ASS=9HfL]KfLLTu}zgfSFQZLH=:946GRRbO(!!!!!!!!!!!!!!!!!!!!!!!!!!!!!!!!!!!!",
"!!!!!!!!!!!!!!!!!!!!!!!!!!!!!!!!!!!!!)OdJF;128;568:;2267FVHB9SS@H=SST_u{zaUFEJM?>>AF>7DWYhn-!!!!!!!!!!!!!!!!!!!!!!!!!!!!!!!!!!!!",
"!!!!!!!!!!!!!!!!!!!!!!!!!!!!!!!!!!!!$.cQUE:>>;?>AMU_VF4?[kSB=@H@B>LSZjw~|eNWjlfQMFIGJJGPgcv<(!!!!!!!!!!!!!!!!!!!!!!!!!!!!!!!!!!!",
"!!!!!!!!!!!!!!!!!!!!!!!!!!!!!!!!!!!!,JfUMJM;MJUUMFAFTZA6KLB]]AHKMQffu~~}wXXo_VMOQYYMVEU^ahna.$!!!!!!!!!!!!!!!!!!!!!!!!!!!!!!!!!!",
"!!!!!!!!!!!!!!!!!!!!!!!!!!!!!!!!!!!(7[f[T_MITM^MTSKHKLSA88>g}u[UPaw}~~~scawfZZZZ]YlY[TQlnhsn?)!!!!!!!!!!!!!!!!!!!!!!!!!!!!!!!!!!",
"!!!!!!!!!!!!!!!!!!!!!!!!!!!!!!!!!!#.T_lUY_T]fc_I::8=BKSS=7Qukkstxx~~~~~h[oof[MIGGRjvu_kjnh{wj0&!!!!!!!!!!!!!!!!!!!!!!!!!!!!!!!!!",
"!!!!!!!!!!!!!!!!!!!!!!!!!!!!!!!!!!);^js_^_VZusJD;22:=:>B:6E^[fjw~~~~~~{aY__UUF??GRY{{o_]ss}}sN-!!!!!!!!!!!!!!!!!!!!!!!!!!!!!!!!!",
"!!!!!!!!!!!!!!!!!!!!!!!!!!!!!!!!!!-MUclflfo}}vVM^A6559HSLMPYckf}{}~~~|xsskcJEDEPvgd~~}uonz}{m^4'!!!!!!!!!!!!!!!!!!!!!!!!!!!!!!!!",
"!!!!!!!!!!!!!!!!!!!!!!!!!!!!!!!!!*<J^^^_dU{}sgQV^PI=1/19BANRPceofuz~{tzffQA<<Gjswss}}}}jvwv{vhR-!!!!!!!!!!!!!!!!!!!!!!!!!!!!!!!!",
"!!!!!!!!!!!!!!!!!!!!!!!!!!!!!!!!!0DJgdYVW[dlgv[KVMBK=2//6:ERelbocvn~wvsYGC?DQf_fvll~zvl^svnw{oX<$!!!!!!!!!!!!!!!!!!!!!!!!!!!!!!!",
"!!!!!!!!!!!!!!!!!!!!!!!!!!!!!!!!';F[^MTcnVQf^l[BBBH@8:62/4?POGlowsohcrcO??JUQV[VZQ}vvc[^{{rgjvcO)!!!!!!!!!!!!!!!!!!!!!!!!!!!!!!!",
"!!!!!!!!!!!!!!!!!!!!!!!!!!!!!!!!*AVKHAJnw]ZkQGJIHBBH98>;647DJ<Jw{v[GN`NNGPUUPfVVQ^}Oof]d}}mR_^cY+!!!!!!!!!!!!!!!!!!!!!!!!!!!!!!!",
"!!!!!!!!!!!!!!!!!!!!!!!!!!!!!!!!,EQH@?^jZMB_T3>]=B5=S?86;>77CN`oYshGNGGGEGOVuTFQQlv4WoK__ujUU[_^.!!!!!!!!!!!!!!!!!!!!!!!!!!!!!!!",
"!!!!!!!!!!!!!!!!!!!!!!!!!!!!!!!!.IK@B__MKAB^_-FILK@2HjT;66;AFDOotrNADEDEEPl}d@HVJ{o07^PIPT_oVV_Y<%!!!!!!!!!!!!!!!!!!!!!!!!!!!!!!",
"!!!!!!!!!!!!!!!!!!!!!!!!!!!!!!!(:;KA__SI>A[{N$;_]85/1@SVIA;:>?c{zvcD;7?M_uvjH@?FQ{o,+zuMAJ_gj[ZPP-!!!!!!!!!!!!!!!!!!!!!!!!!!!!!!",
"!!!!!!!!!!!!!!!!!!!!!!!!!!!!!!!-JKAITH=8;Mk_-!.j^@B5125=H@>B;?g}}}lA::F[_SS?;?QQ^}f$$Y[_DFMT]VYff7#!!!!!!!!!!!!!!!!!!!!!!!!!!!!!",
"!!!!!!!!!!!!!!!!!!!!!!!!!!!!!!(4HB=HSB@>KkVI(!'PlF>6442/1@ZZIWv~z|wUJkkZA:AAEFTJ}z3!!3UjPAFM]QMM_M,!!!!!!!!!!!!!!!!!!!!!!!!!!!!!",
"!!!!!!!!!!!!!!!!!!!!!!!!!!!!!#.=B89K@AFBoou3!!!-Y[AB:>K=1/4ASuz}}|{uZI>8APfUIMQu}R%!!)okoIMIMTJFTM7(!!!!!!!!!!!!!!!!!!!!!!!!!!!!",
"!!!!!!!!!!!!!!!!!!!!!!!!!!!!!,2@B8BLBFS]vgY(!!!!7}QB;6@H:84:I?XzwrpMA:?EP_KAFTd~a'!!!!<o}oTKMZSBLSA0!!!!!!!!!!!!!!!!!!!!!!!!!!!!",
"!!!!!!!!!!!!!!!!!!!!!!!!!!!!%/58@@LHLSf{kvN!!!!!!0YFAA=868:88Dn{|{mJ51;FMQIPIU{<$!!!!!0}w{kVVVTFHH>:)!!!!!!!!!!!!!!!!!!!!!!!!!!!",
"!!!!!!!!!!!!!!!!!!!!!!!!!!!!*//2=LS]_u{_S]0!!!!!!!*OQJKMM:68>FU{loY>8;AJT[_MYw.!!!!!!!*u]_uuj_ZQI666-!!!!!!!!!!!!!!!!!!!!!!!!!!!",
"!!!!!!!!!!!!!!!!!!!!!!!!!!!#+/./5@]fku_SHM&!!!!!!!!-jPDT]KA>@:Jv{kO:6?F_oZMU}<!!!!!!!!!CS]kk_o_B8229/$!!!!!!!!!!!!!!!!!!!!!!!!!!",
"!!!!!!!!!!!!!!!!!!!!!!!!!!!$-/./18HffVLI>-!!!!!!!!!$<UQFIKFFAEPvwfP??FQ_SV_{h(!!!!!!!!!)MS_QfkK651184#!!!!!!!!!!!!!!!!!!!!!!!!!!",
"!!!!!!!!!!!!!!!!!!!!!!!!!!!$-/../8=Z]QH:A$!!!!!!!!!!*GYUIIMJETTwuoRTIV_]Vfww0!!!!!!!!!!!4JZUkZ:211112$!!!!!!!!!!!!!!!!!!!!!!!!!!",
"!!!!!!!!!!!!!!!!!!!!!!!!!!!!-////59SSQKM*!!!!!!!!!!!!0ccVVET_UW{ukYTjdPfus}N%!!!!!!!!!!!'O^c_L:6//124$!!!!!!!!!!!!!!!!!!!!!!!!!!",
"!!!!!!!!!!!!!!!!!!!!!!!!!!!!-/22/29]ST[C!!!!!!!!!!!!!,WYcocOg[c}wjcalfl}v{w7!!!!!!!!!!!!!.pm_S81//674!!!!!!!!!!!!!!!!!!!!!!!!!!!",
"!!!!!!!!!!!!!!!!!!!!!!!!!!!!,/82/5=LLLY+!!!!!!!!!!!!!+TFWjcohs{{clovv{{sro{7!!!!!!!!!!!!!'OfSL61/6D;0!!!!!!!!!!!!!!!!!!!!!!!!!!!",
"!!!!!!!!!!!!!!!!!!!!!!!!!!!!,21112BHL=;%!!!!!!!!!!!!!+ZFYm^colglngflzrnv|s}C!!!!!!!!!!!!!!3MLB92/4;;3%!!!!!!!!!!!!!!!!!!!!!!!!!!",
"!!!!!!!!!!!!!!!!!!!!!!!!!!!!*8//12@HQA.!!!!!!!!!!!!!!,MMcrmWVVZ_o[Q[[gv}{{{D!!!!!!!!!!!!!!+EVB61146E0!!!!!!!!!!!!!!!!!!!!!!!!!!!",
"!!!!!!!!!!!!!!!!!!!!!!!!!!!!(=/.22=SQA)!!!!!!!!!!!!!!.VMdgccUDFIQF>Fcvq{}{sC!!!!!!!!!!!!!!%?QK61426I.!!!!!!!!!!!!!!!!!!!!!!!!!!!",
"!!!!!!!!!!!!!!!!!!!!!!!!!!!!'@9./5>TfE'!!!!!!!!!!!!!!0ecTUPQP?>:H6:A_ocsz}wG!!!!!!!!!!!!!!!3^M6111;V-!!!!!!!!!!!!!!!!!!!!!!!!!!!",
"!!!!!!!!!!!!!!!!!!!!!!!!!!!!!;@/2:>Uf3!!!!!!!!!!!!!!!3woUJR[B8::H66;Pscm{}{N$!!!!!!!!!!!!!!-YM8114J^*!!!!!!!!!!!!!!!!!!!!!!!!!!!",
"!!!!!!!!!!!!!!!!!!!!!!!!!!!!!7I21:Bfc-!!!!!!!!!!!!!!$CljZAFS>:FTZM87JoZXv{lR(!!!!!!!!!!!!!!*RQ8246MP&!!!!!!!!!!!!!!!!!!!!!!!!!!!",
"!!!!!!!!!!!!!!!!!!!!!!!!!!!!$.556EI_M*!!!!!!!!!!!!!!(NzrQ;AH:>KQ_SAKAfTOo|ti+!!!!!!!!!!!!!!'<M:<:;F<'!!!!!!!!!!!!!!!!!!!!!!!!!!!",
"!!!!!!!!!!!!!!!!!!!!!!!!!!!!!,48:<P]H)!!!!!!!!!!!!!!+e|jL8=@8;JuukF>F[SGow|r0!!!!!!!!!!!!!!%7B>;;AG7$!!!!!!!!!!!!!!!!!!!!!!!!!!!",
"!!!!!!!!!!!!!!!!!!!!!!!!!!!!!*44AM[f>(!!!!!!!!!!!!!!0coI@99=56JZ_LK:DQLJfcwrE$!!!!!!!!!!!!!#4HFCG?J3#!!!!!!!!!!!!!!!!!!!!!!!!!!!",
"!!!!!!!!!!!!!!!!!!!!!!!!!!!!!(4:?E[_3$!!!!!!!!!!!!!&JepB95@958F;S:>8;UZFQ[meg+!!!!!!!!!!!!!!-FE<CGG.!!!!!!!!!!!!!!!!!!!!!!!!!!!!",
"!!!!!!!!!!!!!!!!!!!!!!!!!!!!!'04ENY_.!!!!!!!!!!!!!!)QRW@95992285B154?MZKPfspa.!!!!!!!!!!!!!!*FF?NC<,!!!!!!!!!!!!!!!!!!!!!!!!!!!!",
"!!!!!!!!!!!!!!!!!!!!!!!!!!!!!(447D[],!!!!!!!!!!!!!!)QRVH=99>74859124AMMATjlmd.!!!!!!!!!!!!!!(:F<<?N0!!!!!!!!!!!!!!!!!!!!!!!!!!!!",
"!!!!!!!!!!!!!!!!!!!!!!!!!!!!!)747D[U)!!!!!!!!!!!!!!+QhuKHB:A;646F:77DUJU__{rn0!!!!!!!!!!!!!!#;J7<G`0!!!!!!!!!!!!!!!!!!!!!!!!!!!!",
"!!!!!!!!!!!!!!!!!!!!!!!!!!!!!*?74E^E$!!!!!!!!!!!!!!0Svv]SLB::42:JF;:EGQffozrl;%!!!!!!!!!!!!!!0O<7D`3!!!!!!!!!!!!!!!!!!!!!!!!!!!!",
"!!!!!!!!!!!!!!!!!!!!!!!!!!!!!*C<<E[3!!!!!!!!!!!!!!)=fzzfZBH::>64M>;:ED[]fvrxvM,!!!!!!!!!!!!!!*NC?Gb7!!!!!!!!!!!!!!!!!!!!!!!!!!!!",
"!!!!!!!!!!!!!!!!!!!!!!!!!!!!!.G<?OY,!!!!!!!!!!!!!'1HZy{fTKQPGFA:K8AEJ^_[lvosnU;)!!!!!!!!!!!!!(GCCG`<!!!!!!!!!!!!!!!!!!!!!!!!!!!!",
"!!!!!!!!!!!!!!!!!!!!!!!!!!!!!0G<CRP)!!!!!!!!!!!!$1=L_o{kk_AAMAE>IAMJ^OGl}{fc`_K>'!!!!!!!!!!!!&CDCD`C!!!!!!!!!!!!!!!!!!!!!!!!!!!!",
"!!!!!!!!!!!!!!!!!!!!!!!!!!!!!7P?D`G'!!!!!!!!!!!!-9BS_fvffjIA?MQUj[VjYJW{{ufRbjL:7$!!!!!!!!!!!!7GCG`N!!!!!!!!!!!!!!!!!!!!!!!!!!!!",
"!!!!!!!!!!!!!!!!!!!!!!!!!!!!!<X<G`E&!!!!!!!!!!!)89@S[YoccfZMQPQ[aQ[UcWlvmccOckK6=-!!!!!!!!!!!!7NDR`N!!!!!!!!!!!!!!!!!!!!!!!!!!!!",
"!!!!!!!!!!!!!!!!!!!!!!!!!!!!!<RCNbC$!!!!!!!!!!!/55@SZamhvj^d^^_[cVjd[hoorh^RmkF=86&!!!!!!!!!!!3NN``R!!!!!!!!!!!!!!!!!!!!!!!!!!!!",
"!!!!!!!!!!!!!!!!!!!!!!!!!!!!!<XGOhC!!!!!!!!!!!*589L]S^wogshdgdfs}ljclorwlcfYokTA98-!!!!!!!!!!!0RRa`R!!!!!!!!!!!!!!!!!!!!!!!!!!!!",
"!!!!!!!!!!!!!!!!!!!!!!!!!!!!!<XNO`E$!!!!!!!!!!199HSHKWjccan}zsls}hdoz}zpfcZQcL]B=@6&!!!!!!!!!!3ROabX!!!!!!!!!!!!!!!!!!!!!!!!!!!!",
"!!!!!!!!!!!!!!!!!!!!!!!!!!!!!<`RXaG$!!!!!!!!!*=55BL@JQ_W[c~~}{shCRh{~}|aRRMMfKZH9==-!!!!!!!!!!3XXeeX!!!!!!!!!!!!!!!!!!!!!!!!!!!!",
"!!!!!!!!!!!!!!!!!!!!!!!!!!!!!<eX`aC!!!!!!!!!!1928=B>JWlWWgzzz~}-$*n}wwnYJQVQaMKH=98:&!!!!!!!!!3aRip`!!!!!!!!!!!!!!!!!!!!!!!!!!!!",
"!!!!!!!!!!!!!!!!!!!!!!!!!!!!!CaXXe<!!!!!!!!!%>@999=FMYlU^mlv|~3!!!-{zcV^OMSVaMB@=@=I)!!!!!!!!!0eRie`!!!!!!!!!!!!!!!!!!!!!!!!!!!!",
"!!!!!!!!!!!!!!!!!!!!!!!!!!!!!C`Xem?!!!!!!!!!,HF=89>MG[cUansO-%!!!!!%,7VVRJMQYEIB@BFT.!!!!!!!!!3iaiee'!!!!!!!!!!!!!!!!!!!!!!!!!!!",
"!!!!!!!!!!!!!!!!!!!!!!!!!!!!!NX`emG$!!!!!!!!1HM>=@@RY_hP`wN'!!!!!!!!!$0[JAMUaEDAFIVK;#!!!!!!!!7hbqmq'!!!!!!!!!!!!!!!!!!!!!!!!!!!",
"!!!!!!!!!!!!!!!!!!!!!!!!!!!!!X`b`pO'!!!!!!!$EH@=8=>EWlcWzO(!!!!!!!!!!!$3WFKTc>?:;HKMZ(!!!!!!!!Cheppx(!!!!!!!!!!!!!!!!!!!!!!!!!!!",
"!!!!!!!!!!!!!!!!!!!!!!!!!!!!!`eaaqR(!!!!!!!)[>H8298AQogsh+!!!!!!!!!!!!!(7TPVU>652=MKZ.!!!!!!!$Nhiqit)!!!!!!!!!!!!!!!!!!!!!!!!!!!",
"!!!!!!!!!!!!!!!!!!!!!!!!!!!!!ebabhY)!!!!!!!.THL=5=:IRvso0!!!!!!!!!!!!!!!*?QUJ>899>_K[7!!!!!!!$Rabipt+!!!!!!!!!!!!!!!!!!!!!!!!!!!",
"!!!!!!!!!!!!!!!!!!!!!!!!!!!!!iiXXqh,!!!!!!!3MBL;:KIM^w{N%!!!!!!!!!!!!!!!!0KZVF>@9;]LQJ$!!!!!!(Xb`irt-!!!!!!!!!!!!!!!!!!!!!!!!!!!",
"!!!!!!!!!!!!!!!!!!!!!!!!!!!!%qeaRpr-!!!!!!!DMT=5;_UJf{g,!!!!!!!!!!!!!!!!!(;ZQAIQ84FTT^'!!!!!!)Y^`pmt.!!!!!!!!!!!!!!!!!!!!!!!!!!!",
"!!!!!!!!!!!!!!!!!!!!!!!!!!!!)mqYRps0!!!!!!!RTVF6Ed^dgw<!!!!!!!!!!!!!!!!!!!-LQTQT=4I_gd*!!!!!!*^Ya`pt0!!!!!!!!!!!!!!!!!!!!!!!!!!!",
"!!!!!!!!!!!!!!!!!!!!!!!!!!!!*ehRRps7!!!!!!(^^M68Alngwa*!!!!!!!!!!!!!!!!!!!&6T]]]:1;Mld.!!!!!!,g^iptr7!!!!!!!!!!!!!!!!!!!!!!!!!!!",
"!!!!!!!!!!!!!!!!!!!!!!!!!!!!.YbXRin?!!!!!!+VT>?AQwluu<!!!!!!!!!!!!!!!!!!!!!,HSTjF:FB]_7!!!!!!.ldempmG!!!!!!!!!!!!!!!!!!!!!!!!!!!",
"!!!!!!!!!!!!!!!!!!!!!!!!!!!!3aeXRhnC!!!!!!,QM:DDVvsw^+!!!!!!!!!!!!!!!!!!!!!'8S[jK>FAZZ?!!!!!!3nbamiiN!!!!!!!!!!!!!!!!!!!!!!!!!!!",
"!!!!!!!!!!!!!!!!!!!!!!!!!!!!CggYdhs`(!!!!!+ME6?EUvoo7$!!!!!!!!!!!!!!!!!!!!!!,IV_F@>=MQ7!!!!!!Dgqhmrxe%!!!!!!!!!!!!!!!!!!!!!!!!!!",
"!!!!!!!!!!!!!!!!!!!!!!!!!!!$XdWYdhrq*!!!!!+I;AFQcwoR)!!!!!!!!!!!!!!!!!!!!!!!&3MdMIAHFJ7!!!!!%Rbnghbqm,!!!!!!!!!!!!!!!!!!!!!!!!!!",
"!!!!!!!!!!!!!!!!!!!!!!!!!!!*^gQW^hqr+!!!!!,MDDIVl|o-!!!!!!!!!!!!!!!!!!!!!!!!!)JlTMFFFQG$!!!!'Rgghhbmm3!!!!!!!!!!!!!!!!!!!!!!!!!!",
"!!!!!!!!!!!!!!!!!!!!!!!!!!!,blaYY^rw<$!!!!+_QEP^vzl0!!!!!!!!!!!!!!!!!!!!!!!!!+KV[RPEQf<!!!!!0hb^hmqrr<!!!!!!!!!!!!!!!!!!!!!!!!!!",
"!!!!!!!!!!!!!!!!!!!!!!!!!!!.lnla`amzz,!!!!)lg[Wlwe^E&!!!!!!!!!!!!!!!!!!!!!!!$0AI[_UYjv.!!!!(`n``pqyyyC!!!!!!!!!!!!!!!!!!!!!!!!!!",
"!!!!!!!!!!!!!!!!!!!!!!!!!!!3lhhee`m|~<!!!!%slsennebW(!!!!!!!!!!!!!!!!!!!!!!!$7FMW^[oo{*!!!!-wn`eitzxyO!!!!!!!!!!!!!!!!!!!!!!!!!!",
"!!!!!!!!!!!!!!!!!!!!!!!!!!!Gmhmnreey}R!!!!!^||wwmhm^)!!!!!!!!!!!!!!!!!!!!!!!&?RW^^o{|n'!!!!4we`etzyxwb(!!!!!!!!!!!!!!!!!!!!!!!!!",
"!!!!!!!!!!!!!!!!!!!!!!!!!!&abeet|xit}h%!!!!4{ywsibmY(!!!!!!!!!!!!!!!!!!!!!!!$<YPWeyw{C!!!!!Cr`ey}|tt|q.!!!!!!!!!!!!!!!!!!!!!!!!!",
"!!!!!!!!!!!!!!!!!!!!!!!!!!*gbaXbx|rhzr(!!!!+ywyppmrX'!!!!!!!!!!!!!!!!!!!!!!!$7a^cbwsw-!!!!$GmRq}}|qm|w<!!!!!!!!!!!!!!!!!!!!!!!!!",
"!!!!!!!!!!!!!!!!!!!!!!!!!!,bm`itpy|pr|+!!!!!CxtqrqrN%!!!!!!!!!!!!!!!!!!!!!!!!0bbeiqtR!!!!!'R^e|xtxeezyN!!!!!!!!!!!!!!!!!!!!!!!!!",
"!!!!!!!!!!!!!!!!!!!!!!!!!!)X`Ratxxzxhz.!!!!!(qqittz3!!!!!!!!!!!!!!!!!!!!!!!!!,mbqeet+!!!!!)YXxxqxtbitxN!!!!!!!!!!!!!!!!!!!!!!!!!",
"!!!!!!!!!!!!!!!!!!!!!!!!!!(Reei|||z|yp7!!!!!!3ttxy|.!!!!!!!!!!!!!!!!!!!!!!!!!*ipitmC!!!!!!-bt|q|}xptit7!!!!!!!!!!!!!!!!!!!!!!!!!",
"!!!!!!!!!!!!!!!!!!!!!!!!!!'Xepe|q.`z|b`)!!!!!'iqmp|.!!!!!!!!!!!!!!!!!!!!!!!!!*itqit*!!!!!'Gb|xq0Oypqpt-!!!!!!!!!!!!!!!!!!!!!!!!!",
"!!!!!!!!!!!!!!!!!!!!!!!!!!'``ebx~0+b|iaR!!!!!!0pimy.!!!!!!!!!!!!!!!!!!!!!!!!!*epptD!!!!!!3extx.+dqXptp-!!!!!!!!!!!!!!!!!!!!!!!!!",
"!!!!!!!!!!!!!!!!!!!!!!!!!!(aX`Rm~N!0|tbp3!!!!!%Xee|<!!!!!!!!!!!!!!!!!!!!!!!!!-iiix*!!!!!0bxyq<$0lbXiee.!!!!!!!!!!!!!!!!!!!!!!!!!",
"!!!!!!!!!!!!!!!!!!!!!!!!!!!yeRNn}Y.'!tUFg,!!!!!0em||-!!!!!!!!!!!!!!!!!!!!!!!)NpqxC!!!!!-a||m4'+7_bXeii!!!!!!!!!!!!!!!!!!!!!!!!!!",
"!!!!!!!!!!!!!!!!!!!!!!!!!!!x`RGd{vj.!-DFPo+!!!!'epy~t'!!!!!!!!!!!!!!!!!!!!!&Cgmx|-!!$,Cczte3!(=@MJDXmp!!!!!!!!!!!!!!!!!!!!!!!!!!",
"!!!!!!!!!!!!!!!!!!!!!!!!!!!|eN;Voul7!!.II^w,!!!!pty~~0!!!!!!!!!!!!!!!!!!!!!,^amx|,!!3ghqiY<$!+B@@96Npy!!!!!!!!!!!!!!!!!!!!!!!!!!",
"!!!!!!!!!!!!!!!!!!!!!!!!!!!GpG;Jjwo7!!*DMWbtD!!!pzz||G!!!!!!!!!!!!!!!!!!!!!0dept|,!'^geth^-!!*H@@88Dt|!!!!!!!!!!!!!!!!!!!!!!!!!!",
"!!!!!!!!!!!!!!!!!!!!!!!!!!!*qqRF_{u0!!(7I^mey-!!Rwty|`%!!!!!!!!!!!!!!!!!!!!7_hhrw)!)ghmxWN*!!)FI@5FiyC!!!!!!!!!!!!!!!!!!!!!!!!!!",
"!!!!!!!!!!!!!!!!!!!!!!!!!!!!NthJTuo.%!&4<eyywC('^^Xp{Y%!!!!!!!!!!!!!!!!!!!!7YOWee-'4s{ymD?)!!+BI=;c|t'!!!!!!!!!!!!!!!!!!!!!!!!!!",
"!!!!!!!!!!!!!!!!!!!!!!!!!!!!.qhFI?00'!!.<Nby{nD3ge`qyC!!!!!!!!!!!!!!!!!!!!!.^WXimC7o{zbN?3'!!-018FnxG!!!!!!!!!!!!!!!!!!!!!!!!!!!",
"!!!!!!!!!!!!!!!!!!!!!!!!!!!!)xn?@I)!!!!$+.<NG3d[ja`tz.!!!!!!!!!!!!!!!!!!!!!)Y`Rbodl7?G<0,'!!!!!/5>s}0!!!!!!!!!!!!!!!!!!!!!!!!!!!",
"!!!!!!!!!!!!!!!!!!!!!!!!!!!!!ppMAT)!!!!!!!&(%!+Y^^byi'!!!!!!!!!!!!!!!!!!!!!$EeRbdn.!!('!!!!!!!$55Jyz-!!!!!!!!!!!!!!!!!!!!!!!!!!!",
"!!!!!!!!!!!!!!!!!!!!!!!!!!!!!hynET*!!!!!!!!!!!!Gn[gzG!!!!!!!!!!!!!!!!!!!!!!!0hW_ur'!!!!!!!!!!!'5:g|y+!!!!!!!!!!!!!!!!!!!!!!!!!!!",
"!!!!!!!!!!!!!!!!!!!!!!!!!!!!!N{{PO*!!!!!!!!!!!!`nld{0!!!!!!!!!!!!!!!!!!!!!!!+e^uvz)!!!!!!!!!!!%5Iw|r%!!!!!!!!!!!!!!!!!!!!!!!!!!!",
"!!!!!!!!!!!!!!!!!!!!!!!!!!!!!Cws00%!!!!!!!!!!!'qrgdv+!!!!!!!!!!!!!!!!!!!!!!!(Ydnx|-!!!!!!!!!!!!-.awd!!!!!!!!!!!!!!!!!!!!!!!!!!!!",
"!!!!!!!!!!!!!!!!!!!!!!!!!!!!!7un)!!!!!!!!!!!!!,pmjjd(!!!!!!!!!!!!!!!!!!!!!!!!Gjnxy3!!!!!!!!!!!!!%WuR!!!!!!!!!!!!!!!!!!!!!!!!!!!!",
"!!!!!!!!!!!!!!!!!!!!!!!!!!!!!3ju)!!!!!!!!!!!!!0pegj^%!!!!!!!!!!!!!!!!!!!!!!!!<llsxG!!!!!!!!!!!!!%WnG!!!!!!!!!!!!!!!!!!!!!!!!!!!!",
"!!!!!!!!!!!!!!!!!!!!!!!!!!!!!+[u-!!!!!!!!!!!!!GlV[vG!!!!!!!!!!!!!!!!!!!!!!!!!0s_^si'!!!!!!!!!!!!)dj4!!!!!!!!!!!!!!!!!!!!!!!!!!!!",
"!!!!!!!!!!!!!!!!!!!!!!!!!!!!!!DnE!!!!!!!!!!!!*hg[w~7!!!!!!!!!!!!!!!!!!!!!!!!!,tgjdx0!!!!!!!!!!!!0dT*!!!!!!!!!!!!!!!!!!!!!!!!!!!!",
"!!!!!!!!!!!!!!!!!!!!!!!!!!!!!!+dj,!!!!!!!!!!!7hbez|0!!!!!!!!!!!!!!!!!!!!!!!!!*qhmhtO!!!!!!!!!!!(M_3!!!!!!!!!!!!!!!!!!!!!!!!!!!!!",
"!!!!!!!!!!!!!!!!!!!!!!!!!!!!!!!0dT*!!!!!!!!!(ah`hn|0!!!!!!!!!!!!!!!!!!!!!!!!!*qsbg`m+!!!!!!!!!&;Z;&!!!!!!!!!!!!!!!!!!!!!!!!!!!!!",
"!!!!!!!!!!!!!!!!!!!!!!!!!!!!!!!!-MQ-!!!!!!!'Rrrhhnr7!!!!!!!!!!!!!!!!!!!!!!!!!-rshnb^N*!!!!!!!):I0&!!!!!!!!!!!!!!!!!!!!!!!!!!!!!!",
"!!!!!!!!!!!!!!!!!!!!!!!!!!!!!!!!!'-0%!!!!!)`tttxrhrC!!!!!!!!!!!!!!!!!!!!!!!!!0wtzzhbWX*!!!!!!--(!!!!!!!!!!!!!!!!!!!!!!!!!!!!!!!!",
"!!!!!!!!!!!!!!!!!!!!!!!!!!!!!!!!!!!!!!!+7Xqwty|twmbN'!!!!!!!!!!!!!!!!!!!!!!!!7rhzyyhbWOG<,$!!!!!!!!!!!!!!!!!!!!!!!!!!!!!!!!!!!!!",
"!!!!!!!!!!!!!!!!!!!!!!!!!!!!!!!!!!!!!)Djnz|x|tmtzm^C%!!!!!!!!!!!!!!!!!!!!!!!!0sbmtp`peqtn[J+!!!!!!!!!!!!!!!!!!!!!!!!!!!!!!!!!!!!",
"!!!!!!!!!!!!!!!!!!!!!!!!!!!!!!!!!!!'?^shx~~ziX3ewwvR+!!!!!!!!!!!!!!!!!!!!!!!$<jIrt3DPhtyqYljM*!!!!!!!!!!!!!!!!!!!!!!!!!!!!!!!!!!",
"!!!!!!!!!!!!!!!!!!!!!!!!!!!!!!!!!!!)Qu}mtxypG*!7owjsC!!!!!!!!!!!!!!!!!!!!!!!)W_[{e!'3OggeaonZ.!!!!!!!!!!!!!!!!!!!!!!!!!!!!!!!!!!",
"!!!!!!!!!!!!!!!!!!!!!!!!!!!!!!!!!!!!,<dRRRE0(!!,JQRO0!!!!!!!!!!!!!!!!!!!!!!!)<ITQG!!'-7?JG^P-'!!!!!!!!!!!!!!!!!!!!!!!!!!!!!!!!!!",
"!!!!!!!!!!!!!!!!!!!!!!!!!!!!!!!!!!!!!&+,,*%!!!!!)**'!!!!!!!!!!!!!!!!!!!!!!!!!(+,+*!!!!$(*++'!!!!!!!!!!!!!!!!!!!!!!!!!!!!!!!!!!!!"
};