/* XPM */
static char * Enemy_monster2[] = {
"128 128 92 1",
"! c None",
"# c #ffffff",
"$ c #feffff",
"% c #fffefe",
"& c #fefeff",
"' c #fefefe",
"( c #fefdfd",
") c #fdfdfd",
"* c #fcfcfc",
"+ c #f9f9f9",
", c #f5f5f5",
"- c #f0f0ef",
". c #ebe9e9",
"/ c #e5e2e2",
"0 c #dddbdb",
"1 c #d3d0cf",
"2 c #c7c2c2",
"3 c #c3b1ad",
"4 c #afaaaa",
"5 c #b39d9a",
"6 c #a59e9f",
"7 c #a8908d",
"8 c #9d999a",
"9 c #999090",
": c #97898b",
"; c #9f827f",
"< c #978180",
"= c #8e8081",
"> c #947876",
"? c #89797c",
"@ c #8c7170",
"A c #817a7d",
"B c #7e7578",
"C c #7d7174",
"D c #7f6c6d",
"E c #736b6f",
"F c #7f6562",
"G c #766567",
"H c #6f666a",
"I c #6f6266",
"J c #775c5b",
"K c #705c5d",
"L c #6c5b5d",
"M c #675f63",
"N c #635a5e",
"O c #655759",
"P c #5d565b",
"Q c #6b5152",
"R c #625153",
"S c #5d5255",
"T c #5d4e52",
"U c #575258",
"V c #574e53",
"W c #554c50",
"X c #5f494b",
"Y c #56494b",
"Z c #52494d",
"[ c #5d4244",
"] c #544144",
"^ c #514143",
"_ c #4d484e",
"` c #4c454b",
"a c #4d4347",
"b c #474348",
"c c #4b4042",
"d c #453f43",
"e c #493c3f",
"f c #433b40",
"g c #473939",
"h c #3f3a3e",
"i c #3e363a",
"j c #493233",
"k c #413032",
"l c #3d3032",
"m c #393337",
"n c #383135",
"o c #392c2e",
"p c #353035",
"q c #332d32",
"r c #312b2f",
"s c #31282a",
"t c #2b272a",
"u c #322324",
"v c #301e1f",
"w c #2a2023",
"x c #242024",
"y c #221b1e",
"z c #251819",
"{ c #241314",
"| c #1b1517",
"} c #1b0d0e",
"~ c #150708",
"!!!!!!!!!!!!!!!!!!!!!!!!!!!!!!!!!!!!!!!!!!!!!!!!!!!!!!!!!!!!!!!!!!!!!!!!!!!!!!!!!!!!!!!!!!!!!!!!!!!!!!!!!!!!!!!!!!!!!!!!!!!!!!!!",
"!!!!!!!!!!!!!!!!!!!!!!!!!!!!!!!!!!!!!!!!!!!!!!!!!!!!!!!!!!!!!!!!!!!!!!!!!!!!!!!!!!!!!!!!!!!!!!!!!!!!!!!!!!!!!!!!!!!!!!!!!!!!!!!!",
"!!!!!!!!!!!!!!!!!!!!!!!!!!!!!!!!!!!!!!!!!!!!!!!!!!!!!!!!!!!!!!!!!!!!!!!!!!!!!!!!!!!!!!!!!!!!!!!!!!!!!!!!!!!!!!!!!!!!!!!!!!!!!!!!",
"!!!!!!!!!!!!!!!!!!!!!!!!!!!!!!!!!!!!!!!!!!!!!!!!!!!!!!!!!!!!!!!!!!!!!!!!!!!!!!!!!!!!!!!!!!!!!!!!!!!!!!!!!!!!!!!!!!!!!!!!!!!!!!!!",
"!!!!!!!!!!!!!!!!!!!!!!!!!!!!!!!!!!!!!!!!!!!!!!!!!!!!!!!!!!!!!!!!!!!!!!!!!!!!!!!!!!!!!!!!!!!!!!!!!!!!!!!!!!!!!!!!!!!!!!!!!!!!!!!!",
"!!!!!!!!!!!!!!!!!!!!!!!!!!!!!!!!!!!!!!!!!!!!!!!!!!!!!!!!!!!!!!!!!!!!!!!!!!!!!!!!!!!!!!!!!!!!!!!!!!!!!!!!!!!!!!!!!!!!!!!!!!!!!!!!",
"!!!!!!!!!!!!!!!!!!!!!!!!!!!!!!!!!!!!!!!!!!!!!!!!!!!!!!!!!!!!!!!!!!!!!!!!!!!!!!!!!!!!!!!!!!!!!!!!!!!!!!!!!!!!!!!!!!!!!!!!!!!!!!!!",
"!!!!!!!!!!!!!!!!!!!!!!!!!!!!!!!!!!!!!!!!!!!!!!!!!!!!!!!!!!!!!!!!!!!!!!!!!!!!!!!!!!!!!!!!!!!!!!!!!!!!!!!!!!!!!!!!!!!!!!!!!!!!!!!!",
"!!!!!!!!!!!!!!!!!!!!!!!!!!!!!!!!!!!!!!!!!!!!!!!!!!!!!!!!!!!!!!!!!!!!!!!!!!!!!!!!!!!!!!!!!!!!!!!!!!!!!!!!!!!!!!!!!!!!!!!!!!!!!!!!",
"!!!!!!!!!!!!!!!!!!!!!!!!!!!!!!!!!!!!!!!!!!!!!!!!!!!!!!!!!!!!!!!!!!!!!!!!!!!!!!!!!!!!!!!!!!!!!!!!!!!!!!!!!!!!!!!!!!!!!!!!!!!!!!!!",
"!!!!!!!!!!!!!!!!!!!!!!!!!!!!!!!!!!!!!!!!!!!!!!!!!!!!!!!!!!!!!!!!!!!!!!!!!!!!!!!!!!!!!!!!!!!!!!!!!!!!!!!!!!!!!!!!!!!!!!!!!!!!!!!!",
"!!!!!!!!!!!!!!!!!!!!!!!!!!!!!!!!!!!!!!!!!!!!!!!!!!!!!!!!!!!!!!!!!!!!!!!!!!!!!!!!!!!!!!!!!!!!!!!!!!!!!!!!!!!!!!!!!!!!!!!!!!!!!!!!",
"!!!!!!!!!!!!!!!!!!!!!!!!!!!!!!!!!!!!!!!!!!!!!!!!!!!!!!!!!!!!!!!!!!!!!!!!!!!!!!!!!!!!!!!!!!!!!!!!!!!!!!!!!!!!!!!!!!!!!!!!!!!!!!!!",
"!!!!!!!!!!!!!!!!!!!!!!!!!!!!!!!!!!!!!!!!!!!!!!!!!!!!!!!!!!!!!!!!!!!!!!!!!!!!!!!!!!!!!!!!!!!!!!!!!!!!!!!!!!!!!!!!!!!!!!!!!!!!!!!!",
"!!!!!!!!!!!!!!!!!!!!!!!!!!!!!!!!!!!!!!!!!!!!!!!!!!!!!!!!!!!!!!!!!!!!!!!!!!!!!!!!!!!!!!!!!!!!!!!!!!!!!!!!!!!!!!!!!!!!!!!!!!!!!!!!",
"!!!!!!!!!!!!!!!!!!!!!!!!!!!!!!!!!!!!!!!!!!!!!!!!!!!!!!!!!!!!!!!!!!!!!!!!!!!!!!!!!!!!!!!!!!!!!!!!!!!!!!!!!!!!!!!!!!!!!!!!!!!!!!!!",
"!!!!!!!!!!!!!!!!!!!!!!!!!!!!!!!!!!!!!!!!!!!!!!!!!!!!!!!!!!!!!!!!!!!!!!!!!!!!!!!!!!!!!!!!!!!!!!!!!!!!!!!!!!!!!!!!!!!!!!!!!!!!!!!!",
"!!!!!!!!!!!!!!!!!!!!!!!!!!!!!!!!!!!!!!!!!!!!!!!!!!!!!!!!!!!!!!!!!!!!!!!!!!!!!!!!!!!!!!!!!!!!!!!!!!!!!!!!!!!!!!!!!!!!!!!!!!!!!!!!",
"!!!!!!!!!!!!!!!!!!!!!!!!!!!!!!!!!!!!!!!!!!!!!!!!!!!!!!!!!!!!!!!!!!!!!!!!!!!!!!!!!!!!!!!!!!!!!!!!!!!!!!!!!!!!!!!!!!!!!!!!!!!!!!!!",
"!!!!!!!!!!!!!!!!!!!!!!!!!!!!!!!!!!!!!!!!!!!!!!!!!!!!!!!!!!!!!!!!!!!!!!!!!!!!!!!!!!!!!!!!!!!!!!!!!!!!!!!!!!!!!!!!!!!!!!!!!!!!!!!!",
"!!!!!!!!!!!!!!!!!!!!!!!!!!!!!!!!!!!!!!!!!!!!!!!!!!!!!!!!!!!!!!!!!!!!!!!!!!!!!!!!!!!!!!!!!!!!!!!!!!!!!!!!!!!!!!!!!!!!!!!!!!!!!!!!",
"!!!!!!!!!!!!!!!!!!!!!!!!!!!!!!!!!!!!!!!!!!!!!!!!!!!!!!!!!!!!!!!!!!!!!!!!!!!!!!!!!!!!!!!!!!!!!!!!!!!!!!!!!!!!!!!!!!!!!!!!!!!!!!!!",
"!!!!!!!!!!!!!!!!!!!!!!!!!!!!!!!!!!!!!!!!!!!!!!!!!!!!!!!!!!!!!!!!!!!!!!!!!!!!!!!!!!!!!!!!!!!!!!!!!!!!!!!!!!!!!!!!!!!!!!!!!!!!!!!!",
"!!!!!!!!!!!!!!!!!!!!!!!!!!!!!!!!!!!!!!!!!!!!!!!!!!!!!!!!!!!!!!!!!!!!!!!!!!!!!!!!!!!!!!!!!!!!!!!!!!!!!!!!!!!!!!!!!!!!!!!!!!!!!!!!",
"!!!!!!!!!!!!!!!!!!!!!!!!!!!!!!!!!!!!!!!!!!!!!!!!!!!!!!!!!!!!!!!!!!!!!!!!!!!!!!!!!!!!!!!!!!!!!!!!!!!!!!!!!!!!!!!!!!!!!!!!!!!!!!!!",
"!!!!!!!!!!!!!!!!!!!!!!!!!!!!!!!!!!!!!!!!!!!!!!!!!!!!!!!!!!!!!!!!!!!!!!!!!!!!!!!!!!!!!!!!!!!!!!!!!!!!!!!!!!!!!!!!!!!!!!!!!!!!!!!!",
"!!!!!!!!!!!!!!!!!!!!!!!!!!!!!!!!!!!!!!!!!!!!!!!!!!!!!!!!!!!!!!!!!!!!!!!!!!!!!!!!!!!!!!!!!!!!!!!!!!!!!!!!!!!!!!!!!!!!!!!!!!!!!!!!",
"!!!!!!!!!!!!!!!!!!!!!!!!!!!!!!!!!!!!!!!!!!!!!!!!!!!!!!!!!!!!!!!!!!!!!!!!!!!!!!!!!!!!!!!!!!!!!!!!!!!!!!!!!!!!!!!!!!!!!!!!!!!!!!!!",
"!!!!!!!!!!!!!!!!!!!!!!!!!!!!!!!!!!!!!!!!!!!!!!!!!!!!!!!!!!!!!!!!!!!!!!!!!!!!!!!!!!!!!!!!!!!!!!!!!!!!!!!!!!!!!!!!!!!!!!!!!!!!!!!!",
"!!!!!!!!!!!!!!!!!!!!!!!!!!!!!!!!!!!!!!!!!!!!!!!!!!!!!!!!!!!!!!!!!!!!!!!!!!!!!!!!!!!!!!!!!!!!!!!!!!!!!!!!!!!!!!!!!!!!!!!!!!!!!!!!",
"!!!!!!!!!!!!!!!!!!!!!!!!!!!!!!!!!!!!!!!!#!!!!!!!!!!!!!!!!!!!!!!!!!!!!!!!!!!!!!!!!!!!!!#!!!!!!!!!!!!!!!!!!!!!!!!!!!!!!!!!!!!!!!!!",
"!!!!!!!!!!!!!!!!!!!!!!!!!!!!!!!!!!!!#*.131.+#!!!!!!!!!!!!!!!!!!!!!!!!!!!!!!!!!!!!!',/22/+#!!!!!!!!!!!!!!!!!!!!!!!!!!!!!!!!!!!!!!",
"!!!!!!!!!!!!!!!!!!!!!!!!!!#+/0//-,,.16?GIIB92/....-'!!!!!!!!!!!!!!!!!!!!!!#+-..-.16?HIB<42/-,-.///,'!!!!!!!!!!!!!!!!!!!!!!!!!!!!",
"!!!!!!!!!!!!!!!!!!!!!!!!#-1:>F>;775<@DBCMP_HGENMEEB4.*!!!!!!!!!!!!!!!!!!#,2?HOMMNTRNNMI=<;;5557>>?52-(!!!!!!!!!!!!!!!!!!!!!!!!!!",
"!!!!!!!!!!!!!!!!!!!!!!!!-:DD;F>><D77<BNPVZbNNScf`ZPG:2)!!!!')#!!!')#!!!'/9VaPdZeaaSUOOEC?9777;;>@<<F=2#!!!!!!!!!!!!!!!!!!!!!!!!!",
"!!!!!!!!!!!!!!!!!!!!!!!#6IDD>7;<<<@GIDSR^IHWIYffdcPPMG:0*.2BH8104?E60++6Vca`SdaccYIHLGDG==@>75;777DDOa+!!!!!!!!!!!!!!!!!!!!!!!!!",
"!!!!!!!!!!!!!!!!!!!!!!!#?7;;535<B=DZ?BEMHHMILScfddhPMPLSNYaahPZbmWGLRSWid_ZdSPVcWOEC?=CA:8==577335@;@Y/!!!!!!!!!!!!!!!!!!!!!!!!!",
"!!!!!!!!!!!!!!!!!!!!!!!#:77>335>OIDBBAEMNPNIcfdUVZmhPNdcdidqi`pZfWMMSeihVPNWECC`YRD=??:98985<@7335;>;R.!!!!!!!!!!!!!!!!!!!!!!!!!",
"!!!!!!!!!!!!!!!!!!!!!!!#6;@;337F]QKUEHMPDHNSafWVVV__PUqtsZmrhnrim`hVWgsmPHEHBCENSLG??6B=?=IGFF;335>F@K,!!!!!!!!!!!!!!!!!!!!!!!!!",
"!!!!!!!!!!!!!!!!!!!!!!!!2;<;337QjXKXIBSeTVPYai`fWE_PUPmyiemcbhmtqhpisfiqMHAE=CWaY^YMGDRL?>@F@@@333;>FD)!!!!!!!!!!!!!!!!!!!!!!!!!",
"!!!!!!!!!!!!!!!!!!!!!!!#2;>;357Q[L?LOK]e^tVailiiNEUM___r`mpZddOfqmxrnfhdEEAA?EmofeROaeF[@J;7;;>535>@D@+!!!!!!!!!!!!!!!!!!!!!!!!!",
"!!!!!!!!!!!!!!!!!!!!!!!#3@;735;[eO>DOYXLXjsntlcccU`_NU_bZsqtZhpxqi|xiq_NCAEMMSacaackkF>FJG>7;>F335;;GK-!!!!!!!!!!!!!!!!!!!!!!!!!",
"!!!!!!!!!!!!!!!!!!!!!!!#5;;@;5;[jXD@KKKKTeowmNNEEHIZUP`WTnrefftxtp||wcdPBCGC:A?HOcrs]R>;D<;;>J>327><<J.!!!!!!!!!!!!!!!!!!!!!!!!!",
"!!!!!!!!!!!!!!!!!!!!!!!#5I<G=5;Xvj[XXR]RL]YirhZBEEMWONVVYqye`hstth|}xegIB?D?:=?HisgGJDFJKDFJX]>337FG@R.!!!!!!!!!!!!!!!!!!!!!!!!!",
"!!!!!!!!!!!!!!!!!!!!!!!#5G@@:5<X{jQQ]gkogLIcacSPUIEIDOZiqmxUbwnpymt|xsl^L@7:=HNTagcC;O^^XQFFJj@325>@OR/!!!!!!!!!!!!!!!!!!!!!!!!!",
"!!!!!!!!!!!!!!!!!!!!!!!#5G<O75<X}{[QKX[kukgslTOT_NPCBIliqfqtpparrt|yxmfeG77?HMOY]e]i]ogQ@@FJjz@335GDXQ.!!!!!!!!!!!!!!!!!!!!!!!!!",
"!!!!!!!!!!!!!!!!!!!!!!!#6D7D@9>g}}{oje[X]k}zoeTRNVLI>DKernqnN_`mhdtyyyoK<7:?LHOYgkkzvQG@JK[ouk@33>F?LT+!!!!!!!!!!!!!!!!!!!!!!!!!",
"!!!!!!!!!!!!!!!!!!!!!!!!3R?7D<Do}wvvue^jkouoogkaOICGRXCWqthmr`fnhxyx||oOK@?<BGWikkukjOQJK[ukRG@73;;?T`'!!!!!!!!!!!!!!!!!!!!!!!!!",
"!!!!!!!!!!!!!!!!!!!!!!!!2@<8JC?kZESs}{{}v^]o{oegYG=IVeCInwnppbWamyty||oRQRD:<OcsuzueR]oou{{T::F75=:<KM*!!!!!!!!!!!!!!!!!!!!!!!!!",
"!!!!!!!!!!!!!!!!!!!!!!!!2K:8GCLj0-024=I^zv{~}o[]]RDDSXCCilitmnbhtxxx|}uTQLG<GT^jk}}{jol^SC61..7<5@<?TM)!!!!!!!!!!!!!!!!!!!!!!!!!",
"!!!!!!!!!!!!!!!!!!!!!!!#3G:4K?CG*!!!##*.2CZt|v]ROOMGXD>J^lohSaqtqpq|}}vOKRGLTKgkv{uiG:40,'#!!!175<7=LP*!!!!!!!!!!!!!!!!!!!!!!!!!",
"!!!!!!!!!!!!!!!!!!!!!!!#6>98O7@:'!!!!!!!#'/Csw^YXOOLRQ<Q^ueeOVftinty}}zYX]IZTgkv}z^2,'#!!!!!!!/73>:9GN*!!!!!!!!!!!!!!!!!!!!!!!!!",
"!!!!!!!!!!!!!!!!!!!!!!!#8D?8@<G9$!!!!!!!!!!'2SuoRgYNLX<Q]lgeQ^`drow||}z]gQRYgoz}u8-#!!!!!!!!!!.53D7EKS,!!!!!!!!!!!!!!!!!!!!!!!!!",
"!!!!!!!!!!!!!!!!!!!!!!!#:<=9B@D3#!!!!!!!!!!!#-Cievs]gI7@J]X^oQXYczwwy}uRTckz{v{v4#!!!!!!!!!!!!.75@9CIZ,!!!!!!!!!!!!!!!!!!!!!!!!!",
"!!!!!!!!!!!!!!!!!!!!!!!#A::8BDL2!!!!!!!!!!!!!#3swwfouk:9GX^QlGe]YzuuzzlOjzvwsz{O,!!!!!!!!!!!!!,57=9=H`-!!!!!!!!!!!!!!!!!!!!!!!!!",
"!!!!!!!!!!!!!!!!!!!!!!!#A=68EIK1!!!!!!!!!!!!!!.MYcS[XkX<@Q]QuDzoezuuywgjvuo`ooz3#!!!!!!!!!!!!!*77:69I`.!!!!!!!!!!!!!!!!!!!!!!!!!",
"!!!!!!!!!!!!!!!!!!!!!!!'=?54=LG/!!!!!!!!!!!!!!'6geSMK]gGO^[J[j{}vzgozzlzujW`ovc+!!!!!!!!!!!!!!#3;549LY.!!!!!!!!!!!!!!!!!!!!!!!!!",
"!!!!!!!!!!!!!!!!!!!!!!!*?D:6:LC-!!!!!!!!!!!!!!!0YsSMKXXGSkJJQvjuzoXg|zlvk]Sau{6#!!!!!!!!!!!!!!#2754=LT/!!!!!!!!!!!!!!!!!!!!!!!!!",
"!!!!!!!!!!!!!!!!!!!!!!!'7>B4?L:'!!!!!!!!!!!!!!!#1owL?GMRB]F>Dj[jjQQkzsunaLOu~B'!!!!!!!!!!!!!!!!1776EOI/!!!!!!!!!!!!!!!!!!!!!!!!!",
"!!!!!!!!!!!!!!!!!!!!!!!)B?I8ET8#!!!!!!!!!!!!!!!!#2vgRRTYGK@>@QFJ[JRozrymi^g}N)!!!!!!!!!!!!!!!!!0><9EIM/!!!!!!!!!!!!!!!!!!!!!!!!!",
"!!!!!!!!!!!!!!!!!!!!!!!+<CCADT4#!!!!!!!!!!!!!!!!!&6zRX]dYQK>JQ;>JQgvzvyvoe{e,!!!!!!!!!!!!!!!!!!.>:9ILN0!!!!!!!!!!!!!!!!!!!!!!!!!",
"!!!!!!!!!!!!!!!!!!!!!!!*?=G=HY3!!!!!!!!!!!!!!!!!!!+BoOGT]Yk[>@>@FQl~zvwg^uu1#!!!!!!!!!!!!!!!!!!,@:8IDM1!!!!!!!!!!!!!!!!!!!!!!!!!",
"!!!!!!!!!!!!!!!!!!!!!!!*?A?:Hc1!!!!!!!!!!!!!!!!!!!!-CjTIYYlvKFFJXg}~v{ogzv2#!!!!!!!!!!!!!!!!!!!'==6BLN2!!!!!!!!!!!!!!!!!!!!!!!!!",
"!!!!!!!!!!!!!!!!!!!!!!!+=C?:E`0!!!!!!!!!!!!!!!!!!!!#3[gGDegsuDQQev~}}sczv@-!!!!!!!!!!!!!!!!!!!!#==6IIP2!!!!!!!!!!!!!!!!!!!!!!!!!",
"!!!!!!!!!!!!!!!!!!!!!!!.?CBEME,!!!!!!!!!!!!!!!!!!!!.;Fj]GRozwnTZt~~~zlo{g@3)!!!!!!!!!!!!!!!!!!!#3=A?IV3!!!!!!!!!!!!!!!!!!!!!!!!!",
"!!!!!!!!!!!!!!!!!!!!!!!/GAAE`='!!!!!!!!!!!!!!!!!!!#5FQjzeRizyxxx|~~~wv~~zk</#!!!!!!!!!!!!!!!!!!!1CABES6#!!!!!!!!!!!!!!!!!!!!!!!!",
"!!!!!!!!!!!!!!!!!!!!!!!/MEDE_9'!!!!!!!!!!!!!!!!!!!+;FQozk]iwwy|||~~}vz~~{kD1#!!!!!!!!!!!!!!!!!!!0CAACU8#!!!!!!!!!!!!!!!!!!!!!!!!",
"!!!!!!!!!!!!!!!!!!!!!!!0NMD=V4#!!!!!!!!!!!!!!!!!!!/@FXuuoolsu{}}}}}{{}~~{uQ4*!!!!!!!!!!!!!!!!!!!-9:CHW9#!!!!!!!!!!!!!!!!!!!!!!!!",
"!!!!!!!!!!!!!!!!!!!!!!!0ICCBV2!!!!!!!!!!!!!!!!!!!#2F@[kjo}uuu{~~}}}{~~}~}v]>,!!!!!!!!!!!!!!!!!!!,9:BCN=#!!!!!!!!!!!!!!!!!!!!!!!!",
"!!!!!!!!!!!!!!!!!!!!!!!1NBDE`1!!!!!!!!!!!!!!!!!!!(7JJQ]ju}vv{}~~}}}}~~~~}vkF0!!!!!!!!!!!!!!!!!!!'6:AAPB#!!!!!!!!!!!!!!!!!!!!!!!!",
"!!!!!!!!!!!!!!!!!!!!!!!1PHEEU/!!!!!!!!!!!!!!!!!!!->JQQ[ku~zuz}~~}}}~~~~}{vlR3#!!!!!!!!!!!!!!!!!!&4:=BWE#!!!!!!!!!!!!!!!!!!!!!!!!",
"!!!!!!!!!!!!!!!!!!!!!!!4UMUNM-!!!!!!!!!!!!!!!!!!!1FKQQ[su}|uu{}~}}}~~~~}{ul]9)!!!!!!!!!!!!!!!!!!#3?HH_E#!!!!!!!!!!!!!!!!!!!!!!!!",
"!!!!!!!!!!!!!!!!!!!!!!!6VNVNH+!!!!!!!!!!!!!!!!!!!4JQJ[ksu|||oz{}}{}~~~~}zlogK+!!!!!!!!!!!!!!!!!!!2CEH_H#!!!!!!!!!!!!!!!!!!!!!!!!",
"!!!!!!!!!!!!!!!!!!!!!!!6WMU_C'!!!!!!!!!!!!!!!!!!'=JJFXkou|||Ykvzvgw~~~}}wleeX/!!!!!!!!!!!!!!!!!!!1EHE_M'!!!!!!!!!!!!!!!!!!!!!!!!",
"!!!!!!!!!!!!!!!!!!!!!!!8_Ud_A'!!!!!!!!!!!!!!!!!!+FJJ@XglwytZ9BYcO:Ho}~||uk^e^2#!!!!!!!!!!!!!!!!!!1NEHb`)!!!!!!!!!!!!!!!!!!!!!!!!",
"!!!!!!!!!!!!!!!!!!!!!!!8_Npm9#!!!!!!!!!!!!!!!!!!.JFJDXcozwW6.18:4/2Cu}|ysj^ee6#!!!!!!!!!!!!!!!!!!0NUMb`#!!!!!!!!!!!!!!!!!!!!!!!!",
"!!!!!!!!!!!!!!!!!!!!!!!9`Uhq4#!!!!!!!!!!!!!!!!!!1JJFF]eszf4-*+..-*+1Hy|woj^eeA'!!!!!!!!!!!!!!!!!!.HUEdf$!!!!!!!!!!!!!!!!!!!!!!!!",
"!!!!!!!!!!!!!!!!!!!!!!#A_Upi2#!!!!!!!!!!!!!!!!!#3QQ@GgeuwA/'!#)*'!#,2WyuojTegL*!!!!!!!!!!!!!!!!!!.EUMbh&!!!!!!!!!!!!!!!!!!!!!!!!",
"!!!!!!!!!!!!!!!!!!!!!!#BU_ph0!!!!!!!!!!!!!!!!!!)6QQ@KlguW2)!!!!!!!!#-9lsoiO^gY-!!!!!!!!!!!!!!!!!!-APUbi*!!!!!!!!!!!!!!!!!!!!!!!!",
"!!!!!!!!!!!!!!!!!!!!!!#EWbqq.!!!!!!!!!!!!!!!!!!+<QJDOolo8,!!!!!!!!!!#0MsslLTie0!!!!!!!!!!!!!!!!!!*=VUdr,!!!!!!!!!!!!!!!!!!!!!!!!",
"!!!!!!!!!!!!!!!!!!!!!!#EU_rm-!!!!!!!!!!!!!!!!!!-@Q@GYssM0)!!!!!!!!!!!+4ksoOOce3!!!!!!!!!!!!!!!!!!'=UV`q-!!!!!!!!!!!!!!!!!!!!!!!!",
"!!!!!!!!!!!!!!!!!!!!!!#EPhtt,!!!!!!!!!!!!!!!!!!.DJ>Kesi6+!!!!!!!!!!!!#0MlsOLYe6!!!!!!!!!!!!!!!!!!'AW_bm.!!!!!!!!!!!!!!!!!!!!!!!!",
"!!!!!!!!!!!!!!!!!!!!!!'MUhxm+!!!!!!!!!!!!!!!!!!/FF@OisN0#!!!!!!!!!!!!!+6esRLR]:!!!!!!!!!!!!!!!!!!'APZbq/!!!!!!!!!!!!!!!!!!!!!!!!",
"!!!!!!!!!!!!!!!!!!!!!!)MWUri+!!!!!!!!!!!!!!!!!!1Q>DXos8+!!!!!!!!!!!!!!#/SoYKLXC!!!!!!!!!!!!!!!!!!'APPbi1!!!!!!!!!!!!!!!!!!!!!!!!",
"!!!!!!!!!!!!!!!!!!!!!!)PU_rt,!!!!!!!!!!!!!!!!!!/F@GXss3'!!!!!!!!!!!!!!!-HoYLLY:!!!!!!!!!!!!!!!!!!'APP_p2!!!!!!!!!!!!!!!!!!!!!!!!",
"!!!!!!!!!!!!!!!!!!!!!!+_Udrx,!!!!!!!!!!!!!!!!!!.DFK]uo4#!!!!!!!!!!!!!!!-Hl^RO]6!!!!!!!!!!!!!!!!!!'BVPbr4!!!!!!!!!!!!!!!!!!!!!!!!",
"!!!!!!!!!!!!!!!!!!!!!!.dPhqx-!!!!!!!!!!!!!!!!!!-?OTgwo9)!!!!!!!!!!!!!!'.NlgYT^2!!!!!!!!!!!!!!!!!!'BdUbq6!!!!!!!!!!!!!!!!!!!!!!!!",
"!!!!!!!!!!!!!!!!!!!!!!0fPihx-!!!!!!!!!!!!!!!!!!*8Y^ozwA+#!!!!!!!!!!!!!)1Zol^^Y.!!!!!!!!!!!!!!!!!!'BhU`rA#!!!!!!!!!!!!!!!!!!!!!!!",
"!!!!!!!!!!!!!!!!!!!!!#2hPbrx-!!!!!!!!!!!!!!!!!!'2Slw|zI0*!!!!!!!!!!!!#-4issleB,!!!!!!!!!!!!!!!!!!'CfP`qM#!!!!!!!!!!!!!!!!!!!!!!!",
"!!!!!!!!!!!!!!!!!!!!!#6`Nbxx-!!!!!!!!!!!!!!!!!!#/Bgy}|Y4-!!!!!!!!!!!!'1BswwoS4'!!!!!!!!!!!!!!!!!!)EiU_pZ'!!!!!!!!!!!!!!!!!!!!!!!",
"!!!!!!!!!!!!!!!!!!!!!'A_Ndqx/!!!!!!!!!!!!!!!!!!!+3Py|}l?/#!!!!!!!!!!!*8awxxf=/#!!!!!!!!!!!!!!!!!!*Ed_Pmi*!!!!!!!!!!!!!!!!!!!!!!!",
"!!!!!!!!!!!!!!!!!!!!!+EWUbpx1!!!!!!!!!!!!!!!!!!!)/6dy}wO2#!!!!!!!!!!!+EnyxnC2,!!!!!!!!!!!!!!!!!!!-PcPPmt/!!!!!!!!!!!!!!!!!!!!!!!",
"!!!!!!!!!!!!!!!!!!!!!.ZPPpty4#!!!!!!!!!!!!!!!!!!!,1A`|ya6#!!!!!!!!!!!.WsyiH4.)!!!!!!!!!!!!!!!!!!!.VhiPmr4!!!!!!!!!!!!!!!!!!!!!!!",
"!!!!!!!!!!!!!!!!!!!!!1bVNqxy6#!!!!!!!!!!!!!!!!!!!%,2=w|l?'!!!!!!!!!!!/ftyP4/*!!!!!!!!!!!!!!!!!!!!.VmiNhy9!!!!!!!!!!!!!!!!!!!!!!!",
"!!!!!!!!!!!!!!!!!!!!!2iPPxix6#!!!!!!!!!!!!!!!!!!!!',1iysN)!!!!!!!!!!!0iwy:.*!!!!!!!!!!!!!!!!!!!!!/WZiMbyB#!!!!!!!!!!!!!!!!!!!!!!",
"!!!!!!!!!!!!!!!!!!!!!2cP_rpy6#!!!!!!!!!!!!!!!!!!!!#*-WwsS)!!!!!!!!!!!0hrw4+'!!!!!!!!!!!!!!!!!!!!!/`fiN_qH#!!!!!!!!!!!!!!!!!!!!!!",
"!!!!!!!!!!!!!!!!!!!!#8iN_tx|8#!!!!!!!!!!!!!!!!!!!!!!+SnrN)!!!!!!!!!!!0fmr4#!!!!!!!!!!!!!!!!!!!!!!/ciqPbfW'!!!!!!!!!!!!!!!!!!!!!!",
"!!!!!!!!!!!!!!!!!!!!)BiP`tpy9#!!!!!!!!!!!!!!!!!!!!!!,TfpE'!!!!!!!!!!!/ddp4!!!!!!!!!!!!!!!!!!!!!!!1nZnV_fn-!!!!!!!!!!!!!!!!!!!!!!",
"!!!!!!!!!!!!!!!!!!!!1WYPhptyB'!!!!!!!!!!!!!!!!!!!!!!,Z`p:#!!!!!!!!!!!.bbp6#!!!!!!!!!!!!!!!!!!!!!!2ndhWWia4'!!!!!!!!!!!!!!!!!!!!!",
"!!!!!!!!!!!!!!!!!!!*CaWbtqtyE'!!!!!!!!!!!!!!!!!!!!!!,Z`n6#!!!!!!!!!!!,Z`p6#!!!!!!!!!!!!!!!!!!!!!!2oaiiafeY1!!!!!!!!!!!!!!!!!!!!!",
"!!!!!!!!!!!!!!!!!!!-WTOWrptyM*!!!!!!!!!!!!!!!!!!!!!!,ZZn4#!!!!!!!!!!!*P`q6#!!!!!!!!!!!!!!!!!!!!!!4oeefSZfl4#!!!!!!!!!!!!!!!!!!!!",
"!!!!!!!!!!!!!!!!!!!-YTOZnWntZ-!!!!!!!!!!!!!!!!!!!!!!,WWm2!!!!!!!!!!!!'Hbq8#!!!!!!!!!!!!!!!!!!!!!#6o^RiYScn8#!!!!!!!!!!!!!!!!!!!!",
"!!!!!!!!!!!!!!!!!!!-cWNihSmwd-!!!!!!!!!!!!!!!!!!!!!!,VUh2!!!!!!!!!!!!$Edr9#!!!!!!!!!!!!!!!!!!!!!#6u^DSdLaq6#!!!!!!!!!!!!!!!!!!!!",
"!!!!!!!!!!!!!!!!!!!-fYNqdaqwP+!!!!!!!!!!!!!!!!!!!!!!-VSd1!!!!!!!!!!!!#Bft=#!!!!!!!!!!!!!!!!!!!!!!6s^IOiSas4#!!!!!!!!!!!!!!!!!!!!",
"!!!!!!!!!!!!!!!!!!!.eTiqbituC'!!!!!!!!!!!!!!!!!!!!!!.VSb1!!!!!!!!!!!!#=itA#!!!!!!!!!!!!!!!!!!!!!!2kcSSafar6#!!!!!!!!!!!!!!!!!!!!",
"!!!!!!!!!!!!!!!!!!!1hcnrirwwE*!!!!!!!!!!!!!!!!!!!!!!/WSb0!!!!!!!!!!!!#9mtC#!!!!!!!!!!!!!!!!!!!!!!3lcWTdrag=$!!!!!!!!!!!!!!!!!!!!",
"!!!!!!!!!!!!!!!!!!#8eeniirxxZ-!!!!!!!!!!!!!!!!!!!!!!1aWZ0!!!!!!!!!!!!#8ptP)!!!!!!!!!!!!!!!!!!!!!#6rYSWIdaZP-!!!!!!!!!!!!!!!!!!!!",
"!!!!!!!!!!!!!!!!!!,MRTimitwwp0!!!!!!!!!!!!!!!!!!!!!!2c`V/!!!!!!!!!!!!!6ptb,!!!!!!!!!!!!!!!!!!!!!'=l`_NEgNWe2#!!!!!!!!!!!!!!!!!!!",
"!!!!!!!!!!!!!!!!!#2ZOWxppy|yy4!!!!!!!!!!!!!!!!!!!!!#4fdP.!!!!!!!!!!!!!6qrp.!!!!!!!!!!!!!!!!!!!!!-PrspZZmOOeE*!!!!!!!!!!!!!!!!!!!",
"!!!!!!!!!!!!!!!!!)=WNfxtmy|y|9#!!!!!!!!!!!!!!!!!!!!&9cfN-!!!!!!!!!!!!!6ppq0!!!!!!!!!!!!!!!!!!!!!0dpmnfZhcGai/!!!!!!!!!!!!!!!!!!!",
"!!!!!!!!!!!!!!!!!1aO`tfrp|x|yE'!!!!!!!!!!!!//*!'**),CcgN.!!!!!!!!!!!!'6mfi2)***!#-!!!!!!!!!!!!!!3isiriV_hPSl:#!!!!!!!!!!!!!!!!!!",
"!!!!!!!!!!!!!!!!*PqPrtdrxxxyyb.!!!!!!!!!!!)CD4+!!!'0PdgP/!!!!!!!!!!!!#8idh4+!!!#0?0,#!!!!!!!!!!#:csnihUMPPPms0!!!!!!!!!!!!!!!!!!",
"!!!!!!!!!!!!!!!)2mibtmitxtr|yr1!!!!!!!!!#.8CCX2#''+4aiiV0!!!!!!!!!!!!#:nhd=.)'#-@OG<1)!!!!!!!!!)IhwfidUHNWMarA+!!!!!!!!!!!!!!!!!",
"!!!!!!!!!!!!!!'4fqbpttrxyxty|x4#!!!!!!#,4L^-,9:)*,/BdqiZ1#!!!!!!!!!!!'ArqhI2-+)1F0COI6.#!!!!!!!-isxqdpf_UqWSmtB+!!!!!!!!!!!!!!!!",
"!!!!!!!!!!!!!!1`pdhx|pt||xyy|x9#!!!!''0DelB!!**-/14Vfqma3*!!!!!!!!!!!+ErrmV920.,#!,3RIG1''#!!!!0mtwytttiUmhS`tp6#!!!!!!!!!!!!!!!",
"!!!!!!!!!!!!!#=rfWqy|hy}}}~t||E)#)-1BWglo=+!!0:236Hifina8,!!!!!!!!!!!.IpqhbH94244'!#2QLRLB2-+'#2fni||y|rdPmf_qxh+!!!!!!!!!!!!!!!",
"!!!!!!!!!!#*06ftrhxxxrx60P|||yqEH_dpsruu4'!!!.49EMmp`_maD/!!!!!!!!!!#1OidVd`PE?61#!!#0YY^cWbNE=Mnnx}t22ZmPdq`SaxE1+#!!!!!!!!!!!!",
"!!!!!!!'.16Hbbrsnxyxxt3#!.tytqxxptmhrxd1#!!!!.2BaWpiH=aYR1#!!!!!!!!!#4XfH:PaZWX4/!!!!!+Agc`fin`hcdx|4#!-_idifZOfnbH62/*!!!!!!!!!",
"!!!!!!*2DYkooxxtrtyxyH,!!'9t`bttcZaKZeV1#!!!!-.=ZU_P62EIL1#!!!!!!!!!#4LV92:NPSY2+!!!!!-=OLKOVfffOUwV-!!'4igffbdalck^XJ7-!!!!!!!!",
"!!!!!#3[uvz{wy|yxpyxq1#!!!*4WVaYICD=CGO9#!!!!**3CAA90-49:0#!!!!!!!!!#3=A2-2:=BC.#!!!!!0>77<DICGOMVE.#!!!,IgcnprhogukjjQ7*!!!!!!!",
"!!!!!,Qovz{|xy||ySnnB*!!!!!*4ReTTRI=BL9/#!!!!''/221/+).00,!!!!!!!!!!#.11-'-0122*!!!!!!+37<?OYLKYXB.#!!!!!2TIOatinfuuuj[J1#!!!!!!",
"!!!!+7jvgeywtqtycISW.!!!!!!!#.21.-/00,'#!!!!!##.220.*'.//+!!!!!!!!!!#.00,#,/121*!!!!!!!#+/00-.010+#!!!!!!+8>:De^aalu][j[>-!!!!!!",
"!!!!1[R1'+I`aOIloTI0#!!!!!!!!!!!!!!!!!!!!!!!!!!!!!!!!!!!!!!!!!!!!!!!!!!!!!!!!!!!!!!!!!!!!!!!!!!!!!!!!!!!!!-4>DJ<>KLY1'.=Q5#!!!!!",
"!!!)9X.!!/>:<?@YB/'!!!!!!!!!!!!!!!!!!!!!!!!!!!!!!!!!!!!!!!!!!!!!!!!!!!!!!!!!!!!!!!!!!!!!!!!!!!!!!!!!!!!!!!!#-4@5555<3#!':@,!!!!!",
"!!!/@1#!!.7:?C=1*#!!!!!!!!!!!!!!!!!!!!!!!!!!!!!!!!!!!!!!!!!!!!!!!!!!!!!!!!!!!!!!!!!!!!!!!!!!!!!!!!!!!!!!!!!!!'.3777;3#!!-<2#!!!!",
"!!#33'!!!)/00/+#!!!!!!!!!!!!!!!!!!!!!!!!!!!!!!!!!!!!!!!!!!!!!!!!!!!!!!!!!!!!!!!!!!!!!!!!!!!!!!!!!!!!!!!!!!!!!!!).///,!!!#/5+!!!!",
"!!#3-!!!!!!##!!!!!!!!!!!!!!!!!!!!!!!!!!!!!!!!!!!!!!!!!!!!!!!!!!!!!!!!!!!!!!!!!!!!!!!!!!!!!!!!!!!!!!!!!!!!!!!!!!!!##!!!!!!'2,!!!!",
"!!!'#!!!!!!!!!!!!!!!!!!!!!!!!!!!!!!!!!!!!!!!!!!!!!!!!!!!!!!!!!!!!!!!!!!!!!!!!!!!!!!!!!!!!!!!!!!!!!!!!!!!!!!!!!!!!!!!!!!!!!%#!!!!"
};