/* XPM */
static char * Arm_pistol_shoot[] = {
"300 300 92 1",
"! c None",
"# c #ffffff",
"$ c #ffffe8",
"% c #fef7ef",
"& c #f9ebe7",
"' c #fcedc7",
"( c #feef7a",
") c #fbd7a8",
"* c #fed152",
"+ c #dcd0b8",
", c #ecb785",
"- c #fcb43b",
". c #f69b36",
"/ c #b8b2a1",
"0 c #b29779",
"1 c #eb822a",
"2 c #e6681c",
"3 c #ae8360",
"4 c #a66d46",
"5 c #817f77",
"6 c #767067",
"7 c #6f675f",
"8 c #6c6056",
"9 c #5c5d5d",
": c #ef4917",
"; c #bd470e",
"< c #77543a",
"= c #754426",
"> c #575758",
"? c #555554",
"@ c #554b41",
"A c #505050",
"B c #4e4e4e",
"C c #4b4b4b",
"D c #484848",
"E c #494138",
"F c #444545",
"G c #434343",
"H c #414141",
"I c #3f3f3f",
"J c #3e3d3c",
"K c #3b3b3b",
"L c #393939",
"M c #393734",
"N c #353636",
"O c #343434",
"P c #333333",
"Q c #a22213",
"R c #3a2b1f",
"S c #323231",
"T c #322820",
"U c #2f2f2f",
"V c #2e2e2e",
"W c #2e2926",
"X c #2b2c2c",
"Y c #2a2a2a",
"Z c #292828",
"[ c #272726",
"] c #28201a",
"^ c #242525",
"_ c #232323",
"` c #222222",
"a c #212020",
"b c #1f1f1f",
"c c #231d19",
"d c #1c1d1d",
"e c #1e1a18",
"f c #1a1a1a",
"g c #181919",
"h c #1e1512",
"i c #1c0e0b",
"j c #161717",
"k c #151515",
"l c #131314",
"m c #121111",
"n c #0f1010",
"o c #0e0e0d",
"p c #110a08",
"q c #0b0b0c",
"r c #090a0b",
"s c #080808",
"t c #0c0504",
"u c #070707",
"v c #060606",
"w c #050505",
"x c #040405",
"y c #030303",
"z c #020202",
"{ c #010102",
"| c #000004",
"} c #010000",
"~ c #010101",
"!!!!!!!!!!!!!!!!!!!!!!!!!!!!!!!!!!!!!!!!!!!!!!!!!!!!!!!!!!!!!!!!!!!!!!!!!!!!!+/63000000340+!!!!!!!+/33440+!!!!!!!!!!!!!!!!!!!&+,,00,'!!!!!!!!!!!!!!!!!!!!!!!!!!!!!!!!!!!!!!!!!!!!!!!!!!!!!!!!!!!!!!!!!!!!!!!!!!!!!!!!!!!!!!!!!!!!!!!!!!!!!!!!!!!!!!!!!!!!!!!!!!!!!!!!!!!!!!!!!!!!!!!!!!!!!!!!!!!!!!!!!!!!!!!",
"!!!!!!!!!!!!!!!!!!!!!!!!!!!!!!!!!!!!!!!!!!!!!!!!!!!!!!!!!!!!!!!!!!!!!!!!!!!!!+/63000000340+!!!!!!!+/33440+!!!!!!!!!!!!!!!!!!!&+,,00,'!!!!!!!!!!!!!!!!!!!!!!!!!!!!!!!!!!!!!!!!!!!!!!!!!!!!!!!!!!!!!!!!!!!!!!!!!!!!!!!!!!!!!!!!!!!!!!!!!!!!!!!!!!!!!!!!!!!!!!!!!!!!!!!!!!!!!!!!!!!!!!!!!!!!!!!!!!!!!!!!!!!!!!!",
"!!!!!!!!!!!!!!!!!!!!!!!!!!!!!!!!!!!!!!!!!!!!!!!!!!!!!!!!!!!!!!!!!!!!!!!!!!&'+/065300003340,+&&!&'),044443/+++++++&%!!!!!!!&&++/0034,+!!!!!!!!!!!!!!!!!!!!!!!!!!!!!!!!!!!!!!!!!!!!!!!!!!!!!!!!!!!!!!!!!!!!!!!!!!!!!!!!!!!!!!!!!!!!!!!!!!!!!!!!!!!!!!!!!!!!!!!!!!!!!!!!!!!!!!!!!!!!!!!!!!!!!!!!!!!!!!!!!!!!!!!",
"!!!!!!!!!!!!!!!!!!!!!!!!!!!!!!!!!!!!!!!!!!!!!!!!!!!!!!!!!!!!!!!!!!!!!!!!!!'/005663333334:30,+&!',11224444300/////+&!!!!!!!&+/00344;0+!!!!!!!!!!!!!!!!!!!!!!!!!!!!!!!!!!!!!!!!!!!!!!!!!!!!!!!!!!!!!!!!!!!!!!!!!!!!!!!!!!!!!!!!!!!!!!!!!!!!!!!!!!!!!!!!!!!!!!!!!!!!!!!!!!!!!!!!!!!!!!!!!!!!!!!!!!!!!!!!!!!!!!!",
"!!!!!!!!!!!!!!!!!!!!!!!!!!!!!!!!!!!!!!!!!!!!!!!!!!!!!!!!!!!!!!!!!!!!!!!!!!+087666444444:::43,+!)1:::::44444430055/+!!!!!!!+/5666<=Q3+!!!!!!!!!!!!!!!!!!!!!!!!!!!!!!!!!!!!!!!!!!!!!!!!!!!!!!!!!!!!!!!!!!!!!!!!!!!!!!!!!!!!!!!!!!!!!!!!!!!!!!!!!!!!!!!!!!!!!!!!!!!!!!!!!!!!!!!!!!!!!!!!!!!!!!!!!!!!!!!!!!!!!!!",
"!!!!!!!!!!!!!!!!!!!!!!!!!!!!!!!!!!!!!!!!!!!!!!!!!!!!!!!!!!!!!!!!!!!!!!!!!!+0<84444433312:213,,',1::::::;;;Q;444460/+++++++/0444<<;;40++++&%!!!!!!!!!!!!!!!!!!!!!!!!!!!!!!!!!!!!!!!!!!!!!!!!!!!!!!!!!!!!!!!!!!!!!!!!!!!!!!!!!!!!!!!!!!!!!!!!!!!!!!!!!!!!!!!!!!!!!!!!!!!!!!!!!!!!!!!!!!!!!!!!!!!!!!!!!!!!!!!!!",
"!!!!!!!!!!!!!!!!!!!!!!!!!!!!!!!!!!!!!!!!!!!!!!!!!!!!!!!!!!!!!!!!!!!!!!!!!!+0<4433......12111,,,,::::::::::QQQQ=<<30///00003444<==;;;430//+&!!!!!!!!!!!!!!!!!!!!!!!!!!!!!!!!!!!!!!!!!!!!!!!!!!!!!!!!!!!!!!!!!!!!!!!!!!!!!!!!!!!!!!!!!!!!!!!!!!!!!!!!!!!!!!!!!!!!!!!!!!!!!!!!!!!!!!!!!!!!!!!!!!!!!!!!!!!!!!!!!",
"!!!!!!!!!!!!!!!!!!!!!!!!!!!!!!!!!!!!!!!!!!!!!!!!!!!!!!!!!!!!!!!!!!!!!!!!!!+0<443-----*-.11111.,1:::::::::::QQQQQ=44334688844;;;=;;;;;Q<30/+!!!!!!!!!!!!!!!!!!!!!!!!!!!!!!!!!!!!!!!!!!!!!!!!!!!!!!!!!!!!!!!!!!!!!!!!!!!!!!!!!!!!!!!!!!!!!!!!!!!!!!!!!!!!!!!!!!!!!!!!!!!!!!!!!!!!!!!!!!!!!!!!!!!!!!!!!!!!!!!!!",
"!!!!!!!!!!!!!!!!!!!!!!!!!!!!!!!!!!!!!!!!!!!!!!!!!!!!!!!!!!!!!!!!!!!!!!!!!!+0643------*-.....,,,1::::::::::::QQQQ;4434444444;;;;Q;;;;;Q=430/+&%!!!!%&&&%!!!!!!!!!!!!!!!!!!!!!!!!!!!!!!!!!!!!!!!!!!!!!!!!!!!!!!!!!!!!!!!!!!!!!!!!!!!!!!!!!!!!!!!!!!!!!!!!!!!!!!!!!!!!!!!!!!!!!!!!!!!!!!!!!!!!!!!!!!!!!!!!!!!!!",
"!!!!!!!!!!!!!!!!!!!!!!!!!!!!!!!!!!!!!!!!!!!!!!!!!!!!!!!!!!!!!!!!!!!!!!!!!!+/333------**---,,,,,,1::::::::::::::::;444;;;44;;;;;;;;;;;;;=<40/+&!!!!&'+'&!!!!!!!!!!!!!!!!!!!!!!!!!!!!!!!!!!!!!!!!!!!!!!!!!!!!!!!!!!!!!!!!!!!!!!!!!!!!!!!!!!!!!!!!!!!!!!!!!!!!!!!!!!!!!!!!!!!!!!!!!!!!!!!!!!!!!!!!!!!!!!!!!!!!!",
"!!!!!!!!!!!!!!!!!!!!!!!!!!!!!!!!!!!!!!!!!!!!!!!!!!!!!!!!!!!!!!!!!!!!!!!!!!'/03-------******,,,,,.12:::::::::::::::;4;;:::12;;;;;;;;;;;;QQ<65/+!!!!&+/+&!!!!!!!!!!!!!!!!!!!!!!!!!!!!!!!!!!!!!!!!!!!!!!!!!!!!!!!!!!!!!!!!!!!!!!!!!!!!!!!!!!!!!!!!!!!!!!!!!!!!!!!!!!!!!!!!!!!!!!!!!!!!!!!!!!!!!!!!!!!!!!!!!!!!!",
"!!!!!!!!!!!!!!!!!!!!!!!!!!!!!!!!!!!!!!!!!!!!!!!!!!!!!!!!!!!!!!!!!!!!!!!!!!&+/,-------*******,,,,..11::::::::::::::2;;:::222::;;;;;;;;;;;;=<60/++++//0/'!!!!!!!!!!!!!!!!!!!!!!!!!!!!!!!!!!!!!!!!!!!!!!!!!!!!!!!!!!!!!!!!!!!!!!!!!!!!!!!!!!!!!!!!!!!!!!!!!!!!!!!!!!!!!!!!!!!!!!!!!!!!!!!!!!!!!!!!!!!!!!!!!!!!!",
"!!!!!!!!!!!!!!!!!!!!!!!!!!!!!!!!!!!!!!!!!!!!!!!!!!!!!!!!!!!!!!!!!!!!!!!!!!%&',*------***********--.122::::::::::::22::::22:::::::;;;;;;;;;;<40//00556/+!!!!!!!!!!!!!!!!!!!!!!!!!!!!!!!!!!!!!!!!!!!!!!!!!!!!!!!!!!!!!!!!!!!!!!!!!!!!!!!!!!!!!!!!!!!!!!!!!!!!!!!!!!!!!!!!!!!!!!!!!!!!!!!!!!!!!!!!!!!!!!!!!!!!!",
"!!!!!!!!!!!!!!!!!!!!!!!!!!!!!!!!!!!!!!!!!!!!!!!!!!!!!!!!!!!!!!!!!!!!!!!!!!!!!)*.-----*************-.1222:::::2222222222222:::::2::;;:::::;;Q=4368<<<<0+!!!!!!!!!!!!!!!!!!!!!!!!!!!!!!!!!!!!!!!!!!!!!!!!!!!!!!!!!!!!!!!!!!!!!!!!!!!!!!!!!!!!!!!!!!!!!!!!!!!!!!!!!!!!!!!!!!!!!!!!!!!!!!!!!!!!!!!!!!!!!!!!!!!!!",
"!!!!!!!!!!!!!!!!!!!!!!!!!!!!!!!!!!!!!!!!!!!!!!!!!!!!!!!!!!!!!!!!!!!!!!!!!!&&+,-1.----*************--.11122:222221112222222:::::2:::::::::;;Q;;44<====3+!!!!!!!!!!!!!!!!!!!!!!!!!!!!!!!!!!!!!!!!!!!!!!!!!!!!!!!!!!!!!!!!!!!!!!!!!!!!!!!!!!!!!!!!!!!!!!!!!!!!!!!!!!!!!!!!!!!!!!!!!!!!!!!!!!!!!!!!!!!!!!!!!!!!!",
"!!!!!!!!!!!!!!!!!!!!!!!!!!!!!!!!!!!!!!!!!!!!!!!!!!!!!!!!!!!!!!!!!!!!!!!!!!&+00311---*******(******--...1112222111111112222::::212:::::::::;QQ;;QQ====3+!!!!!!!!!!!!!!!!!!!!!!!!!!!!!!!!!!!!!!!!!!!!!!!!!!!!!!!!!!!!!!!!!!!!!!!!!!!!!!!!!!!!!!!!!!!!!!!!!!!!!!!!!!!!!!!!!!!!!!!!!!!!!!!!!!!!!!!!!!!!!!!!!!!!!",
"!!!!!!!!!!!!!!!!!!!!!!!!!!!!!!!!!!!!!!!!!!!!!!!!!!!!!!!!!!!!!!!!!!!!!!!!!!+064411.--******(((******----..111111......112222222212:::::::::::QQQQQQQ==3/!!!!!!!!!!!!!!!!!!!!!!!!!!!!!!!!!!!!!!!!!!!!!!!!!!!!!!!!!!!!!!!!!!!!!!!!!!!!!!!!!!!!!!!!!!!!!!!!!!!!!!!!!!!!!!!!!!!!!!!!!!!!!!!!!!!!!!!!!!!!!!!!!!!!!",
"!!!!!!!!!!!!!!!!!!!!!!!!!!!!!!!!!!!!!!!!!!!!!!!!!!!!!!!!!!!!!!!!!!!!!!!&++/084441.--******((((((((***----....1..-----..11122221122:::::::::::::QQQQQQ4+!!!!!!!&'++++'&!!!!!!!!!!!!!!!!!!!!!!!!!!!!!!!!!!!!!!!!!!!!!!!!!!!!!!!!!!!!!!!!!!!!!!!!!!!!!!!!!!!!!!!!!!!!!!!!!!!!!!!!!!!!!!!!!!!!!!!!!!!!!!!!!!!!!!",
"!!!!!!!!!!!!!!!!!!!!!!!!!!!!!!!!!!!!!!!!!!!!!!!!!!!!!!!!!!!!!!!!!!!!!!!+/056<<4411--******(((((((((*****----...--------..11121111222222:::::::::QQQQQ4+!!!!!!!',1330,'!!!!!!!!!!!!!!!!!!!!!!!!!!!!!!!!!!!!!!!!!!!!!!!!!!!!!!!!!!!!!!!!!!!!!!!!!!!!!!!!!!!!!!!!!!!!!!!!!!!!!!!!!!!!!!!!!!!!!!!!!!!!!!!!!!!!!!",
"!!!!!!!!!!!!!!!!!!!!!!!!!!!!!!!!!!!!!!!!!!!!!!!!!!!!!!!!!!!!!!!!!!!!!!!+0<<<<<<441.-******(((((((((((******--.--*******--..111111111112222212::::QQQQ4+!!!!!!!+1;;;20+!!!!!!!!!!!!!!!!!!!!!!!!!!!!!!!!!!!!!!!!!!!!!!!!!!!!!!!!!!!!!!!!!!!!!!!!!!!!!!!!!!!!!!!!!!!!!!!!!!!!!!!!!!!!!!!!!!!!!!!!!!!!!!!!!!!!!!",
"!!!!!!!!!!!!!!!!!!!!!!!!!!!!!!!!!!!!!!!!!!!!!!!!!!!!!!!!!!!!!!!!!!!!!!!+/05<==4;21--*****(((((''))(((((((****--*********---....1111111111111122:::QQQ1,!%&'+)),2;;;230++&!!!!!!!!!!!!!!!!!!!!!!!!!!!!!!!!!!!!!!!!!!!!!!!!!!!!!!!!!!!!!!!!!!!!!!!!!!!!!!!!!!!!!!!!!!!!!!!!!!!!!!!!!!!!!!!!!!!!!!!!!!!!!!!!!!!",
"!!!!!!!!!!!!!!!!!!!!!!!!!!!!!!!!!!!!!!!!!!!!!!!!!!!!!!!!!!!!!!!!!!!!!!!&++04==;:2.-*****((((''''''''))))((((**********(***--.....111....1...112::::::1,!&),,012;;;;;430/+!!!!!!!!!!!!!!!!!!!!!!!!!!!!!!!!!!!!!!!!!!!!!!!!!!!!!!!!!!!!!!!!!!!!!!!!!!!!!!!!!!!!!!!!!!!!!!!!!!!!!!!!!!!!!!!!!!!!!!!!!!!!!!!!!!!",
"!!!!!!!!!!!!!!!!!!!!!!!!!!!!!!!!!!!!!!!!!!!!!!!!!!!!!!!!!!!!!!!!!!!!!!!!!!/3=Q;:2.****((((('''$$$$$''''')))((((((((((((((***---..111.........112:::::1)!',.22;;;;;;;;<<0+!!!!!!!!!!!!!!!!!!!!!!!!!!!!!!!!!!!!!!!!!!!!!!!!!!!!!!!!!!!!!!!!!!!!!!!!!!!!!!!!!!!!!!!!!!!!!!!!!!!!!!!!!!!!!!!!!!!!!!!!!!!!!!!!!!!",
"!!!!!!!!!!!!!!!!!!!!!!!!!!!!!!!!!!!!!!!!!!!!!!!!!!!!!!!!!!!!!!!!!!!!!!!!!!+3=Q;::1-****((((''$$$$$$$&'''''')))))(((((((((((***----.--------..112:::::2,),,.1222;;;;;;4<0+!!!!!!!!!!!!!!!!!!!!!!!!!!!!!!!!!!!!!!!!!!!!!!!!!!!!!!!!!!!!!!!!!!!!!!!!!!!!!!!!!!!!!!!!!!!!!!!!!!!!!!!!!!!!!!!!!!!!!!!!!!!!!!!!!!!",
"!!!!!!!!!!!!!!!!!!!!!!!!!!!!!!!!!!!!!!!!!!!!!!!!!!!!!!!!!!!!!!!!!!!!!!!!!!+3=Q;::1--****(((''$%%%%%%%%&&&'''')))))))))))))),,****---****---..11222:::21....11222222;;440+!!!!!!!!!!!!!!!!!!!!!!!!!!!!!!!!!!!!!!!!!!!!!!!!!!!!!!!!!!!!!!!!!!!!!!!!!!!!!!!!!!!!!!!!!!!!!!!!!!!!!!!!!!!!!!!!!!!!!!!!!!!!!!!!!!!",
"!!!!!!!!!!!!!!!!!!!!!!!!!!!!!!!!!!!!!!!!!!!!!!!!!!!!!!!!!!!!!!!!!!!!!!!!!!+3QQ;::2.--***((()'$########%%%&&&'''''''''''''')))(((*********--..1111122222211...111122;221,+!!!!!!!!!!!!!!!!!!!!!!!!!!!!!!!!!!!!!!!!!!!!!!!!!!!!!!!!!!!!!!!!!!!!!!!!!!!!!!!!!!!!!!!!!!!!!!!!!!!!!!!!!!!!!!!!!!!!!!!!!!!!!!!!!!!",
"!!!!!!!!!!!!!!!!!!!!!!!!!!!!!!!!!!!!!!!!!!!!!!!!!!!!!!!!!!!!!!!!!!!!!!!!!!+3;;;::21..--**(()'$%#########%%&&&''''''''''''''))))((((((((***---.1...1111111....1112222213,+!!!!!!!!!!!!!!!!!!!!!!!!!!!!!!!!!!!!!!!!!!!!!!!!!!!!!!!!!!!!!!!!!!!!!!!!!!!!!!!!!!!!!!!!!!!!!!!!!!!!!!!!!!!!!!!!!!!!!!!!!!!!!!!!!!!",
"!!!!!!!!!!!!!!!!!!!!!!!!!!!!!!!!!!!!!!!!!!!!!!!!!!!!!!!!!!!!!!!!!!!!!!!!!!+04;::::211.-**(((''%%########%%&&&&'''''''''''''''))))))((((((***--...-.....1....11122222113,'!!!!!!!!!!!!!!!!!!!!!!!!!!!!!!!!!!!!!!!!!!!!!!!!!!!!!!!!!!!!!!!!!!!!!!!!!!!!!!!!!!!!!!!!!!!!!!!!!!!!!!!!!!!!!!!!!!!!!!!!!!!!!!!!!!!",
"!!!!!!!!!!!!!!!!!!!!!!!!!!!!!!!!!!!!!!!!!!!!!!!!!!!!!!!!!!!!!!!!!!!!!!!!!!+,12:::::221.-**((''%%#########%%&&&&&&&&&&&&&&&&'''''''')((((((***-.--------.....11122221133,'!!!!!!!!!!!!!!!!!!!!!!!!!!!!!!!!!!!!!!!!!!!!!!!!!!!!!!!!!!!!!!!!!!!!!!!!!!!!!!!!!!!!!!!!!!!!!!!!!!!!!!!!!!!!!!!!!!!!!!!!!!!!!!!!!!!",
"!!!!!!!!!!!!!!!!!!!!!!!!!!!!!!!!!!!!!!!!!!!!!!!!!!!!!!!!!!!!!!!!!!!!!!!!!!+,12::::::22.--*(()'%%%########%%%&&&&&&&&&&&&&&&'''''''''')((((((**--*****------..122:2221430,++&!!!!!!!!!!!!!!!!!!!!!!!!!!!!!!!!!!!!!!!!!!!!!!!!!!!!!!!!!!!!!!!!!!!!!!!!!!!!!!!!!!!!!!!!!!!!!!!!!!!!!!!!!!!!!!!!!!!!!!!!!!!!!!!!",
"!!!!!!!!!!!!!!!!!!!!!!!!!!!!!!!!!!!!!!!!!!!!!!!!!!!!!!!!!!!!!!!!!!!!!!!!!!+,12:::::::21.-**(('&%%#########%%%$$$$&&&&&$$$$$'''''''''''''')((((***********---.122::::244433,+!!!!!!!!!!!!!!!!!!!!!!!!!!!!!!!!!!!!!!!!!!!!!!!!!!!!!!!!!!!!!!!!!!!!!!!!!!!!!!!!!!!!!!!!!!!!!!!!!!!!!!!!!!!!!!!!!!!!!!!!!!!!!!!!",
"!!!!!!!!!!!!!!!!!!!!!!!!!!!!!!!!!!!!!!!!!!!!!!!!!!!!!!!!!!!!!!!!!!!!!!!!!!+,12:::::::211.-*(('&&%#########%%%$$$$$&&&$$$$$$$$$&&&$$$$$''''')((((((((((((***-.12:::::;4<<;;3+!!!!!!!!!!!!!!!!!!!!!!!!!!!!!!!!!!!!!!!!!!!!!!!!!!!!!!!!!!!!!!!!!!!!!!!!!!!!!!!!!!!!!!!!!!!!!!!!!!!!!!!!!!!!!!!!!!!!!!!!!!!!!!!!",
"!!!!!!!!!!!!!!!!!!!!!!!!!!!!!!!!!!!!!!!!!!!!!!!!!!!!!!!!!!!!!!!!!!!!!!!!!!+,12;::::::211.-*((''&%##########%%$$$$$$&$$$$$$$$$$$&$$$$$$''''''')((((((((((***-.12:::::;4<<;;40+'&!!!!!!!!!!!!!!!!!!!!!!!!!!!!!!!!!!!!!!!!!!!!!!!!!!!!!!!!!!!!!!!!!!!!!!!!!!!!!!!!!!!!!!!!!!!!!!!!!!!!!!!!!!!!!!!!!!!!!!!!!!!!!",
"!!!!!!!!!!!!!!!!!!!!!!!!!!!!!!!!!!!!!!!!!!!!!!!!!!!!!!!!!!!!!!!!!!!!!!!!!!+,22;;:::::211.-**()'&&%###########%$$$$$$$$$$$$$$$$$$$$$$$$$''''''''')))((((((**-.12:::22;4<;;;430/'!!!!!!!!!!!!!!!!!!!!!!!!!!!!!!!!!!!!!!!!!!!!!!!!!!!!!!!!!!!!!!!!!!!!!!!!!!!!!!!!!!!!!!!!!!!!!!!!!!!!!!!!!!!!!!!!!!!!!!!!!!!!!",
"!!!!!!!!!!!!!!!!!!!!!!!!!!!!!!!!!!!!!!!!!!!!!!!!!!!!!!!!!!!!!!!!!!!!!!!!!!+0;2;;:::::211.-**()''&%%#############%$$$$$$$$$$$$$$$$$$$$$$$$$$$$''''''))((((**-.12:::22;;=;;;;<80+!!!!!!!!!!!!!!!!!!!!!!!!!!!!!!!!!!!!!!!!!!!!!!!!!!!!!!!!!!!!!!!!!!!!!!!!!!!!!!!!!!!!!!!!!!!!!!!!!!!!!!!!!!!!!!!!!!!!!!!!!!!!!",
"!!!!!!!!!!!!!!!!!!!!!!!!!!!!!!!!!!!!!!!!!!!!!!!!!!!!!!!!!!!!!!!!!!!!!!!!!!+3;;;;:::::221.--*())'&%%%##############%$$$$$$$$$$$$$$$$$$$$$$$$$$$$''''''))((**-.112:222;;;;;;;;<0+!!!!!!!!!!!!!!!!!!!!!!!!!!!!!!!!!!!!!!!!!!!!!!!!!!!!!!!!!!!!!!!!!!!!!!!!!!!!!!!!!!!!!!!!!!!!!!!!!!!!!!!!!!!!!!!!!!!!!!!!!!!!!",
"!!!!!!!!!!!!!!!!!!!!!!!!!!!!!!!!!!!!!!!!!!!!!!!!!!!!!!!!!!!!!!!!!!!!!!!!!!+3;;;;;:::::211.-**()'&%%%%################%%$$$$$$$$$$$$$$$$$$$$$$$$$$$''''))(**--.11222:;;;;;2;;;3+!!!!!!!!!!!!!!!!!!!!!!!!!!!!!!!!!!!!!!!!!!!!!!!!!!!!!!!!!!!!!!!!!!!!!!!!!!!!!!!!!!!!!!!!!!!!!!!!!!!!!!!!!!!!!!!!!!!!!!!!!!!!!",
"!!!!!!!!!!!!!!!!!!!!!!!!!!!!!!!!!!!!!!!!!!!!!!!!!!!!!!!!!!!!!!!!!!!!!!!!!!+3;;;;;:::::221.-**())'%%%%####################%$$$$$$$$$$$$$$$$$$$$$$$$$&&'')(**--..112:::;;;;2;;;3+!!!!!!!!!!!!!!!!!!!!!!!!!!!!!!!!!!!!!!!!!!!!!!!!!!!!!!!!!!!!!!!!!!!!!!!!!!!!!!!!!!!!!!!!!!!!!!!!!!!!!!!!!!!!!!!!!!!!!!!!!!!!!",
"!!!!!!!!!!!!!!!!!!!!!!!!!!!!!!!!!!!!!!!!!!!!!!!!!!!!!!!!!!!!!!!!!!!!!!!!!!+3Q;;;;::222211.-**())'&%%%######################%$$$$$$$$$$$$$$$$$$$$$$$&&''))(*--..112::::;;222;;3+!!!!!!!!!!!!!!!!!!!!!!!!!!!!!!!!!!!!!!!!!!!!!!!!!!!!!!!!!!!!!!!!!!!!!!!!!!!!!!!!!!!!!!!!!!!!!!!!!!!!!!!!!!!!!!!!!!!!!!!!!!!!!",
"!!!!!!!!!!!!!!!!!!!!!!!!!!!!!!!!!!!!!!!!!!!!!!!!!!!!!!!!!!!!!!!!!!!!!!!!!!+3=Q;;;2222211.--**(()'&&%%%##################################%%%%%%%%%%%%&&''),**-..112::::::222;;3+!!!!!!!!!!!!!!!!!!!!!!!!!!!!!!!!!!!!!!!!!!!!!!!!!!!!!!!!!!!!!!!!!!!!!!!!!!!!!!!!!!!!!!!!!!!!!!!!!!!!!!!!!!!!!!!!!!!!!!!!!!!!!",
"!!!!!!!!!!!!!!!!!!!!!!!!!!!!!!!!!!!!!!!!!!!!!!!!!!!!!!!!!!!!!!!!!!!!!!!!!!/3R=Q;;211111..-**((()'&&&%%%############################################%%&&')),*-..112::::::2222;0+!!!!!!!!!!!!!!!!!!!!!!!!!!!!!!!!!!!!!!!!!!!!!!!!!!!!!!!!!!!!!!!!!!!!!!!!!!!!!!!!!!!!!!!!!!!!!!!!!!!!!!!!!!!!!!!!!!!!!!!!!!!!!",
"!!!!!!!!!!!!!!!!!!!!!!!!!!!!!!!!!!!!!!!!!!!!!!!!!!!!!!!!!!!!!!!!!!!!!!!!!!+/34;;;21111..--**((()'&&%%%%##################################&+++//+&###%&&&)),,-..112::::::22222,+!!!!!!!!!!!!!!!!!!!!!!!!!!!!!!!!!!!!!!!!!!!!!!!!!!!!!!!!!!!!!!!!!!!!!!!!!!!!!!!!!!!!!!!!!!!!!!!!!!!!!!!!!!!!!!!!!!!!!!!!!!!!!",
"!!!!!!!!!!!!!!!!!!!!!!!!!!!!!!!!!!!!!!!!!!!!!!!!!!!!!!!!!!!!!!!!!!!!!!!!!!&+/04;211111..-***((()'&&%%%%##################################+/33470+###%&&&'),,-..112::::::22222,+!!!!!!!!!!!!!!!!!!!!!!!!!!!!!!!!!!!!!!!!!!!!!!!!!!!!!!!!!!!!!!!!!!!!!!!!!!!!!!!!!!!!!!!!!!!!!!!!!!!!!!!!!!!!!!!!!!!!!!!!!!!!!",
"!!!!!!!!!!!!!!!!!!!!!!!!!!!!!!!!!!!!!!!!!!!!!!!!!!!!!!!!!!!!!!!!!!!!!!!!!!!!!+0;213.11.-****(())'&&$$%%##################################+3Q==R7/###%%&&&),,-..112::::::21111,+!!!!!!!!!!!!!!!!!!!!!!!!!!!!!!!!!!!!!!!!!!!!!!!!!!!!!!!!!!!!!!!!!!!!!!!!!!!!!!!!!!!!!!!!!!!!!!!!!!!!!!!!!!!!!!!!!!!!!!!!!!!!!",
"!!!!!!!!!!!!!!!!!!!!!!!!!!!!!!!!!!!!!!!!!!!!!!!!!!!!!!!!!!!!!!!!!!!!!!!!!!!!!',0000..1.--***(())'&&%%%%##################################+3;==R<0/+&#%%%&)),,-...12:::::22211,+!!!!!!!!!!!!!!!!!!!!!!!!!!!!!!!!!!!!!!!!!!!!!!!!!!!!!!!!!!!!!!!!!!!!!!!!!!!!!!!!!!!!!!!!!!!!!!!!!!!!!!!!!!!!!!!!!!!!!!!!!!!!!",
"!!!!!!!!!!!!!!!!!!!!!!!!!!!!!!!!!!!!!!!!!!!!!!!!!!!!!!!!!!!!!!!!!!!!!!!!!!!!!&'+,,0..1..--**(())'&&&%%%%#################################+3;====85/+###%&')),,--.12::::::2211,+!!!!!!!!!!!!!!!!!!!!!!!!!!!!!!!!!!!!!!!!!!!!!!!!!!!!!!!!!!!!!!!!!!!!!!!!!!!!!!!!!!!!!!!!!!!!!!!!!!!!!!!!!!!!!!!!!!!!!!!!!!!!!",
"!!!!!!!!!!!!!!!!!!!!!!!!!!!!!!!!!!!!!!!!!!!!!!!!!!!!!!!!!!!!!!!!!!!!!!!!!!!!!!!!'+,-.1...-**(())'&&&&&%%#################################+0;;===EM5/####&')),,,--.12::::::221,+!!!!!!!!!!!!!!!!!!!!!!!!!!!!!!!!!!!!!!!!!!!!!!!!!!!!!!!!!!!!!!!!!!!!!!!!!!!!!!!!!!!!!!!!!!!!!!!!!!!!!!!!!!!!!!!!!!!!!!!!!!!!!",
"!!!!!!!!!!!!!!!!!!!!!!!!!!!!!!!!!!!!!!!!!!!!!!!!!!!!!!!!!!!!!!!!!!!!!!!!!!!!!!!!'+0..11..-**((()''&&&&%######################&&++++++++++04;====RM5/###%&'')),,*-.122:::::221,+!!!!!!!!!!!!!!!!!!!!!!!!!!!!!!!!!!!!!!!!!!!!!!!!!!!!!!!!!!!!!!!!!!!!!!!!!!!!!!!!!!!!!!!!!!!!!!!!!!!!!!!!!!!!!!!!!!!!!!!!!!!!!",
"!!!!!!!!!!!!!!!!!!!!!!!!!!!!!!!!!!!!!!!!!!!!!!!!!!!!!!!!!!!!!!!!!!!!!!!!!!!!!!!!',0..1111.-**(()''&&&%%######################&+000000003344===RRRM5/#%%%&&'))),*--.122::::221,+!!!!!!!!!!!!!!!!!!!!!!!!!!!!!!!!!!!!!!!!!!!!!!!!!!!!!!!!!!!!!!!!!!!!!!!!!!!!!!!!!!!!!!!!!!!!!!!!!!!!!!!!!!!!!!!!!!!!!!!!!!!!!",
"!!!!!!!!!!!!!!!!!!!!!!!!!!!!!!!!!!!!!!!!!!!!!!!!!!!!!!!!!!!!!!!!!!!!!!!!!!!!!!!!',3...111.-**(()'''&&%%######################+0666678<<=======RRRM6/%%%&&&'')),**-.11222::221,)!!!!!!!!!!!!!!!!!!!!!!!!!!!!!!!!!!!!!!!!!!!!!!!!!!!!!!!!!!!!!!!!!!!!!!!!!!!!!!!!!!!!!!!!!!!!!!!!!!!!!!!!!!!!!!!!!!!!!!!!!!!!!",
"!!!!!!!!!!!!!!!!!!!!!!!!!!!!!!!!!!!!!!!!!!!!!!!!!!!!!!!!!!!!!!!!!!!!!!!!!!!!!!!!+,4111111.--*(())''&&%%###################&&+/044444<<<<==<4==RRT]B5/////+'+)),,*-..112222211,)!!!!!!!!!!!!!!!!!!!!!!!!!!!!!!!!!!!!!!!!!!!!!!!!!!!!!!!!!!!!!!!!!!!!!!!!!!!!!!!!!!!!!!!!!!!!!!!!!!!!!!!!!!!!!!!!!!!!!!!!!!!!!",
"!!!!!!!!!!!!!!!!!!!!!!!!!!!!!!!!!!!!!!!!!!!!!!!!!!!!!!!!!!!!!!!!!!!!!!!!!!!!!!!!+0;222211..-**())''&&%%###################&+,034444444<<<444<=RR]kWJ???>5/+++),,*--..11222211,)!!!!!!!!!!!!!!!!!!!!!!!!!!!!!!!!!!!!!!!!!!!!!!!!!!!!!!!!!!!!!!!!!!!!!!!!!!!!!!!!!!!!!!!!!!!!!!!!!!!!!!!!!!!!!!!!!!!!!!!!!!!!!",
"!!!!!!!!!!!!!!!!!!!!!!!!!!!!!!!!!!!!!!!!!!!!!!!!!!!!!!!!!!!!!!!!!!!!!!!!!!!!!!!!+3;;;22211..-*,))'''&&%###################+,44444444444444444<EThwyyzxvs@0++++,,,*--..1122111,)!!!!!!!!!!!!!!!!!!!!!!!!!!!!!!!!!!!!!!!!!!!!!!!!!!!!!!!!!!!!!!!!!!!!!!!!!!!!!!!!!!!!!!!!!!!!!!!!!!!!!!!!!!!!!!!!!!!!!!!!!!!!!",
"!!!!!!!!!!!!!!!!!!!!!!!!!!!!!!!!!!!!!!!!!!!!!!!!!!!!!!!!!!!!!!!!!!!!!!!!!!!!!!!!+3;;;:2211..-*,))'''&&%%###############&++,01122211444444444<<EReuwwywurM800530,,,--..1122211,)!!!!!!!!!!!!!!!!!!!!!!!!!!!!!!!!!!!!!!!!!!!!!!!!!!!!!!!!!!!!!!!!!!!!!!!!!!!!!!!!!!!!!!!!!!!!!!!!!!!!!!!!!!!!!!!!!!!!!!!!!!!!!",
"!!!!!!!!!!!!!!!!!!!!!!!!!!!!!!!!!!!!!!!!!!!!!!!!!!!!!!!!!!!!!!!!!!!!!!!!!!!!!!!!+3;;;;221111.-,))'''&&$$%##############+/0311122211111433344<<ERcssvwvsqaM@@@@60,,*--..122211,)!!!!!!!!!!!!!!!!!!!!!!!!!!!!!!!!!!!!!!!!!!!!!!!!!!!!!!!!!!!!!!!!!!!!!!!!!!!!!!!!!!!!!!!!!!!!!!!!!!!!!!!!!!!!!!!!!!!!!!!!!!!!!",
"!!!!!!!!!!!!!!!!!!!!!!!!!!!!!!!!!!!!!!!!!!!!!!!!!!!!!!!!!!!!!!!!!!!!!!!!!!!!!!!!+3;;;;221111.-,,)'''&&$$$##############+0<41.1222111111133448<ER]pqswsppqqrrrrE3,,*---.122211,+!!!!!!!!!!!!!!!!!!!!!!!!!!!!!!!!!!!!!!!!!!!!!!!!!!!!!!!!!!!!!!!!!!!!!!!!!!!!!!!!!!!!!!!!!!!!!!!!!!!!!!!!!!!!!!!!!!!!!!!!!!!!!",
"!!!!!!!!!!!!!!!!!!!!!!!!!!!!!!!!!!!!!!!!!!!!!!!!!!!!!!!!!!!!!!!!!!!!!!!!!!!!!!!!+3;;;;221111.-,,)'''&&$$$%#############+0<41.11111111111144<<@MThpttwttsssusssS8330*-..112211.,+'&!!!!!!!!!!!!!!!!!!!!!!!!!!!!!!!!!!!!!!!!!!!!!!!!!!!!!!!!!!!!!!!!!!!!!!!!!!!!!!!!!!!!!!!!!!!!!!!!!!!!!!!!!!!!!!!!!!!!!!!!!!",
"!!!!!!!!!!!!!!!!!!!!!!!!!!!!!!!!!!!!!!!!!!!!!!!!!!!!!!!!!!!!!!!!!!!!!!!!!!!!!!!!+3;;;22211...-,))''&&&$$$$%############+0<44.11111111111144<@ER]ipttwwwwwwxvuseSE83,-..112211130,'!!!!!!!!!!!!!!!!!!!!!!!!!!!!!!!!!!!!!!!!!!!!!!!!!!!!!!!!!!!!!!!!!!!!!!!!!!!!!!!!!!!!!!!!!!!!!!!!!!!!!!!!!!!!!!!!!!!!!!!!!!",
"!!!!!!!!!!!!!!!!!!!!!!!!!!!!!!!!!!!!!!!!!!!!!!!!!!!!!!!!!!!!!!!!!!!!!!!!!!!!!!!!+3;;222211..--,))&&&&&$$$$$%###########+5=44.......1111114<@ER]hitttty}}}}}ywuussE4,,.11111112220+!!!!!!!!!!!!!!!!!!!!!!!!!!!!!!!!!!!!!!!!!!!!!!!!!!!!!!!!!!!!!!!!!!!!!!!!!!!!!!!!!!!!!!!!!!!!!!!!!!!!!!!!!!!!!!!!!!!!!!!!!!",
"!!!!!!!!!!!!!!!!!!!!!!!!!!!!!!!!!!!!!!!!!!!!!!!!!!!!!!!!!!!!!!!!!!!!!!!!!!!!!!!!+3;;;22221..-*,))''&&&$$$$$$%##########+5E<411.....11111124==R]ciipptttyyz}zywwwvT@4333112211222,+!!!!!!!!!!!!!!!!!!!!!!!!!!!!!!!!!!!!!!!!!!!!!!!!!!!!!!!!!!!!!!!!!!!!!!!!!!!!!!!!!!!!!!!!!!!!!!!!!!!!!!!!!!!!!!!!!!!!!!!!!!",
"!!!!!!!!!!!!!!!!!!!!!!!!!!!!!!!!!!!!!!!!!!!!!!!!!!!!!!!!!!!!!!!!!!!!!!!!!!!!!!!!+3;;;22221..-**))''&&&$$$$$$$##########/5E<411111111111112;Q=RT]chipptttty{zzyyyyhTE<43344422222,+!!!!!!!!!!!!!!!!!!!!!!!!!!!!!!!!!!!!!!!!!!!!!!!!!!!!!!!!!!!!!!!!!!!!!!!!!!!!!!!!!!!!!!!!!!!!!!!!!!!!!!!!!!!!!!!!!!!!!!!!!!",
"!!!!!!!!!!!!!!!!!!!!!!!!!!!!!!!!!!!!!!!!!!!!!!!!!!!!!!!!!!!!!!!!!!!!!!!!!!!!!!!!+3;;;222211.-**))'''&&$$$$$$$%#########/6R<433111111111112;QQRTT]chippptty{{{{{{{{zzR<3344442211,+!!!!!!!!!!!!!!!!!!!!!!!!!!!!!!!!!!!!!!!!!!!!!!!!!!!!!!!!!!!!!!!!!!!!!!!!!!!!!!!!!!!!!!!!!!!!!!!!!!!!!!!!!!!!!!!!!!!!!!!!!!",
"!!!!!!!!!!!!!!!!!!!!!!!!!!!!!!!!!!!!!!!!!!!!!!!!!!!!!!!!!!!!!!!!!!!!!!!!!!!!!!!!+3;;2222221.--*()'''&&&$$$$$$$%########/5R<4331111.......12;Q==RRT]chiiippttttttywtt]E<<<=<44422,+!!!!!!!!!!!!!!!!!!!!!!!!!!!!!!!!!!!!!!!!!!!!!!!!!!!!!!!!!!!!!!!!!!!!!!!!!!!!!!!!!!!!!!!!!!!!!!!!!!!!!!!!!!!!!!!!!!!!!!!!!!",
"!!!!!!!!!!!!!!!!!!!!!!!!!!!!!!!!!!!!!!!!!!!!!!!!!!!!!!!!!!!!!!!!!!!!!!!!!!!!!!!!+3;;22222211.-*()'''&&&&$$$$$$%########/5R<433331....----.12;;Q=RRW]]chhiiiipppttttph]RRRR==4422,+!!!!!!!!!!!!!!!!!!!!!!!!!!!!!!!!!!!!!!!!!!!!!!!!!!!!!!!!!!!!!!!!!!!!!!!!!!!!!!!!!!!!!!!!!!!!!!!!!!!!!!!!!!!!!!!!!!!!!!!!!!",
"!!!!!!!!!!!!!!!!!!!!!!!!!!!!!!!!!!!!!!!!!!!!!!!!!!!!!!!!!!!!!!!!!!!!!!!!!!!!!!!!+0;222222211.-*()'''&&&&&$$$$$$########/5E<413331..-----*-.12:;Q=MPWWT]chhhhiiiptppiptyxwvR=4442,+!!!!!!!!!!!!!!!!!!!!!!!!!!!!!!!!!!!!!!!!!!!!!!!!!!!!!!!!!!!!!!!!!!!!!!!!!!!!!!!!!!!!!!!!!!!!!!!!!!!!!!!!!!!!!!!!!!!!!!!!!!",
"!!!!!!!!!!!!!!!!!!!!!!!!!!!!!!!!!!!!!!!!!!!!!!!!!!!!!!!!!!!!!!!!!!!!!!!!!!!!!&++,1;;22221111.--*))''&&&&&$$$$$$########+5=<4311....----**-.1122;===ERRTTT]]]TTTTTT]]cehhkm]R==;;0+!!!!!!!!!!!!!!!!!!!!!!!!!!!!!!!!!!!!!!!!!!!!!!!!!!!!!!!!!!!!!!!!!!!!!!!!!!!!!!!!!!!!!!!!!!!!!!!!!!!!!!!!!!!!!!!!!!!!!!!!!!",
"!!!!!!!!!!!!!!!!!!!!!!!!!!!!!!!!!!!!!!!!!!!!!!!!!!!!!!!!!!!!!!!!!!!!!!!!!!!!!+,34;;;;22111...--*,))'''&&&$$$$$$########+0<443......---***--.1112;Q==EEMPSSUMMMEEDEJMMUWW]c]]RR=;3+!!!!!!!!!!!!!!!!!!!!!!!!!!!!!!!!!!!!!!!!!!!!!!!!!!!!!!!!!!!!!!!!!!!!!!!!!!!!!!!!!!!!!!!!!!!!!!!!!!!!!!!!!!!!!!!!!!!!!!!!!!",
"!!!!!!!!!!!!!!!!!!!!!!!!!!!!!!!!!!!!!!!!!!!!!!!!!!!!!!!!!!!!!!!!!!!!!!!!!!!!!+3;;;;;;221.......-,))'''&&&$$$$$$%#######+0<443..--,,,,,,**---...12:;==EEJJJJHDB?979?@@EEMRTcp~hR=3+!!!!!!!!!!!!!!!!!!!!!!!!!!!!!!!!!!!!!!!!!!!!!!!!!!!!!!!!!!!!!!!!!!!!!!!!!!!!!!!!!!!!!!!!!!!!!!!!!!!!!!!!!!!!!!!!!!!!!!!!!!",
"!!!!!!!!!!!!!!!!!!!!!!!!!!!!!!!!!!!!!!!!!!!!!!!!!!!!!!!!!!!!!!!!!!!!!!!!!!&),,2;;;;;;2211111111.,,))'''&$$$$$$$%#######+0<433..--,,,00,-*---...122;;==<@@@BBAABCDHLSSVWT]cis~iRR6/!!!!!!!!!!!!!!!!!!!!!!!!!!!!!!!!!!!!!!!!!!!!!!!!!!!!!!!!!!!!!!!!!!!!!!!!!!!!!!!!!!!!!!!!!!!!!!!!!!!!!!!!!!!!!!!!!!!!!!!!!!",
"!!!!!!!!!!!!!!!!!!!!!!!!!!!!!!!!!!!!!!!!!!!!!!!!!!!!!!!!!!!!!!!!!!!!!!!!!!),2:;;;;;;;2221111111..,,)'''$$$$$$$$$#######+0843...--,,00000-----..11222;4<<889>>?DLY^aeeehmmpsw~tih7/!!!!!!!!!!!!!!!!!!!!!!!!!!!!!!!!!!!!!!!!!!!!!!!!!!!!!!!!!!!!!!!!!!!!!!!!!!!!!!!!!!!!!!!!!!!!!!!!!!!!!!!!!!!!!!!!!!!!!!!!!!",
"!!!!!!!!!!!!!!!!!!!!!!!!!!!!!!!!!!!!!!!!!!!!!!!!!!!!!!!!!!!!!!!!!!!!!!!!!!,2::;;;;;;;22212222221.-,)'''$$$$$$$$$%######+0443...--,,00500..---...1112:44476679>I[qrsvxz~~~~~~~~~~?/!!!!!!!!!!!!!!!!!!!!!!!!!!!!!!!!!!!!!!!!!!!!!!!!!!!!!!!!!!!!!!!!!!!!!!!!!!!!!!!!!!!!!!!!!!!!!!!!!!!!!!!!!!!!!!!!!!!!!!!!!!",
"!!!!!!!!!!!!!!!!!!!!!!!!!!!!!!!!!!!!!!!!!!!!!!!!!!!!!!!!!!!!!!!!!!!!!!!!!!,2QQ;;;;;;;;22122::221.-,))''$$$$$$$$$$%#####'/003...--,,005300,**--....11244368>BGKXfqqqoqqrswyyzzzyxK6/+&!!!!!!!!!!!!!!!!!!!!!!!!!!!!!!!!!!!!!!!!!!!!!!!!!!!!!!!!!!!!!!!!!!!!!!!!!!!!!!!!!!!!!!!!!!!!!!!!!!!!!!!!!!!!!!!!!!!!!!!",
"!!!!!!!!!!!!!!!!!!!!!!!!!!!!!!!!!!!!!!!!!!!!!!!!!!!!!!!!!!!!!!!!!!!!!!!!!!,2QQ;;;;;;;;;212:::221.-*,)''&$$$$$$$$$$%####&++,,...---00555000,,*-..--.113336>IPZbjmqonlllknrvwxywvs`J>5+!!!!!!!!!!!!!!!!!!!!!!!!!!!!!!!!!!!!!!!!!!!!!!!!!!!!!!!!!!!!!!!!!!!!!!!!!!!!!!!!!!!!!!!!!!!!!!!!!!!!!!!!!!!!!!!!!!!!!!!",
"!!!!!!!!!!!!!!!!!!!!!!!!!!!!!!!!!!!!!!!!!!!!!!!!!!!!!!!!!!!!!!!!!!!!!!!!!!,4QQ;;;;;;;;;212:::21..-*())'&&$$$$$$$$$%%%%%$$$),..---.00565500,,,-.-**-.13006@Zfo~yurnkfddbjnrsvwurqrvy>/!!!!!!!!!!!!!!!!!!!!!!!!!!!!!!!!!!!!!!!!!!!!!!!!!!!!!!!!!!!!!!!!!!!!!!!!!!!!!!!!!!!!!!!!!!!!!!!!!!!!!!!!!!!!!!!!!!!!!!!",
"!!!!!!!!!!!!!!!!!!!!!!!!!!!!!!!!!!!!!!!!!!!!!!!!!!!!!!!!!!!!!!!!!!!!!!!!!!+,42;;;;;;;;;212:::21..-*(()''''$$$$$$$%%#%%%%$$),1..--,0369777500,,---*-..3307Ebjnung`^YVXXX_dlmnomkjlmpG5////+&!!!!!!!!!!!!!!!!!!!!!!!!!!!!!!!!!!!!!!!!!!!!!!!!!!!!!!!!!!!!!!!!!!!!!!!!!!!!!!!!!!!!!!!!!!!!!!!!!!!!!!!!!!!!!!!!!",
"!!!!!!!!!!!!!!!!!!!!!!!!!!!!!!!!!!!!!!!!!!!!!!!!!!!!!!!!!!!!!!!!!!!!!!!!!!&+,,1;;;;;;;;222:::21..-*((()'''$$$&$$%%%###%%%$),1..--,037B@EE<733,,,-.--,0338MklmndYNKIHIKNU[bdgjeb`cehVD88770+!!!!!!!!!!!!!!!!!!!!!!!!!!!!!!!!!!!!!!!!!!!!!!!!!!!!!!!!!!!!!!!!!!!!!!!!!!!!!!!!!!!!!!!!!!!!!!!!!!!!!!!!!!!!!!!!!",
"!!!!!!!!!!!!!!!!!!!!!!!!!!!!!!!!!!!!!!!!!!!!!!!!!!!!!!!!!!!!!!!!!!!!!!!!!!!!!+02;;;;;;;222:::21..-**(()'''$$&&&%%%%####%%$),1..--,038JR]hR@<30,,...,,,34<RonljZKBAA?ADFKSZ^`a_ZWW]]hhiihh7/!!!!!!!!!!!!!!!!!!!!!!!!!!!!!!!!!!!!!!!!!!!!!!!!!!!!!!!!!!!!!!!!!!!!!!!!!!!!!!!!!!!!!!!!!!!!!!!!!!!!!!!!!!!!!!!!!",
"!!!!!!!!!!!!!!!!!!!!!!!!!!!!!!!!!!!!!!!!!!!!!!!!!!!!!!!!!!!!!!!!!!!!!!!!!!!!!',0344;;;;:2::::21..-**(((''''''&&%%%%####%%$),1..-.004<RTci]R@<4333333334<EUf[NFA96799>AFKOXZ[_[WWW]]ccec][?5/++&&&++/////////++++++//+&!!!!!!!!!!!!!!!!!!!!!!!!!!!!!!!!!!!!!!!!!!!!!!!!!!!!!!!!!!!!!!!!!!!!!!!!!!!!!!!!!!!!!!",
"!!!!!!!!!!!!!!!!!!!!!!!!!!!!!!!!!!!!!!!!!!!!!!!!!!!!!!!!!!!!!!!!!!!!!!!!!!!!!&'+,034;;;:::::221..-**((()''''''&&%%%##%%%%$),1..-.334=]hiih]RE@<<44444<<EMU[I>65555569?FINVXYWWWWW]]]__WVSF>65/++//55777777755//055680+!!!!!!!!!!!!!!!!!!!!!!!!!!!!!!!!!!!!!!!!!!!!!!!!!!!!!!!!!!!!!!!!!!!!!!!!!!!!!!!!!!!!!!",
"!!!!!!!!!!!!!!!!!!!!!!!!!!!!!!!!!!!!!!!!!!!!!!!!!!!!!!!!!!!!!!!!!!!!!!!!!!!!!!!!'+,32;;:::::221..-**(((()'''''&&%%%##%%%%$+,1..-.14<Riiipppii]TE<4<<<=R_ZVP>5/////5569FILSUVWWT]]W[WXVPMKOX^>5+/559IbdfjjjjPA6799ITp8/!!!!!!!!!!!!!!!!!!!!!!!!!!!!!!!!!!!!!!!!!!!!!!!!!!!!!!!!!!!!!!!!!!!!!!!!!!!!!!!!!!!!!!",
"!!!!!!!!!!!!!!!!!!!!!!!!!!!!!!!!!!!!!!!!!!!!!!!!!!!!!!!!!!!!!!!!!!!!!!!!!!!!!!!!&++04;;;:::::21..-**(((())'''''''''$$$''''),1..-.144=R]iiiiiih]RE====EMSHB95///////559CIP[[[WT]]WWVVVVUSPSUU95+//56?NX`jaYOGA99?AM]p8/!!!!!!!!!!!!!!!!!!!!!!!!!!!!!!!!!!!!!!!!!!!!!!!!!!!!!!!!!!!!!!!!!!!!!!!!!!!!!!!!!!!!!!",
"!!!!!!!!!!!!!!!!!!!!!!!!!!!!!!!!!!!!!!!!!!!!!!!!!!!!!!!!!!!!!!!!!!!!!!!!!!!!!!!!%&',4;;;:::::21..-**((((())))))''''''''''',,11.-..14=RR]iiipiii]RRRRRMJH>65//++++///57AIVecc]]]]WVOSUVXYZUNK75+///57BKZkYIAA??BDGScp8/!!!!!!!!!!!!!!!!!!!!!!!!!!!!!!!!!!!!!!!!!!!!!!!!!!!!!!!!!!!!!!!!!!!!!!!!!!!!!!!!!!!!!!",
"!!!!!!!!!!!!!!!!!!!!!!!!!!!!!!!!!!!!!!!!!!!!!!!!!!!!!!!!!!!!!!!!!!!!!!!!!!!!!!!!!!!+3QQQ::::::1..-**((((())))))))))(((((((,,11....14;==RiiippppiiihccUIB65//+&&&&+//56>IZmhheccaYSKMSVY^aVLD6/+///557CUkPA69?DHJLWep8/!!!!!!!!!!!!!!!!!!!!!!!!!!!!!!!!!!!!!!!!!!!!!!!!!!!!!!!!!!!!!!!!!!!!!!!!!!!!!!!!!!!!!!",
"!!!!!!!!!!!!!!!!!!!!!!!!!!!!!!!!!!!!!!!!!!!!!!!!!!!!!!!!!!!!!!!!!!!!!!!!!!!!!!!!!!!+3;;;;:::::1..--******,,,,,))((((((((((,.111..112;;==R]iiiipiiihc]OF>55/++&&&&+//56CM[ih]TW[[XSNOPSUXYSLI75////557AK^LC9?CHKNU_hp8/!!!!!!!!!!!!!!!!!!!!!!!!!!!!!!!!!!!!!!!!!!!!!!!!!!!!!!!!!!!!!!!!!!!!!!!!!!!!!!!!!!!!!!",
"!!!!!!!!!!!!!!!!!!!!!!!!!!!!!!!!!!!!!!!!!!!!!!!!!!!!!!!!!!!!!!!!!!!!!!!!!!!!!!!!!!!+3;;;;::::211.-----*****,,,,((((((((***-.411.11222;;==R]iiipiiihc_LB95//++&&&&++/57ER]i]TSUVYVUSSPOOOPONL95///5557>FNJGCFILPV[chp8/!!!!!!!!!!!!!!!!!!!!!!!!!!!!!!!!!!!!!!!!!!!!!!!!!!!!!!!!!!!!!!!!!!!!!!!!!!!!!!!!!!!!!!",
"!!!!!!!!!!!!!!!!!!!!!!!!!!!!!!!!!!!!!!!!!!!!!!!!!!!!!!!!!!!!!!!!!!!!!!!!!!!!!!!!!!!+3;;;;;:::211.....--*******************.14443112222;;Q=Riiipiiihc[J?65//++&&&&++/08RR]iTRJMOUUXXUOMLKJLOU?5/5555679AFHKNNOPX^beip8/!!!!!!!!!!!!!!!!!!!!!!!!!!!!!!!!!!!!!!!!!!!!!!!!!!!!!!!!!!!!!!!!!!!!!!!!!!!!!!!!!!!!!!",
"!!!!!!!!!!!!!!!!!!!!!!!!!!!!!!!!!!!!!!!!!!!!!!!!!!!!!!!!!!!!!!!!!!!!!!!!!!!!!!!!&'+,4;;;;;;::211......---------***********.1444344;;;2;;;Q=R]iiiiihc]MB955//+++&&+/57=RR==<<88@EJMUSSSNLJJJJA756699>BGKSVY[[^^adgkmiD5/+&!!!!!!!!!!!!!!!!!!!!!!!!!!!!!!!!!!!!!!!!!!!!!!!!!!!!!!!!!!!!!!!!!!!!!!!!!!!!!!!!!!!",
"!!!!!!!!!!!!!!!!!!!!!!!!!!!!!!!!!!!!!!!!!!!!!!!!!!!!!!!!!!!!!!!!!!!!!!!!!!!!!!!!'+,34;;;;;;;:2111...........----------**--.1;44344=;;;;;2;Q=R]iiiihhcSD965///+++&/5<==R=<333058@@EOSUXSMJHFCA?9?BFILSY_dfggjjjklmmmmVC70+!!!!!!!!!!!!!!!!!!!!!!!!!!!!!!!!!!!!!!!!!!!!!!!!!!!!!!!!!!!!!!!!!!!!!!!!!!!!!!!!!!!",
"!!!!!!!!!!!!!!!!!!!!!!!!!!!!!!!!!!!!!!!!!!!!!!!!!!!!!!!!!!!!!!!!!!!!!!!!!!!!!!!!+,1444;;;;;;;2111..111111111........------12;4468<===;;22;;Q=RiihhhhhWH>7555///++0<iRRR=3,,,,038?@MSX[UNJDB>BGLPV[`fkmqsssssssrrqnljjgg7/!!!!!!!!!!!!!!!!!!!!!!!!!!!!!!!!!!!!!!!!!!!!!!!!!!!!!!!!!!!!!!!!!!!!!!!!!!!!!!!!!!!",
"!!!!!!!!!!!!!!!!!!!!!!!!!!!!!!!!!!!!!!!!!!!!!!!!!!!!!!!!!!!!!!!!!!!!!!!!!!!!!!!!+0;444;;;;;;;2111111111112211........-----12;4468<====;;2;;;==R]hiihhWIA96555///+0<RR=Q43,,,,,0368@@JUPNLIDACFILPX[afgkllkkjgfffdda_abdB5/+&!!!!!!!!!!!!!!!!!!!!!!!!!!!!!!!!!!!!!!!!!!!!!!!!!!!!!!!!!!!!!!!!!!!!!!!!!!!!!!!!",
"!!!!!!!!!!!!!!!!!!!!!!!!!!!!!!!!!!!!!!!!!!!!!!!!!!!!!!!!!!!!!!!!!!!!!!!!!!!!!!!!+3;;44;;;;;;;2111111111222221...1111..----12;4<8@@MRR==;;;;;;==R]iiihZKB9965550//5=R=Q;4.(()),,00368@LMOPLHDFFFILPX[aabdba`^ZXXXXVVUY[aNB70+!!!!!!!!!!!!!!!!!!!!!!!!!!!!!!!!!!!!!!!!!!!!!!!!!!!!!!!!!!!!!!!!!!!!!!!!!!!!!!!!",
"!!!!!!!!!!!!!!!!!!!!!!!!!!!!!!!!!!!!!!!!!!!!!!!!!!!!!!!!!!!!!!!!!!!!!!!!!!!!!!!!+3Q;;1;;;;;;;211111111222222111111111.....12;4<8@JWTRR==;;21;;=RRiiih[ND?976655506=R=;21*(()'))),0368GKOVOLIGFCFJLPX[[[[YXUPMKKKKKKKOX^afj7/!!!!!!!!!!!!!!!!!!!!!!!!!!!!!!!!!!!!!!!!!!!!!!!!!!!!!!!!!!!!!!!!!!!!!!!!!!!!!!!!",
"!!!!!!!!!!!!!!!!!!!!!!!!!!!!!!!!!!!!!!!!!!!!!!!!!!!!!!!!!!!!!!!!!!!!!!!!!!!!!!!!+,34112;;;;;;2111111112222221112222211....12;4<?@JVWTRR===;;;===RiihhZNFB>9966666<=R=;21.*())))),,0368BGOMLKHFCBAACFJKNPNLKIGFFGGHIJNSX[agB5/+&!!!!!!!!!!!!!!!!!!!!!!!!!!!!!!!!!!!!!!!!!!!!!!!!!!!!!!!!!!!!!!!!!!!!!!!!!!!!!",
"!!!!!!!!!!!!!!!!!!!!!!!!!!!!!!!!!!!!!!!!!!!!!!!!!!!!!!!!!!!!!!!!!!!!!!!!!!!!!!!!&++,312;;;;;22112221112222412222222222111.144<<@EMVWWTRR===;=<<=RiihcYLFCA>99798@ERR==21.-,())))),,0368AKKLMIFB>9699?BDIGFDCBABCDFHJKNOX^dNA6/+!!!!!!!!!!!!!!!!!!!!!!!!!!!!!!!!!!!!!!!!!!!!!!!!!!!!!!!!!!!!!!!!!!!!!!!!!!!!!",
"!!!!!!!!!!!!!!!!!!!!!!!!!!!!!!!!!!!!!!!!!!!!!!!!!!!!!!!!!!!!!!!!!!!!!!!!!!!!!!!!!!!),222;2;;22122;211122444422222::::22111144<<@EMVYZ^WRR====<4=Rihc_VLHFCB?99AERRR]==441.,,()))))(,0068GJLOJFB9655669?CB?>>>>??ACFJJJKSZbaaa6/!!!!!!!!!!!!!!!!!!!!!!!!!!!!!!!!!!!!!!!!!!!!!!!!!!!!!!!!!!!!!!!!!!!!!!!!!!!!!",
"!!!!!!!!!!!!!!!!!!!!!!!!!!!!!!!!!!!!!!!!!!!!!!!!!!!!!!!!!!!!!!!!!!!!!!!!!!!!!!!!!!!'),,,01222444421134444444;;;222:::222111444<@EMXZ[^WTRRE==<<ERiihc[ULIGFCA>DMRR]]R=<44430,,))))),,006>ACGC?97655679?CFILIFCDFFIKNSVZ`djfb_>5/+&!!!!!!!!!!!!!!!!!!!!!!!!!!!!!!!!!!!!!!!!!!!!!!!!!!!!!!!!!!!!!!!!!!!!!!!!!!",
"!!!!!!!!!!!!!!!!!!!!!!!!!!!!!!!!!!!!!!!!!!!!!!!!!!!!!!!!!!!!!!!!!!!!!!!!!!!!!!!!!!!&')))),1:243442133344<<<<=;;;22222222111134<8@MZ[[_[WTRRREE@R]iiihaZSNKIFDCHMRT]]RE====<30,,()))),/05679A>96655679>ACKXd[SKLLNNSU[dlmnokd^G95/+!!!!!!!!!!!!!!!!!!!!!!!!!!!!!!!!!!!!!!!!!!!!!!!!!!!!!!!!!!!!!!!!!!!!!!!!!!",
"!!!!!!!!!!!!!!!!!!!!!!!!!!!!!!!!!!!!!!!!!!!!!!!!!!!!!!!!!!!!!!!!!!!!!!!!!!!!!!!!!!!!!!!!!).:;43341333348<<<===;;2222222221111348@M[^^__`a[WWSSMThpiiieaYVPLKIHLST]]cTRERRTE<40,(()))))/0556976555569>?ACSg~ndXXXXYZZfo~{zynf[UNI5/!!!!!!!!!!!!!!!!!!!!!!!!!!!!!!!!!!!!!!!!!!!!!!!!!!!!!!!!!!!!!!!!!!!!!!!!!!",
"!!!!!!!!!!!!!!!!!!!!!!!!!!!!!!!!!!!!!!!!!!!!!!!!!!!!!!!!!!!!!!!!!!!!!!!!!!!!!!!!!!!!!!!!!',.00//,,,,,/0000034;;;222222;222111448?EMSX[_ab^WSSSU]hpiiihea^ZVSNLSW]]]]TTRRT]R=<40,,()))++//0555666679>BCDFUj~qj_```YSKPY`__^`aaZSK95/+&!!!!!!!!!!!!!!!!!!!!!!!!!!!!!!!!!!!!!!!!!!!!!!!!!!!!!!!!!!!!!!!!!!!!!!!",
"!!!!!!!!!!!!!!!!!!!!!!!!!!!!!!!!!!!!!!!!!!!!!!!!!!!!!!!!!!!!!!!!!!!!!!!!!!!!!!!!!!!!!!!!!&')+++++++''++++++03;;;;22122;2222114488@DJSZ_ad^WSSVW]hppiiiihec_[XUZ]hc]]]TT]]hTRE<4.,,())+++///555799>ADGHHHXj~smggggYKBCDFFFGN[g_VLHC?5+!!!!!!!!!!!!!!!!!!!!!!!!!!!!!!!!!!!!!!!!!!!!!!!!!!!!!!!!!!!!!!!!!!!!!!!",
"!!!!!!!!!!!!!!!!!!!!!!!!!!!!!!!!!!!!!!!!!!!!!!!!!!!!!!!!!!!!!!!!!!!!!!!!!!!!!!!!!!!!!!!!!!!!!!!!!!!!!!!!!!!+0;;;;22122;;2222244788>DLY^af_VMSVZahoppppiiihhe`^beihc[_acehihc]=<4.,()++++++//5599ADGJNLLKZl~wqnnnnXF9977777DXmdYN^m~?/!!!!!!!!!!!!!!!!!!!!!!!!!!!!!!!!!!!!!!!!!!!!!!!!!!!!!!!!!!!!!!!!!!!!!!!",
"!!!!!!!!!!!!!!!!!!!!!!!!!!!!!!!!!!!!!!!!!!!!!!!!!!!!!!!!!!!!!!!!!!!!!!!!!!!!!!!!!!!!!!!!!!!!!!!!!!!!!!!!!!!',012;2211222222224466556?GLU^YUOSXZahpiiiiiiiiihfbdehe][]chhhhh]]R=<43,,+++++///57BDINSX[UNIXgwsqngaYKB97666669CNNPSam{>/!!!!!!!!!!!!!!!!!!!!!!!!!!!!!!!!!!!!!!!!!!!!!!!!!!!!!!!!!!!!!!!!!!!!!!!",
"!!!!!!!!!!!!!!!!!!!!!!!!!!!!!!!!!!!!!!!!!!!!!!!!!!!!!!!!!!!!!!!!!!!!!!!!!!!!!!!!!!!!!!!!!!!!!!!!!!!!!!!!!!!&'+,1;22111222222244630/568BJUUSSUXZbkpmhchipiiiikgeehc]_chhhhhc]]RR==430/++++//56>KPX^adg[OHUdqqonaPFB>9765555679BKXdnz>/!!!!!!!!!!!!!!!!!!!!!!!!!!!!!!!!!!!!!!!!!!!!!!!!!!!!!!!!!!!!!!!!!!!!!!!",
"!!!!!!!!!!!!!!!!!!!!!!!!!!!!!!!!!!!!!!!!!!!!!!!!!!!!!!!!!!!!!!!!!!!!!!!!!!!!!!!!!!!!!!!!!!!!!!!!!!!!!!!!!!!!!!+0;2211111112224460/+/068@MMSSVWWbltmcTcippppppmhhcc]]chiihhc][]ciR=<30///+/059F[agmnoqdUGSannnnYF99996555555557F[fny>/!!!!!!!!!!!!!!!!!!!!!!!!!!!!!!!!!!!!!!!!!!!!!!!!!!!!!!!!!!!!!!!!!!!!!!!",
"!!!!!!!!!!!!!!!!!!!!!!!!!!!!!!!!!!!!!!!!!!!!!!!!!!!!!!!!!!!!!!!!!!!!!!!!!!!!!!!!!!!!!!!!!!!!!!!!!!!!!!!!!!!!!!',0,,,,,,,,,,,,0360/+//057@@EMSW[cmtmh]cchiipppphc]]]chhihhccc]chiRR=8500///56?Kadgkmork`V_fnljgXKBAA?9655555557F^fmsI6/+&!!!!!!!!!!!!!!!!!!!!!!!!!!!!!!!!!!!!!!!!!!!!!!!!!!!!!!!!!!!!!!!!!!!!",
"!!!!!!!!!!!!!!!!!!!!!!!!!!!!!!!!!!!!!!!!!!!!!!!!!!!!!!!!!!!!!!!!!!!!!!!!!!!!!!!!!!!!!!!!!!!!!!!!!!!!!!!!!!!!!!&'+++++++++++))/0630////057>@EMW_emtphe]]T]ipppph]W[chhhihc]ccehhi]RR@8655/569FUfggglosoljkmnjd_XOJHFD>655555557Gafkn[I?5+!!!!!!!!!!!!!!!!!!!!!!!!!!!!!!!!!!!!!!!!!!!!!!!!!!!!!!!!!!!!!!!!!!!!",
"!!!!!!!!!!!!!!!!!!!!!!!!!!!!!!!!!!!!!!!!!!!!!!!!!!!!!!!!!!!!!!!!!!!!!!!!!!!!!!!!!!!!!!!!!!!!!!!!!!!!!!!!!!!!!!!!!!!!!!!!!!!!!+0850//++/057>@JV]emtpmh]WMThpppph]SWchhiihc[]eiiiihc`UJ@96569DN^ljgfkosvy{vqng_XXXXSNKA755555557Hbdgkou~?/!!!!!!!!!!!!!!!!!!!!!!!!!!!!!!!!!!!!!!!!!!!!!!!!!!!!!!!!!!!!!!!!!!!!",
"!!!!!!!!!!!!!!!!!!!!!!!!!!!!!!!!!!!!!!!!!!!!!!!!!!!!!!!!!!!!!!!!!!!!!!!!!!!!!!!!!!!!!!!!!!!!!!!!!!!!!!!!!!!!!!!!!!!!!!!!!!!!!+0<750//+//057?EM_emtpmme]W]chiiph]U[chhhhh][chiihhec_VMI?657AKV`kjgfkosvy{vqngaYZ[^ZVSG?76555557F^adgms~?/!!!!!!!!!!!!!!!!!!!!!!!!!!!!!!!!!!!!!!!!!!!!!!!!!!!!!!!!!!!!!!!!!!!!",
"!!!!!!!!!!!!!!!!!!!!!!!!!!!!!!!!!!!!!!!!!!!!!!!!!!!!!!!!!!!!!!!!!!!!!!!!!!!!!!!!!!!!!!!!!!!!!!!!!!!!!!!!!!!!!!!!!!!!!!!!!!!!!+5E@750/////057@M[cmtppmhecc]]choe`W_chhhhc]_chihhec][YSMB959DU[bjjgfkosvy~vqngaZ^aba_[NF>7655557DY^adlr{>/!!!!!!!!!!!!!!!!!!!!!!!!!!!!!!!!!!!!!!!!!!!!!!!!!!!!!!!!!!!!!!!!!!!!",
"!!!!!!!!!!!!!!!!!!!!!!!!!!!!!!!!!!!!!!!!!!!!!!!!!!!!!!!!!!!!!!!!!!!!!!!!!!!!!!!!!!!!!!!!!!!!!!!!!!!!!!!!!!!!!!!!!!!!!!!!!!!!!/6RE@850///+/068EWcmtppoomme]W_fngaW]cihhhc]_chihe]]_[ZXVF96>I_bfjggfloswy~wqnjb[adjgffZNF>655556BUY^ajq{>/!!!!!!!!!!!!!!!!!!!!!!!!!!!!!!!!!!!!!!!!!!!!!!!!!!!!!!!!!!!!!!!!!!!!",
"!!!!!!!!!!!!!!!!!!!!!!!!!!!!!!!!!!!!!!!!!!!!!!!!!!!!!!!!!!!!!!!!!!!!!!!!!!!!!!!!!!!!!!!!!!!!!!!!!!!!!!!!!!!!!!!!!!!!!!!!!!!!!/6RMEB750//+/057@Wchtpmhhmmhc]ejmeaW]eihhhcc]chihc]_[ZVPLC96?Ladgljgfknrvy~wqnjd`djmmllaVLA755556CV[bknqv>/!!!!!!!!!!!!!!!!!!!!!!!!!!!!!!!!!!!!!!!!!!!!!!!!!!!!!!!!!!!!!!!!!!!!",
"!!!!!!!!!!!!!!!!!!!!!!!!!!!!!!!!!!!!!!!!!!!!!!!!!!!!!!!!!!!!!!!!!!!!!!!!!!!!!!!!!!!!!!!!!!!!!!!!!!!!!!!!!!!!!!!!!!!!!!!!!!!!!/6TRSKA750/+//06AW]htphchhmmkhkkkea[]hihheccchhihc_[[ZSKGB>7BNbgknlgdjnquy~wqnkfbgmqqoog_VF955557CV`jqqrr9/!!!!!!!!!!!!!!!!!!!!!!!!!!!!!!!!!!!!!!!!!!!!!!!!!!!!!!!!!!!!!!!!!!!!",
"!!!!!!!!!!!!!!!!!!!!!!!!!!!!!!!!!!!!!!!!!!!!!!!!!!!!!!!!!!!!!!!!!!!!!!!!!!!!!!!!!!!!!!!!!!!!!!!!!!!!!!!!!!!!!!!!!!!!!!!!!!!!!/7]]^^JA75/////5>V]htih]chhmptomjea[]hihheeeehiihc[[WWMHB?>9DSfjmomgdjmqsx~wqnljflqwvvung`J>65557CVbn~wrn9/!!!!!!!!!!!!!!!!!!!!!!!!!!!!!!!!!!!!!!!!!!!!!!!!!!!!!!!!!!!!!!!!!!!!",
"!!!!!!!!!!!!!!!!!!!!!!!!!!!!!!!!!!!!!!!!!!!!!!!!!!!!!!!!!!!!!!!!!!!!!!!!!!!!!!!!!!!!!!!!!!!!!!!!!!!!!!!!!!!!!!!!!!!!!!!!!!!!!/5RRWZNGA7500006?M[hpihcceehmpmkgd`[]hihheehhhhihc_WVSIB9>ACKXfglmkgdjmqsx~wqnlgdkousssmf^J>65557DZbkronmF5/+&!!!!!!!!!!!!!!!!!!!!!!!!!!!!!!!!!!!!!!!!!!!!!!!!!!!!!!!!!!!!!!!!!",
"!!!!!!!!!!!!!!!!!!!!!!!!!!!!!!!!!!!!!!!!!!!!!!!!!!!!!!!!!!!!!!!!!!!!!!!!!!!!!!!!!!!!!!!!!!!!!!!!!!!!!!!!!!!!!!!!!!!!!!!!!!!!!+5@EMYUPLC965557?KWeppiheccchhhhec_W]hihhehhhhhihc_WSLD>7>DLU^dgjljfdjmqux~wqnkgbjnssrrlb[J?76557F[afklllZI?5+!!!!!!!!!!!!!!!!!!!!!!!!!!!!!!!!!!!!!!!!!!!!!!!!!!!!!!!!!!!!!!!!!",
"!!!!!!!!!!!!!!!!!!!!!!!!!!!!!!!!!!!!!!!!!!!!!!!!!!!!!!!!!!!!!!!!!!!!!!!!!!!!!!!!!!!!!!!!!!!!!!!!!!!!!!!!!!!!!!!!!!!!!!!!!!!!!+0<@EXZ_bVJC?969AHUcppmmhc]]cceeec_W]hihhchhhhhhhc]VMG?96>I^_bdfgggfdjnruy~wqnkfbgmqqqqjaYJA76559H`aabdgjnu~?/!!!!!!!!!!!!!!!!!!!!!!!!!!!!!!!!!!!!!!!!!!!!!!!!!!!!!!!!!!!!!!!!!",
"!!!!!!!!!!!!!!!!!!!!!!!!!!!!!!!!!!!!!!!!!!!!!!!!!!!!!!!!!!!!!!!!!!!!!!!!!!!!!!!!!!!!!!!!!!!!!!!!!!!!!!!!!!!!!!!!!!!!!!!!!!&&+/3<<EPV[bZULIDBCDGLV`cekheccccceec][]hihhehhihhhhc]WMIC?9DObbddfgggfflouwz~wqnjd_dglllld^VJC9765>Lddddfgjmqs9/!!!!!!!!!!!!!!!!!!!!!!!!!!!!!!!!!!!!!!!!!!!!!!!!!!!!!!!!!!!!!!!!!",
"!!!!!!!!!!!!!!!!!!!!!!!!!!!!!!!!!!!!!!!!!!!!!!!!!!!!!!!!!!!!!!!!!!!!!!!!!!!!!!!!!!!!!!!!!!!!!!!!!!!!!!!!!!!!!!!!!!!!!!!!!!&+0334<@JSYa_^^YXUNIFHJLVakhhhhc]ccecc]chihhhhhiihheccWPJHFDLZggffffggfflqwyz~vqmgb[_bffff`ZSKDA>97BSjggfgjjlmn9/!!!!!!!!!!!!!!!!!!!!!!!!!!!!!!!!!!!!!!!!!!!!!!!!!!!!!!!!!!!!!!!!!",
"!!!!!!!!!!!!!!!!!!!!!!!!!!!!!!!!!!!!!!!!!!!!!!!!!!!!!!!!!!!!!!!!!!!!!!!!!!!!!!!!!!!!!!!!!!!!!!!!!!!!!!!!!!!!!!!!!!!!!!!!!!+04444<@EMX`dgllnn_NDCBAJZkmmphh]ccecccehiihhhiiihheecWSJLNOZdmkgfffggggmrz{{~vqmg`YZ^__``ZVOKHDA?9GYmlkjjjjjjj7/!!!!!!!!!!!!!!!!!!!!!!!!!!!!!!!!!!!!!!!!!!!!!!!!!!!!!!!!!!!!!!!!!",
"!!!!!!!!!!!!!!!!!!!!!!!!!!!!!!!!!!!!!!!!!!!!!!!!!!!!!!!!!!!!!!!!!!!!!!!!!!!!!!!!!!!!!!!!!!!!!!!!!!!!!!!!!!!!!!!!!!!!!!!&&+/04444<@EMV```bdglbXNIDBGLV_emmhhhhhhhhhiiihhhiiiheeee]ULMSX^djgfffgjgggmsz{{~volf^XYZ[^_a_^[VSNKIHUbokd^bflgfbB5/+&!!!!!!!!!!!!!!!!!!!!!!!!!!!!!!!!!!!!!!!!!!!!!!!!!!!!!!!!!!!!!!",
"!!!!!!!!!!!!!!!!!!!!!!!!!!!!!!!!!!!!!!!!!!!!!!!!!!!!!!!!!!!!!!!!!!!!!!!!!!!!!!!!!!!!!!!!!!!!!!!!!!!!!!!!!!!!!!!!!!!!!!!&+0033444<@EMV`^YX^`gdb_SIBCCDN_mmihhhhhhmiiiihhhiiihcceh]VMSX^`bfffdfgjjjgns{{~~uojb^VXYZ[_abdfb`[[ZYbluk^S[dlgb^NF?5+!!!!!!!!!!!!!!!!!!!!!!!!!!!!!!!!!!!!!!!!!!!!!!!!!!!!!!!!!!!!!!",
"!!!!!!!!!!!!!!!!!!!!!!!!!!!!!!!!!!!!!!!!!!!!!!!!!!!!!!!!!!!!!!!!!!!!!!!!!!!!!!!!!!!!!!!!!!!!!!!!!!!!!!!!!!!!!!!!!!!!!!!+0443.344<<EMW`YSLUYbgjn^LCA>9DVlmopihhhippiiihhhiihhcceh]WMU[dbbbbddgjlkjjns{{~~snga[UVXX[_bglonmllmmquzjXIUamf_Xdn~?/!!!!!!!!!!!!!!!!!!!!!!!!!!!!!!!!!!!!!!!!!!!!!!!!!!!!!!!!!!!!!!",
"!!!!!!!!!!!!!!!!!!!!!!!!!!!!!!!!!!!!!!!!!!!!!!!!!!!!!!!!!!!!!!!!!!!!!!!!!!!!!!!!!!!!!!!!!!!!!!!!!!!!!!!!!!!!!!!!!!!!!!!+0444344<<EMW^dYNFLUYbjndXLFA9CL[bkpmihippppiihchiihhccchWSJNX_`abbbdglnnnnqv{~~~snjb[VVXZ^bfknrqqojaYdn{kZKXdqg[P`m~?/!!!!!!!!!!!!!!!!!!!!!!!!!!!!!!!!!!!!!!!!!!!!!!!!!!!!!!!!!!!!!!",
"!!!!!!!!!!!!!!!!!!!!!!!!!!!!!!!!!!!!!!!!!!!!!!!!!!!!!!!!!!!!!!!!!!!!!!!!!!!!!!!!!!!!!!!!!!!!!!!!!!!!!!!!!!!!!!!!!!!!!!!+,44444<=ERW`ejYKBFLU^jrld^ND9AFLYeppiipptppiihchiihe]cchWMFJPY[`bbbbgmqqrsvy~~~~unjb[VXZ[adjmqwvvufUGVj{l[LZjvjZK[l~?/!!!!!!!!!!!!!!!!!!!!!!!!!!!!!!!!!!!!!!!!!!!!!!!!!!!!!!!!!!!!!!",
"!!!!!!!!!!!!!!!!!!!!!!!!!!!!!!!!!!!!!!!!!!!!!!!!!!!!!!!!!!!!!!!!!!!!!!!!!!!!!!!!!!!!!!!!!!!!!!!!!!!!!!!!!!!!!!!!!!!!!!!',1444<=RRTegkmYH>BHN^grqnlYH>?ACL`pppppptppphe]hhihc]]chWJCGLSY^bbbbjnsvy{{~~~~~uokd^VYZ^bgmqu{{~~bJ9Jb~m^N^m~jXHXj~?/!!!!!!!!!!!!!!!!!!!!!!!!!!!!!!!!!!!!!!!!!!!!!!!!!!!!!!!!!!!!!!",
"!!!!!!!!!!!!!!!!!!!!!!!!!!!!!!!!!!!!!!!!!!!!!!!!!!!!!!!!!!!!!!!!!!!!!!!!!!!!!!!!!!!!!!!!!!!!!!!!!!!!!!!!!!!!!!!!!!!!!!!+,344<==ERTdjln`PFKOX`jnnnn`UIFDBIS_cehiippmmhechiihc`]chWJBFLUY_bdddgjlmnoooosx~vold^XZ[_dgmqu{{~~fOBOf~maSam~jXHXj~L6/+&!!!!!!!!!!!!!!!!!!!!!!!!!!!!!!!!!!!!!!!!!!!!!!!!!!!!!!!!!!!",
"!!!!!!!!!!!!!!!!!!!!!!!!!!!!!!!!!!!!!!!!!!!!!!!!!!!!!!!!!!!!!!!!!!!!!!!!!!!!!!!!!!!!!!!!!!!!!!!!!!!!!!!!!!!!!!!!!!!!!!!+044<===ER[djlnf^PX^bgjllnnjbZNGADILU[cehhhkkkeehiihc_cchWIAFLX[_bdfffddddffffms~vqmf_XZ^adjmouz{{~kYIYk~nbVbn~jXHXj~dL?5+!!!!!!!!!!!!!!!!!!!!!!!!!!!!!!!!!!!!!!!!!!!!!!!!!!!!!!!!!!!",
"!!!!!!!!!!!!!!!!!!!!!!!!!!!!!!!!!!!!!!!!!!!!!!!!!!!!!!!!!!!!!!!!!!!!!!!!!!!!!!!!!!!!!!!!!!!!!!!!!!!!!!!!!!!!!!!!!!!!!!!+04<====ERZdjlqlgbdjlljjlnnnnn^KAABBIS]]ceegjjjjhiihe_achWH?DLY[`bdgjd`ZZZZZZZfo~wqng`X[`bfjmouz{{~naSan~ofZfo~jXHXj~~~~?/!!!!!!!!!!!!!!!!!!!!!!!!!!!!!!!!!!!!!!!!!!!!!!!!!!!!!!!!!!!",
"!!!!!!!!!!!!!!!!!!!!!!!!!!!!!!!!!!!!!!!!!!!!!!!!!!!!!!!!!!!!!!!!!!!!!!!!!!!!!!!!!!!!!!!!!!!!!!!!!!!!!!!!!!!!!!!!!!!!!!!+044<<<<@ENXblqnlgjlljjfgjllllbVKGDBDHKSWcejmmmmmiihe_aceSD9CL^_aba`^abf`ZUUUUan~wqng`X[afjlnrv{{~~ndXdn~smfms~kYIYk~~~~?/!!!!!!!!!!!!!!!!!!!!!!!!!!!!!!!!!!!!!!!!!!!!!!!!!!!!!!!!!!!",
"!!!!!!!!!!!!!!!!!!!!!!!!!!!!!!!!!!!!!!!!!!!!!!!!!!!!!!!!!!!!!!!!!!!!!!!!!!!!!!!!!!!!!!!!!!!!!!!!!!!!!!!!!!!!!!!!!!!!!!!+0<444488?FNYgrqnnnlljfddfgjllg`YNHBBA?GP_dkooooppihc_aceMB7BLabbb^XS[gofZNNNN^m~wqng`X^bglnqsx{~~~of[fo~xsosx~lZKZl~~~~?/!!!!!!!!!!!!!!!!!!!!!!!!!!!!!!!!!!!!!!!!!!!!!!!!!!!!!!!!!!!",
"!!!!!!!!!!!!!!!!!!!!!!!!!!!!!!!!!!!!!!!!!!!!!!!!!!!!!!!!!!!!!!!!!!!!!!!!!!!!!!!!!!!!!!!!!!!!!!!!!!!!!!!!!!!!!!!!!!!!!!!+0<4433567?FPdrrrrqnljdbbbbfjllll^LC>97?IZblssssppphe_]ccM?6?NfddbZOIYk~kYIIIIYk~wqng_X^djmosvy~~~~qjajq~~~~~~~l[L[l~~~~?/!!!!!!!!!!!!!!!!!!!!!!!!!!!!!!!!!!!!!!!!!!!!!!!!!!!!!!!!!!!",
"!!!!!!!!!!!!!!!!!!!!!!!!!!!!!!!!!!!!!!!!!!!!!!!!!!!!!!!!!!!!!!!!!!!!!!!!!!!!!!!!!!!!!!!!!!!!!!!!!!!!!!!!!!!!!!!!!!!!!!!+0<<<466679>I^rrqqnlkjgfddddfjjjj`XNHB>BFKValnqutppie_]ccMB7COdddbZSKZl~gUDDDDUg~wqnjd_djnqsvxz~~~~unjnu~~~~~~~l[L[l~~~~?/!!!!!!!!!!!!!!!!!!!!!!!!!!!!!!!!!!!!!!!!!!!!!!!!!!!!!!!!!!!",
"!!!!!!!!!!!!!!!!!!!!!!!!!!!!!!!!!!!!!!!!!!!!!!!!!!!!!!!!!!!!!!!!!!!!!!!!!!!!!!!!!!!!!!!!!!!!!!!!!!!!!!!!!!!!!!!!!!!!!!!+0<<<<<87666CXqqnmlkhjkljfddddfgjdb`VKDDCBIUajowvttme_]ccSF9FSdddb[UL[l~fOBBBBOf~wqnljglosuwxz{~~~~xuqux~~~~~~~lZKZl~~~~?/!!!!!!!!!!!!!!!!!!!!!!!!!!!!!!!!!!!!!!!!!!!!!!!!!!!!!!!!!!!",
"!!!!!!!!!!!!!!!!!!!!!!!!!!!!!!!!!!!!!!!!!!!!!!!!!!!!!!!!!!!!!!!!!!!!!!!!!!!!!!!!!!!!!!!!!!!!!!!!!!!!!!!!!!!!!!!!!!!!!!!+0<@ERE?7655>PpoljghchmoljddbbddgjnqgZNFA9AJXbnzywtme_]ccVIAIVddbb[UN^m~dL>>>>Ld~wqnnnnqv{{{{{~~~~~~~~~~~~~~~~~lZJZl~~~~?/!!!!!!!!!!!!!!!!!!!!!!!!!!!!!!!!!!!!!!!!!!!!!!!!!!!!!!!!!!!",
"!!!!!!!!!!!!!!!!!!!!!!!!!!!!!!!!!!!!!!!!!!!!!!!!!!!!!!!!!!!!!!!!!!!!!!!!!!!!!!!!!!!!!!!!!!!!!!!!!!!!!!!!!!!!!!!!!!!!!!!+5@ERTM@>965AUqommhecelqmjdddbdddgjlg`ZNGACFIVboqqsmh]cchWMFNZffdd^XSam~l[LLLL[l~wqnoqqux{{{{~~~~~~~~~yvssssvy{maUan~~~~?/!!!!!!!!!!!!!!!!!!!!!!!!!!!!!!!!!!!!!!!!!!!!!!!!!!!!!!!!!!!",
"!!!!!!!!!!!!!!!!!!!!!!!!!!!!!!!!!!!!!!!!!!!!!!!!!!!!!!!!!!!!!!!!!!!!!!!!!!!!!!!!!!!!!!!!!!!!!!!!!!!!!!!!!!!!!!!!!!!!!!!+5ERThTMD?97CYqppihc_elqmjdddddbbdgjggfZNGDCAIXfknqmhcchh]VLV_gffd`ZVbn~rlddddlr~wqnqswxz~~~~~~~~~~~~~vqmmmmqv{og^gq~~~~?/!!!!!!!!!!!!!!!!!!!!!!!!!!!!!!!!!!!!!!!!!!!!!!!!!!!!!!!!!!!",
"!!!!!!!!!!!!!!!!!!!!!!!!!!!!!!!!!!!!!!!!!!!!!!!!!!!!!!!!!!!!!!!!!!!!!!!!!!!!!!!!!!!!!!!!!!!!!!!!!!!!!!!!!!!!!!!!!!!!!!!/5ERcpcTME?9G[rppphcZblsnjbddddbabddjlqg[OG?9AK[dkqmhhhhic[U[bkjfda^Zfo~~~~~~~~~~wqnqw~~~~~~~~~~~~~~~~smggggmrzsnjns~~~~?/!!!!!!!!!!!!!!!!!!!!!!!!!!!!!!!!!!!!!!!!!!!!!!!!!!!!!!!!!!!",
"!!!!!!!!!!!!!!!!!!!!!!!!!!!!!!!!!!!!!!!!!!!!!!!!!!!!!!!!!!!!!!!!!!!!!!!!!!!!!!!!!!!!!!!!!!!!!!!!!!!!!!!!!!!!!!!!!!!!!!!/5MThpicTMGALatppphcZdmuqnljgfdbbbbdglnjd^UKDHJLUY`acchhihc[aefjklgd`gnvxy{{{~~~~xuqux{{zzzzzzzzzyxyyzrmfgggnszvqnrw~~~~?/!!!!!!!!!!!!!!!!!!!!!!!!!!!!!!!!!!!!!!!!!!!!!!!!!!!!!!!!!!!",
"!!!!!!!!!!!!!!!!!!!!!!!!!!!!!!!!!!!!!!!!!!!!!!!!!!!!!!!!!!!!!!!!!!!!!!!!!!!!!!!!!!!!!!!!!!!!!!!!!!!!!!!!!!!!!!!!!!!!!!!/6R]htpihTMHUetppphc[dnxvsrnkfddbbbbfjllljd_YOIDGILU[cchhhheeedjmqmjfjmqswzz{{~~~zxwxy{zyxxxxxxywvsuvwqldfgjnszxvswy~~~{>/!!!!!!!!!!!!!!!!!!!!!!!!!!!!!!!!!!!!!!!!!!!!!!!!!!!!!!!!!!!",
"!!!!!!!!!!!!!!!!!!!!!!!!!!!!!!!!!!!!!!!!!!!!!!!!!!!!!!!!!!!!!!!!!!!!!!!!!!!!!!!!!!!!!!!!!!!!!!!!!!!!!!!!!!!!!!!!!!!!!!!/6RcmyttphTS]htppphb[foz{{~smfddbbbbdglnrrrrq^H9>ABIU]chhiiiheajoysnklmmqsyzz{{~~~~~{{zywvvvvvwwurqrsuojdfgknsz{{~~~~~{{>/!!!!!!!!!!!!!!!!!!!!!!!!!!!!!!!!!!!!!!!!!!!!!!!!!!!!!!!!!!!",
"!!!!!!!!!!!!!!!!!!!!!!!!!!!!!!!!!!!!!!!!!!!!!!!!!!!!!!!!!!!!!!!!!!!!!!!!!!!!!!!!!!!!!!!!!!!!!!!!!!!!!!!!!!!!!!!!!!!!!!!/6Rcmywttie]eitphcca`jozz{~vqmkjfddbfjlnnnnqqdVIFCAGMW[]chiihc[bgmmmmmmmnqrsuwxyzzzzzz{uqmoqssuvqmjkmnjb^bjnquzz{{zyxxwwH5/+&!!!!!!!!!!!!!!!!!!!!!!!!!!!!!!!!!!!!!!!!!!!!!!!!!!!!!!!!",
"!!!!!!!!!!!!!!!!!!!!!!!!!!!!!!!!!!!!!!!!!!!!!!!!!!!!!!!!!!!!!!!!!!!!!!!!!!!!!!!!!!!!!!!!!!!!!!!!!!!!!!!!!!!!!!!!!!!!!!!/6TcmyywttpmppticW[`dlqyz{~yuromkjfdgkmlljlnqld`PG?DIPVW_chie_VZ_bgknnmmmmnoqsuvxxxwyz{rldjmqrsung`bdgb[V`jqswzzzzxvussrXB6/+!!!!!!!!!!!!!!!!!!!!!!!!!!!!!!!!!!!!!!!!!!!!!!!!!!!!!!!!",
"!!!!!!!!!!!!!!!!!!!!!!!!!!!!!!!!!!!!!!!!!!!!!!!!!!!!!!!!!!!!!!!!!!!!!!!!!!!!!!!!!!!!!!!!!!!!!!!!!!!!!!!!!!!!!!!!!!!!!!!/6Wcmyzz~}zyttthWKU_gmryz{~{{{uqnljfjlnlgdjlnrrx`K>BFKNSX_eicWPSVX`jonnmlkjlnoqsvvuuwz~of[bjoqrslaVZ^aZUN[jvwyzzyyvsqqoojbZ6/!!!!!!!!!!!!!!!!!!!!!!!!!!!!!!!!!!!!!!!!!!!!!!!!!!!!!!!!",
"!!!!!!!!!!!!!!!!!!!!!!!!!!!!!!!!!!!!!!!!!!!!!!!!!!!!!!!!!!!!!!!!!!!!!!!!!!!!!!!!!!!!!!!!!!!!!!!!!!!!!!!!!!!!!!!!!!!!!!!+/6BZzzzzzzyytthZLU[bjnsssrrsvrqnljdfgjgffgjlnrxgXIHFDJS[_ccWOIKNPX_fgjljfdbbbdgjlmnoqqld^bglmnojd^`bda^ZblssrqqqronmmmlgdaA5/+&!!!!!!!!!!!!!!!!!!!!!!!!!!!!!!!!!!!!!!!!!!!!!!!!!!!!!",
"!!!!!!!!!!!!!!!!!!!!!!!!!!!!!!!!!!!!!!!!!!!!!!!!!!!!!!!!!!!!!!!!!!!!!!!!!!!!!!!!!!!!!!!!!!!!!!!!!!!!!!!!!!!!!!!!!!!!!!!&+/5Izzyyyzzytth[MSY^dkonmlmnqqqqlgddddddfggjlqrld[NF?GP_^[[OICFILOVZ`djfb^ZVSVZ^adgjjkfb`bfjjkljfdfgggffknsomkllmljggjjggfSC90+!!!!!!!!!!!!!!!!!!!!!!!!!!!!!!!!!!!!!!!!!!!!!!!!!!!!!",
"!!!!!!!!!!!!!!!!!!!!!!!!!!!!!!!!!!!!!!!!!!!!!!!!!!!!!!!!!!!!!!!!!!!!!!!!!!!!!!!!!!!!!!!!!!!!!!!!!!!!!!!!!!!!!!!!!!!!!!!!!!/?~zywxz{ytth[NSVY`fmjfbglnnnqlgbb_^adfffdknrrqnYF9DOb^XSIC>ADHJLNX`gb^YSKGILNV[aaaaaaabddfffgjklllmnooqqmgbdfgfdbdddgjllll9/!!!!!!!!!!!!!!!!!!!!!!!!!!!!!!!!!!!!!!!!!!!!!!!!!!!!!",
"!!!!!!!!!!!!!!!!!!!!!!!!!!!!!!!!!!!!!!!!!!!!!!!!!!!!!!!!!!!!!!!!!!!!!!!!!!!!!!!!!!!!!!!!!!!!!!!!!!!!!!!!!!!!!!!!!!!!!!!!!!+5?Kbwyz{zyth[MSVY_djjjgklnqrrnljgfdgjkjjglnqqqqbUGO[g`XND969>CGKNUZ_[XSKFACFILOVVVVVVVVXZ[[^`abaa`aaadgjfb_`aba`_`aadjllll9/!!!!!!!!!!!!!!!!!!!!!!!!!!!!!!!!!!!!!!!!!!!!!!!!!!!!!",
"!!!!!!!!!!!!!!!!!!!!!!!!!!!!!!!!!!!!!!!!!!!!!!!!!!!!!!!!!!!!!!!!!!!!!!!!!!!!!!!!!!!!!!!!!!!!!!!!!!!!!!!!!!!!!!!!!!!!!!!!!!&+/6Kyz{~}zzk[MSVZ^bfjkmnnnqrrrqnnllllnllklllnnrld^bglaVLA7569?DIOSUVSONGB9?ACFHJJJJJJJKLNOUVXYZXVUSSSX[a`^[[[[[[Z[^^bgllll9/!!!!!!!!!!!!!!!!!!!!!!!!!!!!!!!!!!!!!!!!!!!!!!!!!!!!!",
"!!!!!!!!!!!!!!!!!!!!!!!!!!!!!!!!!!!!!!!!!!!!!!!!!!!!!!!!!!!!!!!!!!!!!!!!!!!!!!!!!!!!!!!!!!!!!!!!!!!!!!!!!!!!!!!!!!!!!!!!!!!!!/>z{{~}}}l[LPVZ^`bgmqqqqrrxxxxrrrrqqnnmljglnrrrsrqobVJ950569AHPNNLKKIC>799?ABCCCCCCCDFFHKNNOPNKIHHGKPXXYYXXXXVVXYZafllll9/!!!!!!!!!!!!!!!!!!!!!!!!!!!!!!!!!!!!!!!!!!!!!!!!!!!!!",
"!!!!!!!!!!!!!!!!!!!!!!!!!!!!!!!!!!!!!!!!!!!!!!!!!!!!!!!!!!!!!!!!!!!!!!!!!!!!!!!!!!!!!!!!!!!!!!!!!!!!!!!!!!!!!!!!!!!!!!!!!!!!!+5>Ld~}}}maSVZ^adjmosrqnqr||||rrrrrrqnnljgknqrrrqqog_VG>66779>CDFHFCA976699>????????AAACCDFFFDCBAAACFIIIIIIHJKLNSUX[````6/!!!!!!!!!!!!!!!!!!!!!!!!!!!!!!!!!!!!!!!!!!!!!!!!!!!!!",
"!!!!!!!!!!!!!!!!!!!!!!!!!!!!!!!!!!!!!!!!!!!!!!!!!!!!!!!!!!!!!!!!!!!!!!!!!!!!!!!!!!!!!!!!!!!!!!!!!!!!!!!!!!!!!!!!!!!!!!!!!!!!!&+/6L~}}zmdYZ^`dknqswrolqs||||urqrrrrnnljfjlnnnqqoolgbXNG?966779ADA>965556999999999999>>>>>>>>999999>AAAAA??BDGIKNNPUUUU6/!!!!!!!!!!!!!!!!!!!!!!!!!!!!!!!!!!!!!!!!!!!!!!!!!!!!!",
"!!!!!!!!!!!!!!!!!!!!!!!!!!!!!!!!!!!!!!!!!!!!!!!!!!!!!!!!!!!!!!!!!!!!!!!!!!!!!!!!!!!!!!!!!!!!!!!!!!!!!!!!!!!!!!!!!!!!!!!!!!!!!!!!/?~}zyog_`abjnuwxzsnkos{|||xrnqrrrqnljdglnnnnnooonnljfK9555569B9755555677999999999977777777766667777777779>BDFIIIIIII5/!!!!!!!!!!!!!!!!!!!!!!!!!!!!!!!!!!!!!!!!!!!!!!!!!!!!!",
"!!!!!!!!!!!!!!!!!!!!!!!!!!!!!!!!!!!!!!!!!!!!!!!!!!!!!!!!!!!!!!!!!!!!!!!!!!!!!!!!!!!!!!!!!!!!!!!!!!!!!!!!!!!!!!!!!!!!!!!!!!!!!!!!/?~}}zqkaddglovwwysqmqswxz|xurrrrrrqljdgjllkjkllmmnlkgVH>>>9AFKFA997679???AAAAAAAA????>>>>>>>>>9>>???????CGLNOUUUUC75/+!!!!!!!!!!!!!!!!!!!!!!!!!!!!!!!!!!!!!!!!!!!!!!!!!!!!!",
"!!!!!!!!!!!!!!!!!!!!!!!!!!!!!!!!!!!!!!!!!!!!!!!!!!!!!!!!!!!!!!!!!!!!!!!!!!!!!!!!!!!!!!!!!!!!!!!!!!!!!!!!!!!!!!!!!!!!!!!!!!!!!!!!/?~}}}rmefjknqvwwwusqpppux{|yxxurrrrnjdfgjgfddfgjlmmlkbZSPNNSVZSLHDBABDGHHHHHHHHHHHHGFFFFDDDDDDDDDFFFFFGHLU[^_````>5/+&!!!!!!!!!!!!!!!!!!!!!!!!!!!!!!!!!!!!!!!!!!!!!!!!!!!!!",
"!!!!!!!!!!!!!!!!!!!!!!!!!!!!!!!!!!!!!!!!!!!!!!!!!!!!!!!!!!!!!!!!!!!!!!!!!!!!!!!!!!!!!!!!!!!!!!!!!!!!!!!!!!!!!!!!!!!!!!!!!!!!!!!!/?~~~~smhkmoqswwwvwvwtpppw~~~~|xrrrrnjddffda^`abfkmmmlmoqonmllkf`ZXUPSSSSSSUUUUUSSSSSSPONNNNNNNNNOMONNPSU[dlllllll9/!!!!!!!!!!!!!!!!!!!!!!!!!!!!!!!!!!!!!!!!!!!!!!!!!!!!!!!!",
"!!!!!!!!!!!!!!!!!!!!!!!!!!!!!!!!!!!!!!!!!!!!!!!!!!!!!!!!!!!!!!!!!!!!!!!!!!!!!!!!!!!!!!!!!!!!!!!!!!!!!!!!!!!!!!!!!!!!!!!!!!!!!!!!+5?Ld~vqmmoqpppohec]TT]]chptw~xurrrrqlgdb____`abbbbddfknqoonmmljda_[YZZZ[[[[^^^^[[[[[[[ZZZZYYYYYYYYYZZ[^_dkomjfjmo9/!!!!!!!!!!!!!!!!!!!!!!!!!!!!!!!!!!!!!!!!!!!!!!!!!!!!!!!!",
"!!!!!!!!!!!!!!!!!!!!!!!!!!!!!!!!!!!!!!!!!!!!!!!!!!!!!!!!!!!!!!!!!!!!!!!!!!!!!!!!!!!!!!!!!!!!!!!!!!!!!!!!!!!!!!!!!!!!!!!!!!!!!!!!&+/6L~wsqqppppoe]RME@EERRThit~xrqrrrqljd^XZ[_`aa^ZXZ^`fmqqqonnmljgfbaabbbdddfffffdddddfddddbbbbbbbbdddfgjmosmf^fnv>/!!!!!!!!!!!!!!!!!!!!!!!!!!!!!!!!!!!!!!!!!!!!!!!!!!!!!!!!",
"!!!!!!!!!!!!!!!!!!!!!!!!!!!!!!!!!!!!!!!!!!!!!!!!!!!!!!!!!!!!!!!!!!!!!!!!!!!!!!!!!!!!!!!!!!!!!!!!!!!!!!!!!!!!!!!!!!!!!!!!!!!!!!!!!!!/?~zwuuttpom]ME@88<<@ERRhp~wrnqrrqnlbYNUZ````YSLOVZblrrqqqonnnnmkjjjklllmnnnnnmmlmnnnnnmmlllllllmmnoqrsvxmbXdn~?/!!!!!!!!!!!!!!!!!!!!!!!!!!!!!!!!!!!!!!!!!!!!!!!!!!!!!!!!",
"!!!!!!!!!!!!!!!!!!!!!!!!!!!!!!!!!!!!!!!!!!!!!!!!!!!!!!!!!!!!!!!!!!!!!!!!!!!!!!!!!!!!!!!!!!!!!!!!!!!!!!!!!!!!!!!!!!!!!!!!!!!!!!!!!!!+5?>>>H[phc]RMEE@@@EERR]hisqmkmnqljd^VNSVZYXVPLIJLLZgrrrqqoonmljgdffgggjlnonmlllkmnoonmmmlmmnmkjlmooqrsvxmbXdn~?/!!!!!!!!!!!!!!!!!!!!!!!!!!!!!!!!!!!!!!!!!!!!!!!!!!!!!!!!",
"!!!!!!!!!!!!!!!!!!!!!!!!!!!!!!!!!!!!!!!!!!!!!!!!!!!!!!!!!!!!!!!!!!!!!!!!!!!!!!!!!!!!!!!!!!!!!!!!!!!!!!!!!!!!!!!!!!!!!!!!!!!!!!!!!!!&+////5Dh]TRMMMEEERRRT]hhimljfjlnjd^XSNOSUPNLKHFFFFSbsrrrqqqnljgdabbbdddjnromjjjjlnronmmllmoqmjdjmoqqqsvxmbXdn~?/!!!!!!!!!!!!!!!!!!!!!!!!!!!!!!!!!!!!!!!!!!!!!!!!!!!!!!!!",
"!!!!!!!!!!!!!!!!!!!!!!!!!!!!!!!!!!!!!!!!!!!!!!!!!!!!!!!!!!!!!!!!!!!!!!!!!!!!!!!!!!!!!!!!!!!!!!!!!!!!!!!!!!!!!!!!!!!!!!!!!!!!!!!!!!!!!!!!!/7cTMEEERRT]]chhiiiheedbfjld^VSONNNNKIGFDCBA?K`ssrrrqqnlgda^^_`aaagnsolgggglosqnllllnqsngagmqqqqsvxmbXdn~?/!!!!!!!!!!!!!!!!!!!!!!!!!!!!!!!!!!!!!!!!!!!!!!!!!!!!!!!!",
"!!!!!!!!!!!!!!!!!!!!!!!!!!!!!!!!!!!!!!!!!!!!!!!!!!!!!!!!!!!!!!!!!!!!!!!!!!!!!!!!!!!!!!!!!!!!!!!!!!!!!!!!!!!!!!!!!!!!!!!!!!!!!!!!!!!!!!!!!/6]RRERRRT]]ccchhheecefgjjld_YSNINUZNHBBCC?99F[sssrqoomjfa[XXXXY[^dlqld^_aagnsnjbdfglosmf^dlrqqoruxmbXdn~?/!!!!!!!!!!!!!!!!!!!!!!!!!!!!!!!!!!!!!!!!!!!!!!!!!!!!!!!!",
"!!!!!!!!!!!!!!!!!!!!!!!!!!!!!!!!!!!!!!!!!!!!!!!!!!!!!!!!!!!!!!!!!!!!!!!!!!!!!!!!!!!!!!!!!!!!!!!!!!!!!!!!!!!!!!!!!!!!!!!!!!!!!!!!!!!!!!!!!/6RRRRRTT]chhcccccaa`djmlljfa[ULFNZfUG>?AC>76BXssssqomkgd^XSPONSVX`gnf^UXY[dmulbY[adjnrlbZblsqonqsxmbXdn~?/!!!!!!!!!!!!!!!!!!!!!!!!!!!!!!!!!!!!!!!!!!!!!!!!!!!!!!!!",
"!!!!!!!!!!!!!!!!!!!!!!!!!!!!!!!!!!!!!!!!!!!!!!!!!!!!!!!!!!!!!!!!!!!!!!!!!!!!!!!!!!!!!!!!!!!!!!!!!!!!!!!!!!!!!!!!!!!!!!!!!!!!!!!!!!!!!!!!!/6RRR]]]]hiihea_^[[[[dlqnljfb`UJCNaqZF99?C965>Uusssonljfb[ULKJILNU[dlaVLNSValuj[NUZ`flqj`ValuqnlosxmbXdn~?/!!!!!!!!!!!!!!!!!!!!!!!!!!!!!!!!!!!!!!!!!!!!!!!!!!!!!!!!",
"!!!!!!!!!!!!!!!!!!!!!!!!!!!!!!!!!!!!!!!!!!!!!!!!!!!!!!!!!!!!!!!!!!!!!!!!!!!!!!!!!!!!!!!!!!!!!!!!!!!!!!!!!!!!!!!!!!!!!!!!!!!!!!!!!!!!!!!!!/5RRT]cchhiihc__^[[^_fmsqomjfaZSKNUZLD>?AC>75AXuussomkgdb[VNNNLPUY`flaUJLNS^jsfVHNX`bfjbZS^gqonlosxmbXdn~?/!!!!!!!!!!!!!!!!!!!!!!!!!!!!!!!!!!!!!!!!!!!!!!!!!!!!!!!!",
"!!!!!!!!!!!!!!!!!!!!!!!!!!!!!!!!!!!!!!!!!!!!!!!!!!!!!!!!!!!!!!!!!!!!!!!!!!!!!!!!!!!!!!!!!!!!!!!!!!!!!!!!!!!!!!!!!!!!!!!!!!!!!!!!!!!!!!!!!/5ERThhhhhhiec^^^[^_ajowvsqmjb`[XOJFDCBBCC>96CZuuusqmjfda[XUSSSVZ_bgl`SIKLN[graNCIU````ZVP[fnnmlosxmbXdn~?/!!!!!!!!!!!!!!!!!!!!!!!!!!!!!!!!!!!!!!!!!!!!!!!!!!!!!!!!",
"!!!!!!!!!!!!!!!!!!!!!!!!!!!!!!!!!!!!!!!!!!!!!!!!!!!!!!!!!!!!!!!!!!!!!!!!!!!!!!!!!!!!!!!!!!!!!!!!!!!!!!!!!!!!!!!!!!!!!!!!!!!!!!!!!!!!!!!!!+5=RThhiiihhea[[[^_abkqzzywqkddffPC9>BGFDC?99F[uuuuqmjfb`^ZXXXX[`dfjl_SHIJLYfq^J>FP`[YVSPNYbllllosxmbXdn~?/!!!!!!!!!!!!!!!!!!!!!!!!!!!!!!!!!!!!!!!!!!!!!!!!!!!!!!!!",
"!!!!!!!!!!!!!!!!!!!!!!!!!!!!!!!!!!!!!!!!!!!!!!!!!!!!!!!!!!!!!!!!!!!!!!!!!!!!!!!!!!!!!!!!!!!!!!!!!!!!!!!!!!!!!!!!!!!!!!!!!!!!!!!!!!!!!!&+/06=ER]chihheca[^_aaaagmsuvwrokgdaVJCDFGFDC?99F[uussomjgdba_^_`adfjlmndZNSUV^fl[LCLYgaZSSUU[dlmmnorulaXdn~?/!!!!!!!!!!!!!!!!!!!!!!!!!!!!!!!!!!!!!!!!!!!!!!!!!!!!!!!!",
"!!!!!!!!!!!!!!!!!!!!!!!!!!!!!!!!!!!!!!!!!!!!!!!!!!!!!!!!!!!!!!!!!!!!!!!!!!!!!!!!!!!!!!!!!!!!!!!!!!!!!!!!!!!!!!!!!!!!!!!!!!!!!!!!!!!!!!+/57<=ERRTciheca_^`bdbaafknqswuqqkd^ZVSLJGFDC?99F[ussromljfddddfggkmoooojb[^`abdf[OHUandZNSXZafmmnoqqskaXdn~?/!!!!!!!!!!!!!!!!!!!!!!!!!!!!!!!!!!!!!!!!!!!!!!!!!!!!!!!!",
"!!!!!!!!!!!!!!!!!!!!!!!!!!!!!!!!!!!!!!!!!!!!!!!!!!!!!!!!!!!!!!!!!!!!!!!!!!!!!!!!!!!!!!!!!!!!!!!!!!!!!!!!!!!!!!!!!!!!!!!!!!!!!!!!!!!!!!/5EE===EER]ihc____adgda_bfjmqwwwwmdZ_bf[OGFDC?99F[usrqonlkgfgjklnoqsusrqnkfgklgd`ZUN[jvjZLSZadjmnoqqqqjaXdn~?/!!!!!!!!!!!!!!!!!!!!!!!!!!!!!!!!!!!!!!!!!!!!!!!!!!!!!!!!",
"!!!!!!!!!!!!!!!!!!!!!!!!!!!!!!!!!!!!!!!!!!!!!!!!!!!!!!!!!!!!!!!!!!!!!!!!!!!!!!!!!!!!!!!!!!!!!!!!!!!!!!!!!!!!!!!!!!!!!!!!!!!!!!!!!!!&&+/6EE==EERR]hecabdddffa^Y^`djmptttpkeeej_SIGFDA99G^wusqqoonmlmnnoqrsuwvusqnmnnonljfa^fnwnf[adjlnoqqqqqqjaXdn~?/!!!!!!!!!!!!!!!!!!!!!!!!!!!!!!!!!!!!!!!!!!!!!!!!!!!!!!!!",
"!!!!!!!!!!!!!!!!!!!!!!!!!!!!!!!!!!!!!!!!!!!!!!!!!!!!!!!!!!!!!!!!!!!!!!!!!!!!!!!!!!!!!!!!!!!!!!!!!!!!!!!!!!!!!!!!!!!!!!!!!!!!!!!!!!!&/057@@EERRRRTccbbdgkgfd_YUX[_bgmpptppmmmhaUJIGFA>9G`zwsqqrsrqqqrssuuvwxxwwusrssusrqonmosysolmoqrsssrqqqqjaXdn~?/!!!!!!!!!!!!!!!!!!!!!!!!!!!!!!!!!!!!!!!!!!!!!!!!!!!!!!!!",
"!!!!!!!!!!!!!!!!!!!!!!!!!!!!!!!!!!!!!!!!!!!!!!!!!!!!!!!!!!!!!!!!!!!!!!!!!!!!!!!!!!!!!!!!!!!!!!!!!!!!!!!!!!!!!!!!!!!!!!!!!!!!!!!!!!!+08888@ERRRRRT[_adglolgb[UNSVY^aehptttttpicWLJIGB>9Ha~xsqsuxxxxxyyyyyyzzzzzzzzz{{{~~~~~{{z{{~~{{zzyvsqqqqjaXdn~?/!!!!!!!!!!!!!!!!!!!!!!!!!!!!!!!!!!!!!!!!!!!!!!!!!!!!!!!!",
"!!!!!!!!!!!!!!!!!!!!!!!!!!!!!!!!!!!!!!!!!!!!!!!!!!!!!!!!!!!!!!!!!!!!!!!!!!!!!!!!!!!!!!!!!!!!!!!!!!!!!!!!!!!!!!!!!!!!!!!!!!!!!%%&&&&/0688@ERRRRERW[adglmokd^XSLNPSXZ_chhippppih]WSJFCA?Lbyvsqrsuuvvwxyyzzzzzzzzzz{{{{~~~~~~~{{{~~~~{{zyvrooong`Xdn~L6//////////+&!!!!!!!!!!!!!!!!!!!!!!!!!!!!!!!!!!!!!!!!!!!!",
"!!!!!!!!!!!!!!!!!!!!!!!!!!!!!!!!!!!!!!!!!!!!!!!!!!!!!!!!!!!!!!!!!!!!!!!!!!!!!!!!!!!!!!!!!!!!!!!!!!!!!!!!!!!!!!!!!!!!!!!!!!!!!%&'+++/068@EERRRMEMU^bflmoqjaXUNKLLLOUWWT]chiiiiihhTM@DDDSctsrqqrssssuxzzzzzzzzzzzz{{~~~~~~~~~~{~~~~~~{zzuqnmmmf_Xdn~dL??????????5+!!!!!!!!!!!!!!!!!!!!!!!!!!!!!!!!!!!!!!!!!!!!",
"!!!!!!!!!!!!!!!!!!!!!!!!!!!!!!!!!!!!!!!!!!!!!!!!!!!!!!!!!!!!!!!!!!!!!!!!!!!!!!!!!!!!!!!!!!!!!!!!!!!!!!!!!!!!!!!!!!!!!!!!!!!!!&'),,00338@MRR]RECIS^djnoqrj^SNLJJIIKLMMSST]hhiiipp]M@EEJWeppqqqqqqqqswzz{{z}}}}}}}~~~~~~~~~~~~~~~~~~~{{zsolllld^Xdn~~~~~~~~~~~~~?/!!!!!!!!!!!!!!!!!!!!!!!!!!!!!!!!!!!!!!!!!!!!",
"!!!!!!!!!!!!!!!!!!!!!!!!!!!!!!!!!!!!!!!!!!!!!!!!!!!!!!!!!!!!!!!!!!!!!!!!!!!!!!!!!!!!!!!!!!!!!!!!!!!!!!!!!!!!!!!!!!!!!!!!!!%&&')),,,037<@MRRTSJDKVafknmmlbXLLJHHHGHJJLMMUTT]]]chh]RMMRT]hpptssspsssvyzzzz}}}}}}}}~~~~~~~~~~~~~~~~~{{{zzvsoooog`Xdo~{zxxxxz{~~~~L6/+&!!!!!!!!!!!!!!!!!!!!!!!!!!!!!!!!!!!!!!!!!",
"!!!!!!!!!!!!!!!!!!!!!!!!!!!!!!!!!!!!!!!!!!!!!!!!!!!!!!!!!!!!!!!!!!!!!!!!!!!!!!!!!!!!!!!!!!!!!!!!!!!!!!!!!!!!!!!!!!!!!!!!!!&'))))),,03<@EMMWWSKFNYdgkmkgdZPIHHHGFFFFGIJMMSRRRRTT]]TT]]hiipptwttttttwyzz}}}}}}}}}~~~~~~~~~~~~~~~~~{zyzz{yvsssslbXdo~zwuuuuwz~~~~dL?5+!!!!!!!!!!!!!!!!!!!!!!!!!!!!!!!!!!!!!!!!!",
"!!!!!!!!!!!!!!!!!!!!!!!!!!!!!!!!!!!!!!!!!!!!!!!!!!!!!!!!!!!!!!!!!!!!!!!!!!!!!!!!!!!!!!!!!!!!!!!!!!!!!!!!!!!!!!!!!!!!!!!!!!&),)))),,06@EEEMSXSLHP[gjlmgb[UKFFFFDDDCCCFHJJJMJEEMMRT]iiptppptt}zttttttz}}}}}}~~~~~~~~~~~~~~~~~~~~~~{yxyz{{zzzyyndYdo~xuqqqqux~~~~~~~?/!!!!!!!!!!!!!!!!!!!!!!!!!!!!!!!!!!!!!!!!!",
"!!!!!!!!!!!!!!!!!!!!!!!!!!!!!!!!!!!!!!!!!!!!!!!!!!!!!!!!!!!!!!!!!!!!!!!!!!!!!!!!!!!!!!!!!!!!!!!!!!!!!!!!!!!!!!!!!!!!!!!%&'')))))),,04@EESUVXSLIS[fgjlf_YPKFDCBBAABBBCDGHJJJEEEMMSTT]chhhhhputtttyzz}}}zzz}~~~~~~~~~~~~~~~~~~~zwtvwwwttttttttmkdkqwvsrssuwz~~~~~~~L6/+&!!!!!!!!!!!!!!!!!!!!!!!!!!!!!!!!!!!!!!",
"!!!!!!!!!!!!!!!!!!!!!!!!!!!!!!!!!!!!!!!!!!!!!!!!!!!!!!!!!!!!!!!!!!!!!!!!!!!!!!!!!!!!!!!!!!!!!!!!!!!!!!!!!!!!!!!!!!!!!!!&+++)')))),,04<ER[ZZXSNJS[fggjb[VNIFCA>>>>?AABCCDGJIHHHEEJMMMUWWWWckosw}}}}}}}zzzz{~~~~~~~~~~~~~~~~~~~wtpptwtppppiiiioooqqrsssuwxz{~~~~~~~dL?5+!!!!!!!!!!!!!!!!!!!!!!!!!!!!!!!!!!!!!!",
"!!!!!!!!!!!!!!!!!!!!!!!!!!!!!!!!!!!!!!!!!!!!!!!!!!!!!!!!!!!!!!!!!!!!!!!!!!!!!!!!!!!!!!!!!!!!!!!!!!!!!!!!!!!!!!!!!!!!!!!'+0,+''))),,04<ERfa[XUNKS[dfggaZSLHDA>9999>?AAAACDHGGGDDCCDDGEJMMOWbmqv~~~~~~~{zyz{~~~~~~~~~~~~~~~~~~~tpiptttpiihhhhhpt~wroqruwz~~~~~~~~~~~~~?/!!!!!!!!!!!!!!!!!!!!!!!!!!!!!!!!!!!!!!",
"!!!!!!!!!!!!!!!!!!!!!!!!!!!!!!!!!!!!!!!!!!!!!!!!!!!!!!!!!!!!!!!!!!!!!!!!!!!!!!!!!!!!!!!!!!!!!!!!!!!!!!!!!!!!!!!!!!!!%%&'+,+)'))),,,04<ERfa[XUNLU^ffff`ZUNHDA>99999>>>??ABDDDFDDCCCDDGGIJLU[bjnsuwyyyyyyyz{~{{z{{~~~~~~~~~~~~~wtpptttpiiiiiiipt~vomoqvwxyvroooosx~~~~?/!!!!!!!!!!!!!!!!!!!!!!!!!!!!!!!!!!!!!!",
"!!!!!!!!!!!!!!!!!!!!!!!!!!!!!!!!!!!!!!!!!!!!!!!!!!!!!!!!!!!!!!!!!!!!!!!!!!!!!!!!!!!!!!!!!!!!!!!!!!!!!!!!!!!!!!!!!!!!%&'')))))))),,,04<ERfa[XUNLU^ffdd`ZVNIDA>99999999>>?AABCDDCCCCCCDDFHJMSY`fmoruvvwwxyz{~{zyz{~~~~~~~~~~~~~ytpttttppiiiiiipt~sohmqwwvvolffffms~~~~?/!!!!!!!!!!!!!!!!!!!!!!!!!!!!!!!!!!!!!!",
"!!!!!!!!!!!!!!!!!!!!!!!!!!!!!!!!!!!!!!!!!!!!!!!!!!!!!!!!!!!!!!!!!!!!!!!!!!!!!!!!!!!!!!!!!!!!!!!!!!!!!!!!!!!!!!!!!!!!&')))')),,,,,,,04<ERfa[XUNLV^gfba_[YOIDA>999999799>>>>ABDCCCCBBBBBCDGIKNV_fknrsssvwyz{~zywyz~~~~~~~~~~~~~}ttttttttpiiiiptt~smemqxvuslbZZZZfo~~~~?/!!!!!!!!!!!!!!!!!!!!!!!!!!!!!!!!!!!!!!",
"!!!!!!!!!!!!!!!!!!!!!!!!!!!!!!!!!!!!!!!!!!!!!!!!!!!!!!!!!!!!!!!!!!!!!!!!!!!!!!!!!!!!!!!!!!!!!!!!!!!!!!!!!!!%&&&&&&&&'))))))),,,),,,34<ERb^ZVSNLV^gfdd`[YNICA>999997779999>>ABBCCCBBBBACDDGHINV[adjklnoqrsuwvuuvxzyyyz{~~~~~~~}ztttpttttpppptty~smhklmljgb_ZZZZbjosx~?/!!!!!!!!!!!!!!!!!!!!!!!!!!!!!!!!!!!!!!",
"!!!!!!!!!!!!!!!!!!!!!!!!!!!!!!!!!!!!!!!!!!!!!!!!!!!!!!!!!!!!!!!!!!!!!!!!!!!!!!!!!!!!!!!!!!!!!!!!!!!!!!!!!!!&'+++++++++))))),,,,),,034<ER_[YVSNLV^gfffa^YNHCA>9997776779999>>?ABCCBBAAABCCDDFILSVZ^adgjlmnoqrrrsvwwvvxz~~~~~~~}}}ttpttyyttttty}~uokjfb`[ZZZZZZZ^bfms~?/!!!!!!!!!!!!!!!!!!!!!!!!!!!!!!!!!!!!!!",
"!!!!!!!!!!!!!!!!!!!!!!!!!!!!!!!!!!!!!!!!!!!!!!!!!!!!!!!!!!!!!!!!!!!!!!!!!!!!!!!!!!!!!!!!!!!!!!!!!!!!!!!!!!!&++,///00,+))),,,,,)),,034<EM[YXUSNLV^ggggb^YNHCA>997776667779999>?ACCBAAAAAABBBBDHJLNSX[abfgklnnoqrsusssvy~~~~~~~~~~wpppw~~~~~~~~~~vqmf_XUNLPVZZZZZZZfo~?/!!!!!!!!!!!!!!!!!!!!!!!!!!!!!!!!!!!!!!",
"!!!!!!!!!!!!!!!!!!!!!!!!!!!!!!!!!!!!!!!!!!!!!!!!!!!!!!!!!!!!!!!!!!!!!!!!!!!!!!!!!!!!!!!!!!!!!!!!!!!!!!!!%&&'+),/00/,,))))),,,,,),,034<EM[YVUSNLXakjjjb^XNHCA>9997776677799999>?AAABAA?AAAABBCDFHIKNUY[^aabdfgkllmmmnoqrsuvxz~~~~ytpty~~~~~~~{zyqlf_XONLKLPUVYZZZZbjoH6////+&!!!!!!!!!!!!!!!!!!!!!!!!!!!!!!!!",
"!!!!!!!!!!!!!!!!!!!!!!!!!!!!!!!!!!!!!!!!!!!!!!!!!!!!!!!!!!!!!!!!!!!!!!!!!!!!!!!!!!!!!!!!!!!!!!!!!!!!!!!!&'+++),000/,+)))))),,,,,,0034<EM[YVUSONYdmlljd^XNHBA>99997777777779999>>?ABA???AAAABBBCCDFHLOUVYYYX[_bbbdfggjklmoqsx{~~~zywyz~~~~~~~zxumf^XOKJIHKLNSVZZZZ^bfVH????5+!!!!!!!!!!!!!!!!!!!!!!!!!!!!!!!!",
"!!!!!!!!!!!!!!!!!!!!!!!!!!!!!!!!!!!!!!!!!!!!!!!!!!!!!!!!!!!!!!!!!!!!!!!!!!!!!!!!!!!!!!!!!!!!!!!!!!!!!!!!&+/,+),030,)))))))),,,,,,0334<@M[YVUSPNZfonmkd^XNHBA>9999977777777799999>ABA?>>?AAAAAA??AACFJLNPNNLPVZZZZ^`bbbdgkmqv{{~~~~~~~~~~~~~~yurj`VNJFFGGHIJNUZZZZZZZfo~~~~?/!!!!!!!!!!!!!!!!!!!!!!!!!!!!!!!!",
"!!!!!!!!!!!!!!!!!!!!!!!!!!!!!!!!!!!!!!!!!!!!!!!!!!!!!!!!!!!!!!!!!!!!!!!!!!!!!!!!!!!!!!!!!!!!!!!!!!!!!%&&'+++//0030,)))')))),,,,,,0334<ER_ZVPPSS^gqonlf^VLGBAAA?>>9977777779999999>?>>9>?AAAAAAA???ACDFHIIIIKNPPSSVZ^_``bfjmosvwyz{~~~~~~{zyxrnlbZOLIFGHHIIKNUZZZZZZZbjosx~?/!!!!!!!!!!!!!!!!!!!!!!!!!!!!!!!!",
"!!!!!!!!!!!!!!!!!!!!!!!!!!!!!!!!!!!!!!!!!!!!!!!!!!!!!!!!!!!!!!!!!!!!!!!!!!!!!!!!!!!!!!!!!!!!!!!!!!!!!&'++++//00330+)'''))),,,,,,,0344<ERb[VNPSU_jsqonf^VLFACDFDB?997799999999999999999>?AAABAAA??>>??ACDDDFGHJJJJNUZZ[[_abglnqswxz{~~~~{{xvsnjbZSLJHFHHIIKKNVZZZZZZZ^bfms~?/!!!!!!!!!!!!!!!!!!!!!!!!!!!!!!!!",
"!!!!!!!!!!!!!!!!!!!!!!!!!!!!!!!!!!!!!!!!!!!!!!!!!!!!!!!!!!!!!!!!!!!!!!!!!!!!!!!!!!!!!!!!!!!!!!!!!!!!!&+,+)'/066330+''''))),,,,,,00344<ERf^VLOSValusqog_VLFADINIFB>97999999999999999999>?BBBBBAA?>99999>?AABCCDDDDINVVXXZ[^afjmosvy{{~~{{zvsojaZSLHHGFHIJKKLOVZZZZZZZZZZfo~?/!!!!!!!!!!!!!!!!!!!!!!!!!!!!!!!!",
"!!!!!!!!!!!!!!!!!!!!!!!!!!!!!!!!!!!!!!!!!!!!!!!!!!!!!!!!!!!!!!!!!!!!!!!!!!!!!!!!!!!!!!!!!!!!!!!!!!!!!&'++)'/086330,))))),,,000,,00344<ERf^VLOUValsrong^VLHCHLVLFA>979999999999999779999>?AABBBBA?>>>>>>??AAABCCDDHKNPUXXZZ_dgmqvxy{{{{ywuqnld^XPLHHHHIKLLNNSVZYYXYZZZZZbjo9/!!!!!!!!!!!!!!!!!!!!!!!!!!!!!!!!",
"!!!!!!!!!!!!!!!!!!!!!!!!!!!!!!!!!!!!!!!!!!!!!!!!!!!!!!!!!!!!!!!!!!!!!!!!!!!!!!!!!!!!!!!!!!!!!!!!!!!!!&'))))/587630,)))),0000000000334<ERf^VLOUXaksqonf^UNJFLU[NF?99799999999999777779999>?ACCCCBAAA???????>?ABBCCFHILPVVXX^bgmqxyz{{{{wsqmjf`ZUOLIIJKLNOPSSUXYXVVXYZZZZ^bf7/!!!!!!!!!!!!!!!!!!!!!!!!!!!!!!!!",
"!!!!!!!!!!!!!!!!!!!!!!!!!!!!!!!!!!!!!!!!!!!!!!!!!!!!!!!!!!!!!!!!!!!!!!!!!!!!!!!!!!!!!!!!!!!!!!!!!!!!!%'')))05@86300,,,,00333300000334<=Rf^VLOUXakrqnmf^UOLIPZdUF>997999999999997777777999>ACCCCCCCBBAA??>>9>?AABCCDDINVUUUZagmrzz{{{zzuqnjd`[VSNKIJLLNPUUVVXXXVUSVXZZZZZZZ6/!!!!!!!!!!!!!!!!!!!!!!!!!!!!!!!!",
"!!!!!!!!!!!!!!!!!!!!!!!!!!!!!!!!!!!!!!!!!!!!!!!!!!!!!!!!!!!!!!!!!!!!!!!!!!!!!!!!!!!!!!!!!!!!!!!!!!!!!%''++/06@87330,,,,00333333003344<=Rf^VNOSV_gonmkb[USNLSY_OF?9977999999999977777777999?BBCCCCCCCBBBBAA?AAABBCCDDHJLNNOVZ_fmsssuuvwrnkfb^ZXUONKLNNPUVVXXXXVUUSV[a^[ZZZZ6/!!!!!!!!!!!!!!!!!!!!!!!!!!!!!!!!",
"!!!!!!!!!!!!!!!!!!!!!!!!!!!!!!!!!!!!!!!!!!!!!!!!!!!!!!!!!!!!!!!!!!!!!!!!!!!!!!!!!!!!!!!!!!!!!!!!!!!!!%''+/058@<84300,,,03333333033344<=Rd^VNOSU^fnljgaZUSSPUVYNF?>9777999999>9977777777999>AABCCCCCCCDDDDCCCBBBBBCDFFGHIKNOUV^fmnnoqrsolfb`[ZXVSOLNOSUVXXXYXVVUSOX_fb^ZZZZ6/!!!!!!!!!!!!!!!!!!!!!!!!!!!!!!!!",
"!!!!!!!!!!!!!!!!!!!!!!!!!!!!!!!!!!!!!!!!!!!!!!!!!!!!!!!!!!!!!!!!!!!!!!!!!!!!!!!!!!!!!!!!!!!!!!!!!!!!!%''+0578@<<43300,,03444433333344<=Rd^VNOSU[dljgd_ZUUUVUUUKFA>977779999>?99777777777799?ABCCCCDDDFFHGFFDDCCBACDFDCCFHKLLNV`gjklmoqmgb`^ZZYXVSOSSUVXYYZZXVUSPNYblfaZZZZ6/!!!!!!!!!!!!!!!!!!!!!!!!!!!!!!!!",
"!!!!!!!!!!!!!!!!!!!!!!!!!!!!!!!!!!!!!!!!!!!!!!!!!!!!!!!!!!!!!!!!!!!!!!!!!!!!!!!!!!!!!!!!!!!!!!!!!!%&&'+)/0688@<<<43000,0344664333344<<=Ra[XSUVX^dljgd_ZUVVXVVUNKHB>997779999>99999777777999>?ABBCCCDDFFGFFFFDDDCCDDFDDDDFHIKLUZabfgjjkfb^^[ZZYYVUSUUVXXYYYXVUPONLUZb`^[_bfC5/+&!!!!!!!!!!!!!!!!!!!!!!!!!!!!!",
"!!!!!!!!!!!!!!!!!!!!!!!!!!!!!!!!!!!!!!!!!!!!!!!!!!!!!!!!!!!!!!!!!!!!!!!!!!!!!!!!!!!!!!!!!!!!!!!!!!&'++++00688@<<<433000334678763444<<=ER_[YVXYZ`fljfd_YUVXZXVUSSOHA9997779999999997776779999>?AABCCCDDFFFFFFFFFFFFFFFFFDDDFILOUX[addbb`^ZZZZZZYXVUUVXXYZYXXUSNNLKNUXZZ[bjo^I?5+!!!!!!!!!!!!!!!!!!!!!!!!!!!!!",
"!!!!!!!!!!!!!!!!!!!!!!!!!!!!!!!!!!!!!!!!!!!!!!!!!!!!!!!!!!!!!!!!!!!!!!!!!!!!!!!!!!!!!!!!!!!!!!!!!!&+,,,,0378@@<<<433300333688876744<<=ER[[ZZ[[^bfljfd_YUXZ^ZXUXZ^ND99977779999>?9977666799999>?AABCCDDDFFFGGGGGHHGFFFFGDCADHLLNOV[a_^ZYXVXXZZZZXXVVXYYZZXXVSNLLKIKLNUX^gq~~~~?/!!!!!!!!!!!!!!!!!!!!!!!!!!!!!",
"!!!!!!!!!!!!!!!!!!!!!!!!!!!!!!!!!!!!!!!!!!!!!!!!!!!!!!!!!!!!!!!!!!!!!!!!!!!!!!!!!!!!!!!!!!!!!!!!!!&+,,000588@@@<<4433303336888888<<<==ER_^[Z[^`djmkgd`[VY[^[ZXXZZLD>9999777999>?>99977779999>>?AAABCDDDFFFFFFDFFFFFFGGHFDDFHJLNSVZ^^[[[ZZZZZZZZXXVVXYYYYXVUPNLKJIJKLNSV`gosw~?/!!!!!!!!!!!!!!!!!!!!!!!!!!!!!",
"!!!!!!!!!!!!!!!!!!!!!!!!!!!!!!!!!!!!!!!!!!!!!!!!!!!!!!!!!!!!!!!!!!!!!!!!!!!!!!!!!!!!!!!!!!!!!!!!!!&+,,003688@E@@<<4333033368?888<<<===ERb`^[^`afknljfa^Y[^`^[ZZYYLF?>999977799>?>>999779999>>???AABCFFFFDDDDDCCCCDFGHHHHHHHHHKNSVXYZ[^^^_^^[[ZZYXVXXXXYYVUSNLKJIIIIIKLOX^fms~?/!!!!!!!!!!!!!!!!!!!!!!!!!!!!!",
"!!!!!!!!!!!!!!!!!!!!!!!!!!!!!!!!!!!!!!!!!!!!!!!!!!!!!!!!!!!!!!!!!!!!!!!!!!!!!!!!!!!!!!!!!!!!!!!!!!&),003678?@EEEE<4333033368?@@@@EEE==RTfb_[^adgmomjfb_[^_a`_^[YVLFA?>>9977779>???>>999999>???????ACFFFFDDCCBBBBBCFHHHHIJKIHGKNUUUUX[`abba_^[ZZYXVXXXXXXVUPNLJIIHHHGHIKNUZfo~?/!!!!!!!!!!!!!!!!!!!!!!!!!!!!!",
"!!!!!!!!!!!!!!!!!!!!!!!!!!!!!!!!!!!!!!!!!!!!!!!!!!!!!!!!!!!!!!!!!!!!!!!!!!!!!!!!!!!!!!!!!!!!!!!&&++/,035678@@EEEE@<43303333788@@@EEEE=RRTW[[adglmomkgd`[^`aa``[YVNHCBAA>9977799>>>?>>99999>????AAACDFGHHHGFFDCCCCDGIIIJKLLLKJLOUSPOUY^`adba`^ZXVVUUVVXXXVUPNLJIIHHHGHHILPVbn~L6/+&!!!!!!!!!!!!!!!!!!!!!!!!!!",
"!!!!!!!!!!!!!!!!!!!!!!!!!!!!!!!!!!!!!!!!!!!!!!!!!!!!!!!!!!!!!!!!!!!!!!!!!!!!!!!!!!!!!!!!!!!!!!!&+/000336678<@EERRE<73300333488@@@EEEEEERRRW^bgmmnnmkjda^_aaaaa^YUNKGFDCA>9977999>>??>>>>>>???AAABCDFHHIKKJJHFDDDDFHKKLLLNONNNNSUPNLPV[_adbba^ZXUSOSSUVXYVUSNLJIIIHHFGGHJNSam~dL?5+!!!!!!!!!!!!!!!!!!!!!!!!!!",
"!!!!!!!!!!!!!!!!!!!!!!!!!!!!!!!!!!!!!!!!!!!!!!!!!!!!!!!!!!!!!!!!!!!!!!!!!!!!!!!!!!!!!!!!!!!!!!!+/3333366788<@EMRTM@863000333688@@EEEEEEEERT^dkoonnmljfb^`abbbb^YUOLKIHGC?99777999>??AA?????AAAABCFFGHILNNNNKHFFFFHKLLNNNPSSSSSUUNLILUZ^adddd_ZVSONNPSUXYVUSNLJIIIHHFFFFHKN^m~~~~?/!!!!!!!!!!!!!!!!!!!!!!!!!!",
"!!!!!!!!!!!!!!!!!!!!!!!!!!!!!!!!!!!!!!!!!!!!!!!!!!!!!!!!!!!!!!!!!!!!!!!!!!!!!!!!!!!!!!!!!!!!!!!+/333336688<@EMRW[M@863000333488@@EERRRRRRRTbgmqqqqonmjfabbbbba^YUSONLKJDA999779999>>>>>>>>?AAAAACCDFFHIKKKKIHFFFFHIKKKKLNPPPPSSUONKNPUZ_dbbb^YUPNLLNNPSUSPONLJIIIHHFFFFHJLXdosw~?/!!!!!!!!!!!!!!!!!!!!!!!!!!",
"!!!!!!!!!!!!!!!!!!!!!!!!!!!!!!!!!!!!!!!!!!!!!!!!!!!!!!!!!!!!!!!!!!!!!!!!!!!!!!!!!!!!!!!!!!!!!!!'/00333668<@EMRWW[MD?73000333488@@ERRRRRRRR]glnqrssrrqmjfddbbaa^ZVUUUPNLGB9997777999999999>?AAAAAABCDDFHIIIIHHGGFFHHIIIIKLNNNNPSUSNLNNNV[bbbb^XSNLIKKLLNNNNNLKJIIHHGFFFFHIKS[fms~?/!!!!!!!!!!!!!!!!!!!!!!!!!!",
"!!!!!!!!!!!!!!!!!!!!!!!!!!!!!!!!!!!!!!!!!!!!!!!!!!!!!!!!!!!!!!!!!!!!!!!!!!!!!!!!!!!!!!!!!!!!!!!'+,033344<<EERT[[[NGA73333333478@@ERRT]]RR]emnorsuwwvvqmjgdbbaa^ZVXXYVUSIC>9977777999999999>AAAAAAAACCDFGGGGGGGGGGGGGGGGIKNNNNOSUSSONLKPZaaaa[VOLJHHIIJKKLLLLKJIIHHGFFFFFHILUZfo~?/!!!!!!!!!!!!!!!!!!!!!!!!!!",
"!!!!!!!!!!!!!!!!!!!!!!!!!!!!!!!!!!!!!!!!!!!!!!!!!!!!!!!!!!!!!!!!!!!!!!!!!!!!!!!!!!!!!!!!!!!!!!!'/0368888<@@ES[[[ZPKD863330333688@EERT]]RR]emnqsuwyxxxsomjfbbaa^[YZZZXSNIDA>997777999999999>>>>>??AAABCDDFFGFFDDDDDDCDFGHIKKKKLNSSSPNNLOVZ^ad_ZVSNKKJIJJKKKLKKJJIIHHHGFFFHHLOV`jr9/!!!!!!!!!!!!!!!!!!!!!!!!!!",
"!!!!!!!!!!!!!!!!!!!!!!!!!!!!!!!!!!!!!!!!!!!!!!!!!!!!!!!!!!!!!!!!!!!!!!!!!!!!!!!!!!!!!!!!!!!!!!!+/068CBAAB@@JSZZYYUNK?73330333488@@EMR]]RR]emoquwxzzzzwsqmgdbba_^[[[^XSLIFCA>9977799999999999999>?AAAAABCDFGFDCCCCBAACDGHHIIIIKLOPSSPONNPSY`fb`[XSNLKJJJJJJJJKKJJJIHHHGFGHHKNSZbl9/!!!!!!!!!!!!!!!!!!!!!!!!!!",
"!!!!!!!!!!!!!!!!!!!!!!!!!!!!!!!!!!!!!!!!!!!!!!!!!!!!!!!!!!!!!!!!!!!!!!!!!!!!!!!!!!!!!!!!!!!!!!!+/57CPNIFFDCIOZYYXXVUC833303334688@@ER]TRR]emorvxz~~~~zwuojdbbaa_^^__XPKIHFC?99977999999999999999?AA???AACDGDCAAAAA?>ACGGGGGGGIKNNSUSSPNLKU^gfdb^XSNLJJIIIIIIJKKKKJIIHHFGGHILNV[b7/!!!!!!!!!!!!!!!!!!!!!!!!!!",
"!!!!!!!!!!!!!!!!!!!!!!!!!!!!!!!!!!!!!!!!!!!!!!!!!!!!!!!!!!!!!!!!!!!!!!!!!!!!!!!!!!!!!!!!!!!!&++/067>DCBACFINV^^^^^YXG833303333478<@ERTTRR]hnqswyz~~~~zxvqlgfdbaa`^^[VPLJHFCA>9999999999999999999>????AABCDGDCAAAAA?>?BCDDDFFGHJKLOSSSSPNNU[bba`_^[XUNNLLLKKLNNOSSPONNLKJJJLLNVZa6/!!!!!!!!!!!!!!!!!!!!!!!!!!",
"!!!!!!!!!!!!!!!!!!!!!!!!!!!!!!!!!!!!!!!!!!!!!!!!!!!!!!!!!!!!!!!!!!!!!!!!!!!!!!!!!!!!!!!!!!!!+/0567999999AGNUZa```_^^E8433033333688@ERRRT]choruyz{~~~~zywqnjgfdbaa^[YUPNKIFDA?>99999999999999999999>?AABCDFFDCAAAAA?>??AABCDFGHHILNPSUVUSOVZ_^^^abd`ZVUPNNNLNSVXZ[ZYXVSNNNLNNPVZ^6/!!!!!!!!!!!!!!!!!!!!!!!!!!",
"!!!!!!!!!!!!!!!!!!!!!!!!!!!!!!!!!!!!!!!!!!!!!!!!!!!!!!!!!!!!!!!!!!!!!!!!!!!!!!!!!!!!!!!!!!!!+0<<89966667?HX[`dddddddM<433033333378@EERR]]hmqswz{{~~~~{yxsomkgddbb^ZVUPNLIGDBA>>99999999999999999999?AACCDFFDCAAAAA?>>>>?AACDGGHHJLOSUXVUUVXZZZ[agmgb[YVSSONUX[_bdbba^ZVUSOPPSVX[6/!!!!!!!!!!!!!!!!!!!!!!!!!!",
"!!!!!!!!!!!!!!!!!!!!!!!!!!!!!!!!!!!!!!!!!!!!!!!!!!!!!!!!!!!!!!!!!!!!!!!!!!!!!!!!!!!!!!!!!!!!+0<887766799CLZ^abdbbddfM@443333333478@EERR]]hmqsvyz{~{{{zyxsqnljfdba[XUSPNLIGFCBA?>>999999999999999999>AABBCDDDCCCCCBA????ABCDFGGHHIKNOUVVVVXYZZ[^afjfb^[ZYXVUXZ^_abdfgfba^[YXXVXZ[6/!!!!!!!!!!!!!!!!!!!!!!!!!!",
"!!!!!!!!!!!!!!!!!!!!!!!!!!!!!!!!!!!!!!!!!!!!!!!!!!!!!!!!!!!!!!!!!!!!!!!!!!!!!!!!!!!!!!!!!!!!+5?8656679?CIS[_abbbbdfgR@<43333333688@EERR]]hmoruxyz{{zyyxxuqomjfda_ZVSPONLIGFFDCBA?999977779999999999>AAAABCCDDDDDDCBAAAABCDFFGGHHIJLNSVVXYYZZ[^_adfda____^[Z[^^_`afjnmlkgda_[ZZ[[6/!!!!!!!!!!!!!!!!!!!!!!!!!!",
"!!!!!!!!!!!!!!!!!!!!!!!!!!!!!!!!!!!!!!!!!!!!!!!!!!!!!!!!!!!!!!!!!!!!!!!!!!!!!!!!!!!!!!!!!!!!+5?965569?DKOX_`abbaadgkR@<4433333468<@EERR]]hhnqswxz{zyxxxxusqnkgda^YVPONNLIGGGGFDCA>99777777999999999>AAAAAABCDFFFGDCAAAACDGGGGGHHHIJLOUXY[ZZZ[^aaabaaabbdba``_____fmssssomjfb^^^[6/!!!!!!!!!!!!!!!!!!!!!!!!!!",
"!!!!!!!!!!!!!!!!!!!!!!!!!!!!!!!!!!!!!!!!!!!!!!!!!!!!!!!!!!!!!!!!!!!!!!!!!!!!!!!!!!!!!!!!!&++/5965557?DIPV[aaabbaabfgRE<<433333478<@EERRR]]hhorwxz{zyxxxxusqnljfb`ZVPPPPNLKKKKIHFB?9997777799999999>?AAAAAAACCDFFGFDCCCCDFGGGGGHHIKLNSUVXYYXXZ[__```__abdbaaabbbbbgloqsvromjfa`^^>5/+&!!!!!!!!!!!!!!!!!!!!!!!",
"!!!!!!!!!!!!!!!!!!!!!!!!!!!!!!!!!!!!!!!!!!!!!!!!!!!!!!!!!!!!!!!!!!!!!!!!!!!!!!!!!!!!!!!!!+/555655569DIOY[_abbbaaabbdTE<<433333478<@EERRRR]]hipvxy{zyxxxwvsromlgfb^XSSUUSSOOOOLKHDA99977777999999>>??????AAABCCDFFFFDDDDFFGGGGGHHILNPSUVVXVVVXZ[^^^^^^_abbbadfggggjlmosyvsqmgda`^H95/+!!!!!!!!!!!!!!!!!!!!!!!",
"!!!!!!!!!!!!!!!!!!!!!!!!!!!!!!!!!!!!!!!!!!!!!!!!!!!!!!!!!!!!!!!!!!!!!!!!!!!!!!!!!!!!!!!!!+5G>655556>JOYaabbbbbaaaaaaWE@<43333348<<@EEERRRR]]hpvxy{zyxxwwvssqnmkgd_XSUVXXXXXXXSNKFA>9977777999999>????????AAAABCDFFGGGGGGGGGGGGHHJNSSUUUUUUUUVYZZ[[[[[^`bbbbfjllllljjns~zwuolfda_VNH5/!!!!!!!!!!!!!!!!!!!!!!!",
"!!!!!!!!!!!!!!!!!!!!!!!!!!!!!!!!!!!!!!!!!!!!!!!!!!!!!!!!!!!!!!!!!!!!!!!!!!!!!!!!!!!!!!!!!+5A9555556>LSZaabbbbbbbbbddWME<83333468<<@EERRRR]chipvwy{zyyxwwvvusqoljfa[VXXYXVUUUUOLKFB>999777999999>?????AAAAABBCCDFHHHIIIIIIIIIIIIILNPSUVVXXXXXXXYYYYZZ[^_`aabfjllkjjjjnu~zywrnljfd[UL5/!!!!!!!!!!!!!!!!!!!!!!!",
"!!!!!!!!!!!!!!!!!!!!!!!!!!!!!!!!!!!!!!!!!!!!!!!!!!!!!!!!!!!!!!!!!!!!!!!!!!!!!!!!!!!!!!!!!+096555556?NUZaabbbbbddffff[RE@84333478<@EERRRRTchppsuwy{zzyxwvwwwusqnkfb_[ZZZXUPPPPNLIFB?>999999999>>??A???ABCCCCCDDFHIJKKKKKKKKKKKKLLLNOSVYYYYYYYXXVVVVXZ[[^^_abfjmkgfgjjou~{zyuqnmljb[U6/!!!!!!!!!!!!!!!!!!!!!!!",
"!!!!!!!!!!!!!!!!!!!!!!!!!!!!!!!!!!!!!!!!!!!!!!!!!!!!!!!!!!!!!!!!!!!!!!!!!!!!!!!!!!!!!!!!!+/65555556ASX[aaabbbdffggjjaWM@<4444488<@EERRRT]hovvuuwy{{zzywvwxyxvuolfdb`_^[XSNNNNLKIFCA>999999999>AAAAA??ACDDDDFFFHIKLLNNNNNNNNNNNNNNNNSXZZ[[[[[YXUUUUVY[[[[^`bfjmjfbfgkou~~{{xvsqongb[6/!!!!!!!!!!!!!!!!!!!!!!!",
"!!!!!!!!!!!!!!!!!!!!!!!!!!!!!!!!!!!!!!!!!!!!!!!!!!!!!!!!!!!!!!!!!!!!!!!!!!!!!!!!!!!!!!!!!+/55555557BSVZ^^^_`abfgkllle_WE<444448<<@ERRRT]]]]]]hhpt{{{{yxwwwxsqomkgfda^[XUNKKKKJIHFDBA?>999999>ABBBBBBACDDDDCCCDFFHJLNNNNNNNNNNNNNNOPUXZZ[[[[[YXUVVVXZ[[[[^abfjljgfgjlou~~~{zxvssqmjd7/!!!!!!!!!!!!!!!!!!!!!!!",
"!!!!!!!!!!!!!!!!!!!!!!!!!!!!!!!!!!!!!!!!!!!!!!!!!!!!!!!!!!!!!!!!!!!!!!!!!!!!!!!!!!!!!!!!!+/55555557CPUX[[[Z^`afjmmnnkd`E<44447<<<@ERRT]]]RR=RRThpz{{{zywwwvqnkjjjgdb^YUNLIIIIHHHFDDBA??>>>>>ABCCCCCCCDDFDCBBBBCDFHKNNNNNNNNNNNNNNSUVXZZZ[[[[YXUVXYZZ[[[[^abfgkjjjjlmqv~~~~{zyxwwsom9/!!!!!!!!!!!!!!!!!!!!!!!",
"!!!!!!!!!!!!!!!!!!!!!!!!!!!!!!!!!!!!!!!!!!!!!!!!!!!!!!!!!!!!!!!!!!!!!!!!!!!!!!!!!!!!!!!!!+/55555569DPUVYXXXZ^aflooqqnlgM@77448<<<@ERR]]]]R=<==R]iz{{~{yxwvuokdfjkjfd^XOLIGGGGGGGFFFDCAAAAAAABCFFFFFFFFFFCBAAAAABCFJNNNNNNNNNNNNNOSVXXZZZ[[[[YXUXY[[[[[[[^adfgjjkllmmqv~~~~~~~~~~zwu9/!!!!!!!!!!!!!!!!!!!!!!!",
"!!!!!!!!!!!!!!!!!!!!!!!!!!!!!!!!!!!!!!!!!!!!!!!!!!!!!!!!!!!!!!!!!!!!!!!!!!!!!!!!!!!!!!&++//5555567?FOPPSONLSX^dkoqqronlWE<<<<<<<@ERRRRRRE=<4<=RRiyz{~{zywusomklmmljgaYSLJGGGGHHIIHHFDCCBBBBBCDFFFFDDCCCCBAAAABCDFHIKKIIIKKLLNNNNNNNSVZZYYYZZYXXXZ[[[[[[[_adgkmnnoooosw~~~~~~~~~~zyw>/!!!!!!!!!!!!!!!!!!!!!!!",
"!!!!!!!!!!!!!!!!!!!!!!!!!!!!!!!!!!!!!!!!!!!!!!!!!!!!!!!!!!!!!!!!!!!!!!!!!!!!!!!!!!!!!!+/555555557>CHNNLLJHFKS[bkoqrsron]E<<<<<<@EERRRRE=<<44<=RRhxyz{{zywurqooooqnmlb[SNKHGGGHJLKKKHGDDDCCCCDDFFFFDCBBBBAAAACDDFHHHIHFDFHIKLNNNNLLKNUYXXXXXXXYYZZ[[[[[[[_bfjmqrsssrruy~~~~~~~~~~{zz>/!!!!!!!!!!!!!!!!!!!!!!!",
"!!!!!!!!!!!!!!!!!!!!!!!!!!!!!!!!!!!!!!!!!!!!!!!!!!!!!!!!!!!!!!!!!!!!!!!!!!!!!!!!!!!!!!+5965555559DHKNLIHDCAFNZbjqrsussrcRE@@<@@EERRRRE=<44444<ERhvxy{{zzwsqrsuussqonf^UNKHHGGILNNNLKIHGFFFFFFFFFFFCBAAAAAAABDFHHJIHGDCACDGIKNNNNKIHLSYXVUUVVXZ[[[[[[[[[[`bflovwyzxwuwz~~~~~~~~~~~~~?/!!!!!!!!!!!!!!!!!!!!!!!",
"!!!!!!!!!!!!!!!!!!!!!!!!!!!!!!!!!!!!!!!!!!!!!!!!!!!!!!!!!!!!!!!!!!!!!!!!!!!!!!!!!!!!!!+5975555569FHKNKIGFCBHNX`gnorussshTREE=@EEERRRE=<444334<=RThitzzzzxurssssuvsqojaYSNJIHGIKNNNNLKIHHGGGGFFFDDCBAAABBBBBCFGHKLLKKIHFHIKLNSSSSNLKLNNPSVUUUVXZZZ[[[[[^_bfknrxyz{yxwxz~~~~~~~~~~~~~?/!!!!!!!!!!!!!!!!!!!!!!!",
"!!!!!!!!!!!!!!!!!!!!!!!!!!!!!!!!!!!!!!!!!!!!!!!!!!!!!!!!!!!!!!!!!!!!!!!!!!!!!!!!!!!!!!+597655557?FHKNKHFFDDINV^dlnquuuumcTRE=EEEERRE=<<443334<=ERRcpxyz{xvssrqsvxvsqld[XSLKHGIKNNOSNLKIIHHHHHFFDCAAAABCDDDDFGHJLNNNNNLLLNNPUXXXXUSNLKHLOVUSPUVXYZZ[[[^`afknquzz{{zyxz{~~~~~~~~~~~~~?/!!!!!!!!!!!!!!!!!!!!!!!",
"!!!!!!!!!!!!!!!!!!!!!!!!!!!!!!!!!!!!!!!!!!!!!!!!!!!!!!!!!!!!!!!!!!!!!!!!!!!!!!!!!!!!!!+597666669AGIKNKHDFFGJNSZbjmquuvvohcRR=EEEEER@<<44330034<==RRhwxz{ywusqosvzxvsnga[VOLIGIKNOSUSNLKKIIIIHGFCA?AAACDHHGGHHILNSUUUUUUUUUXY[[[[ZXVLHCHNVUSNSUVXYZZ[[^adjmqux~~~~{{z{{~~~~~~~~~~~~~?/!!!!!!!!!!!!!!!!!!!!!!!",
"!!!!!!!!!!!!!!!!!!!!!!!!!!!!!!!!!!!!!!!!!!!!!!!!!!!!!!!!!!!!!!!!!!!!!!!!!!!!!!!!!!!!!!+599977779AGIKNKIGHHIKLOX`glossuvpoh]REEEEEE@<<<44330034<==ERhwxz{ywvsqnqsvussnjd_YUNLIKLOPSUSNLLKIIHHHFFCB?AABDGIHHGFFFHIKKLLLLLLNNPUXXXYYXXSLINUYYZZZ[^^^^^^_abfknsvy~~~~~{{{~~~~~~~~~~~~~~?/!!!!!!!!!!!!!!!!!!!!!!!",
"!!!!!!!!!!!!!!!!!!!!!!!!!!!!!!!!!!!!!!!!!!!!!!!!!!!!!!!!!!!!!!!!!!!!!!!!!!!!!!!!!!!!!!+5>>>>9979AGIKNLKIJKLLLNV^fknrsuvspohTRRE==<<<<<44330034<=EERhvxy{yxvsonoqrrrqnlgb[VSNLNNSSUUSNLLKIHHGFFFCBAACDFHKIHFFDCDDFFFFFFFHIKLNSUVXXYZXVUVY[_abdddbbaaaadfgloswy~~~~~~{~~~~~~~~~~~~~~~?/!!!!!!!!!!!!!!!!!!!!!!!",
"!!!!!!!!!!!!!!!!!!!!!!!!!!!!!!!!!!!!!!!!!!!!!!!!!!!!!!!!!!!!!!!!!!!!!!!!!!!!!!!!!!!!!!+5>?AC?99>BGIKNLLKLLNNLLU[djmqrsvvvvi]RRE=<<<<<<44330034<@=ERhvxy{zxwsommnoooqomlf`ZVSNOSUUUUSNLLKIHGFFFFCBABDFHKLKHFDCAAAAAAAAAACDGIKNOSUXZ[^^____dgmllljfddddfgjmqvxz~~~~~~~~~~~~~~~~~~~~~~?/!!!!!!!!!!!!!!!!!!!!!!!",
"!!!!!!!!!!!!!!!!!!!!!!!!!!!!!!!!!!!!!!!!!!!!!!!!!!!!!!!!!!!!!!!!!!!!!!!!!!!!!!!!!!!!!!+5>ABDB?9?CFHKLLLLLLLLNNV^dglnqsvvvvph]RE=<<4<<<44333034<<==Rcuxy{zyxsommmnnnonmlgb^ZXUUVVVVUSONLJHHFFDDCBAABDGHIKIHFDCAAAAAAAAAACDGIKNOSUXZ[^^^abdglnooonmkklllmnqsxy{~~~~~~~~~~~~~~~~~~~~~~?/!!!!!!!!!!!!!!!!!!!!!!!",
"!!!!!!!!!!!!!!!!!!!!!!!!!!!!!!!!!!!!!!!!!!!!!!!!!!!!!!!!!!!!!!!!!!!!!!!!!!!!!!!!!!!!!!+5>ACFDBABDFHILLLLLKKLOSY^dgkmoruvvwspi]R=<<44<<44333034<<<<E]uwxzzyxsommmlmnnmmljda_[ZZYXXVUSONLIGFFFDCBAAABDGHHIHHGDCAAAAAAAAAACDGIKNOSUXZ[^^^afjlnqrsusqooqqqrsvxz{{~~~{~~~~~~~~~~~~~~~~~~?/!!!!!!!!!!!!!!!!!!!!!!!",
"!!!!!!!!!!!!!!!!!!!!!!!!!!!!!!!!!!!!!!!!!!!!!!!!!!!!!!!!!!!!!!!!!!!!!!!!!!!!!!!!!!!!!!+5>ACGFFDDDDGIKLLNLKILSX[`dfjlnquvvwwwwhRE<<44<<4433333<<<<<ETsvxzzyysomllklmmmmljgdba`^[ZXVUSPNLHFFFFCBAAAABDHHGGGGGDCAAAAAAAAAACDGIKNOSUXZ[[^^bjnoqswy~zywwxxyz{{~~~~~~{{{~~~~~~~~~~~~~~~~~?/!!!!!!!!!!!!!!!!!!!!!!!",
"!!!!!!!!!!!!!!!!!!!!!!!!!!!!!!!!!!!!!!!!!!!!!!!!!!!!!!!!!!!!!!!!!!!!!!!!!!!!!!!!!!!&++/5?CFKIHHGFDGIKLLLLKJNUZ^adfgjmosuvwwwwhTR=<4<<<<4333334<<<<ERhoszzzzuqnmllmnoooomkgda_[ZXVVUSONKHFFDCBAAAABDFHHHGGGGFDCCCCCCCCDDFHIKLNOSUVXZZ[^bgmorvxz~{zyyyyz{{~~~~~~~~{~~~~~~~~~~~~~~~~~~?/!!!!!!!!!!!!!!!!!!!!!!!",
"!!!!!!!!!!!!!!!!!!!!!!!!!!!!!!!!!!!!!!!!!!!!!!!!!!!!!!!!!!!!!!!!!!!!!!!!!!!!!!!!!!!+/569ADINLLKHGDGIKKLLLKKOV^_adffglnrsuwwwwicRE=<<<<<4333334<<<<=R]hpzzzzvrnnmlnqssssomjfa^ZXVUUUSNLKHFDCBAAAACDFGHHHGGGGFFDDDDDDDFHIIKKLLNOSUVVXY[^bglosxy{~{{zz{{{{~~~~~~~~~~~~~~~~~~~~~~~~~~~~?/!!!!!!!!!!!!!!!!!!!!!!!",
"!!!!!!!!!!!!!!!!!!!!!!!!!!!!!!!!!!!!!!!!!!!!!!!!!!!!!!!!!!!!!!!!!!!!!!!!!!!!!!!!!!!+5GDCBFLUSONKHDGIKKKKKLLSY`abddffkmqruwwwwphcRE<<<<<43333344<<<=ER]izz{{wsonnmoswwxxsolga[YVSUUUPNLJHFDBAAAABDFGHIHHGGGGGGGGGGGGGIKNNNNNNNOSUUUUXZ^afknsz{{~~~~~~~~~~~~~~~~~~~~~~~~~~~~~~~~~~~~~?/!!!!!!!!!!!!!!!!!!!!!!!",
"!!!!!!!!!!!!!!!!!!!!!!!!!!!!!!!!!!!!!!!!!!!!!!!!!!!!!!!!!!!!!!!!!!!!!!!!!!!!!!!!!!!/5HHGFKPXXVUNLIIKKKIIJKLSY`abbbddgknoruvvwpmhTRE=<<<4444344<<<<=ER]iyyz{xsqonlnquvxyuqnjb^ZVSSSSONLJHGDBAAABCDFHHJIHGGGGGGGGGGFFDGIKKKKKKKLNSSSSVXZ_dgmryz{~~~~~~~~~~~~~~~~~~~~~~~~~~~~~~~~~~~~~?/!!!!!!!!!!!!!!!!!!!!!!!",
"!!!!!!!!!!!!!!!!!!!!!!!!!!!!!!!!!!!!!!!!!!!!!!!!!!!!!!!!!!!!!!!!!!!!!!!!!!!!!!!!!!!/5IKKLPV[[ZYVPNLLKIHGHKLSY_aabbaadgkmqsuuvsppcTRE=<<<44444<<<<<@ER]hwyz~yuronlnqsvwyvsqld^ZVOOOONNLKIHDBAABCDFGHIKIHGGGGGGGGGGFDCDGIIIIIIIKLOOOOSVX[aflqxy{~~~~~~~~~~~~~~~~~~~~~~~~~~~~~~~~~~~~~?/!!!!!!!!!!!!!!!!!!!!!!!",
"!!!!!!!!!!!!!!!!!!!!!!!!!!!!!!!!!!!!!!!!!!!!!!!!!!!!!!!!!!!!!!!!!!!!!!!!!!!!!!!!!!!/5KNPUX[````[XUPNKIGDHJLSY_`aaa`_adglnrsuvvusihTR=<<<<<<48<<<<<@ERThtwz~ywsqnlmoruwzxusmf_ZUNNNNNLLKIHDCABCFFGHIJLJHGGGGGGGGGGDCACDGGGGGGGIKNNNNOSVZ_bjowyz~~~~~~~~~~~~~~~~~~~~~~~~~~~~~~~~~~~~~?/!!!!!!!!!!!!!!!!!!!!!!!",
"!!!!!!!!!!!!!!!!!!!!!!!!!!!!!!!!!!!!!!!!!!!!!!!!!!!!!!!!!!!!!!!!!!!!!!!!!!!!!!!!!!!+/59FXZ[^adfa[XSNKHDBDHKOV[^^^^[Z^adjmoqsuuusohcRR==<<<<<<<<<<<=ERRhtty~zxvrnlmnorvyxvunjb^XSONNNNLLJIGDCDFHHHHJKLKJIIIIHFDDDDCBAACCCCCCCCDFHHHIKLNVZagnwxz~~~~~~~~~~~~~~~~~~~~~~~~~~~~~~~~~~~~~?/!!!!!!!!!!!!!!!!!!!!!!!",
"!!!!!!!!!!!!!!!!!!!!!!!!!!!!!!!!!!!!!!!!!!!!!!!!!!!!!!!!!!!!!!!!!!!!!!!!!!!!!!!!!!!&+/5>[[[^bglf`YUNKGC?BFJNUZZZZYXVZ_bfjmoqsssspmh]RE=<<<<<<<<<<<=ERRhptw{zyxsolmmnqsxxwwqlfaZUSONNNNLKJHGFGHJJJJKLLLLKKKKHFCCCCBA??AAAAAAAAABCCDDGIKOX^fnvxz~~~~~~~~~~~~~~~~~~~~~~~~~~~~~~~~~~~~~?/!!!!!!!!!!!!!!!!!!!!!!!",
"!!!!!!!!!!!!!!!!!!!!!!!!!!!!!!!!!!!!!!!!!!!!!!!!!!!!!!!!!!!!!!!!!!!!!!!!!!!!!!!!!!!!!!/6`^^[blqlb[VOKFA9ADHLSXXXXVUSX[adgkmorsssrqohTRE=<<<<<<<<<<=ERRhptw{{zzuommllorwxxysnjb^VUPNNNNLLKJIHJKLLLKLLNNNNNNNIDAAAAA?>>>>>>>>>>>>>?AACFHLSZdmvxz~~~~~~~~~~~~~~~~~~~~~~~~~~~~~~~~~~~~~?/!!!!!!!!!!!!!!!!!!!!!!!",
"!!!!!!!!!!!!!!!!!!!!!!!!!!!!!!!!!!!!!!!!!!!!!!!!!!!!!!!!!!!!!!!!!!!!!!!!!!!!!!!!!!!!!!/6YYXX_fnf^VOKHDA9AFLNSVUUUUSSY_dfjklnooqqqooh]RR===<<<<<<==ERRThppv{{zzvqnmlkmqsvwyuqmgb^XUNNNNLLLLLLLLLLLLLLNNNONNNIFCCBAAA??>>>>>>>>>>>??ABCDJOXakqswzz{~~~~~~~~~~~~~~~~~~~~~~~~~~~~~~~~~~?/!!!!!!!!!!!!!!!!!!!!!!!",
"!!!!!!!!!!!!!!!!!!!!!!!!!!!!!!!!!!!!!!!!!!!!!!!!!!!!!!!!!!!!!!!!!!!!!!!!!!!!!!!!!!!!!!/6USSSZbjaYOKHDB?>CHOPSSPONPSU[agjjkllmnnooonhc]RR===<<<<==ERRR]hiptzz{{wsqnljlnqswzvsqmgb^VONNNNLLNNNNNNLLLLNNNPSPNNKHFDCBAAAA?>>>>>>>>>>???ABCHNV_gnqswyz~~~~~~~~~~~~~~~~~~~~~~~~~~~{~~~~~~?/!!!!!!!!!!!!!!!!!!!!!!!",
"!!!!!!!!!!!!!!!!!!!!!!!!!!!!!!!!!!!!!!!!!!!!!!!!!!!!!!!!!!!!!!!!!!!!!!!!!!!!!!!!!!!!!!/5NNNNV^f[UKHDBA?>DKVUPNNLLNSV^dlllkkkklmnnnnmhh]RRE======EERR]hhiptzz{{xvsolgkmnqvzxwuqmjaZPONNNNNOSUSONNNNNNNOSUSONKIHFCBBBBA?>>>>>>9>>>>???AAFKU[dlnquwz~~~~~~~~~~~~~~~~~~~~~~~~~~{{{~~~~~?/!!!!!!!!!!!!!!!!!!!!!!!",
"!!!!!!!!!!!!!!!!!!!!!!!!!!!!!!!!!!!!!!!!!!!!!!!!!!!!!!!!!!!!!!!!!!!!!!!!!!!!!!!!!!!!!!/5OPPSVZ^VNHFCAAABHOZXSNNNLPVZ`djjjjjjjjklmmnmmih]RRR====ERRRT]chhptyzz{ywuqmjkllosxwwvromf_XVUPPOOSUUSONNNNNNOPSSPNNLIHHGFGHHGFDDCBA????AAABDFHLU^bjnqswyz~~~~~~~~~~~~~~~{~~~~~~~~~~~{~~~~~~?/!!!!!!!!!!!!!!!!!!!!!!!",
"!!!!!!!!!!!!!!!!!!!!!!!!!!!!!!!!!!!!!!!!!!!!!!!!!!!!!!!!!!!!!!!!!!!!!!!!!!!!!!!!!!!!!!/5SUVXVVVNIFCA>ACFLVaZUNNNLUZabfggggggggjjlmnoopihh]RRRRRRRRT]]chhipxyz{zyxrnlkjgmqvvwwsqokd^[XUUUSUUVSONNNNNPSSPONNNLJHIJKLNONNLJHDCBAAAACDFHLNX_fknqswzz{~~~~~~~~~~~~~~{{{~~~~~~~~~~~~~~~~~?/!!!!!!!!!!!!!!!!!!!!!!!",
"!!!!!!!!!!!!!!!!!!!!!!!!!!!!!!!!!!!!!!!!!!!!!!!!!!!!!!!!!!!!!!!!!!!!!!!!!!!!!!!!!!!!!!/6UXY[XSNIFCA>9AFKU[f^VNNNNV^fffffffffffffjlnqrvspph]RRRRR]]]]]]ccipwxz{{zzuomjgdjnsuwxvsrnjda[XXVVVVVSONNNNOSUSONNNNLJHKNSVXZZZZULIGDCCCCFHJNV[bjnqruwz~~~~~~~~~~~~~~~~{{z{{~~~~~~~~~~~~~~~~?/!!!!!!!!!!!!!!!!!!!!!!!",
"!!!!!!!!!!!!!!!!!!!!!!!!!!!!!!!!!!!!!!!!!!!!!!!!!!!!!!!!!!!!!!!!!!!!!!!!!!!!!!!!!!!!!!/6Z[^_XOKHFCBA?CHNV[d^VOOOOVZ`__^[ZYYYY[_aflnqsvuspihc]]T]]]]]]]]chipuw{{{{wsomjfjmoruxvusomjd`ZZXXVVVUONNNNOSUSPNNOONNNSX[^abbbbZULIGDDDFHKNV[bgloqsuwy~~~~~~~~~~~~~~~~~{{{~~~~{{{zzzz{{~~~~?/!!!!!!!!!!!!!!!!!!!!!!!",
"!!!!!!!!!!!!!!!!!!!!!!!!!!!!!!!!!!!!!!!!!!!!!!!!!!!!!!!!!!!!!!!!!!!!!!!!!!!!!!!!!!!!!!/6`aabXNHFDCCCCGKPV[a[XSSSSUXZYXVSNLLLLPX[bjoqswvvuppihhccccc]]]]]hippvz{{{yvsolgjlmoswvvuqomgb^[ZXXXVUPNNNNOSVUSOPSSUUVZ`dgjlkkjbZSLIFFGHKPX^bglnqrsswy{~~~~~~~~~~~~~~~~~{~~~~{{zyyyyyz{~~~~?/!!!!!!!!!!!!!!!!!!!!!!!",
"!!!!!!!!!!!!!!!!!!!!!!!!!!!!!!!!!!!!!!!!!!!!!!!!!!!!!!!!!!!!!!!!!!!!!!!!!!!!!!!!!!!!!!/7ffffYLDDCCDFGKNUX[`[XUUUUUUUSONKHDDDDINX`goqswxyywvspihhhcc]]]]]hhiptz{{~{yxrmjjjjmqwwvvsqolfa^[ZYXXUPNNNNOSVUSPSUUXZ^bgmnqrqqqjaXPLHHIJNX^djnoqrsssvy{{~~~~~~~~~~~~~~~~~~~~{{zyxwwwwyz~~~~?/!!!!!!!!!!!!!!!!!!!!!!!",
"!!!!!!!!!!!!!!!!!!!!!!!!!!!!!!!!!!!!!!!!!!!!!!!!!!!!!!!!!!!!!!!!!!!!!!!!!!!!!!!!!!!!!!/9ljfdXLDDFFHKLOUXYZ[ZYXVUSPNNKIGFDCCCDHKOYajmqvwwywvupmhhc]]RRRRR]chipyz{~{zysolkjflossvwusqmjda^ZYXVUPNNNNPUVVXXY[^`bfjmqqrsqnljfb^YUVXX[afgkmmlllllmoqqqqqqqsuxxyzzzzzz{{zzzzzyxwwwwyz~~~~L6/+&!!!!!!!!!!!!!!!!!!!!",
"!!!!!!!!!!!!!!!!!!!!!!!!!!!!!!!!!!!!!!!!!!!!!!!!!!!!!!!!!!!!!!!!!!!!!!!!!!!!!!!!!!!!!!/9olfaVKCFHILPVXZ[ZYXYZ[XUOLKIFCAAAAABCFHKSZdjnsuwxwvupmhhc]RREERRR]hipwyz{{zzvqnlgdjmqruwvssolgb_ZYVUSONNNNPUXZZ[`bfglmorusssolgjlmkgdffgjlmmmljfbbbbfgjjjjjjjmosuvxxxxxyyyyyyyyyxwwwxyz{~~~dL?5+!!!!!!!!!!!!!!!!!!!!",
"!!!!!!!!!!!!!!!!!!!!!!!!!!!!!!!!!!!!!!!!!!!!!!!!!!!!!!!!!!!!!!!!!!!!!!!!!!!!!!!!!!!!!!/9ung`UJCFINUY````[XUX[`YUNKHDB?99>>?ACDFFLU^dmssvwwvvqmhe]]RE==ERRTchpvxy{{{{xsqmgbfknqsxwvuqnkf`ZXVUSONNNNSVY[_bfjmoruwxzxvsngajoxvsrssusssonlfaZZZZ[^aaaaa``floqsvvvvwwxxwwxxyxxwwxxyz{{~~~~~?/!!!!!!!!!!!!!!!!!!!!",
"!!!!!!!!!!!!!!!!!!!!!!!!!!!!!!!!!!!!!!!!!!!!!!!!!!!!!!!!!!!!!!!!!!!!!!!!!!!!!!!!!!!!!!/9ulbYPJFJOX^afb`[ZYX[`d[VNJGDBA?ACDFHJKKLNUYagnqsvvvwsomhhcRR=EERRTchosvxzz{{yvsnkfgjlnqvvvvromjd`[XSPNNNNOUXZ_bglnqruwwwwvusj^P_lyvsrqqqooomjf^VNNNNOPSSUUUVX[adddddddfgjjjjjklllllllnoqsuxyz~?/!!!!!!!!!!!!!!!!!!!!",
"!!!!!!!!!!!!!!!!!!!!!!!!!!!!!!!!!!!!!!!!!!!!!!!!!!!!!!!!!!!!!!!!!!!!!!!!!!!!!!!!!!!!!!/9uj^PNKHNYbfjlf_XYZ[`dg`VNIFCCCCFINNPUUUSUUU[bjmquvwwurommh]RRRRRRT]hmqsvxy{~zxvqmgggglosuvxuqomjf_YSONLNOSVX[agmnquvxywusssudSDUgywsqonmmlljdaXLFFFGHHHHHIKLNSUXVUSSSSVXZZZZZ[[^^__``bfjmosvy{>/!!!!!!!!!!!!!!!!!!!!",
"!!!!!!!!!!!!!!!!!!!!!!!!!!!!!!!!!!!!!!!!!!!!!!!!!!!!!!!!!!!!!!!!!!!!!!!!!!!!!!!!!!!!!!/9ugYKKKKValnoqj_UX[`dglbXNIFBCDGLU[^^`^^[XUOX^dknsuwxwusqomh]RRRRRT]hmorswyz~{zysoljgdjnrswywsromkbZSNNLNPUXZ[dkqswzz{{wsqrsu_I9Jbzwsqnljjggda[NF??AAAAAAABDFHIKLIGDDDDGIKKKKLLNNOSSSSX[aflosw{>/!!!!!!!!!!!!!!!!!!!!",
"!!!!!!!!!!!!!!!!!!!!!!!!!!!!!!!!!!!!!!!!!!!!!!!!!!!!!!!!!!!!!!!!!!!!!!!!!!!!!!!!!!!!!!/9qfXKLNP[goonnd[PUX[`dg_VLIFCFHKPYabdffdda^Z^adjnrsvxwvvsqohcTRRRR]]hmnorsvy~{{zvromljlmoqswvssqomf_XUPNNPSX[agmsuxzzyysomnqs^H9H_vusronljgf`YPJD?BDFGHHHHHIKLLLLLJHHHHIJKKKKLLNNOSSSSVZ^afjmquI6/+&!!!!!!!!!!!!!!!!!",
"!!!!!!!!!!!!!!!!!!!!!!!!!!!!!!!!!!!!!!!!!!!!!!!!!!!!!!!!!!!!!!!!!!!!!!!!!!!!!!!!!!!!!!/9nbXKNUYblvqmjaXNPUX[`d[ULIHDHKNX_fjkllmmjfbbbbgmqsvxxxwusqmhc]TRT]]hhnnoqsx{{{{ywurommmmorvussrqokd^YVPOOOX^dlowxxyyxxqmglnr[F9G[ssrrqonlgdZOIFCACHLNSUUSSPPOONNNNLLLLLKKKKKLLNNOSSSSUVY[_bglq^I>5+!!!!!!!!!!!!!!!!!",
"!!!!!!!!!!!!!!!!!!!!!!!!!!!!!!!!!!!!!!!!!!!!!!!!!!!!!!!!!!!!!!!!!!!!!!!!!!!!!!!!!!!!!!/9laVKPY`jq~smf[UKNPUX[`YPKIHGKNU[dlnoqrsuqnljfbgloruxxyywvsomhc]R]]chhmmnnrv{{~~~{{xsqomkmqsssssssnjb^YUSNNX`jnszzyyxwvojbgmqZF9FYoqrsrqqmgbVJCBAAFLVZ_ba`^[XVUSPSSSSSPNLKKKKLLNNOSSPPSUUVYZagmosy>/!!!!!!!!!!!!!!!!!",
"!!!!!!!!!!!!!!!!!!!!!!!!!!!!!!!!!!!!!!!!!!!!!!!!!!!!!!!!!!!!!!!!!!!!!!!!!!!!!!!!!!!!!!+09?DLU^flqxojbZPILOUVXYSNIIIHLUZagnnnoooonnnljgknqsuxxyyxvuqmkhc]]]chmoonnqvz{{~~~{ywuronoqrrsssuuqmjb^XVUPZbloszywvsqnkd_bfjUD9FVkmnonnmf^ULHDDDDINUSONLLLLLLLLLLLNLLLLKKKKKLLNNSUUUUUUUVVX[aflos9/!!!!!!!!!!!!!!!!!",
"!!!!!!!!!!!!!!!!!!!!!!!!!!!!!!!!!!!!!!!!!!!!!!!!!!!!!!!!!!!!!!!!!!!!!!!!!!!!!!!!!!!!!!&+/59LXblnqumf_VNHKNUUSPNKHIIIOX`flonnnmllmnonnmnorsvxxyyxwvromkeccchhorqonquyz{~~~~{yxvsqqqoqrsuvxsqnjb[ZXV^fnquzxusoljd`[[^_ND9DSdgjmlkj^PHHGFHIJLNSKFAABBCDFGHHIIIIIIIIIJKKLLLOSVVVXVVUUUSX[_dko9/!!!!!!!!!!!!!!!!!",
"!!!!!!!!!!!!!!!!!!!!!!!!!!!!!!!!!!!!!!!!!!!!!!!!!!!!!!!!!!!!!!!!!!!!!!!!!!!!!!!!!!!!!!!!!/5NZfqqqqlb[ULGKNUPNKIHGHIKU[fjnqonljgfjnqqqqrrsuvxxyyxxwsqnmkjhhhipvsqnqsxy{~~~~~~~zwurqnoqsuxzxusmga^[Yajqswzwsqlga^ZXVVVKC>DN^afjgffVHACFHKNPPSSF>77799>ABCDFFFFFFHHIIKKLLLOUXXYZXVUSPNSVX_fl9/!!!!!!!!!!!!!!!!!",
"!!!!!!!!!!!!!!!!!!!!!!!!!!!!!!!!!!!!!!!!!!!!!!!!!!!!!!!!!!!!!!!!!!!!!!!!!!!!!!!!!!!!!!!!!/6U_jrqonf_XNJFHKNLIHHHGILOYbljgfda_^^[bglmnoooqqrrsuwwwwsrqnmkhhhmosrqqruwyz~~~~~~~zywusqqqqsvxwusnjba`^fmsuvxsomjd`^[YVUSIC>DL[^_a_[ZSKFHJLLKIJJKFA9>>?ACFGHIIIJJJJJKKKLLLNNSUVXYZXXVUSNSUV[af7/!!!!!!!!!!!!!!!!!",
"!!!!!!!!!!!!!!!!!!!!!!!!!!!!!!!!!!!!!!!!!!!!!!!!!!!!!!!!!!!!!!!!!!!!!!!!!!!!!!!!!!!!!!!!!/6YblsomjbZSLHDFHIHFDFFGKNV_gojbZXUPSSUZ`fjlnnnnnnnoruuvvusronlkkhmoqrrssuuxz~~~~~~~{zzxvsronqswvusnkfddbjowvvvqmjfb_^[ZXUOHB9CLXXXXUSONNLNPSLHDDDFDDCCDDGILLLNNNNNNNNLLLLLNOSSUVXXZYXVUSOPSUX[`6/!!!!!!!!!!!!!!!!!",
"!!!!!!!!!!!!!!!!!!!!!!!!!!!!!!!!!!!!!!!!!!!!!!!!!!!!!!!!!!!!!!!!!!!!!!!!!!!!!!!!!!!!!!!!!/6`gnuolf^VNIFCCDDDCBCDGLU[dmuj[NKIGHIKPY`dgllmmllkmossuvvuuromlkklnoqsvvssvz~~~~~~~~~~{yxsomoquussolggggmrzxvsokfb`^[[[XSNGA9CJVSPNLJHLSXYYZNF??AADHKKKKNPUUUUUUUUUUSPNNNNOSUUUUVXZYXXUSOPSSUXY6/!!!!!!!!!!!!!!!!!",
"!!!!!!!!!!!!!!!!!!!!!!!!!!!!!!!!!!!!!!!!!!!!!!!!!!!!!!!!!!!!!!!!!!!!!!!!!!!!!!!!!!!!!!!!!/7agnsnkf[UKHDABBCBAACGKPYadgl`UIJJKLNPVZ`bfggggfbafjmoqsuuvsqonmkmmnorsuuuxz~~~~~~~~~~{zyuqnnoqrsuqnllllosxsohcWMSXZZZYSKGFDCHNXVSPNLLNSVUPNJFCDFHIKNLLKLLLLLLLKKKLLLNNNNNNPSSSSUUVVVUUSOPSSVXY>5/+&!!!!!!!!!!!!!!",
"!!!!!!!!!!!!!!!!!!!!!!!!!!!!!!!!!!!!!!!!!!!!!!!!!!!!!!!!!!!!!!!!!!!!!!!!!!!!!!!!!!!!!!!!!/7djnrnkf[PIFC??AAA??CHNX_fdb`VLFIKNSVYZ^`abdbba^[X^bglossuvusromlmmmoqssuvxz{~~~~~~~~~~{{wsonnmoswsqnnoqrsuoh]RE@EMXXXXLGADGINUZXVSSPOSUVNKHGGGILNOOPNLKIHGGGGFFDFFGIKLLLLNOSPOOPPSSSSSPOPSUVXYIA7/+!!!!!!!!!!!!!!",
"!!!!!!!!!!!!!!!!!!!!!!!!!!!!!!!!!!!!!!!!!!!!!!!!!!!!!!!!!!!!!!!!!!!!!!!!!!!!!!!!!!!!!!!!!/7fjnqnjfZNGCA>>>>>>>CKU[dld[ULHCHLUX[```````^^[XSNU[agmqsuwvvuqommllnoqsuwxz{{~~~~~~~~~~~xuqnljmrxusqrsvussh]RE<8@EVVUUIC9CIUXY[ZXVVVVVUULFADHKOV[YXUPNKHDBBBBAA?AABFHLLLLNNONNNNNNNNOOOOPSUVXY^bg7/!!!!!!!!!!!!!!",
"!!!!!!!!!!!!!!!!!!!!!!!!!!!!!!!!!!!!!!!!!!!!!!!!!!!!!!!!!!!!!!!!!!!!!!!!!!!!!!!!!!!!!!!!!/7fjmolf`UKCA?>>99>?AGNZ`djaVLKIHKNUVXYYYYXXVVUUONLNUX_fmnquuuurqonmmnnoqsuvvvxz~~~~~~~~~~yvsnlfknqqooqrusqo]R@@@8@JVUUUIC9CIUXY[ZXVVVVVUUKFADHKNUZXXVSPNLKIIIJIHHHIKNSVVVUVVVVUUUUUUUVVVXYZ[^abfkm9/!!!!!!!!!!!!!!",
"!!!!!!!!!!!!!!!!!!!!!!!!!!!!!!!!!!!!!!!!!!!!!!!!!!!!!!!!!!!!!!!!!!!!!!!!!!!!!!!!!!!!!!!!!/7fjlngaZNGA?>9999>ACKU`bfg[OHIKLNSUUSPPPPONLLLLKJIKLNV_flnsssusrqonnnnnoqsrrrux{~~~~~~~~~zxvojbfjmmmnoqsqonTE<<@@GLUUUUIC9CIUXY[ZXVVVVVUSKFADHKNSXXVVVUSSSSUUVVUUVVXZ^a`_^^^^[ZZZZZZZZ[[^`abfjmnqs9/!!!!!!!!!!!!!!",
"!!!!!!!!!!!!!!!!!!!!!!!!!!!!!!!!!!!!!!!!!!!!!!!!!!!!!!!!!!!!!!!!!!!!!!!!!!!!!!!!!!!!!!!!!/7fgjld[UKC>>99999>BGNZffffXKCHLUUUUPNKKKKIHGGGGGGGGHHNXafmqrsuussronnmlnoqqonrv{{~~~~~~~~{yxojabdgjlmnoromlM<38?HKNUUUUIC9CIUXY[ZXVVVVVUSKFADHKNSVVVXXXXZ[_aabbbbdffgjkjgffdbba``_____abdfgjmqvxz~?/!!!!!!!!!!!!!!",
"!!!!!!!!!!!!!!!!!!!!!!!!!!!!!!!!!!!!!!!!!!!!!!!!!!!!!!!!!!!!!!!!!!!!!!!!!!!!!!!!!!!!!!!!!/7fgjjaVLGB>999999BHPZbljgfZNFILSNLIHDCBBA?>>>>>>?ABCFJOX_flnorssssqqomlmnooooswz{{~~~~~~~{zyrmffffgjllmmgcTM@8@@KNPUPNLHFCIS[^^_ZXSSUUPNLIHFHLNNNNSVYZ[^abfggjjjjjkllmnmllkjjjgggfffggjklmmnqsxy{~L6/+&!!!!!!!!!!!",
"!!!!!!!!!!!!!!!!!!!!!!!!!!!!!!!!!!!!!!!!!!!!!!!!!!!!!!!!!!!!!!!!!!!!!!!!!!!!!!!!!!!!!!!!!/7ffgg[OHCA99979>AHS_dkomjf[SIKNOKFCA>9997766666779>ACGKOX_fjmqrsussronmmmnooqswzz{~~~~~~~~{{uoljgfgjkjjg]RREE@EKNPSUNJFHHIS[ddbb[VOOPPLIGHIKNPUPLKNUZ^adgjmmnnnnnnoooqqqooonnnnnmmmmnnooqrssvxz{{~dL?5+!!!!!!!!!!!",
"!!!!!!!!!!!!!!!!!!!!!!!!!!!!!!!!!!!!!!!!!!!!!!!!!!!!!!!!!!!!!!!!!!!!!!!!!!!!!!!!!!!!!!!!!/7ffffXKCA>99769?DN^lnquolf^VNNNNGA99766655555555569>BDGINX_dkoqsuuuuqommmmnoqsvyz{~~~~~~~~~~xsqmjdfgjgdbTE=EMVVVUUUULFAFLU[dljgf^VNNNNJFCGKSUXZSLGLU[aflmorssssssssuuuuussssssuussssvwxxyzz{{~~~~~~~~?/!!!!!!!!!!!",
"!!!!!!!!!!!!!!!!!!!!!!!!!!!!!!!!!!!!!!!!!!!!!!!!!!!!!!!!!!!!!!!!!!!!!!!!!!!!!!!!!!!!!!!!!/7gfb`UICA>9999?FNZdnqrunjb[ULIGDA>97766665555556679?CDHJNUZaflnqssuusqnnmmnqsuwyz{~~~~~~~~~~xsonmkgfda[WRMEEMVVUUPNLJHFKSZ`djfb`XNIIIIHHHKNSSONLLKSZcekmoqssuuussssppsssssuuvvwwwvuvxyyyyzzzzzyyyxwwwI5/+&!!!!!!!!",
"!!!!!!!!!!!!!!!!!!!!!!!!!!!!!!!!!!!!!!!!!!!!!!!!!!!!!!!!!!!!!!!!!!!!!!!!!!!!!!!!!!!!!!!!!/7jd`ZNHB?9999>DN^dlqrsunf_XSLFA9997766666666667779>ADFHKNSV[bjlossuvsrqonmnqsvwzz{{~~~~~~~~~xsooonkd`WRMMMMMSVUUUNJFHJLSY`bfgb_ZPJDDDDHJLNSUNKHJLNY]hioppsvvvvtutppppppptsuvwxyzyxxyyzzzzzzzyxwvuusppT@70+!!!!!!!!",
"!!!!!!!!!!!!!!!!!!!!!!!!!!!!!!!!!!!!!!!!!!!!!!!!!!!!!!!!!!!!!!!!!!!!!!!!!!!!!!!!!!!!!!!!!/9ld[ULFB?999?BL[lnquuuumd[VOKC96666666666666799999?BDGIKLNPX^djnrsuvussqomorvwyzz{{{~~~~~~~~wsoqrsldZUMEEMVVUUUUULFAFLUZ`ffff`ZULFAAAAFLVVVVLGBGLV_hipptttwwwwtttppiiippptvwyz{~{{z{{~{{zzyywvssrqppiih]7/!!!!!!!!",
"!!!!!!!!!!!!!!!!!!!!!!!!!!!!!!!!!!!!!!!!!!!!!!!!!!!!!!!!!!!!!!!!!!!!!!!!!!!!!!!!!!!!!!!!!+09?HPKFB?99?CIUbnqrusrqjaXNJFA9777777777777799??>>ACFHIKLNSY_fjmqssvvusrqnqsvxyzz{{{{{{{~{zysomorwojaWRMMSVUSSSSSNKHLSZ^`baa`YSLIGDDDDINVSNLJHFLU[chiiipiiihc]]]TRRRRRRT]]]ccehhhhhhhhhhhhheccccccccc]]]6/!!!!!!!!",
"!!!!!!!!!!!!!!!!!!!!!!!!!!!!!!!!!!!!!!!!!!!!!!!!!!!!!!!!!!!!!!!!!!!!!!!!!!!!!!!!!!!!!!!!!&+/59NIFB?>9AHS^gqrsurqnf[SKFA>977999999999999?AAAACDFHIKNOUZafjmorswvvvsrqrswxy{{zzzzyz{{ywuqmjnsyrmgb[WVVUSSOOOOOOOVZ``__^[ZSKFGHIIIILOUNJFHJLU[cchhiiih]TRREEEE======EEEERRRRRRRRRRRTTTRRRRRRRRVWWTTTT6/!!!!!!!!",
"!!!!!!!!!!!!!!!!!!!!!!!!!!!!!!!!!!!!!!!!!!!!!!!!!!!!!!!!!!!!!!!!!!!!!!!!!!!!!!!!!!!!!!!!!!!!/5KHDBA>9DN`gnuuuuqnlbXNGA99999999>>>>>>99?ACCCCDFGHIKNPUZagkmoqswwwwusrsuwxz{{zzyyxyz{xurnkfms~wqnjd^ZXUSONNNNSX[_bfb_[YXULFADINNNNOSULFAFLU[cihhhhhh]RRE=<<<<<<4<<<<<<<<@@@EEEEEEEEEEE@@@@@@EEEEMMMS6/!!!!!!!!",
"!!!!!!!!!!!!!!!!!!!!!!!!!!!!!!!!!!!!!!!!!!!!!!!!!!!!!!!!!!!!!!!!!!!!!!!!!!!!!!!!!!!!!!!!!!!!/5KHDBBBAJXglouvwwqmg^SIDA9999>>??AA??>>>>ABDDDDFGHIJKNPUZafkmqruwwwwvusuvxyz{{{zzyyzz{yvsolgmrzwsqlf`[XUVVVUSOUZ_`ab_ZXUPNKHDHKOOOONNNKIFKS[]]h]RRRRRRE=<<<44444444444<<<<<<<<<<<<<<<<<<<<<<<@@@@EEEM70++&!!!!!",
"!!!!!!!!!!!!!!!!!!!!!!!!!!!!!!!!!!!!!!!!!!!!!!!!!!!!!!!!!!!!!!!!!!!!!!!!!!!!!!!!!!!!!!!!!!!!/5KHFCDFGSanoruwxzqkdYNFCA>>??ABCCCCA?>??ABCFFFFGHIJKKNPUZafknqsuwwwxwvuvwxyz{{{{zzzz{{yxvqmgmqwwvvnga^YVXZ^ZVSX^ba`_ZVSNLKJIIKNSSSSNLKKKLSWc]]]RR====<<<444443333333344444447788888888888888888@@@@FH965/+!!!!!",
"!!!!!!!!!!!!!!!!!!!!!!!!!!!!!!!!!!!!!!!!!!!!!!!!!!!!!!!!!!!!!!!!!!!!!!!!!!!!!!!!!!!!!!!!!!!!/5KHFCFIN[juuuuwz~qj`UJCA?>?ACDFGFFDCA>?ABCDGGGGHIKKKKNPUZ`fknssvwwxxxwwxxyzz{{{{{{{{{{zyxqmgmouwy{qkb^ZVZaf`ZUZ`fb_[XSNKIGIKNOSUUUUNKGKNU[chh]RR=<<<<<44333333333333333333333333333333334666678888?BCBBA5+!!!!!",
"!!!!!!!!!!!!!!!!!!!!!!!!!!!!!!!!!!!!!!!!!!!!!!!!!!!!!!!!!!!!!!!!!!!!!!!!!!!!!!!!!!!!!!!!!!!!/5KIHFJOXbluuuussskaVNHCCBABCDDDCCBA?>9>ABCDGHHHIJKKKKNPUZ_dgmqsuxxxwwwwxyyz{{{{{{{{{{{zyysnkmosuwysnjd`[_bf`ZUVXZXUONLKKKKLNONLLLNNLKIMU[]]]TRR==<<<<44333333300000000333333333333333333334466678888????5+!!!!!",
"!!!!!!!!!!!!!!!!!!!!!!!!!!!!!!!!!!!!!!!!!!!!!!!!!!!!!!!!!!!!!!!!!!!!!!!!!!!!!!!!!!!!!!!!!!!!/5KJIHNYbjnuuuuqombXLJGDDDCDDFDBA?>9999>?BCDGHIIJKKKKKNPUY^afknquyxwwwwxxyzz{~{{{{{{{{{zzysqmnorsvxsqnkfabdf`ZUSPNLIHHHIKLNOPSLIFHIKKKKSWc]]TRRE=<44444333333000000000000333333333333333333333666778888880+!!!!!",
"!!!!!!!!!!!!!!!!!!!!!!!!!!!!!!!!!!!!!!!!!!!!!!!!!!!!!!!!!!!!!!!!!!!!!!!!!!!!!!!!!!!!!!!!!!!!/5KKKKValnquuuuolfZNGFFDFFGGGGCA>9999999?BCDGHIKKKKKKKNPUX[`djmouzywvwwxyyz{{~~{{{{{{{{{zzvroooqrsvvuuolgfff`ZUNKGDCACDGKNUUUULFACDGIKNW]h]TRRE=<<44433300000000000000000033333333333333333333336666788880+!!!!!",
"!!!!!!!!!!!!!!!!!!!!!!!!!!!!!!!!!!!!!!!!!!!!!!!!!!!!!!!!!!!!!!!!!!!!!!!!!!!!!!!!!!!!!!!!!!!!/5NNNOZfnqrusrqld^VNHHHGFDCA>99777777779>ACFHIJKKKKKKKNPUX[^bfknsyxvuvwxyyz{{~{{zzyyzz{{zzxurqqonljmnqmgbbbb_ZUNIDDCCFHKLPUSPNJFCDGILSWTTTRRR==<<443333300000000000000000033333333333333333333333666677785/++&!!",
"!!!!!!!!!!!!!!!!!!!!!!!!!!!!!!!!!!!!!!!!!!!!!!!!!!!!!!!!!!!!!!!!!!!!!!!!!!!!!!!!!!!!!!!!!!!!/5PSUV`jqrsurqng_VPLIIIIFCA97555555666799>BFIJKKKKKKKKNPUXZ^adgmqwvvuvwxyyzz{{{zyxxwxyzz{{yxvsqokd^bgmgb^_`a^YULHCCDDHKNPSUPLKHGDGIKSW]TRRRE=<<4443333330000000000000000003333333333333333333333333666778650/+!!",
"!!!!!!!!!!!!!!!!!!!!!!!!!!!!!!!!!!!!!!!!!!!!!!!!!!!!!!!!!!!!!!!!!!!!!!!!!!!!!!!!!!!!!!!!!!!!/6UXY[dmuuuuqnlbXNLLKKKKFB>755555555666799AFKKKKKKKKKKNPUXY[_bflovuusuwxyyzz{{zyxwvuwxzz{{{zzvrofZNXajd^XZ[_[XULFACDGKNUUUUNKGGGGIKNW]hTR====<433333333300000000000000000033333333333333333333333333466788<<0+!!",
"!!!!!!!!!!!!!!!!!!!!!!!!!!!!!!!!!!!!!!!!!!!!!!!!!!!!!!!!!!!!!!!!!!!!!!!!!!!!!!!!!!!!!!!!!!!!/6UXY[dmuuuuqnlbXNLLKKKKFB>755555555666799AFKKKKKKKKKKNPUXY[_bflovuusuwxyyzz{{zyxwvuwxzz{{{zzvrofZNXajd^XZ[_[XULFACDGKNUUUUNKGGGGIKNW]hTR====<433333333300000000000000000033333333333333333333333333466788<<0+!!"
};