/* XPM */
static char * Arm_pistol_recoil[] = {
"300 300 92 1",
"! c None",
"# c #ffffff",
"$ c #d8d4d1",
"% c #c0b8b7",
"& c #bba79c",
"' c #a0a1ae",
"( c #c88f6c",
") c #b38566",
"* c #918784",
"+ c #9a755a",
", c #8b674b",
"- c #736d6a",
". c #676768",
"/ c #636364",
"0 c #5f5f60",
"1 c #72543b",
"2 c #5e5650",
"3 c #585757",
"4 c #555556",
"5 c #535354",
"6 c #525050",
"7 c #4e4e4e",
"8 c #4b4b4b",
"9 c #49484a",
": c #484746",
"; c #454646",
"< c #4c433b",
"= c #434343",
"> c #414141",
"? c #433f3c",
"@ c #3e3e3e",
"A c #463628",
"B c #3c3d3d",
"C c #3b3b3b",
"D c #3a393a",
"E c #383839",
"F c #373737",
"G c #383835",
"H c #3a3029",
"I c #353636",
"J c #343434",
"K c #323233",
"L c #313030",
"M c #2f2f2f",
"N c #2e2e2e",
"O c #2d2d2d",
"P c #2e2c2a",
"Q c #2a2a2b",
"R c #29292a",
"S c #2e251e",
"T c #282828",
"U c #272626",
"V c #242525",
"W c #232223",
"X c #25201d",
"Y c #202020",
"Z c #1f1f1f",
"[ c #231b17",
"] c #201512",
"^ c #1c1d1d",
"_ c #1b1b1b",
"` c #1a1a1b",
"a c #191819",
"b c #161719",
"c c #171615",
"d c #151415",
"e c #131314",
"f c #19120f",
"g c #121214",
"h c #101113",
"i c #101010",
"j c #190c09",
"k c #100e0d",
"l c #0e0d0d",
"m c #0b0c10",
"n c #0b0b0b",
"o c #09090a",
"p c #0b0907",
"q c #160704",
"r c #090706",
"s c #070707",
"t c #060606",
"u c #070303",
"v c #050506",
"w c #040404",
"x c #030303",
"y c #020202",
"z c #010101",
"{ c #030100",
"| c #020000",
"} c #000002",
"~ c #010101",
"!!!!!!!!!!!!!!!!!!!!!!!!!!!!!!!!!!!!!!!!!!!!!!!!!!!!!!!!!!!!!!!!!!!!!!!!!!!!!!!!!!!!!!!!!!!!!!!!!!!!!!!!!!!!!!!!!!!!!!!!!!!!!!!!!!!!!!!!!!!!!!!!!!!!!!!!!!!!!!!!!!!!!!!!!!!!!!!!!!!!!!!!!!!!!!!!!!!!!!!!!!!!!!!!!!!!!!!!!!!!!!!!!!!!!!!!!!!!!!!!!!!!!!!!!!!!!!!!!!!!!!!!!!!!!!!!!!!!!!!!!!!!!!!!!!!!!!!!!!!!",
"!!!!!!!!!!!!!!!!!!!!!!!!!!!!!!!!!!!!!!!!!!!!!!!!!!!!!!!!!!!!!!!!!!!!!!!!!!!!!!!!!!!!!!!!!!!!!!!!!!!!!!!!!!!!!!!!!!!!!!!!!!!!!!!!!!!!!!!!!!!!!!!!!!!!!!!!!!!!!!!!!!!!!!!!!!!!!!!!!!!!!!!!!!!!!!!!!!!!!!!!!!!!!!!!!!!!!!!!!!!!!!!!!!!!!!!!!!!!!!!!!!!!!!!!!!!!!!!!!!!!!!!!!!!!!!!!!!!!!!!!!!!!!!!!!!!!!!!!!!!!",
"!!!!!!!!!!!!!!!!!!!!!!!!!!!!!!!!!!!!!!!!!!!!!!!!!!!!!!!!!!!!!!!!!!!!!!!!!!!!!!!!!!!!!!!!!!!!!!!!!!!!!!!!!!!!!!!!!!!!!!!!!!!!!!!!!!!!!!!!!!!!!!!!!!!!!!!!!!!!!!!!!!!!!!!!!!!!!!!!!!!!!!!!!!!!!!!!!!!!!!!!!!!!!!!!!!!!!!!!!!!!!!!!!!!!!!!!!!!!!!!!!!!!!!!!!!!!!!!!!!!!!!!!!!!!!!!!!!!!!!!!!!!!!!!!!!!!!!!!!!!!",
"!!!!!!!!!!!!!!!!!!!!!!!!!!!!!!!!!!!!!!!!!!!!!!!!!!!!!!!!!!!!!!!!!!!!!!!!!!!!!!!!!!!!!!!!!!!!!!!!!!!!!!!!!!!!!!!!!!!!!!!!!!!!!!!!!!!!!!!!!!!!!!!!!!!!!!!!!!!!!!!!!!!!!!!!!!!!!!!!!!!!!!!!!!!!!!!!!!!!!!!!!!!!!!!!!!!!!!!!!!!!!!!!!!!!!!!!!!!!!!!!!!!!!!!!!!!!!!!!!!!!!!!!!!!!!!!!!!!!!!!!!!!!!!!!!!!!!!!!!!!!",
"!!!!!!!!!!!!!!!!!!!!!!!!!!!!!!!!!!!!!!!!!!!!!!!!!!!!!!!!!!!!!!!!!!!!!!!!!!!!!!!!!!!!!!!!!!!!!!!!!!!!!!!!!!!!!!!!!!!!!!!!!!!!!!!!!!!!!!!!!!!!!!!!!!!!!!!!!!!!!!!!!!!!!!!!!!!!!!!!!!!!!!!!!!!!!!!!!!!!!!!!!!!!!!!!!!!!!!!!!!!!!!!!!!!!!!!!!!!!!!!!!!!!!!!!!!!!!!!!!!!!!!!!!!!!!!!!!!!!!!!!!!!!!!!!!!!!!!!!!!!!",
"!!!!!!!!!!!!!!!!!!!!!!!!!!!!!!!!!!!!!!!!!!!!!!!!!!!!!!!!!!!!!!!!!!!!!!!!!!!!!!!!!!!!!!!!!!!!!!!!!!!!!!!!!!!!!!!!!!!!!!!!!!!!!!!!!!!!!!!!!!!!!!!!!!!!!!!!!!!!!!!!!!!!!!!!!!!!!!!!!!!!!!!!!!!!!!!!!!!!!!!!!!!!!!!!!!!!!!!!!!!!!!!!!!!!!!!!!!!!!!!!!!!!!!!!!!!!!!!!!!!!!!!!!!!!!!!!!!!!!!!!!!!!!!!!!!!!!!!!!!!!",
"!!!!!!!!!!!!!!!!!!!!!!!!!!!!!!!!!!!!!!!!!!!!!!!!!!!!!!!!!!!!!!!!!!!!!!!!!!!!!!!!!!!!!!!!!!!!!!!!!!!!!!!!!!!!!!!!!!!!!!!!!!!!!!!!!!!!!!!!!!!!!!!!!!!!!!!!!!!!!!!!!!!!!!!!!!!!!!!!!!!!!!!!!!!!!!!!!!!!!!!!!!!!!!!!!!!!!!!!!!!!!!!!!!!!!!!!!!!!!!!!!!!!!!!!!!!!!!!!!!!!!!!!!!!!!!!!!!!!!!!!!!!!!!!!!!!!!!!!!!!!",
"!!!!!!!!!!!!!!!!!!!!!!!!!!!!!!!!!!!!!!!!!!!!!!!!!!!!!!!!!!!!!!!!!!!!!!!!!!!!!!!!!!!!!!!!!!!!!!!!!!!!!!!!!!!!!!!!!!!!!!!!!!!!!!!!!!!!!!!!!!!!!!!!!!!!!!!!!!!!!!!!!!!!!!!!!!!!!!!!!!!!!!!!!!!!!!!!!!!!!!!!!!!!!!!!!!!!!!!!!!!!!!!!!!!!!!!!!!!!!!!!!!!!!!!!!!!!!!!!!!!!!!!!!!!!!!!!!!!!!!!!!!!!!!!!!!!!!!!!!!!!",
"!!!!!!!!!!!!!!!!!!!!!!!!!!!!!!!!!!!!!!!!!!!!!!!!!!!!!!!!!!!!!!!!!!!!!!!!!!!!!!!!!!!!!!!!!!!!!!!!!!!!!!!!!!!!!!!!!!!!!!!!!!!!!!!!!!!!!!!!!!!!!!!!!!!!!!!!!!!!!!!!!!!!!!!!!!!!!!!!!!!!!!!!!!!!!!!!!!!!!!!!!!!!!!!!!!!!!!!!!!!!!!!!!!!!!!!!!!!!!!!!!!!!!!!!!!!!!!!!!!!!!!!!!!!!!!!!!!!!!!!!!!!!!!!!!!!!!!!!!!!!",
"!!!!!!!!!!!!!!!!!!!!!!!!!!!!!!!!!!!!!!!!!!!!!!!!!!!!!!!!!!!!!!!!!!!!!!!!!!!!!!!!!!!!!!!!!!!!!!!!!!!!!!!!!!!!!!!!!!!!!!!!!!!!!!!!!!!!!!!!!!!!!!!!!!!!!!!!!!!!!!!!!!!!!!!!!!!!!!!!!!!!!!!!!!!!!!!!!!!!!!!!!!!!!!!!!!!!!!!!!!!!!!!!!!!!!!!!!!!!!!!!!!!!!!!!!!!!!!!!!!!!!!!!!!!!!!!!!!!!!!!!!!!!!!!!!!!!!!!!!!!!",
"!!!!!!!!!!!!!!!!!!!!!!!!!!!!!!!!!!!!!!!!!!!!!!!!!!!!!!!!!!!!!!!!!!!!!!!!!!!!!!!!!!!!!!!!!!!!!!!!!!!!!!!!!!!!!!!!!!!!!!!!!!!!!!!!!!!!!!!!!!!!!!!!!!!!!!!!!!!!!!!!!!!!!!!!!!!!!!!!!!!!!!!!!!!!!!!!!!!!!!!!!!!!!!!!!!!!!!!!!!!!!!!!!!!!!!!!!!!!!!!!!!!!!!!!!!!!!!!!!!!!!!!!!!!!!!!!!!!!!!!!!!!!!!!!!!!!!!!!!!!!",
"!!!!!!!!!!!!!!!!!!!!!!!!!!!!!!!!!!!!!!!!!!!!!!!!!!!!!!!!!!!!!!!!!!!!!!!!!!!!!!!!!!!!!!!!!!!!!!!!!!!!!!!!!!!!!!!!!!!!!!!!!!!!!!!!!!!!!!!!!!!!!!!!!!!!!!!!!!!!!!!!!!!!!!!!!!!!!!!!!!!!!!!!!!!!!!!!!!!!!!!!!!!!!!!!!!!!!!!!!!!!!!!!!!!!!!!!!!!!!!!!!!!!!!!!!!!!!!!!!!!!!!!!!!!!!!!!!!!!!!!!!!!!!!!!!!!!!!!!!!!!",
"!!!!!!!!!!!!!!!!!!!!!!!!!!!!!!!!!!!!!!!!!!!!!!!!!!!!!!!!!!!!!!!!!!!!!!!!!!!!!!!!!!!!!!!!!!!!!!!!!!!!!!!!!!!!!!!!!!!!!!!!!!!!!!!!!!!!!!!!!!!!!!!!!!!!!!!!!!!!!!!!!!!!!!!!!!!!!!!!!!!!!!!!!!!!!!!!!!!!!!!!!!!!!!!!!!!!!!!!!!!!!!!!!!!!!!!!!!!!!!!!!!!!!!!!!!!!!!!!!!!!!!!!!!!!!!!!!!!!!!!!!!!!!!!!!!!!!!!!!!!!",
"!!!!!!!!!!!!!!!!!!!!!!!!!!!!!!!!!!!!!!!!!!!!!!!!!!!!!!!!!!!!!!!!!!!!!!!!!!!!!!!!!!!!!!!!!!!!!!!!!!!!!!!!!!!!!!!!!!!!!!!!!!!!!!!!!!!!!!!!!!!!!!!!!!!!!!!!!!!!!!!!!!!!!!!!!!!!!!!!!!!!!!!!!!!!!!!!!!!!!!!!!!!!!!!!!!!!!!!!!!!!!!!!!!!!!!!!!!!!!!!!!!!!!!!!!!!!!!!!!!!!!!!!!!!!!!!!!!!!!!!!!!!!!!!!!!!!!!!!!!!!",
"!!!!!!!!!!!!!!!!!!!!!!!!!!!!!!!!!!!!!!!!!!!!!!!!!!!!!!!!!!!!!!!!!!!!!!!!!!!!!!!!!!!!!!!!!!!!!!!!!!!!!!!!!!!!!!!!!!!!!!!!!!!!!!!!!!!!!!!!!!!!!!!!!!!!!!!!!!!!!!!!!!!!!!!!!!!!!!!!!!!!!!!!!!!!!!!!!!!!!!!!!!!!!!!!!!!!!!!!!!!!!!!!!!!!!!!!!!!!!!!!!!!!!!!!!!!!!!!!!!!!!!!!!!!!!!!!!!!!!!!!!!!!!!!!!!!!!!!!!!!!",
"!!!!!!!!!!!!!!!!!!!!!!!!!!!!!!!!!!!!!!!!!!!!!!!!!!!!!!!!!!!!!!!!!!!!!!!!!!!!!!!!!!!!!!!!!!!!!!!!!!!!!!!!!!!!!!!!!!!!!!!!!!!!!!!!!!!!!!!!!!!!!!!!!!!!!!!!!!!!!!!!!!!!!!!!!!!!!!!!!!!!!!!!!!!!!!!!!!!!!!!!!!!!!!!!!!!!!!!!!!!!!!!!!!!!!!!!!!!!!!!!!!!!!!!!!!!!!!!!!!!!!!!!!!!!!!!!!!!!!!!!!!!!!!!!!!!!!!!!!!!!",
"!!!!!!!!!!!!!!!!!!!!!!!!!!!!!!!!!!!!!!!!!!!!!!!!!!!!!!!!!!!!!!!!!!!!!!!!!!!!!!!!!!!!!!!!!!!!!!!!!!!!!!!!!!!!!!!!!!!!!!!!!!!!!!!!!!!!!!!!!!!!!!!!!!!!!!!!!!!!!!!!!!!!!!!!!!!!!!!!!!!!!!!!!!!!!!!!!!!!!!!!!!!!!!!!!!!!!!!!!!!!!!!!!!!!!!!!!!!!!!!!!!!!!!!!!!!!!!!!!!!!!!!!!!!!!!!!!!!!!!!!!!!!!!!!!!!!!!!!!!!!",
"!!!!!!!!!!!!!!!!!!!!!!!!!!!!!!!!!!!!!!!!!!!!!!!!!!!!!!!!!!!!!!!!!!!!!!!!!!!!!!!!!!!!!!!!!!!!!!!!!!!!!!!!!!!!!!!!!!!!!!!!!!!!!!!!!!!!!!!!!!!!!!!!!!!!!!!!!!!!!!!!!!!!!!!!!!!!!!!!!!!!!!!!!!!!!!!!!!!!!!!!!!!!!!!!!!!!!!!!!!!!!!!!!!!!!!!!!!!!!!!!!!!!!!!!!!!!!!!!!!!!!!!!!!!!!!!!!!!!!!!!!!!!!!!!!!!!!!!!!!!!",
"!!!!!!!!!!!!!!!!!!!!!!!!!!!!!!!!!!!!!!!!!!!!!!!!!!!!!!!!!!!!!!!!!!!!!!!!!!!!!!!!!!!!!!!!!!!!!!!!!!!!!!!!!!!!!!!!!!!!!!!!!!!!!!!!!!!!!!!!!!!!!!!!!!!!!!!!!!!!!!!!!!!!!!!!!!!!!!!!!!!!!!!!!!!!!!!!!!!!!!!!!!!!!!!!!!!!!!!!!!!!!!!!!!!!!!!!!!!!!!!!!!!!!!!!!!!!!!!!!!!!!!!!!!!!!!!!!!!!!!!!!!!!!!!!!!!!!!!!!!!!",
"!!!!!!!!!!!!!!!!!!!!!!!!!!!!!!!!!!!!!!!!!!!!!!!!!!!!!!!!!!!!!!!!!!!!!!!!!!!!!!!!!!!!!!!!!!!!!!!!!!!!!!!!!!!!!!!!!!!!!!!!!!!!!!!!!!!!!!!!!!!!!!!!!!!!!!!!!!!!!!!!!!!!!!!!!!!!!!!!!!!!!!!!!!!!!!!!!!!!!!!!!!!!!!!!!!!!!!!!!!!!!!!!!!!!!!!!!!!!!!!!!!!!!!!!!!!!!!!!!!!!!!!!!!!!!!!!!!!!!!!!!!!!!!!!!!!!!!!!!!!!",
"!!!!!!!!!!!!!!!!!!!!!!!!!!!!!!!!!!!!!!!!!!!!!!!!!!!!!!!!!!!!!!!!!!!!!!!!!!!!!!!!!!!!!!!!!!!!!!!!!!!!!!!!!!!!!!!!!!!!!!!!!!!!!!!!!!!!!!!!!!!!!!!!!!!!!!!!!!!!!!!!!!!!!!!!!!!!!!!!!!!!!!!!!!!!!!!!!!!!!!!!!!!!!!!!!!!!!!!!!!!!!!!!!!!!!!!!!!!!!!!!!!!!!!!!!!!!!!!!!!!!!!!!!!!!!!!!!!!!!!!!!!!!!!!!!!!!!!!!!!!!",
"!!!!!!!!!!!!!!!!!!!!!!!!!!!!!!!!!!!!!!!!!!!!!!!!!!!!!!!!!!!!!!!!!!!!!!!!!!!!!!!!!!!!!!!!!!!!!!!!!!!!!!!!!!!!!!!!!!!!!!!!!!!!!!!!!!!!!!!!!!!!!!!!!!!!!!!!!!!!!!!!!!!!!!!!!!!!!!!!!!!!!!!!!!!!!!!!!!!!!!!!!!!!!!!!!!!!!!!!!!!!!!!!!!!!!!!!!!!!!!!!!!!!!!!!!!!!!!!!!!!!!!!!!!!!!!!!!!!!!!!!!!!!!!!!!!!!!!!!!!!!",
"!!!!!!!!!!!!!!!!!!!!!!!!!!!!!!!!!!!!!!!!!!!!!!!!!!!!!!!!!!!!!!!!!!!!!!!!!!!!!!!!!!!!!!!!!!!!!!!!!!!!!!!!!!!!!!!!!!!!!!!!!!!!!!!!!!!!!!!!!!!!!!!!!!!!!!!!!!!!!!!!!!!!!!!!!!!!!!!!!!!!!!!!!!!!!!!!!!!!!!!!!!!!!!!!!!!!!!!!!!!!!!!!!!!!!!!!!!!!!!!!!!!!!!!!!!!!!!!!!!!!!!!!!!!!!!!!!!!!!!!!!!!!!!!!!!!!!!!!!!!!",
"!!!!!!!!!!!!!!!!!!!!!!!!!!!!!!!!!!!!!!!!!!!!!!!!!!!!!!!!!!!!!!!!!!!!!!!!!!!!!!!!!!!!!!!!!!!!!!!!!!!!!!!!!!!!!!!!!!!!!!!!!!!!!!!!!!!!!!!!!!!!!!!!!!!!!!!!!!!!!!!!!!!!!!!!!!!!!!!!!!!!!!!!!!!!!!!!!!!!!!!!!!!!!!!!!!!!!!!!!!!!!!!!!!!!!!!!!!!!!!!!!!!!!!!!!!!!!!!!!!!!!!!!!!!!!!!!!!!!!!!!!!!!!!!!!!!!!!!!!!!!",
"!!!!!!!!!!!!!!!!!!!!!!!!!!!!!!!!!!!!!!!!!!!!!!!!!!!!!!!!!!!!!!!!!!!!!!!!!!!!!!!!!!!!!!!!!!!!!!!!!!!!!!!!!!!!!!!!!!!!!!!!!!!!!!!!!!!!!!!!!!!!!!!!!!!!!!!!!!!!!!!!!!!!!!!!!!!!!!!!!!!!!!!!!!!!!!!!!!!!!!!!!!!!!!!!!!!!!!!!!!!!!!!!!!!!!!!!!!!!!!!!!!!!!!!!!!!!!!!!!!!!!!!!!!!!!!!!!!!!!!!!!!!!!!!!!!!!!!!!!!!!",
"!!!!!!!!!!!!!!!!!!!!!!!!!!!!!!!!!!!!!!!!!!!!!!!!!!!!!!!!!!!!!!!!!!!!!!!!!!!!!!!!!!!!!!!!!!!!!!!!!!!!!!!!!!!!!!!!!!!!!!!!!!!!!!!!!!!!!!!!!!!!!!!!!!!!!!!!!!!!!!!!!!!!!!!!!!!!!!!!!!!!!!!!!!!!!!!!!!!!!!!!!!!!!!!!!!!!!!!!!!!!!!!!!!!!!!!!!!!!!!!!!!!!!!!!!!!!!!!!!!!!!!!!!!!!!!!!!!!!!!!!!!!!!!!!!!!!!!!!!!!!",
"!!!!!!!!!!!!!!!!!!!!!!!!!!!!!!!!!!!!!!!!!!!!!!!!!!!!!!!!!!!!!!!!!!!!!!!!!!!!!!!!!!!!!!!!!!!!!!!!!!!!!!!!!!!!!!!!!!!!!!!!!!!!!!!!!!!!!!!!!!!!!!!!!!!!!!!!!!!!!!!!!!!!!!!!!!!!!!!!!!!!!!!!!!!!!!!!!!!!!!!!!!!!!!!!!!!!!!!!!!!!!!!!!!!!!!!!!!!!!!!!!!!!!!!!!!!!!!!!!!!!!!!!!!!!!!!!!!!!!!!!!!!!!!!!!!!!!!!!!!!!",
"!!!!!!!!!!!!!!!!!!!!!!!!!!!!!!!!!!!!!!!!!!!!!!!!!!!!!!!!!!!!!!!!!!!!!!!!!!!!!!!!!!!!!!!!!!!!!!!!!!!!!!!!!!!!!!!!!!!!!!!!!!!!!!!!!!!!!!!!!!!!!!!!!!!!!!!!!!!!!!!!!!!!!!!!!!!!!!!!!!!!!!!!!!!!!!!!!!!!!!!!!!!!!!!!!!!!!!!!!!!!!!!!!!!!!!!!!!!!!!!!!!!!!!!!!!!!!!!!!!!!!!!!!!!!!!!!!!!!!!!!!!!!!!!!!!!!!!!!!!!!",
"!!!!!!!!!!!!!!!!!!!!!!!!!!!!!!!!!!!!!!!!!!!!!!!!!!!!!!!!!!!!!!!!!!!!!!!!!!!!!!!!!!!!!!!!!!!!!!!!!!!!!!!!!!!!!!!!!!!!!!!!!!!!!!!!!!!!!!!!!!!!!!!!!!!!!!!!!!!!!!!!!!!!!!!!!!!!!!!!!!!!!!!!!!!!!!!!!!!!!!!!!!!!!!!!!!!!!!!!!!!!!!!!!!!!!!!!!!!!!!!!!!!!!!!!!!!!!!!!!!!!!!!!!!!!!!!!!!!!!!!!!!!!!!!!!!!!!!!!!!!!",
"!!!!!!!!!!!!!!!!!!!!!!!!!!!!!!!!!!!!!!!!!!!!!!!!!!!!!!!!!!!!!!!!!!!!!!!!!!!!!!!!!!!!!!!!!!!!!!!!!!!!!!!!!!!!!!!!!!!!!!!!!!!!!!!!!!!!!!!!!!!!!!!!!!!!!!!!!!!!!!!!!!!!!!!!!!!!!!!!!!!!!!!!!!!!!!!!!!!!!!!!!!!!!!!!!!!!!!!!!!!!!!!!!!!!!!!!!!!!!!!!!!!!!!!!!!!!!!!!!!!!!!!!!!!!!!!!!!!!!!!!!!!!!!!!!!!!!!!!!!!!",
"!!!!!!!!!!!!!!!!!!!!!!!!!!!!!!!!!!!!!!!!!!!!!!!!!!!!!!!!!!!!!!!!!!!!!!!!!!!!!!!!!!!!!!!!!!!!!!!!!!!!!!!!!!!!!!!!!!!!!!!!!!!!!!!!!!!!!!!!!!!!!!!!!!!!!!!!!!!!!!!!!!!!!!!!!!!!!!!!!!!!!!!!!!!!!!!!!!!!!!!!!!!!!!!!!!!!!!!!!!!!!!!!!!!!!!!!!!!!!!!!!!!!!!!!!!!!!!!!!!!!!!!!!!!!!!!!!!!!!!!!!!!!!!!!!!!!!!!!!!!!",
"!!!!!!!!!!!!!!!!!!!!!!!!!!!!!!!!!!!!!!!!!!!!!!!!!!!!!!!!!!!!!!!!!!!!!!!!!!!!!!!!!!!!!!!!!!!!!!!!!!!!!!!!!!!!!!!!!!!!!!!!!!!!!!!!!!!!!!!!!!!!!!!!!!!!!!!!!!!!!!!!!!!!!!!!!!!!!!!!!!!!!!!!!!!!!!!!!!!!!!!!!!!!!!!!!!!!!!!!!!!!!!!!!!!!!!!!!!!!!!!!!!!!!!!!!!!!!!!!!!!!!!!!!!!!!!!!!!!!!!!!!!!!!!!!!!!!!!!!!!!!",
"!!!!!!!!!!!!!!!!!!!!!!!!!!!!!!!!!!!!!!!!!!!!!!!!!!!!!!!!!!!!!!!!!!!!!!!!!!!!!!!!!!!!!!!!!!!!!!!!!!!!!!!!!!!!!!!!!!!!!!!!!!!!!!!!!!!!!!!!!!!!!!!!!!!!!!!!!!!!!!!!!!!!!!!!!!!!!!!!!!!!!!!!!!!!!!!!!!!!!!!!!!!!!!!!!!!!!!!!!!!!!!!!!!!!!!!!!!!!!!!!!!!!!!!!!!!!!!!!!!!!!!!!!!!!!!!!!!!!!!!!!!!!!!!!!!!!!!!!!!!!",
"!!!!!!!!!!!!!!!!!!!!!!!!!!!!!!!!!!!!!!!!!!!!!!!!!!!!!!!!!!!!!!!!!!!!!!!!!!!!!!!!!!!!!!!!!!!!!!!!!!!!!!!!!!!!!!!!!!!!!!!!!!!!!!!!!!!!!!!!!!!!!!!!!!!!!!!!!!!!!!!!!!!!!!!!!!!!!!!!!!!!!!!!!!!!!!!!!!!!!!!!!!!!!!!!!!!!!!!!!!!!!!!!!!!!!!!!!!!!!!!!!!!!!!!!!!!!!!!!!!!!!!!!!!!!!!!!!!!!!!!!!!!!!!!!!!!!!!!!!!!!",
"!!!!!!!!!!!!!!!!!!!!!!!!!!!!!!!!!!!!!!!!!!!!!!!!!!!!!!!!!!!!!!!!!!!!!!!!!!!!!!!!!!!!!!!!!!!!!!!!!!!!!!!!!!!!!!!!!!!!!!!!!!!!!!!!!!!!!!!!!!!!!!!!!!!!!!!!!!!!!!!!!!!!!!!!!!!!!!!!!!!!!!!!!!!!!!!!!!!!!!!!!!!!!!!!!!!!!!!!!!!!!!!!!!!!!!!!!!!!!!!!!!!!!!!!!!!!!!!!!!!!!!!!!!!!!!!!!!!!!!!!!!!!!!!!!!!!!!!!!!!!",
"!!!!!!!!!!!!!!!!!!!!!!!!!!!!!!!!!!!!!!!!!!!!!!!!!!!!!!!!!!!!!!!!!!!!!!!!!!!!!!!!!!!!!!!!!!!!!!!!!!!!!!!!!!!!!!!!!!!!!!!!!!!!!!!!!!!!!!!!!!!!!!!!!!!!!!!!!!!!!!!!!!!!!!!!!!!!!!!!!!!!!!!!!!!!!!!!!!!!!!!!!!!!!!!!!!!!!!!!!!!!!!!!!!!!!!!!!!!!!!!!!!!!!!!!!!!!!!!!!!!!!!!!!!!!!!!!!!!!!!!!!!!!!!!!!!!!!!!!!!!!",
"!!!!!!!!!!!!!!!!!!!!!!!!!!!!!!!!!!!!!!!!!!!!!!!!!!!!!!!!!!!!!!!!!!!!!!!!!!!!!!!!!!!!!!!!!!!!!!!!!!!!!!!!!!!!!!!!!!!!!!!!!!!!!!!!!!!!!!!!!!!!!!!!!!!!!!!!!!!!!!!!!!!!!!!!!!!!!!!!!!!!!!!!!!!!!!!!!!!!!!!!!!!!!!!!!!!!!!!!!!!!!!!!!!!!!!!!!!!!!!!!!!!!!!!!!!!!!!!!!!!!!!!!!!!!!!!!!!!!!!!!!!!!!!!!!!!!!!!!!!!!",
"!!!!!!!!!!!!!!!!!!!!!!!!!!!!!!!!!!!!!!!!!!!!!!!!!!!!!!!!!!!!!!!!!!!!!!!!!!!!!!!!!!!!!!!!!!!!!!!!!!!!!!!!!!!!!!!!!!!!!!!!!!!!!!!!!!!!!!!!!!!!!!!!!!!!!!!!!!!!!!!!!!!!!!!!!!!!!!!!!!!!!!!!!!!!!!!!!!!!!!!!!!!!!!!!!!!!!!!!!!!!!!!!!!!!!!!!!!!!!!!!!!!!!!!!!!!!!!!!!!!!!!!!!!!!!!!!!!!!!!!!!!!!!!!!!!!!!!!!!!!!",
"!!!!!!!!!!!!!!!!!!!!!!!!!!!!!!!!!!!!!!!!!!!!!!!!!!!!!!!!!!!!!!!!!!!!!!!!!!!!!!!!!!!!!!!!!!!!!!!!!!!!!!!!!!!!!!!!!!!!!!!!!!!!!!!!!!!!!!!!!!!!!!!!!!!!!!!!!!!!!!!!!!!!!!!!!!!!!!!!!!!!!!!!!!!!!!!!!!!!!!!!!!!!!!!!!!!!!!!!!!!!!!!!!!!!!!!!!!!!!!!!!!!!!!!!!!!!!!!!!!!!!!!!!!!!!!!!!!!!!!!!!!!!!!!!!!!!!!!!!!!!",
"!!!!!!!!!!!!!!!!!!!!!!!!!!!!!!!!!!!!!!!!!!!!!!!!!!!!!!!!!!!!!!!!!!!!!!!!!!!!!!!!!!!!!!!!!!!!!!!!!!!!!!!!!!!!!!!!!!!!!!!!!!!!!!!!!!!!!!!!!!!!!!!!!!!!!!!!!!!!!!!!!!!!!!!!!!!!!!!!!!!!!!!!!!!!!!!!!!!!!!!!!!!!!!!!!!!!!!!!!!!!!!!!!!!!!!!!!!!!!!!!!!!!!!!!!!!!!!!!!!!!!!!!!!!!!!!!!!!!!!!!!!!!!!!!!!!!!!!!!!!!",
"!!!!!!!!!!!!!!!!!!!!!!!!!!!!!!!!!!!!!!!!!!!!!!!!!!!!!!!!!!!!!!!!!!!!!!!!!!!!!!!!!!!!!!!!!!!!!!!!!!!!!!!!!!!!!!!!!!!!!!!!!!!!!!!!!!!!!!!!!!!!!!!!!!!!!!!!!!!!!!!!!!!!!!!!!!!!!!!!!!!!!!!!!!!!!!!!!!!!!!!!!!!!!!!!!!!!!!!!!!!!!!!!!!!!!!!!!!!!!!!!!!!!!!!!!!!!!!!!!!!!!!!!!!!!!!!!!!!!!!!!!!!!!!!!!!!!!!!!!!!!",
"!!!!!!!!!!!!!!!!!!!!!!!!!!!!!!!!!!!!!!!!!!!!!!!!!!!!!!!!!!!!!!!!!!!!!!!!!!!!!!!!!!!!!!!!!!!!!!!!!!!!!!!!!!!!!!!!!!!!!!!!!!!!!!!!!!!!!!!!!!!!!!!!!!!!!!!!!!!!!!!!!!!!!!!!!!!!!!!!!!!!!!!!!!!!!!!!!!!!!!!!!!!!!!!!!!!!!!!!!!!!!!!!!!!!!!!!!!!!!!!!!!!!!!!!!!!!!!!!!!!!!!!!!!!!!!!!!!!!!!!!!!!!!!!!!!!!!!!!!!!!",
"!!!!!!!!!!!!!!!!!!!!!!!!!!!!!!!!!!!!!!!!!!!!!!!!!!!!!!!!!!!!!!!!!!!!!!!!!!!!!!!!!!!!!!!!!!!!!!!!!!!!!!!!!!!!!!!!!!!!!!!!!!!!!!!!!!!!!!!!!!!!!!!!!!!!!!!!!!!!!!!!!!!!!!!!!!!!!!!!!!!!!!!!!!!!!!!!!!!!!!!!!!!!!!!!!!!!!!!!!!!!!!!!!!!!!!!!!!!!!!!!!!!!!!!!!!!!!!!!!!!!!!!!!!!!!!!!!!!!!!!!!!!!!!!!!!!!!!!!!!!!",
"!!!!!!!!!!!!!!!!!!!!!!!!!!!!!!!!!!!!!!!!!!!!!!!!!!!!!!!!!!!!!!!!!!!!!!!!!!!!!!!!!!!!!!!!!!!!!!!!!!!!!!!!!!!!!!!!!!!!!!!!!!!!!!!!!!!!!!!!!!!!!!!!!!!!!!!!!!!!!!!!!!!!!!!!!!!!!!!!!!!!!!!!!!!!!!!!!!!!!!!!!!!!!!!!!!!!!!!!!!!!!!!!!!!!!!!!!!!!!!!!!!!!!!!!!!!!!!!!!!!!!!!!!!!!!!!!!!!!!!!!!!!!!!!!!!!!!!!!!!!!",
"!!!!!!!!!!!!!!!!!!!!!!!!!!!!!!!!!!!!!!!!!!!!!!!!!!!!!!!!!!!!!!!!!!!!!!!!!!!!!!!!!!!!!!!!!!!!!!!!!!!!!!!!!!!!!!!!!!!!!!!!!!!!!!!!!!!!!!!!!!!!!!!!!!!!!!!!!!!!!!!!!!!!!!!!!!!!!!!!!!!!!!!!!!!!!!!!!!!!!!!!!!!!!!!!!!!!!!!!!!!!!!!!!!!!!!!!!!!!!!!!!!!!!!!!!!!!!!!!!!!!!!!!!!!!!!!!!!!!!!!!!!!!!!!!!!!!!!!!!!!!",
"!!!!!!!!!!!!!!!!!!!!!!!!!!!!!!!!!!!!!!!!!!!!!!!!!!!!!!!!!!!!!!!!!!!!!!!!!!!!!!!!!!!!!!!!!!!!!!!!!!!!!!!!!!!!!!!!!!!!!!!!!!!!!!!!!!!!!!!!!!!!!!!!!!!!!!!!!!!!!!!!!!!!!!!!!!!!!!!!!!!!!!!!!!!!!!!!!!!!!!!!!!!!!!!!!!!!!!!!!!!!!!!!!!!!!!!!!!!!!!!!!!!!!!!!!!!!!!!!!!!!!!!!!!!!!!!!!!!!!!!!!!!!!!!!!!!!!!!!!!!!",
"!!!!!!!!!!!!!!!!!!!!!!!!!!!!!!!!!!!!!!!!!!!!!!!!!!!!!!!!!!!!!!!!!!!!!!!!!!!!!!!!!!!!!!!!!!!!!!!!!!!!!!!!!!!!!!!!!!!!!!!!!!!!!!!!!!!!!!!!!!!!!!!!!!!!!!!!!!!!!!!!!!!!!!!!!!!!!!!!!!!!!!!!!!!!!!!!!!!!!!!!!!!!!!!!!!!!!!!!!!!!!!!!!!!!!!!!!!!!!!!!!!!!!!!!!!!!!!!!!!!!!!!!!!!!!!!!!!!!!!!!!!!!!!!!!!!!!!!!!!!!",
"!!!!!!!!!!!!!!!!!!!!!!!!!!!!!!!!!!!!!!!!!!!!!!!!!!!!!!!!!!!!!!!!!!!!!!!!!!!!!!!!!!!!!!!!!!!!!!!!!!!!!!!!!!!!!!!!!!!!!!!$%''''''''''%$!!!!!!!!!!!!!!!!!!!!!!!!!!!!!!!!!!!!!!!!!!!!!!!!!!!!!!!!!!!!!!!!!!!!!!!!!!!!!!!!!!!!!!!!!!!!!!!!!!!!!!!!!!!!!!!!!!!!!!!!!!!!!!!!!!!!!!!!!!!!!!!!!!!!!!!!!!!!!!!!!!!!!!!",
"!!!!!!!!!!!!!!!!!!!!!!!!!!!!!!!!!!!!!!!!!!!!!!!!!!!!!!!!!!!!!!!!!!!!!!!!!!!!!!!!!!!!!!!!!!!!!!!!!!!!!!!!!!!!!!!!!!!!!!!%*4444444444*%!!!!!!!!!!!!!!!!!!!!!!!!!!!!!!!!!!!!!!!!!!!!!!!!!!!!!!!!!!!!!!!!!!!!!!!!!!!!!!!!!!!!!!!!!!!!!!!!!!!!!!!!!!!!!!!!!!!!!!!!!!!!!!!!!!!!!!!!!!!!!!!!!!!!!!!!!!!!!!!!!!!!!!!",
"!!!!!!!!!!!!!!!!!!!!!!!!!!!!!!!!!!!!!!!!!!!!!!!!!!!!!!!!!!!!!!!!!!!!!!!!!!!!!!!!!!!!!!!!!!!!!!!!!!!!!!!!!!!!!!!!!!!!!!!'4~~~~~~~~~~4'!!!!!!!!!!!!!!!!!!!!!!!!!!!!!!!!!!!!!!!!!!!!!!!!!!!!!!!!!!!!!!!!!!!!!!!!!!!!!!!!!!!!!!!!!!!!!!!!!!!!!!!!!!!!!!!!!!!!!!!!!!!!!!!!!!!!!!!!!!!!!!!!!!!!!!!!!!!!!!!!!!!!!!!",
"!!!!!!!!!!!!!!!!!!!!!!!!!!!!!!!!!!!!!!!!!!!!!!!!!!!!!!!!!!!!!!!!!!!!!!!!!!!!!!!!!!!!!!!!!!!!!!!!!!!!!!!!!!!!!!!!!!!!$%'-D}wsnsvyyz~D-'''''''%$!!!!!!!!!!!!!!!!!!!!!!!!!!!!!!!!!!!!!!!!!!!!!!!!!!!!!!!!!!!!!!!!!!!!!!!!!!!!!!!!!!!!!!!!!!!!!!!!!!!!!!!!!!!!!!!!!!!!!!!!!!!!!!!!!!!!!!!!!!!!!!!!!!!!!!!!!!!!!!",
"!!!!!!!!!!!!!!!!!!!!!!!!!!!!!!!!!!!!!!!!!!!!!!!!!!!!!!!!!!!!!!!!!!!!!!!!!!!!!!!!!!!!!!!!!!!!!!!!!!!!!!!!!!!!!!!!!!!!%*4D^zsidinvxy}^D4444444*%!!!!!!!!!!!!!!!!!!!!!!!!!!!!!!!!!!!!!!!!!!!!!!!!!!!!!!!!!!!!!!!!!!!!!!!!!!!!!!!!!!!!!!!!!!!!!!!!!!!!!!!!!!!!!!!!!!!!!!!!!!!!!!!!!!!!!!!!!!!!!!!!!!!!!!!!!!!!!!",
"!!!!!!!!!!!!!!!!!!!!!!!!!!!!!!!!!!!!!!!!!!!!!!!!!!!!!!!!!!!!!!!!!!!!!!!!!!!!!!!!!!!!!!!!!!!!!!!!!!!!!!!!!!!!!!!!!!!!'4~}zzndYbisvy}}~~~~~~~~4'!!!!!!!!!!!!!!!!!!!!!!!!!!!!!!!!!!!!!!!!!!!!!!!!!!!!!!!!!!!!!!!!!!!!!!!!!!!!!!!!!!!!!!!!!!!!!!!!!!!!!!!!!!!!!!!!!!!!!!!!!!!!!!!!!!!!!!!!!!!!!!!!!!!!!!!!!!!!!!",
"!!!!!!!!!!!!!!!!!!!!!!!!!!!!!!!!!!!!!!!!!!!!!!!!!!!!!!!!!!!!!!!!!!!!!!!!!!!!!!!!!!!!!!!!!!!!!!!!!!!!!!!!!!!!!!!!!$%'-D~wonbVKQW^bhmovzz~~~~~D-''''%$!!!!!!!!!!!!!!!!!!!!!!!!!!!!!!!!!!!!!!!!!!!!!!!!!!!!!!!!!!!!!!!!!!!!!!!!!!!!!!!!!!!!!!!!!!!!!!!!!!!!!!!!!!!!!!!!!!!!!!!!!!!!!!!!!!!!!!!!!!!!!!!!!!!!!!!!",
"!!!!!!!!!!!!!!!!!!!!!!!!!!!!!!!!!!!!!!!!!!!!!!!!!!!!!!!!!!!!!!!!!!!!!!!!!!!!!!!!!!!!!!!!!!!!!!!!!!!!!!!!!!!!!!!!!%*4D^~sibVK>BEKRWahnxyz~~~~^D4444*%!!!!!!!!!!!!!!!!!!!!!!!!!!!!!!!!!!!!!!!!!!!!!!!!!!!!!!!!!!!!!!!!!!!!!!!!!!!!!!!!!!!!!!!!!!!!!!!!!!!!!!!!!!!!!!!!!!!!!!!!!!!!!!!!!!!!!!!!!!!!!!!!!!!!!!!!",
"!!!!!!!!!!!!!!!!!!!!!!!!!!!!!!!!!!!!!!!!!!!!!!!!!!!!!!!!!!!!!!!!!!!!!!!!!!!!!!!!!!!!!!!!!!!!!!!!!!!!!!!!!!!!!!!!!'4~~~~nbWK=5799BKV`iwxz~~~~~~~~~~4'!!!!!!!!!!!!!!!!!!!!!!!!!!!!!!!!!!!!!!!!!!!!!!!!!!!!!!!!!!!!!!!!!!!!!!!!!!!!!!!!!!!!!!!!!!!!!!!!!!!!!!!!!!!!!!!!!!!!!!!!!!!!!!!!!!!!!!!!!!!!!!!!!!!!!!!!",
"!!!!!!!!!!!!!!!!!!!!!!!!!!!!!!!!!!!!!!!!!!!!!!!!!!!!!!!!!!!!!!!!!!!!!!!!!!!!!!!!!!!!!!!!!!!!!!!!!!!!!!!!!!!!!!!!!'4~~~~nbWI933347=EQ^insxyz~{{uuuu?-%%%%%%%$$!!!!!!!!!!!!!!!!!!!!!!!!!!!!!!!!!!!!!!!!!!!!!!!!!!!!!!!!!!!!!!!!!!!!!!!!!!!!!!!!!!!!!!!!!!!!!!!!!!!!!!!!!!!!!!!!!!!!!!!!!!!!!!!!!!!!!!!!!!!!!!!",
"!!!!!!!!!!!!!!!!!!!!!!!!!!!!!!!!!!!!!!!!!!!!!!!!!!!!!!!!!!!!!!!!!!!!!!!!!!!!!!!!!!!!!!!!!!!!!!!!!!!!!!!!!!!!!!!!!'4~~~~laVD7//..059DQ`eltwy~{uqqqqS:.-***-.'$!!!!!!!!!!!!!!!!!!!!!!!!!!!!!!!!!!!!!!!!!!!!!!!!!!!!!!!!!!!!!!!!!!!!!!!!!!!!!!!!!!!!!!!!!!!!!!!!!!!!!!!!!!!!!!!!!!!!!!!!!!!!!!!!!!!!!!!!!!!!!!!",
"!!!!!!!!!!!!!!!!!!!!!!!!!!!!!!!!!!!!!!!!!!!!!!!!!!!!!!!!!!!!!!!!!!!!!!!!!!!!!!!!!!!!!!!!!!!!!!!!!!!!!!!!!!!!!!!!!'4~~~~l`T@4.----.09EV^gotx~uqqqqqjc^M>5=KZ.%!!!!!!!!!!!!!!!!!!!!!!!!!!!!!!!!!!!!!!!!!!!!!!!!!!!!!!!!!!!!!!!!!!!!!!!!!!!!!!!!!!!!!!!!!!!!!!!!!!!!!!!!!!!!!!!!!!!!!!!!!!!!!!!!!!!!!!!!!!!!!!!",
"!!!!!!!!!!!!!!!!!!!!!!!!!!!!!!!!!!!!!!!!!!!!!!!!!!!!!!!!!!!!!!!!!!!!!!!!!!!!!!!!!!!!!!!!!!!!!!!!!!!!!!!!!!!!!!!!!'4~~~~nbYI80.-**--07BOZinruuqqqqq]WM@707BN0*%$$!!!!!!!!!!!!!!!!!!!!!!!!!!!!!!!!!!!!!!!!!!!!!!!!!!!!!!!!!!!!!!!!!!!!!!!!!!!!!!!!!!!!!!!!!!!!!!!!!!!!!!!!!!!!!!!!!!!!!!!!!!!!!!!!!!!!!!!!!!!!",
"!!!!!!!!!!!!!!!!!!!!!!!!!!!!!!!!!!!!!!!!!!!!!!!!!!!!!!!!!!!!!!!!!!!!!!!!!!!!!!!!!!!!!!!!!!!!!!!!!!!!!!!!!!!!!!!!!'4~~~~og`M=4.-****-/5@Qcikqqqqqqq[L>73/49@5.*'$!!!!!!!!!!!!!!!!!!!!!!!!!!!!!!!!!!!!!!!!!!!!!!!!!!!!!!!!!!!!!!!!!!!!!!!!!!!!!!!!!!!!!!!!!!!!!!!!!!!!!!!!!!!!!!!!!!!!!!!!!!!!!!!!!!!!!!!!!!!!",
"!!!!!!!!!!!!!!!!!!!!!!!!!!!!!!!!!!!!!!!!!!!!!!!!!!!!!!!!!!!!!!!!!!!!!!!!!!!!!!!!!!!!!!!!!!!!!!!!!!!!!!!!!!!!!!!!!'4~~~~sldTE9/*''''*-.6I^cjqqqqqqqSC53/.0479>C*%!!!!!!!!!!!!!!!!!!!!!!!!!!!!!!!!!!!!!!!!!!!!!!!!!!!!!!!!!!!!!!!!!!!!!!!!!!!!!!!!!!!!!!!!!!!!!!!!!!!!!!!!!!!!!!!!!!!!!!!!!!!!!!!!!!!!!!!!!!!!",
"!!!!!!!!!!!!!!!!!!!!!!!!!!!!!!!!!!!!!!!!!!!!!!!!!!!!!!!!!!!!!!!!!!!!!!!!!!!!!!!!!!!!!!!!!!!!!!!!!!!!!!!!!!!!!!!!!'4~~~~tleYNB4-***'**-4Fafjqqqqqqq[PB;747=DDDD0*''''$$!!!!!!!!!!!!!!!!!!!!!!!!!!!!!!!!!!!!!!!!!!!!!!!!!!!!!!!!!!!!!!!!!!!!!!!!!!!!!!!!!!!!!!!!!!!!!!!!!!!!!!!!!!!!!!!!!!!!!!!!!!!!!!!!!!!!!!",
"!!!!!!!!!!!!!!!!!!!!!!!!!!!!!!!!!!!!!!!!!!!!!!!!!!!!!!!!!!!!!!!!!!!!!!!!!!!!!!!!!!!!!!!!!!!!!!!!!!!!!!!!!!!!!!!!!'4~~~~tni`WO;0-******0GfjjqqqqqqqfZTME>EKROKG>73333*$!!!!!!!!!!!!!!!!!!!!!!!!!!!!!!!!!!!!!!!!!!!!!!!!!!!!!!!!!!!!!!!!!!!!!!!!!!!!!!!!!!!!!!!!!!!!!!!!!!!!!!!!!!!!!!!!!!!!!!!!!!!!!!!!!!!!!!",
"!!!!!!!!!!!!!!!!!!!!!!!!!!!!!!!!!!!!!!!!!!!!!!!!!!!!!!!!!!!!!!!!!!!!!!!!!!!!!!!!!!!!!!!!!!!!!!!!!!!!!!!!!!!!!!!!!'4~~~~voida^F5.-*****0Gjjqqqqqqqqjkg`WQV^bYQJWexwvt3'!!!!!!!!!!!!!!!!!!!!!!!!!!!!!!!!!!!!!!!!!!!!!!!!!!!!!!!!!!!!!!!!!!!!!!!!!!!!!!!!!!!!!!!!!!!!!!!!!!!!!!!!!!!!!!!!!!!!!!!!!!!!!!!!!!!!!!",
"!!!!!!!!!!!!!!!!!!!!!!!!!!!!!!!!!!!!!!!!!!!!!!!!!!!!!!!!!!!!!!!!!!!!!!!!!!!!!!!!!!!!!!!!!!!!!!!!!!!!!!!!!!!!!!!!!'4~~~~voibZUE93.-*--/:Sjqqqqqqqqqjkid`W^bic^Walxwvs@-'%$!!!!!!!!!!!!!!!!!!!!!!!!!!!!!!!!!!!!!!!!!!!!!!!!!!!!!!!!!!!!!!!!!!!!!!!!!!!!!!!!!!!!!!!!!!!!!!!!!!!!!!!!!!!!!!!!!!!!!!!!!!!!!!!!!!!",
"!!!!!!!!!!!!!!!!!!!!!!!!!!!!!!!!!!!!!!!!!!!!!!!!!!!!!!!!!!!!!!!!!!!!!!!!!!!!!!!!!!!!!!!!!!!!!!!!!!!!!!!!!!!!!!!!!'4~~~~voi`VLE>93-*.6DP[qqqqqqqqqqqllidadinlkilsywtsYC4*%!!!!!!!!!!!!!!!!!!!!!!!!!!!!!!!!!!!!!!!!!!!!!!!!!!!!!!!!!!!!!!!!!!!!!!!!!!!!!!!!!!!!!!!!!!!!!!!!!!!!!!!!!!!!!!!!!!!!!!!!!!!!!!!!!!!",
"!!!!!!!!!!!!!!!!!!!!!!!!!!!!!!!!!!!!!!!!!!!!!!!!!!!!!!!!!!!!!!!!!!!!!!!!!!!!!!!!!!!!!!!!!!!!!!!!!!!!!!!!!!!!!!!!!'4~~~~voi^ODDEF7/-3Hjjjqqqqqqqqqqqponlilowxy~zzywtovx~4'!!!!!!!!!!!!!!!!!!!!!!!!!!!!!!!!!!!!!!!!!!!!!!!!!!!!!!!!!!!!!!!!!!!!!!!!!!!!!!!!!!!!!!!!!!!!!!!!!!!!!!!!!!!!!!!!!!!!!!!!!!!!!!!!!!!",
"!!!!!!!!!!!!!!!!!!!!!!!!!!!!!!!!!!!!!!!!!!!!!!!!!!!!!!!!!!!!!!!!!!!!!!!!!!!!!!!!!!!!!!!!!!!!!!!!!!!!!!!!!!!!!!!!!%*4D^~xsobVLLLM>60:Pjjqqqqqqqqjf]ffikkkpruuyzzyxvspsvxB-'$$!!!!!!!!!!!!!!!!!!!!!!!!!!!!!!!!!!!!!!!!!!!!!!!!!!!!!!!!!!!!!!!!!!!!!!!!!!!!!!!!!!!!!!!!!!!!!!!!!!!!!!!!!!!!!!!!!!!!!!!!!!!!!!!!",
"!!!!!!!!!!!!!!!!!!!!!!!!!!!!!!!!!!!!!!!!!!!!!!!!!!!!!!!!!!!!!!!!!!!!!!!!!!!!!!!!!!!!!!!!!!!!!!!!!!!!!!!!!!!!!!!!!$%'-D~yxvi^RTTTJ@8GXjqqqqqqqqqf[XX[afjqpuuu{zyxwrpnposW@0*$!!!!!!!!!!!!!!!!!!!!!!!!!!!!!!!!!!!!!!!!!!!!!!!!!!!!!!!!!!!!!!!!!!!!!!!!!!!!!!!!!!!!!!!!!!!!!!!!!!!!!!!!!!!!!!!!!!!!!!!!!!!!!!!!",
"!!!!!!!!!!!!!!!!!!!!!!!!!!!!!!!!!!!!!!!!!!!!!!!!!!!!!!!!!!!!!!!!!!!!!!!!!!!!!!!!!!!!!!!!!!!!!!!!!!!!!!!!!!!!!!!!!!!!'4~~~~ndYYYYUOKU]qqqqqqqqqq]XPRUX]jqquuuuyxuurpklnnnoo0'!!!!!!!!!!!!!!!!!!!!!!!!!!!!!!!!!!!!!!!!!!!!!!!!!!!!!!!!!!!!!!!!!!!!!!!!!!!!!!!!!!!!!!!!!!!!!!!!!!!!!!!!!!!!!!!!!!!!!!!!!!!!!!!!",
"!!!!!!!!!!!!!!!!!!!!!!!!!!!!!!!!!!!!!!!!!!!!!!!!!!!!!!!!!!!!!!!!!!!!!!!!!!!!!!!!!!!!!!!!!!!!!!!!!!!!!!!!!!!!!!!!!!!!'4~~~~slda^YVTOX]qqqqqqqj][SLGJJLS]jqqquuuuuurrpprssoo@-'$$!!!!!!!!!!!!!!!!!!!!!!!!!!!!!!!!!!!!!!!!!!!!!!!!!!!!!!!!!!!!!!!!!!!!!!!!!!!!!!!!!!!!!!!!!!!!!!!!!!!!!!!!!!!!!!!!!!!!!!!!!!!!!",
"!!!!!!!!!!!!!!!!!!!!!!!!!!!!!!!!!!!!!!!!!!!!!!!!!!!!!!!!!!!!!!!!!!!!!!!!!!!!!!!!!!!!!!!!!!!!!!!!!!!!!!!!!!!!!!!!!!!!'4~~~~wsngaYWVU[fqqqqqqq]SHGC??>=HSfjqqqquuuuuuuuwwvssW@3*$!!!!!!!!!!!!!!!!!!!!!!!!!!!!!!!!!!!!!!!!!!!!!!!!!!!!!!!!!!!!!!!!!!!!!!!!!!!!!!!!!!!!!!!!!!!!!!!!!!!!!!!!!!!!!!!!!!!!!!!!!!!!!",
"!!!!!!!!!!!!!!!!!!!!!!!!!!!!!!!!!!!!!!!!!!!!!!!!!!!!!!!!!!!!!!!!!!!!!!!!!!!!!!!!!!!!!!!!!!!!!!!!!!!!!!!!!!!!!!!!!!!!'4~~~~~~~ndYYYYafqqqqqqq[H=::9766?P]]jqqqqquuu{||||xvssso3'!!!!!!!!!!!!!!!!!!!!!!!!!!!!!!!!!!!!!!!!!!!!!!!!!!!!!!!!!!!!!!!!!!!!!!!!!!!!!!!!!!!!!!!!!!!!!!!!!!!!!!!!!!!!!!!!!!!!!!!!!!!!!",
"!!!!!!!!!!!!!!!!!!!!!!!!!!!!!!!!!!!!!!!!!!!!!!!!!!!!!!!!!!!!!!!!!!!!!!!!!!!!!!!!!!!!!!!!!!!!!!!!!!!!!!!!!!!!!!!!!!!!%*4D^~~~~sldccbfjqqqqjjfSJ?:7630/6?PS[]fjjqquuuuu{|ywvvvtB-''%%$$!!!!!!!!!!!!!!!!!!!!!!!!!!!!!!!!!!!!!!!!!!!!!!!!!!!!!!!!!!!!!!!!!!!!!!!!!!!!!!!!!!!!!!!!!!!!!!!!!!!!!!!!!!!!!!!!!!!!!!!",
"!!!!!!!!!!!!!!!!!!!!!!!!!!!!!!!!!!!!!!!!!!!!!!!!!!!!!!!!!!!!!!!!!!!!!!!!!!!!!!!!!!!!!!!!!!!!!!!!!!!!!!!!!!!!!!!!!!!!$%'-D~~~~wsnnnlkqqqqqj][UJ?963/.-07DHPS[[]jjqqquuuzyyxxxxZC400.'$!!!!!!!!!!!!!!!!!!!!!!!!!!!!!!!!!!!!!!!!!!!!!!!!!!!!!!!!!!!!!!!!!!!!!!!!!!!!!!!!!!!!!!!!!!!!!!!!!!!!!!!!!!!!!!!!!!!!!!!",
"!!!!!!!!!!!!!!!!!!!!!!!!!!!!!!!!!!!!!!!!!!!!!!!!!!!!!!!!!!!!!!!!!!!!!!!!!!!!!!!!!!!!!!!!!!!!!!!!!!!!!!!!!!!!!!!!!!!!!!!'4~~~~~~~zxwrqqqqqf[WPJ?83/--*-08?GHSS[]jqqqquuzzzzzzzzyypf].%!!!!!!!!!!!!!!!!!!!!!!!!!!!!!!!!!!!!!!!!!!!!!!!!!!!!!!!!!!!!!!!!!!!!!!!!!!!!!!!!!!!!!!!!!!!!!!!!!!!!!!!!!!!!!!!!!!!!!!!",
"!!!!!!!!!!!!!!!!!!!!!!!!!!!!!!!!!!!!!!!!!!!!!!!!!!!!!!!!!!!!!!!!!!!!!!!!!!!!!!!!!!!!!!!!!!!!!!!!!!!!!!!!!!!!!!!!!!!!!!!%*4D^~~~~zyxuuqjf][XUNG?70--***-.06?DHPS[]fjjqqrrrruuuuuupkf:-'$$!!!!!!!!!!!!!!!!!!!!!!!!!!!!!!!!!!!!!!!!!!!!!!!!!!!!!!!!!!!!!!!!!!!!!!!!!!!!!!!!!!!!!!!!!!!!!!!!!!!!!!!!!!!!!!!!!!!!",
"!!!!!!!!!!!!!!!!!!!!!!!!!!!!!!!!!!!!!!!!!!!!!!!!!!!!!!!!!!!!!!!!!!!!!!!!!!!!!!!!!!!!!!!!!!!!!!!!!!!!!!!!!!!!!!!!!!!!!!!$%'-D~~~~~zz{uuk[UUUUMF@6.-*'''**-/48?GHSX[]]fjjjjqqqurqqppnV@3*$!!!!!!!!!!!!!!!!!!!!!!!!!!!!!!!!!!!!!!!!!!!!!!!!!!!!!!!!!!!!!!!!!!!!!!!!!!!!!!!!!!!!!!!!!!!!!!!!!!!!!!!!!!!!!!!!!!!!",
"!!!!!!!!!!!!!!!!!!!!!!!!!!!!!!!!!!!!!!!!!!!!!!!!!!!!!!!!!!!!!!!!!!!!!!!!!!!!!!!!!!!!!!!!!!!!!!!!!!!!!!!!!!!!!!!!!!!!!!!!!!'4~~~~~~~~~~iYKMPTLF@4.**'%'''*-.36?DHPSX[]]]]]jjqqqqqqrxwvt3'!!!!!!!!!!!!!!!!!!!!!!!!!!!!!!!!!!!!!!!!!!!!!!!!!!!!!!!!!!!!!!!!!!!!!!!!!!!!!!!!!!!!!!!!!!!!!!!!!!!!!!!!!!!!!!!!!!!!",
"!!!!!!!!!!!!!!!!!!!!!!!!!!!!!!!!!!!!!!!!!!!!!!!!!!!!!!!!!!!!!!!!!!!!!!!!!!!!!!!!!!!!!!!!!!!!!!!!!!!!!!!!!!!!!!!!!!!!!!!!!!%*4D^~~~~~~~iZNMLKFC>60-**'''''**-/38=GHPPSSSSSSSSSSSX[[acff:-'%$!!!!!!!!!!!!!!!!!!!!!!!!!!!!!!!!!!!!!!!!!!!!!!!!!!!!!!!!!!!!!!!!!!!!!!!!!!!!!!!!!!!!!!!!!!!!!!!!!!!!!!!!!!!!!!!!!",
"!!!!!!!!!!!!!!!!!!!!!!!!!!!!!!!!!!!!!!!!!!!!!!!!!!!!!!!!!!!!!!!!!!!!!!!!!!!!!!!!!!!!!!!!!!!!!!!!!!!!!!!!!!!!!!!!!!!!!!!!!!$%'-D~~~~~~~l_RLIC@>>850-**''''''*-.06:?CGGHHHGG?<:??HHHPSS[H=4*%!!!!!!!!!!!!!!!!!!!!!!!!!!!!!!!!!!!!!!!!!!!!!!!!!!!!!!!!!!!!!!!!!!!!!!!!!!!!!!!!!!!!!!!!!!!!!!!!!!!!!!!!!!!!!!!!!",
"!!!!!!!!!!!!!!!!!!!!!!!!!!!!!!!!!!!!!!!!!!!!!!!!!!!!!!!!!!!!!!!!!!!!!!!!!!!!!!!!!!!!!!!!!!!!!!!!!!!!!!!!!!!!!!!!!!!!!!!!!!!!!'4~~~~~~~laULC;;;=;990.**'%%%%'**-0679==??=:740.02:<<<AHS[k~4'!!!!!!!!!!!!!!!!!!!!!!!!!!!!!!!!!!!!!!!!!!!!!!!!!!!!!!!!!!!!!!!!!!!!!!!!!!!!!!!!!!!!!!!!!!!!!!!!!!!!!!!!!!!!!!!!!",
"!!!!!!!!!!!!!!!!!!!!!!!!!!!!!!!!!!!!!!!!!!!!!!!!!!!!!!!!!!!!!!!!!!!!!!!!!!!!!!!!!!!!!!!!!!!!!!!!!!!!!!!!!!!!!!!!!!!!!!!!!!!!!'4~~~~~~~l`ULC;;;:;=>70.**'''%''**-/033566666789?DHHPPSX[fp~D-'%$!!!!!!!!!!!!!!!!!!!!!!!!!!!!!!!!!!!!!!!!!!!!!!!!!!!!!!!!!!!!!!!!!!!!!!!!!!!!!!!!!!!!!!!!!!!!!!!!!!!!!!!!!!!!!!",
"!!!!!!!!!!!!!!!!!!!!!!!!!!!!!!!!!!!!!!!!!!!!!!!!!!!!!!!!!!!!!!!!!!!!!!!!!!!!!!!!!!!!!!!!!!!!!!!!!!!!!!!!!!!!!!!!!!!!!!!!!!!!!'4~~~~~~~l`TLD=;:9;>C=85.**''%'''**---.//0034:EQUX^_acffkpu~^D4*%!!!!!!!!!!!!!!!!!!!!!!!!!!!!!!!!!!!!!!!!!!!!!!!!!!!!!!!!!!!!!!!!!!!!!!!!!!!!!!!!!!!!!!!!!!!!!!!!!!!!!!!!!!!!!!",
"!!!!!!!!!!!!!!!!!!!!!!!!!!!!!!!!!!!!!!!!!!!!!!!!!!!!!!!!!!!!!!!!!!!!!!!!!!!!!!!!!!!!!!!!!!!!!!!!!!!!!!!!!!!!!!!!!!!!!!!!!!!!!'4~~~~~~~l_TLD>;97;BJFDB5.**'%%'''****----.03@Ulnotwy~~~~~~~~~~4'!!!!!!!!!!!!!!!!!!!!!!!!!!!!!!!!!!!!!!!!!!!!!!!!!!!!!!!!!!!!!!!!!!!!!!!!!!!!!!!!!!!!!!!!!!!!!!!!!!!!!!!!!!!!!!",
"!!!!!!!!!!!!!!!!!!!!!!!!!!!!!!!!!!!!!!!!!!!!!!!!!!!!!!!!!!!!!!!!!!!!!!!!!!!!!!!!!!!!!!!!!!!!!!!!!!!!!!!!!!!!!!!!!!!!!!!!!!!!!'4~zxwxz~l_TLD>;8679;;990.**'''%%''****-.37;CQ_nllinrurpnlnlpswB-''''''''''''''%%%%%$$!!!!!!!!!!!!!!!!!!!!!!!!!!!!!!!!!!!!!!!!!!!!!!!!!!!!!!!!!!!!!!!!!!!!!!!!!!!!!!!!!!!!!!!!!",
"!!!!!!!!!!!!!!!!!!!!!!!!!!!!!!!!!!!!!!!!!!!!!!!!!!!!!!!!!!!!!!!!!!!!!!!!!!!!!!!!!!!!!!!!!!!!!!!!!!!!!!!!!!!!!!!!!!!!!!!!!!!!!'4~xtotx~l`ULD>974444444/-**'''%$%'''''-0>IRZbinid`fkqkfaaaadkpW@33333333330000/////'$!!!!!!!!!!!!!!!!!!!!!!!!!!!!!!!!!!!!!!!!!!!!!!!!!!!!!!!!!!!!!!!!!!!!!!!!!!!!!!!!!!!!!!!!!",
"!!!!!!!!!!!!!!!!!!!!!!!!!!!!!!!!!!!!!!!!!!!!!!!!!!!!!!!!!!!!!!!!!!!!!!!!!!!!!!!!!!!!!!!!!!!!!!!!!!!!!!!!!!!!!!!!!!!!!!!!!!!!!'4~wolow~laUMD>8530/.//0.-**'''%$%%''''*5R_l~xsoe_V[fqf[VVUU[ckntxvtoosssoooonieccaa/%!!!!!!!!!!!!!!!!!!!!!!!!!!!!!!!!!!!!!!!!!!!!!!!!!!!!!!!!!!!!!!!!!!!!!!!!!!!!!!!!!!!!!!!!!",
"!!!!!!!!!!!!!!!!!!!!!!!!!!!!!!!!!!!!!!!!!!!!!!!!!!!!!!!!!!!!!!!!!!!!!!!!!!!!!!!!!!!!!!!!!!!!!!!!!!!!!!!!!!!!!!!!!!!!!!!!!!!!!'4~xtotx~laUNG>83.00458;50.-*''%%%%''''-9Yaenlieca[]]f]][XXS[fkpprppnlkkic`___^YWYZ^7*%$$!!!!!!!!!!!!!!!!!!!!!!!!!!!!!!!!!!!!!!!!!!!!!!!!!!!!!!!!!!!!!!!!!!!!!!!!!!!!!!!!!!!!!!",
"!!!!!!!!!!!!!!!!!!!!!!!!!!!!!!!!!!!!!!!!!!!!!!!!!!!!!!!!!!!!!!!!!!!!!!!!!!!!!!!!!!!!!!!!!!!!!!!!!!!!!!!!!!!!!!!!!!!!!!!!!!!!!'4~zxwxz~laVOIB70-/49@JPD94.*''''%%%''*/Bcbaaa`_a]f]][]]f][X[fqqqqqqjjff[WQQQPONMQUYF7/'$!!!!!!!!!!!!!!!!!!!!!!!!!!!!!!!!!!!!!!!!!!!!!!!!!!!!!!!!!!!!!!!!!!!!!!!!!!!!!!!!!!!!!!",
"!!!!!!!!!!!!!!!!!!!!!!!!!!!!!!!!!!!!!!!!!!!!!!!!!!!!!!!!!!!!!!!!!!!!!!!!!!!!!!!!!!!!!!!!!!!!!!!!!!!!!!!!!!!!!!!!!!!!!!!!!!!!!'4~~~~~~~naVOJC7.-/7DP[jXL>0*'''''%$''-4Kld^VVVV[fqf[V[fqf[X[fqqqjjjjf]]SLCCCCCCCJPVY_c/%!!!!!!!!!!!!!!!!!!!!!!!!!!!!!!!!!!!!!!!!!!!!!!!!!!!!!!!!!!!!!!!!!!!!!!!!!!!!!!!!!!!!!!",
"!!!!!!!!!!!!!!!!!!!!!!!!!!!!!!!!!!!!!!!!!!!!!!!!!!!!!!!!!!!!!!!!!!!!!!!!!!!!!!!!!!!!!!!!!!!!!!!!!!!!!!!!!!!!!!!!!!!!!!!!!!$%'-D~~~~~~~ncYRKD93.5>PX]j]SP;0--***''*-0;Odca[[[[]jqj][]jqj][]jjjf]]][[XSPMJ;3.036>KWZ_c8*%%%$$$$%%&$$!!!!!!!!!!!!!!!!!!!!!!!!!!!!!!!!!!!!!!!!!!!!!!!!!!!!!!!!!!!!!!!!!!!!!!!!!!",
"!!!!!!!!!!!!!!!!!!!!!!!!!!!!!!!!!!!!!!!!!!!!!!!!!!!!!!!!!!!!!!!!!!!!!!!!!!!!!!!!!!!!!!!!!!!!!!!!!!!!!!!!!!!!!!!!!!!!!!!!!!%*4D^~~~~~~~oe^UME=84=L[]jjj][PC83.---*.4>JT^a]ffffjjqjjfjjqjjffjj]][XXWTPLMOQ7-'*-.6EYZ`bL8/-*''***-0*$!!!!!!!!!!!!!!!!!!!!!!!!!!!!!!!!!!!!!!!!!!!!!!!!!!!!!!!!!!!!!!!!!!!!!!!!!!",
"!!!!!!!!!!!!!!!!!!!!!!!!!!!!!!!!!!!!!!!!!!!!!!!!!!!!!!!!!!!!!!!!!!!!!!!!!!!!!!!!!!!!!!!!!!!!!!!!!!!!!!!!!!!!!!!!!!!!!!!!!!'4~~~~~~~~~~siaWOFC>=KXjjqqqqqf[XD6./04;JVVVV[fqqqqqqqqqqqqqqqqjjf]XUTPNKGBJQW3*%''*0@Y^`bbccK7-.03?Sq0&!!!!!!!!!!!!!!!!!!!!!!!!!!!!!!!!!!!!!!!!!!!!!!!!!!!!!!!!!!!!!!!!!!!!!!!!!!",
"!!!!!!!!!!!!!!!!!!!!!!!!!!!!!!!!!!!!!!!!!!!!!!!!!!!!!!!!!!!!!!!!!!!!!!!!!!!!!!!!!!!!!!!!!!!!!!!!!!!!!!!!!!!!!!!!!!!!!!!$%'-Czz~~~~~~~~siaYQJB=8DP]]]ffff]][PC89:=ENVWX[]jqqqqqqqqqqqqqqjjf]]XUPPONMLKKLM0*%''*-5EOWbYQJ=60357GXq0&!!!!!!!!!!!!!!!!!!!!!!!!!!!!!!!!!!!!!!!!!!!!!!!!!!!!!!!!!!!!!!!!!!!!!!!!!!",
"!!!!!!!!!!!!!!!!!!!!!!!!!!!!!!!!!!!!!!!!!!!!!!!!!!!!!!!!!!!!!!!!!!!!!!!!!!!!!!!!!!!!!!!!!!!!!!!!!!!!!!!!!!!!!!!!!!!!!!!%*3CZxyz~~~~~~~sibYTLB;6=HXX[[[[[]]f[SHLLLPTVX[]fjqqqqqqqqqqqqqjjf][[UPJLLNPQRMIC.'%%''*.7CRdR@555579=L[q0&!!!!!!!!!!!!!!!!!!!!!!!!!!!!!!!!!!!!!!!!!!!!!!!!!!!!!!!!!!!!!!!!!!!!!!!!!!",
"!!!!!!!!!!!!!!!!!!!!!!!!!!!!!!!!!!!!!!!!!!!!!!!!!!!!!!!!!!!!!!!!!!!!!!!!!!!!!!!!!!!!!!!!!!!!!!!!!!!!!!!!!!!!!!!!!!!!!!!'3wwwwxz~~~~~~~sicZUNB838DPTUVVVV[fqjj]][[XYV[]jjjqqqqqqqqqqqqqjf][[XPLCGKNRVYOD9-'%%''**.9LdJ6-/4:>BET[q0&!!!!!!!!!!!!!!!!!!!!!!!!!!!!!!!!!!!!!!!!!!!!!!!!!!!!!!!!!!!!!!!!!!!!!!!!!!",
"!!!!!!!!!!!!!!!!!!!!!!!!!!!!!!!!!!!!!!!!!!!!!!!!!!!!!!!!!!!!!!!!!!!!!!!!!!!!!!!!!!!!!!!!!!!!!!!!!!!!!!!!!!!!!!!!!!!!!!!'3wwwwxz~~~~~~~sld^VOE=69=?JPWWWV[fqjjj][XXXX]]jjqqqqqqqqqqqqjj][XSUUPLIJKLMPRLE@.*%'''*-.5CVE8058>CILW]q0&!!!!!!!!!!!!!!!!!!!!!!!!!!!!!!!!!!!!!!!!!!!!!!!!!!!!!!!!!!!!!!!!!!!!!!!!!!",
"!!!!!!!!!!!!!!!!!!!!!!!!!!!!!!!!!!!!!!!!!!!!!!!!!!!!!!!!!!!!!!!!!!!!!!!!!!!!!!!!!!!!!!!!!!!!!!!!!!!!!!!!!!!!!!!!!!!!!!!'3wwwwxz~~~~~~~sld_WRJ@:887?HXXWV[fqqjj][YX[[]jjqqqqqqqqqqqqjjf[SLMPPPMLKJJJJKJIE0*'''**-.4;IB=8;@DJOUXfq0&!!!!!!!!!!!!!!!!!!!!!!!!!!!!!!!!!!!!!!!!!!!!!!!!!!!!!!!!!!!!!!!!!!!!!!!!!!",
"!!!!!!!!!!!!!!!!!!!!!!!!!!!!!!!!!!!!!!!!!!!!!!!!!!!!!!!!!!!!!!!!!!!!!!!!!!!!!!!!!!!!!!!!!!!!!!!!!!!!!!!!!!!!!!!!!!!!!!!'3wwwwxz~~~~~~~sld`YULG?9508GSXWV[fqqqj][VX[]jjqqqqqqqqqqqqqjf]SL@EJLMOPLJGDCBEJL5-'***--.06;>BFIJKOVZafq0&!!!!!!!!!!!!!!!!!!!!!!!!!!!!!!!!!!!!!!!!!!!!!!!!!!!!!!!!!!!!!!!!!!!!!!!!!!",
"!!!!!!!!!!!!!!!!!!!!!!!!!!!!!!!!!!!!!!!!!!!!!!!!!!!!!!!!!!!!!!!!!!!!!!!!!!!!!!!!!!!!!!!!!!!!!!!!!!!!!!!!!!!!!!!!!!!!!!!'3xxwwxz~~~~~~~sld^WQLG?=86:?GHUX[]ffjj][VX]fjjqqqqqqqqqqjj]SG:63/48>CILLKKIDBBBB5.--./047=DKNQTUVVY^acfj:-%$$!!!!!!!!!!!!!!!!!!!!!!!!!!!!!!!!!!!!!!!!!!!!!!!!!!!!!!!!!!!!!!!!!!!!!!!",
"!!!!!!!!!!!!!!!!!!!!!!!!!!!!!!!!!!!!!!!!!!!!!!!!!!!!!!!!!!!!!!!!!!!!!!!!!!!!!!!!!!!!!!!!!!!!!!!!!!!!!!!!!!!!!!!!!!!!!!!'4zyxwxz~~~~~~~skd^UOLGD@>:::8DP[[[[]]]]XV[]jjjqqqqqqqqqqj[X?3--**-/6;@JKMOKG@>;864357;@EKQW^_aabbbdegeefN8/'$!!!!!!!!!!!!!!!!!!!!!!!!!!!!!!!!!!!!!!!!!!!!!!!!!!!!!!!!!!!!!!!!!!!!!!!",
"!!!!!!!!!!!!!!!!!!!!!!!!!!!!!!!!!!!!!!!!!!!!!!!!!!!!!!!!!!!!!!!!!!!!!!!!!!!!!!!!!!!!!!!!!!!!!!!!!!!!!!!!!!!!!!!!!!!!!!!'4~zxwxz~~~~~~~sicZTLKJGGED:60:H][XVX[][XV[]jjjqqqqqqqqqq]XP4*''''*-05;EKOUMI@:737=DJOTY`dhmoosssoooonieccaa/%!!!!!!!!!!!!!!!!!!!!!!!!!!!!!!!!!!!!!!!!!!!!!!!!!!!!!!!!!!!!!!!!!!!!!!!",
"!!!!!!!!!!!!!!!!!!!!!!!!!!!!!!!!!!!!!!!!!!!!!!!!!!!!!!!!!!!!!!!!!!!!!!!!!!!!!!!!!!!!!!!!!!!!!!!!!!!!!!!!!!!!!!!!!!!!!!!'3uuwwxyzzzzz~~oe_YTNMLLKKKB:6:CHPTUX]j][V[]jjqqqqqqqqqqq]SH3*''%%'**-06;CLKIE>:68;@EKOUY`adeeddca`___^YWYZ^7*%$$!!!!!!!!!!!!!!!!!!!!!!!!!!!!!!!!!!!!!!!!!!!!!!!!!!!!!!!!!!!!!!!!!!!!",
"!!!!!!!!!!!!!!!!!!!!!!!!!!!!!!!!!!!!!!!!!!!!!!!!!!!!!!!!!!!!!!!!!!!!!!!!!!!!!!!!!!!!!!!!!!!!!!!!!!!!!!!!!!!!!!!!!!!!!!!'2qruwwxxxxxyz~ndYVTQQPOPPPJB;:::?HS[]j][V[fjqqqqqqqqqqjj[SH0*'%$$%''*-.39DGIKD>:;;=@EKOUYYZ^ZYWVTQQQPONMQUYF7/'$!!!!!!!!!!!!!!!!!!!!!!!!!!!!!!!!!!!!!!!!!!!!!!!!!!!!!!!!!!!!!!!!!!!!",
"!!!!!!!!!!!!!!!!!!!!!!!!!!!!!!!!!!!!!!!!!!!!!!!!!!!!!!!!!!!!!!!!!!!!!!!!!!!!!!!!!!!!!!!!!!!!!!!!!!!!!!!!!!!!!!!!!!!!!!!&0qqrwwwwwwwxz~laUUUTTTTUVVQJC:507DS[]qf[V[fqqqqqqqqqqqjj[PG0*'%$#$$%'**.3=CJNJE@=;8=@EKOUUTTROMKGCCCCCCCJPVY_c/%!!!!!!!!!!!!!!!!!!!!!!!!!!!!!!!!!!!!!!!!!!!!!!!!!!!!!!!!!!!!!!!!!!!!",
"!!!!!!!!!!!!!!!!!!!!!!!!!!!!!!!!!!!!!!!!!!!!!!!!!!!!!!!!!!!!!!!!!!!!!!!!!!!!!!!!!!!!!!!!!!!!!!!!!!!!!!!!!!!!!!!!!!!!!!!&0qqpoooostwxxynf[XUOQQRTUVQMI@:68<?S[qf[V[fqqqqqqqqqqjjj[PC3-''%$$$%%'**-37>IGEC>;87768;BCGJIDB@>;===>@BGKOUYa7*%$$!!!!!!!!!!!!!!!!!!!!!!!!!!!!!!!!!!!!!!!!!!!!!!!!!!!!!!!!!!!!!!!!!",
"!!!!!!!!!!!!!!!!!!!!!!!!!!!!!!!!!!!!!!!!!!!!!!!!!!!!!!!!!!!!!!!!!!!!!!!!!!!!!!!!!!!!!!!!!!!!!!!!!!!!!!!!!!!!!!!!!!!!!!!&0qjkiilloswwwwpkf[ULMOORUVRNKFB=:86ASqf[V[fqqqqqqqqqqjjjXH?5.*''$$$$%%'**-07BCDG@;730./047;@=;9877789;>BCGJOV^I6.'$!!!!!!!!!!!!!!!!!!!!!!!!!!!!!!!!!!!!!!!!!!!!!!!!!!!!!!!!!!!!!!!!!",
"!!!!!!!!!!!!!!!!!!!!!!!!!!!!!!!!!!!!!!!!!!!!!!!!!!!!!!!!!!!!!!!!!!!!!!!!!!!!!!!!!!!!!!!!!!!!!!!!!!!!!!!!!!!!!!!!!!!!!!!&0qjfbddglowvvtpqq]UJKLNQTVTQNMKJ=2/<Sqf[V[fqqqqqqqqqqjjjXJ=73.*'%$$$$%%''*-0=@DJB;70-*--.0487533334568=@BBCKTZYYY.%!!!!!!!!!!!!!!!!!!!!!!!!!!!!!!!!!!!!!!!!!!!!!!!!!!!!!!!!!!!!!!!!!",
"!!!!!!!!!!!!!!!!!!!!!!!!!!!!!!!!!!!!!!!!!!!!!!!!!!!!!!!!!!!!!!!!!!!!!!!!!!!!!!!!!!!!!!!!!!!!!!!!!!!!!!!!!!!!!!!!!!!!!!!&0qjkiigdilnoswurqfWLMOQTUVUTRQNLC:2?Sqf[V[fqqqqqqqqqqjj]XL@=:8.*''%$$$%%''*-368=840.-*--/37;;;;=>>BDIJKLKJJQYc_ZW3*%$#!!!!!!!!!!!!!!!!!!!!!!!!!!!!!!!!!!!!!!!!!!!!!!!!!!!!!!!!!!!!!!",
"!!!!!!!!!!!!!!!!!!!!!!!!!!!!!!!!!!!!!!!!!!!!!!!!!!!!!!!!!!!!!!!!!!!!!!!!!!!!!!!!!!!!!!!!!!!!!!!!!!!!!!!!!!!!!!!!!!!!!!!&0qqpsnidddelsyxuufYNORUUVVVVVTQOJC?H[qf[V[fqqqqqqqqqjjf]XPDGGJ80-*'%%$$%%''*-/363/.----.048>CGKMQTVY^ZYWUQNWclc^V=0*'$!!!!!!!!!!!!!!!!!!!!!!!!!!!!!!!!!!!!!!!!!!!!!!!!!!!!!!!!!!!!!!",
"!!!!!!!!!!!!!!!!!!!!!!!!!!!!!!!!!!!!!!!!!!!!!!!!!!!!!!!!!!!!!!!!!!!!!!!!!!!!!!!!!!!!!!!!!!!!!!!!!!!!!!!!!!!!!!!!!!!!!!!&0qqu~siba`_go~~~~l^QRUVVVVWWYVUQOMLU]qf[V[fqqqqqqqqjjj][XPJPW_L=3-*'%$$$%%'**--0.------/37;CKRY_dintyoic_YU_iwi_UMF@*%!!!!!!!!!!!!!!!!!!!!!!!!!!!!!!!!!!!!!!!!!!!!!!!!!!!!!!!!!!!!!!",
"!!!!!!!!!!!!!!!!!!!!!!!!!!!!!!!!!!!!!!!!!!!!!!!!!!!!!!!!!!!!!!!!!!!!!!!!!!!!!!!!!!!!!!!!!!!!!!!!!!!!!!!!!!!!!!!!!!!!!!!&0qqponigbb``_^`bda^XWVUUVVWYZVRNNNNX]jf][]jqqqjqqqqjjf][XUPUX]UJ=0-*'%%%%%%''**-----..047:=@LWcgloswztoiec_cipicYTKC0*'%$!!!!!!!!!!!!!!!!!!!!!!!!!!!!!!!!!!!!!!!!!!!!!!!!!!!!!!!!!!!",
"!!!!!!!!!!!!!!!!!!!!!!!!!!!!!!!!!!!!!!!!!!!!!!!!!!!!!!!!!!!!!!!!!!!!!!!!!!!!!!!!!!!!!!!!!!!!!!!!!!!!!!!!!!!!!!!!!!!!!!!&0qjkhhhmhb`VNEKNRW[][WRTUVWZ^VPLLNPX]jjffjjqqjjjjqqjj][XWWUX[fXUL:0-*'%%%%%%'''**-./0369>>>>L^nosvwyzxvsolkiikiccWNE>84*%!!!!!!!!!!!!!!!!!!!!!!!!!!!!!!!!!!!!!!!!!!!!!!!!!!!!!!!!!!!",
"!!!!!!!!!!!!!!!!!!!!!!!!!!!!!!!!!!!!!!!!!!!!!!!!!!!!!!!!!!!!!!!!!!!!!!!!!!!!!!!!!!!!!!!!!!!!!!!!!!!!!!!!!!!!!!!!!!!!!!!&0qjc`bhmmgbO>57;@P[q]XORUVYZ_VPGLPTYckjjqqqqjjjjjqjjj][UWX[]]f]][L=3-*''%$$$%%%'*-/369=BIC>;Nb~~~~~~~~~~zyxoiceii^RIVg~4'!!!!!!!!!!!!!!!!!!!!!!!!!!!!!!!!!!!!!!!!!!!!!!!!!!!!!!!!!!!",
"!!!!!!!!!!!!!!!!!!!!!!!!!!!!!!!!!!!!!!!!!!!!!!!!!!!!!!!!!!!!!!!!!!!!!!!!!!!!!!!!!!!!!!!!!!!!!!!!!!!!!!!!!!!!!!!!!!!!$$&-<qjfbbghgbbWMB@>>L[q[L>DLRVY^WPLLPTYckjf]jjqqjjjjqjjf]XUX[]]]]][XPJ?5.**'%%%%%''*.7;@FKOTNJCUe~~~~~~~~~~zyxng_cei_VNZiz4'!!!!!!!!!!!!!!!!!!!!!!!!!!!!!!!!!!!!!!!!!!!!!!!!!!!!!!!!!!!",
"!!!!!!!!!!!!!!!!!!!!!!!!!!!!!!!!!!!!!!!!!!!!!!!!!!!!!!!!!!!!!!!!!!!!!!!!!!!!!!!!!!!!!!!!!!!!!!!!!!!!!!!!!!!!!!!!!!!!$*0<Sqjfcbbbbbg`YVKD;L[qSC49BMRVZWTMPPRXcpf][]jqqqjjjjj]][XW[]f]]][XWUUSD80-*''%%''*-4CKQVY^aYTLYi~~~~~~~~~~zyyncY_cicZU_ly4'!!!!!!!!!!!!!!!!!!!!!!!!!!!!!!!!!!!!!!!!!!!!!!!!!!!!!!!!!!!",
"!!!!!!!!!!!!!!!!!!!!!!!!!!!!!!!!!!!!!!!!!!!!!!!!!!!!!!!!!!!!!!!!!!!!!!!!!!!!!!!!!!!!!!!!!!!!!!!!!!!!!!!!!!!!!!!!!!!!&0qqqqjfdb_Z`bhhhmWI9JXqP8.3;INUZWUPPPRXfpf[S[]qqqqqqjf][XXX[]jf]][XUX]j[OB3-*''%'**/;UYaiilne_Val~~~~~~~~~~zzylaV^cic_Zclx3'!!!!!!!!!!!!!!!!!!!!!!!!!!!!!!!!!!!!!!!!!!!!!!!!!!!!!!!!!!!",
"!!!!!!!!!!!!!!!!!!!!!!!!!!!!!!!!!!!!!!!!!!!!!!!!!!!!!!!!!!!!!!!!!!!!!!!!!!!!!!!!!!!!!!!!!!!!!!!!!!!!!!!!!!!!!!!!!$$&*8]fjkkdc`^ZZZ^`bbYQIT]qS?058=EOYWUUUUU_fpf]X[[]]jqqqqf[SXX[]]j]][XXX[]j[UK90-*''**.5DY^acilpic^do~~~~~~~~~~zzzlaW^ciecaacc9-'%$!!!!!!!!!!!!!!!!!!!!!!!!!!!!!!!!!!!!!!!!!!!!!!!!!!!!!!!!",
"!!!!!!!!!!!!!!!!!!!!!!!!!!!!!!!!!!!!!!!!!!!!!!!!!!!!!!!!!!!!!!!!!!!!!!!!!!!!!!!!!!!!!!!!!!!!!!!!!!!!!!!!!!!!!!!!!$*08GSZdmgda_ZYVTQVY`^YW_fqSD6665=KVWWWWXXafpkf[XSS[]qqqq]XPSX]]fj][XX[[]fj]XRD93.*'*.3;M`aaaelplecis~~~~~~~~~zzzzncW_ciiie_WRF:4*%!!!!!!!!!!!!!!!!!!!!!!!!!!!!!!!!!!!!!!!!!!!!!!!!!!!!!!!!",
"!!!!!!!!!!!!!!!!!!!!!!!!!!!!!!!!!!!!!!!!!!!!!!!!!!!!!!!!!!!!!!!!!!!!!!!!!!!!!!!!!!!!!!!!!!!!!!!!!!!!!!!!!!!!!!!!!&0q]SJU`mgb_^ZYRMEKRY`bhmjq[L=7407DUWY^^^[ckpkffXPHS]qqqq]SLU[]]fj]XUX]ffjj][YQJ@4.*-09IVeca_dkpnlint~~~~~~~~zzz~~ncY_cikkl^OBTd~4'!!!!!!!!!!!!!!!!!!!!!!!!!!!!!!!!!!!!!!!!!!!!!!!!!!!!!!!!",
"!!!!!!!!!!!!!!!!!!!!!!!!!!!!!!!!!!!!!!!!!!!!!!!!!!!!!!!!!!!!!!!!!!!!!!!!!!!!!!!!!!!!!!!!!!!!!!!!!!!!!!!!!!!!!!!!!%.]XUNWbmhba`__RI=EKRZbmmkjaVMB947=DLRYZ__fkpkkf[XSS[]fjj]XMU[]]]]]XUX]ff]][XWRKE5.*.5BNWdba_dkpnlknw~~~~nbWVUTRONJD@N^nnpodZR_l~4'!!!!!!!!!!!!!!!!!!!!!!!!!!!!!!!!!!!!!!!!!!!!!!!!!!!!!!!!",
"!!!!!!!!!!!!!!!!!!!!!!!!!!!!!!!!!!!!!!!!!!!!!!!!!!!!!!!!!!!!!!!!!!!!!!!!!!!!!!!!!!!!!!!!!!!!!!!!!!!!!!!!!!!!!!!!!%-SUTRYbmhdaaccRB7=EMVbmmmhdb^OB7777@LWZ_cfkppkff][[XX[fkaXPS[f]]][XU[]j]][[XURNK9/-09MTZcba`dlspnlpw~~~zaM;987530000>Wvwwwoidlsz4'!!!!!!!!!!!!!!!!!!!!!!!!!!!!!!!!!!!!!!!!!!!!!!!!!!!!!!!!",
"!!!!!!!!!!!!!!!!!!!!!!!!!!!!!!!!!!!!!!!!!!!!!!!!!!!!!!!!!!!!!!!!!!!!!!!!!!!!!!!!!!!!!!!!!!!!!!!!!!!!!!!!!!!!!!!!!%-JNRW^bmhgbdehR>47>ERbmmmhmmo^M=7407DUYadkkppkkkkf[XPXaiaXPX[f]]][XX[]j][XXUURQN;0-3BWZ_baa`dlsopnsw~~zzV;.----*****4Q~~~~~zzzzz4'!!!!!!!!!!!!!!!!!!!!!!!!!!!!!!!!!!!!!!!!!!!!!!!!!!!!!!!!",
"!!!!!!!!!!!!!!!!!!!!!!!!!!!!!!!!!!!!!!!!!!!!!!!!!!!!!!!!!!!!!!!!!!!!!!!!!!!!!!!!!!!!!!!!!!!!!!!!!!!!!!!!!!!!!!!!!%-SWWYYYW^`bbgiWK;BKQWbmmmhmmmbTI=606;EOWcfkpkfffff][X[cgaXTX[f]]][XX[]j][XXUUOKE93.5DY^adca_diolicls~vniQ=0.---***--5E_dltsooost3'!!!!!!!!!!!!!!!!!!!!!!!!!!!!!!!!!!!!!!!!!!!!!!!!!!!!!!!!",
"!!!!!!!!!!!!!!!!!!!!!!!!!!!!!!!!!!!!!!!!!!!!!!!!!!!!!!!!!!!!!!!!!!!!!!!!!!!!!!!!!!!!!!!!!!!!!!!!!!!!!!!!!!!!!!!!!%/]a`^VQKQWbbhm`TKQVZ`bhhhmmmmbZTE90468DRafkpjf[]ffffffdd_XUX]f]][[[[]]j][XUUTLD=73.7IZadida^cinhaZdn~ndYL>60.--**-./5;FR_liieilo0'!!!!!!!!!!!!!!!!!!!!!!!!!!!!!!!!!!!!!!!!!!!!!!!!!!!!!!!!",
"!!!!!!!!!!!!!!!!!!!!!!!!!!!!!!!!!!!!!!!!!!!!!!!!!!!!!!!!!!!!!!!!!!!!!!!!!!!!!!!!!!!!!!!!!!!!!!!!!!!!!!!!!!!!!!!!!&2qkb`RI=IR^bhmgbY`bhgbbghmmmhhbbN=3300:L_ckpf]X[]fklrlea_XUX]f]][[[[]fj]XUUTTI>75309K_bglga^bgncZR_l~iYLF@;4.*---.04555BTeca^aei0'!!!!!!!!!!!!!!!!!!!!!!!!!!!!!!!!!!!!!!!!!!!!!!!!!!!!!!!!",
"!!!!!!!!!!!!!!!!!!!!!!!!!!!!!!!!!!!!!!!!!!!!!!!!!!!!!!!!!!!!!!!!!!!!!!!!!!!!!!!!!!!!!!!!!!!!!!!!!!!!!!!!!!!!!!!!!'2qcTE>95;EQYbmmgbbghbb`bbgghhhgbVI;8539FU^fpj][[[]ffkfda^XUX]f]][[]]]fj]XUTPL@73468BQ_adida^binic_go~laVME>94/..-/499:;JWidb_adi;-'%$!!!!!!!!!!!!!!!!!!!!!!!!!!!!!!!!!!!!!!!!!!!!!!!!!!!!!",
"!!!!!!!!!!!!!!!!!!!!!!!!!!!!!!!!!!!!!!!!!!!!!!!!!!!!!!!!!!!!!!!!!!!!!!!!!!!!!!!!!!!!!!!!!!!!!!!!!!!!!!!!!!!!!!!!!'3uXC300/4;ERbmmmhhhgb`^^`bbghggb^VMB948@KUcpkf][[[[]ffcaZWTX]j]][]]]]]f]XXPKD93.39EMV^acdb`^cinnllow~og_VLC@=950.39CCDDQ^lgc`acdR@4*%!!!!!!!!!!!!!!!!!!!!!!!!!!!!!!!!!!!!!!!!!!!!!!!!!!!!!",
"!!!!!!!!!!!!!!!!!!!!!!!!!!!!!!!!!!!!!!!!!!!!!!!!!!!!!!!!!!!!!!!!!!!!!!!!!!!!!!!!!!!!!!!!!!!!!!!!!!!!!!!!!!!!!!!!!'3uT6----/4;K^mmoommgb_YYZZ`bggggbbbO>57;@P[pkkf][SX[[[[aXUPX]j]][]]]]]]]XXPG=5/-3>UWZ^_aaa_^ciosx~~~~vni^RFKMQ@7/5>MMNNWbnidaabcis~4'!!!!!!!!!!!!!!!!!!!!!!!!!!!!!!!!!!!!!!!!!!!!!!!!!!!!!",
"!!!!!!!!!!!!!!!!!!!!!!!!!!!!!!!!!!!!!!!!!!!!!!!!!!!!!!!!!!!!!!!!!!!!!!!!!!!!!!!!!!!!!!!!!!!!!!!!!!!!!!!!!!!!!!!!!'3{X?20.-.03BVmmmmhgdaa`_^^^`bbbbbbbWMB@>>GPX[af][[[[[[[[[XUX]j]][]]f]]]][XPG?8509JYZ^^_aaa`_dlsvy~~~~vni^TJKOQB7/49DEFIUbsoligdcins3'!!!!!!!!!!!!!!!!!!!!!!!!!!!!!!!!!!!!!!!!!!!!!!!!!!!!!",
"!!!!!!!!!!!!!!!!!!!!!!!!!!!!!!!!!!!!!!!!!!!!!!!!!!!!!!!!!!!!!!!!!!!!!!!!!!!!!!!!!!!!!!!!!!!!!!!!!!!!!!!!!!!!!!!!!'4{cP?70....8Qnmmhec]ccdb_^^^^`bbbghbZVKD;>@DPXffff][[[[[[XX[]jf]]]]jf]][[[TJ?>;9ERaa`_``aa``envxy~~~~vni_UKNQRD7/37;=@BRcwvsslicdgi0'!!!!!!!!!!!!!!!!!!!!!!!!!!!!!!!!!!!!!!!!!!!!!!!!!!!!!",
"!!!!!!!!!!!!!!!!!!!!!!!!!!!!!!!!!!!!!!!!!!!!!!!!!!!!!!!!!!!!!!!!!!!!!!!!!!!!!!!!!!!!!!!!!!!!!!!!!!!!!!!!!!!!!!!!!'4~n]SG6.--*3Knkeda][]eleb^^ZY^^`bhmmmmWI9876@Tcfkkf[X[[[[[X[]jf]]]fjf]][[[SLCDFJT^gda_``aaaaioyzz~~~~vni`VMQRVD7/04579=Oc~~~~siccbb/%!!!!!!!!!!!!!!!!!!!!!!!!!!!!!!!!!!!!!!!!!!!!!!!!!!!!!",
"!!!!!!!!!!!!!!!!!!!!!!!!!!!!!!!!!!!!!!!!!!!!!!!!!!!!!!!!!!!!!!!!!!!!!!!!!!!!!!!!!!!!!!!!!!!!!!!!!!!!!!!!!!!!!!!!!'4~rj]H?30.-6Mnlkf][Xaengb^^^Z^^^bbhhhm`RI@;7=DNVakf][]]]]]]]fjf]]]fjf][[[[SLDILOV^ca`_`abaaaioyzz~~~~vni`VNQUWI90457777CTbis~slda_Z7-'%$!!!!!!!!!!!!!!!!!!!!!!!!!!!!!!!!!!!!!!!!!!!!!!!!!!",
"!!!!!!!!!!!!!!!!!!!!!!!!!!!!!!!!!!!!!!!!!!!!!!!!!!!!!!!!!!!!!!!!!!!!!!!!!!!!!!!!!!!!!!!!!!!!!!!!!!!!!!!!!!!!!!!!!'4|upjXH:60.8Qnlkj][W_enib^^^^^ZZ^`bghmb^WK@789:IWiffff]]]fffjjf]]]fjf][[[]SPGLQVWZ___^`accbaiozz~~~~~vni`VNRVYK>57797539COZi~tneaZVI;4*%!!!!!!!!!!!!!!!!!!!!!!!!!!!!!!!!!!!!!!!!!!!!!!!!!!",
"!!!!!!!!!!!!!!!!!!!!!!!!!!!!!!!!!!!!!!!!!!!!!!!!!!!!!!!!!!!!!!!!!!!!!!!!!!!!!!!!!!!!!!!!!!!!!!!!!!!!!!!!!!!!!!!!!'4|{uu]SG<60=Uopqq]XTZeoibZ^^_^ZYZ^^bhmmmhVE8530:Oeikkff]fjkjjjf]]]fjf][[[]XPGMU^ZZZZ^^abddcbiszz~~~~~vni`WOTWZQD999963037=Ob~tni`WO^i~4'!!!!!!!!!!!!!!!!!!!!!!!!!!!!!!!!!!!!!!!!!!!!!!!!!!",
"!!!!!!!!!!!!!!!!!!!!!!!!!!!!!!!!!!!!!!!!!!!!!!!!!!!!!!!!!!!!!!!!!!!!!!!!!!!!!!!!!!!!!!!!!!!!!!!!!!!!!!!!!!!!!!!!!'4|{uuj[SG=6DXppqq]XT^hsnidca_^ZYZZ^bgmmmm^QE;608EUZckjfffjpjjjf][]fj]]X[[]SL?IOWWYZZZ^adiiiintz~~~~~~vni`WOUW`N>540/.---.0@YzvsnaUKWi~4'!!!!!!!!!!!!!!!!!!!!!!!!!!!!!!!!!!!!!!!!!!!!!!!!!!",
"!!!!!!!!!!!!!!!!!!!!!!!!!!!!!!!!!!!!!!!!!!!!!!!!!!!!!!!!!!!!!!!!!!!!!!!!!!!!!!!!!!!!!!!!!!!!!!!!!!!!!!!!!!!!!!!!!'3{{{{pf]SG?M[pqqqfZT^iwtsoid_^^ZZZZ`bhmmmg^VE937=DQ_kkjfjpppjjf][]fj][X[[]SG:BJQUWZZZZagnnostx~~~~~~~vni`WOUZbM90.--*****-6QxwvtbRCUd~4'!!!!!!!!!!!!!!!!!!!!!!!!!!!!!!!!!!!!!!!!!!!!!!!!!!",
"!!!!!!!!!!!!!!!!!!!!!!!!!!!!!!!!!!!!!!!!!!!!!!!!!!!!!!!!!!!!!!!!!!!!!!!!!!!!!!!!!!!!!!!!!!!!!!!!!!!!!!!!!!!!!!!!!'3u{{zuqq]SJS]qqqqfZT`lyzz~oi`_^ZZZY^bghmommhR>3568FWkkkkkpppqjf]X]]j][XX[[PC8=DLQVZZZZbistxzz~~~~~~~~vni`WOV^gK7.-**'''''*/Jwxz~cO>Oc~4'!!!!!!!!!!!!!!!!!!!!!!!!!!!!!!!!!!!!!!!!!!!!!!!!!!",
"!!!!!!!!!!!!!!!!!!!!!!!!!!!!!!!!!!!!!!!!!!!!!!!!!!!!!!!!!!!!!!!!!!!!!!!!!!!!!!!!!!!!!!!!!!!!!!!!!!!!!!!!!!!!!!!!!%0knryuuqj[X]jqjf[[YWblyyz~tngdb`_^Z`bghhmmhhYM>;97>LWX[ffjkjkff][]fj][XX[[P?7=DMRWZ^^^aceiillllow~~~~vni`WOTW^M>5/-***'***3Nvxy~cO>Oc~D-'%$!!!!!!!!!!!!!!!!!!!!!!!!!!!!!!!!!!!!!!!!!!!!!!!",
"!!!!!!!!!!!!!!!!!!!!!!!!!!!!!!!!!!!!!!!!!!!!!!!!!!!!!!!!!!!!!!!!!!!!!!!!!!!!!!!!!!!!!!!!!!!!!!!!!!!!!!!!!!!!!!!!!%.[dnxxuupkfkqufXPUW^enxyz~xsolhdb`^adhggbghmbYRI=69>EMU[[]ffffcaa]fj][WX[]P?6;DOTWZ^_`_^^^^____go~~~~vni`WOQTVQKD7/-****--9Rvwy~cO>Oc~^D4*%!!!!!!!!!!!!!!!!!!!!!!!!!!!!!!!!!!!!!!!!!!!!!!!",
"!!!!!!!!!!!!!!!!!!!!!!!!!!!!!!!!!!!!!!!!!!!!!!!!!!!!!!!!!!!!!!!!!!!!!!!!!!!!!!!!!!!!!!!!!!!!!!!!!!!!!!!!!!!!!!!!!%-T_iwyz~{{uuuu]TDMWbhoxyz~zzysnieb_beieb^bhmmmhVB5677?LXX[[]cccccffj][WX[]P?4:EQUWZ^ab^WTTTTTTT_l~~~~vni`WOOOORVWD5.----/3@Wsvy~cO>Oc~~~~4'!!!!!!!!!!!!!!!!!!!!!!!!!!!!!!!!!!!!!!!!!!!!!!!",
"!!!!!!!!!!!!!!!!!!!!!!!!!!!!!!!!!!!!!!!!!!!!!!!!!!!!!!!!!!!!!!!!!!!!!!!!!!!!!!!!!!!!!!!!!!!!!!!!!!!!!!!!!!!!!!!!!$'-8Uyyyyy{{uuu]UELUZbisoooosvommgb^`bcb`_bbhhhhYNB=97:>CLTX_cgeeffjj][WX[[H:08EVWYZYWVYZ_WRLLLLYi~~~~vnic^WYZ^ZZZK93000359K`vxy~dQ@Qd~~~~4'!!!!!!!!!!!!!!!!!!!!!!!!!!!!!!!!!!!!!!!!!!!!!!!",
"!!!!!!!!!!!!!!!!!!!!!!!!!!!!!!!!!!!!!!!!!!!!!!!!!!!!!!!!!!!!!!!!!!!!!!!!!!!!!!!!!!!!!!!!!!!!!!!!!!!!!!!!!!!!!!!!!$$%-@zyxxxy{uuu]UFLQV^dligdhmmmmmgb^^^^^__`bbbghbYRI>7765=JV^dlllkkjjf[WX[[J7.7EYZZZVQKUal_RFFFFVg~~~~vniec`cgiea^OC9999=@DUdyyz~dTBTd~~~~4'!!!!!!!!!!!!!!!!!!!!!!!!!!!!!!!!!!!!!!!!!!!!!!!",
"!!!!!!!!!!!!!!!!!!!!!!!!!!!!!!!!!!!!!!!!!!!!!!!!!!!!!!!!!!!!!!!!!!!!!!!!!!!!!!!!!!!!!!!!!!!!!!!!!!!!!!!!!!!!!!!!!!!!'4~yxvwyz{uufUILNQW`gc`Z`ghmmmhbZYWVY^``__bbggggVE840.5@RZesrpppqjf[XX[[G5-5F_^^ZRJ@Qd~dQ@@@@Qd~~~~vniiiinv~og`VLDIKMOQR_l~~~~eUDUe~~~~4'!!!!!!!!!!!!!!!!!!!!!!!!!!!!!!!!!!!!!!!!!!!!!!!",
"!!!!!!!!!!!!!!!!!!!!!!!!!!!!!!!!!!!!!!!!!!!!!!!!!!!!!!!!!!!!!!!!!!!!!!!!!!!!!!!!!!!!!!!!!!!!!!!!!!!!!!!!!!!!!!!!!!!!%*4CZwxyz{uufUFKNRW^ccaadhmmmmmhbb`^`bdbbbbbbbbbYQE>737;CNYdinrppqf[XXX[J7/8J^^^ZTKBTd~aM::::Ma~~~~vnilnnsw~oe^RJ>BEJKKLYi~~~~eUDUe~~~~4'!!!!!!!!!!!!!!!!!!!!!!!!!!!!!!!!!!!!!!!!!!!!!!!",
"!!!!!!!!!!!!!!!!!!!!!!!!!!!!!!!!!!!!!!!!!!!!!!!!!!!!!!!!!!!!!!!!!!!!!!!!!!!!!!!!!!!!!!!!!!!!!!!!!!!!!!!!!!!!!!!!!!!!$%'-Cxyz~{{{fUGKOTVZ`adghhmmmmmmmhhhhhhggddbbbbb`ZWND;987@MYblwurpf[WXX[L:3;L^^^ZULDUe~`J7777J`~~~~vninovwy~ndYOD;>BEEEFVg~~~~dTBTd~~~~4'!!!!!!!!!!!!!!!!!!!!!!!!!!!!!!!!!!!!!!!!!!!!!!!",
"!!!!!!!!!!!!!!!!!!!!!!!!!!!!!!!!!!!!!!!!!!!!!!!!!!!!!!!!!!!!!!!!!!!!!!!!!!!!!!!!!!!!!!!!!!!!!!!!!!!!!!!!!!!!!!!!!!!!!!!'4yzz~|||eUFKOTVWZaenmmmmmvvvvmmmmmmmhhebbbb`bhm`RI=507BOZiywurkaWXX[P@7@N^^ZZUMFVg~^D4444D^~~~~vninv~~~~nbWL@8:=@@@@Rd~~~~dRBRd~~~~4'!!!!!!!!!!!!!!!!!!!!!!!!!!!!!!!!!!!!!!!!!!!!!!!",
"!!!!!!!!!!!!!!!!!!!!!!!!!!!!!!!!!!!!!!!!!!!!!!!!!!!!!!!!!!!!!!!!!!!!!!!!!!!!!!!!!!!!!!!!!!!!!!!!!!!!!!!!!!!!!!!!!!!!!!!%*4D^~||{iYLORVY^aekoid`gmvvvvommmmmmmhgb`bbbbghbYRI=68;@NZllnpi]X[[[TG=IT`_^^VQKYi~eUDDDDUe~~~~wsnsw~voic^VK>79>BFLQ^l~~~ziYLYi~~~~4'!!!!!!!!!!!!!!!!!!!!!!!!!!!!!!!!!!!!!!!!!!!!!!!",
"!!!!!!!!!!!!!!!!!!!!!!!!!!!!!!!!!!!!!!!!!!!!!!!!!!!!!!!!!!!!!!!!!!!!!!!!!!!!!!!!!!!!!!!!!!!!!!!!!!!!!!!!!!!!!!!!!!!!!!!$%'-D~|{{k^PTUW^aiknog^U`mvvvvvmmmmmmmhgb`bbggbbbb`RI=986@O`dinic[[]]XPDNWaa_^WTOZi~oe^^^^eo~~~~ywvwy~odZYWVK>69>CMVais~~zzlaVan~~~~4'!!!!!!!!!!!!!!!!!!!!!!!!!!!!!!!!!!!!!!!!!!!!!!!",
"!!!!!!!!!!!!!!!!!!!!!!!!!!!!!!!!!!!!!!!!!!!!!!!!!!!!!!!!!!!!!!!!!!!!!!!!!!!!!!!!!!!!!!!!!!!!!!!!!!!!!!!!!!!!!!!!!!!!!!!!!!'4~{{ukaWWWY`enorscVKWh}}}}vmmmmvmmmgb_bghgb^bhm`TJ=5/7CU^dlif]]]][UMUZda`^YVT_l~~~~~~~~~~~~~~~~~~~iZOQTVJ=58>DTbtwy~zzyoibis~~~~4'!!!!!!!!!!!!!!!!!!!!!!!!!!!!!!!!!!!!!!!!!!!!!!!",
"!!!!!!!!!!!!!!!!!!!!!!!!!!!!!!!!!!!!!!!!!!!!!!!!!!!!!!!!!!!!!!!!!!!!!!!!!!!!!!!!!!!!!!!!!!!!!!!!!!!!!!!!!!!!!!!!!!!!!!!!!!'4~|{{lcXYZZ_cf][[SHHS[fks}vvooovmmmhb^bbgb`Z`gmb^VMC;>BFLRWYX[]]][XSX^aadda^Waitwxzzz~~~~~~~ywvoniaWOQTVJ=58>FOWbis~zzytniov~~~~4'!!!!!!!!!!!!!!!!!!!!!!!!!!!!!!!!!!!!!!!!!!!!!!!",
"!!!!!!!!!!!!!!!!!!!!!!!!!!!!!!!!!!!!!!!!!!!!!!!!!!!!!!!!!!!!!!!!!!!!!!!!!!!!!!!!!!!!!!!!!!!!!!!!!!!!!!!!!!!!!!!!!!!!!!!!!!'4~||{pd^^_^[]]SHAAAAHSS]k}yxwvvommmhb^`bb`ZY^bhggb^WRJ@9=@EMU[[]]]][[_^cinic_cinsvyyzzzzzzzzwsniaZWTOQTVI=58>ILOT_lzzyywtsvx~~~z4'!!!!!!!!!!!!!!!!!!!!!!!!!!!!!!!!!!!!!!!!!!!!!!!",
"!!!!!!!!!!!!!!!!!!!!!!!!!!!!!!!!!!!!!!!!!!!!!!!!!!!!!!!!!!!!!!!!!!!!!!!!!!!!!!!!!!!!!!!!!!!!!!!!!!!!!!!!!!!!!!!!!!!!!!!!!!'4~~~~piaaaa[[SAA1<AAAAASj~~~~}vvovvmb^^``^YVZ`ghmommmV>3457@LX[]]fjj][Yclxoiddginsxyyzzzzzzztni`WOOOOQTVI=59@JIFDUdzzyyzz~~~~~zz4'!!!!!!!!!!!!!!!!!!!!!!!!!!!!!!!!!!!!!!!!!!!!!!!",
"!!!!!!!!!!!!!!!!!!!!!!!!!!!!!!!!!!!!!!!!!!!!!!!!!!!!!!!!!!!!!!!!!!!!!!!!!!!!!!!!!!!!!!!!!!!!!!!!!!!!!!!!!!!!!!!!!!!!!!!!!!%*4D^~tldc][SSA<111111<AA[jpu~wvmooomg`^YWWWWY^bbhmmmm^N@;86=FPUX[]fj]XUZaiiggggiinossvvwwwxxvsncWOQUWYZ^QD9>ELKFDUdzzyyyzzyxwwvv>*%$$!!!!!!!!!!!!!!!!!!!!!!!!!!!!!!!!!!!!!!!!!!!!",
"!!!!!!!!!!!!!!!!!!!!!!!!!!!!!!!!!!!!!!!!!!!!!!!!!!!!!!!!!!!!!!!!!!!!!!!!!!!!!!!!!!!!!!!!!!!!!!!!!!!!!!!!!!!!!!!!!!!!!!!!!!$%'-D~wolf][SA<1,+++,,11AH[fp~wommmomhb^VORUWYZ^`bbghmg`WK=59@KNTW[]j[WOTWZadiiigiiilnossstvwvvveYOUY`bdeYL@EKQLIBTdzzyyyyywtssooQ7-'$!!!!!!!!!!!!!!!!!!!!!!!!!!!!!!!!!!!!!!!!!!!!",
"!!!!!!!!!!!!!!!!!!!!!!!!!!!!!!!!!!!!!!!!!!!!!!!!!!!!!!!!!!!!!!!!!!!!!!!!!!!!!!!!!!!!!!!!!!!!!!!!!!!!!!!!!!!!!!!!!!!!!!!!!!!!!'4~xvsj][A<1,+))))+,11AS[j~vnimmommgZQIMTWWWWYZ^bgmmovYB37;CILPX[j[TJLNOWbliigddbdilnnoostwy~iZOW`ilnoaVKMQUNIBRdzzyyyxxtsnnllbZT-%!!!!!!!!!!!!!!!!!!!!!!!!!!!!!!!!!!!!!!!!!!!!",
"!!!!!!!!!!!!!!!!!!!!!!!!!!!!!!!!!!!!!!!!!!!!!!!!!!!!!!!!!!!!!!!!!!!!!!!!!!!!!!!!!!!!!!!!!!!!!!!!!!!!!!!!!!!!!!!!!!!!!!!!!!!!!%*4?Uf[SAA1,,,+,,,11<AHS]frlidhmmhb^VOILORQOOOOQW`hmmvbO@>;9BKTWX[UJ@CFKQW_acdb`^ZZZ^_adgilnndZRW_dgiiaYRUWYVROYgwsonnnoliiggea^Y6*%$$!!!!!!!!!!!!!!!!!!!!!!!!!!!!!!!!!!!!!!!!!",
"!!!!!!!!!!!!!!!!!!!!!!!!!!!!!!!!!!!!!!!!!!!!!!!!!!!!!!!!!!!!!!!!!!!!!!!!!!!!!!!!!!!!!!!!!!!!!!!!!!!!!!!!!!!!!!!!!!!!!!!!!!!!!$%'-8[SA<1,+,,,111<AASS]]fidc`bgmb^VQLIJKLKIEDDCMWbhmoh^UI;5=KWVUUJ>8;@DJNTW^c_ZVTOLNQUW^bbcd`ZVY^abcda^Z^_`_^Zcisniddegdcaabbaa`K8/*$!!!!!!!!!!!!!!!!!!!!!!!!!!!!!!!!!!!!!!!!!",
"!!!!!!!!!!!!!!!!!!!!!!!!!!!!!!!!!!!!!!!!!!!!!!!!!!!!!!!!!!!!!!!!!!!!!!!!!!!!!!!!!!!!!!!!!!!!!!!!!!!!!!!!!!!!!!!!!!!!!!!!!!!!!!!!%-SA<1,+)+,1<ASS[]]fjf]a_^Z_be^VNKJFFFFC@=;98CQ_dmmmmmR;09JZVQK@8369>BDIOWaZVQKC=@DINUYYYYYYYZ^^__`abdddeiillnngaZ^_a_^Z^^^aceeee/%!!!!!!!!!!!!!!!!!!!!!!!!!!!!!!!!!!!!!!!!!",
"!!!!!!!!!!!!!!!!!!!!!!!!!!!!!!!!!!!!!!!!!!!!!!!!!!!!!!!!!!!!!!!!!!!!!!!!!!!!!!!!!!!!!!!!!!!!!!!!!!!!!!!!!!!!!!!!!!!!!!!!!!!!!!!!%-AA11,,+,1<AHS[[[[]]][Z_`abcd^WQLF@FMTI>7788;>BO^mmmmZL=JUaWOI93-048=BIMRWTQLC;78;@DJNNNNNNNOQRUUVWYZYYWYYY^ac`ZWWYZYWWWYY^beeee/%!!!!!!!!!!!!!!!!!!!!!!!!!!!!!!!!!!!!!!!!!",
"!!!!!!!!!!!!!!!!!!!!!!!!!!!!!!!!!!!!!!!!!!!!!!!!!!!!!!!!!!!!!!!!!!!!!!!!!!!!!!!!!!!!!!!!!!!!!!!!!!!!!!!!!!!!!!!!!!!!!!!!!!!!!!!!%+A11,,,,11AAS][[XXXXXXW^agedc_YULD=IT`M=3578630;Qghmmg^VZaeYOD6.*-/59@JKLNLJI=73478;>BBBBBBBCDFJLOOQRQNLLLLOUYWVUUUUUUTUVVZaeeee/%!!!!!!!!!!!!!!!!!!!!!!!!!!!!!!!!!!!!!!!!!",
"!!!!!!!!!!!!!!!!!!!!!!!!!!!!!!!!!!!!!!!!!!!!!!!!!!!!!!!!!!!!!!!!!!!!!!!!!!!!!!!!!!!!!!!!!!!!!!!!!!!!!!!!!!!!!!!!!!!!!!!!!!!!!!!!%+A11,,,,1<AS[j][XWVUUUU^dnieb_ZWLB8IYnT;/3580-*0DbgmmoosonlZOB3-**-06>KIFDCBB83.0356788888889;=>CFIJKFC@>>=CKQQQQQQOOOOQQTY`eeee/%!!!!!!!!!!!!!!!!!!!!!!!!!!!!!!!!!!!!!!!!!",
"!!!!!!!!!!!!!!!!!!!!!!!!!!!!!!!!!!!!!!!!!!!!!!!!!!!!!!!!!!!!!!!!!!!!!!!!!!!!!!!!!!!!!!!!!!!!!!!!!!!!!!!!!!!!!!!!!!!!!!!!!!!!!!!!%*11,,,11<ASS[f][WVUUUVV_isnlic_YRKCIMTE935783.-5KhhmmmmonllaWN=3-...0489=>;860.--/334555555566788:;;;9877668;@@@@@@>BCEIKLQUWWWW-%!!!!!!!!!!!!!!!!!!!!!!!!!!!!!!!!!!!!!!!!!",
"!!!!!!!!!!!!!!!!!!!!!!!!!!!!!!!!!!!!!!!!!!!!!!!!!!!!!!!!!!!!!!!!!!!!!!!!!!!!!!!!!!!!!!!!!!!!!!!!!!!!!!!!!!!!!!!!!!!!!!!!!!!!!!!!%*11,+,11AHS[]f[XVUUUVWYalwtrniaZWUQJB;98778840-8OlmmmmmmmmleaZQF=5/--..36:63/--*-.000333333333333333433000034555655579=@CFIKLLLL-%!!!!!!!!!!!!!!!!!!!!!!!!!!!!!!!!!!!!!!!!!",
"!!!!!!!!!!!!!!!!!!!!!!!!!!!!!!!!!!!!!!!!!!!!!!!!!!!!!!!!!!!!!!!!!!!!!!!!!!!!!!!!!!!!!!!!!!!!!!!!!!!!!!!!!!!!!!!!!!!!!!!!!!!!!!!!%)11,+,1AAS]]]][XUUUVWYZdnzyxwld^^__K8/37=;9853/=Usomhhmmmmlliieb`C3****-073.-****-./////////////.........--....//...0479=@@@@@@@*%!!!!!!!!!!!!!!!!!!!!!!!!!!!!!!!!!!!!!!!!!",
"!!!!!!!!!!!!!!!!!!!!!!!!!!!!!!!!!!!!!!!!!!!!!!!!!!!!!!!!!!!!!!!!!!!!!!!!!!!!!!!!!!!!!!!!!!!!!!!!!!!!!!!!!!!!!!!!!!!!!!!!!!!!!!!!%*11,,11AAS]]][XWUVWYYYYairstupkda_YNB89;=;9853/=UsommhgbdeegiiedaO>33336;C;60/.-.055556666655555443333333333344444448=DFJLLLL8/*'$!!!!!!!!!!!!!!!!!!!!!!!!!!!!!!!!!!!!!!!!!",
"!!!!!!!!!!!!!!!!!!!!!!!!!!!!!!!!!!!!!!!!!!!!!!!!!!!!!!!!!!!!!!!!!!!!!!!!!!!!!!!!!!!!!!!!!!!!!!!!!!!!!!!!!!!!!!!!!!!!!!!!!!!!!!!!%*A11,11AAS]][XXWVWZ^ZYY_dinrurpld^VTOKFB=;9853/=Usonmgb^_`aceigddZTLKIILOTLD>:7579=>>>>>>>>>>>>==;;;::::::::::;;;==>DLUVWWWWW3*%$#!!!!!!!!!!!!!!!!!!!!!!!!!!!!!!!!!!!!!!!!!",
"!!!!!!!!!!!!!!!!!!!!!!!!!!!!!!!!!!!!!!!!!!!!!!!!!!!!!!!!!!!!!!!!!!!!!!!!!!!!!!!!!!!!!!!!!!!!!!!!!!!!!!!!!!!!!!!!!!!!!!!!!!!!!!!!%+A<1111<ASf][WWWWY^a^YWZ`cipuuuui^RWZaTJ=;9853/=Ussone^VWYZ`diggeilnligedd_WTOMKKKLLLLLLMLLLLLLKKKJIIIIIIIIIJIJIIKKLU^eeeeeee/%!!!!!!!!!!!!!!!!!!!!!!!!!!!!!!!!!!!!!!!!!!!!",
"!!!!!!!!!!!!!!!!!!!!!!!!!!!!!!!!!!!!!!!!!!!!!!!!!!!!!!!!!!!!!!!!!!!!!!!!!!!!!!!!!!!!!!!!!!!!!!!!!!!!!!!!!!!!!!!!!!!!!!!!!!!!!#$$&-<<111<AAS][XYZ^^^__YVQUY^cinprukc^_acVK?=;963/=Vvsonida_^ZZZZ^^`dinlliigeb^YWUQRTTUUUUVVVVUUUUUUUTRRRQQQQQRQQRRRUVW^dlgb_cgl0'!!!!!!!!!!!!!!!!!!!!!!!!!!!!!!!!!!!!!!!!!!!!",
"!!!!!!!!!!!!!!!!!!!!!!!!!!!!!!!!!!!!!!!!!!!!!!!!!!!!!!!!!!!!!!!!!!!!!!!!!!!!!!!!!!!!!!!!!!!!!!!!!!!!!!!!!!!!!!!!!!!!!!!!!!!!!$%&*,1<<AAAAHSXXZZ_ada`^WQLOTWZafkpupkkfffXMC?=:63/=Wyvonllid_YVTOTVW`gnnnliiieca_ZYYZZZ^^^_``__^^^^^_^^^^ZZZZZZZZ^^^`abglog_V`it3'!!!!!!!!!!!!!!!!!!!!!!!!!!!!!!!!!!!!!!!!!!!!",
"!!!!!!!!!!!!!!!!!!!!!!!!!!!!!!!!!!!!!!!!!!!!!!!!!!!!!!!!!!!!!!!!!!!!!!!!!!!!!!!!!!!!!!!!!!!!!!!!!!!!!!!!!!!!!!!!!!!!!!!!!!!!!$&,,12<AAAAAHSUWY^aeldaZUMFKNRUX[fjquuurjfXPD@?=73/>Y~wsnoswlaWQLDJNRZdoonnnliiiigdbccdddegiiiiiigegiiiiiigeeeeeeegiilnostwiZO^i~4'!!!!!!!!!!!!!!!!!!!!!!!!!!!!!!!!!!!!!!!!!!!!",
"!!!!!!!!!!!!!!!!!!!!!!!!!!!!!!!!!!!!!!!!!!!!!!!!!!!!!!!!!!!!!!!!!!!!!!!!!!!!!!!!!!!!!!!!!!!!!!!!!!!!!!!!!!!!!!!!!!!!!!!#$$$$$%*,,12<AHAAAHPUY^adild^VOKDFJLPTWX]]jjqqjj]XPH?:863DZxtpnossld`ZWUWZ^dkssrrroooonnliilllllnnooonnnlliiiiida_cgllllnnnossvwxT7-.04*%!!!!!!!!!!!!!!!!!!!!!!!!!!!!!!!!!!!!!!!!!!!!",
"!!!!!!!!!!!!!!!!!!!!!!!!!!!!!!!!!!!!!!!!!!!!!!!!!!!!!!!!!!!!!!!!!!!!!!!!!!!!!!!!!!!!!!!!!!!!!!!!!!!!!!!!!!!!!!!!!!!!!!!$%&&&&&)+,2<AHSHA<GMVZadilncYQLICDEFJLPPSS[]jjjjf]]SG::::L[rppnnoonieeddgilnruuuuuvvvvvtsssssssttvvvvvtssnlgggeaZV`ittttttvvwxxyz@*%%''%$!!!!!!!!!!!!!!!!!!!!!!!!!!!!!!!!!!!!!!!!!!!!",
"!!!!!!!!!!!!!!!!!!!!!!!!!!!!!!!!!!!!!!!!!!!!!!!!!!!!!!!!!!!!!!!!!!!!!!!!!!!!!!!!!!!!!!!!!!!!!!!!!!!!!!!!!!!!!!!!!!!!!!!$&)))))++,<AHSSH?8@LV^cilnobVLIDB@@@CEGHHHSS]]jjqqqXH8<??P[pppnnnnnnnsvyyzzz{{{{{||~~~~~~~~~~~~~~~~~~~zzysleedd^VO^i~~~~~~~~~~~~~4'!!!!!!!!!!!!!!!!!!!!!!!!!!!!!!!!!!!!!!!!!!!!!!!!!!",
"!!!!!!!!!!!!!!!!!!!!!!!!!!!!!!!!!!!!!!!!!!!!!!!!!!!!!!!!!!!!!!!!!!!!!!!!!!!!!!!!!!!!!!!!!!!!!!!!!!!!!!!!!!!!!!!!!!!!##$%&))(()+,1<AHHSH?9CNY_diigeZOEDB>>>=>@CDGHHSSSX[[]]SHAHHSXfqpprrppppprw{zzz||||||||~~~~~~~~~~~~~~~~~zzzyytollllaWQ^k~zywwwwyz~~~~D-'%$!!!!!!!!!!!!!!!!!!!!!!!!!!!!!!!!!!!!!!!!!!!!!!!",
"!!!!!!!!!!!!!!!!!!!!!!!!!!!!!!!!!!!!!!!!!!!!!!!!!!!!!!!!!!!!!!!!!!!!!!!!!!!!!!!!!!!!!!!!!!!!!!!!!!!!!!!!!!!!!!!!!!!!#$$&(((((),11<AHHSLC=FQ^adida^TK@>>>==;;==??GGHHHHHSSSSSSS[]]jqpruurrrrruu{{|||||||||~~~~~~~~~~~~~~~~~zyxyyzxtsssodZQ^l~yvssssvy~~~~^D4*%!!!!!!!!!!!!!!!!!!!!!!!!!!!!!!!!!!!!!!!!!!!!!!!",
"!!!!!!!!!!!!!!!!!!!!!!!!!!!!!!!!!!!!!!!!!!!!!!!!!!!!!!!!!!!!!!!!!!!!!!!!!!!!!!!!!!!!!!!!!!!!!!!!!!!!!!!!!!!!!!!!!!!!$$(((((((),<<<?GLQKD>KUabdgaZULC;;;;:99988:?CCDD???AHHS[]jqqqqqqu{{uuuuuu{{{||||~~~~~~~~~~~~~~~~~~~~~~zxwxyzzyyyxxi^Q^l~wsnnnnsw~~~~~~~4'!!!!!!!!!!!!!!!!!!!!!!!!!!!!!!!!!!!!!!!!!!!!!!!",
"!!!!!!!!!!!!!!!!!!!!!!!!!!!!!!!!!!!!!!!!!!!!!!!!!!!!!!!!!!!!!!!!!!!!!!!!!!!!!!!!!!!!!!!!!!!!!!!!!!!!!!!!!!!!!!!!!#$$$$&&&((((),1<AHLPQLE@KU`acd_WQKB;9877767779:=???????DGHPSX[]]]]fkruuuuu{{{||{{z|~~~~~~~~~~~~~~~~~~~yuruuuurrrpppppkc^dlvtsoossvy~~~~~~~D-'%$!!!!!!!!!!!!!!!!!!!!!!!!!!!!!!!!!!!!!!!!!!!!",
"!!!!!!!!!!!!!!!!!!!!!!!!!!!!!!!!!!!!!!!!!!!!!!!!!!!!!!!!!!!!!!!!!!!!!!!!!!!!!!!!!!!!!!!!!!!!!!!!!!!!!!!!!!!!!!!!!$$&&%$$%&(((),1AHUTRQLFBLU_aacZUNI@;863344566788:=????????DGHHPPSS[clpu{{{{|||zzyzz~~~~~~~~~~~~~~~~~~~upkprurpqjjjjjjkkllnooossvwyz~~~~~~~^D4*%!!!!!!!!!!!!!!!!!!!!!!!!!!!!!!!!!!!!!!!!!!!!",
"!!!!!!!!!!!!!!!!!!!!!!!!!!!!!!!!!!!!!!!!!!!!!!!!!!!!!!!!!!!!!!!!!!!!!!!!!!!!!!!!!!!!!!!!!!!!!!!!!!!!!!!!!!!!!!!!!$&)(%$$$$&((),1AH_YUQLICLU^_aaYRKD>:7300003466668:>===::89::<??DGJTZelt~~~~~~~zyxyz~~~~~~~~~~~~~~~~~~~rkfjquqjjf]]]]]jr~voknosvy~~~~~~~~~~~~~4'!!!!!!!!!!!!!!!!!!!!!!!!!!!!!!!!!!!!!!!!!!!!",
"!!!!!!!!!!!!!!!!!!!!!!!!!!!!!!!!!!!!!!!!!!!!!!!!!!!!!!!!!!!!!!!!!!!!!!!!!!!!!!!!!!!!!!!!!!!!!!!!!!!!!!!!!!!!!!#$$%&((&$$$%&((),1AH_YUQLIDLV____WTMF>9630000333345679::::98899::=?CDLUZaiosvxxxxxxxyz~zzyzz~~~~~~~~~~~~~upjqquqqjjj]ffjqr~tlekntvwxtollllow~~~~4'!!!!!!!!!!!!!!!!!!!!!!!!!!!!!!!!!!!!!!!!!!!!",
"!!!!!!!!!!!!!!!!!!!!!!!!!!!!!!!!!!!!!!!!!!!!!!!!!!!!!!!!!!!!!!!!!!!!!!!!!!!!!!!!!!!!!!!!!!!!!!!!!!!!!!!!!!!!!!$%&&(((&%%&&(((),1AH_YUOLIDMV`_^^WTOI@963000000033355678:98888889:=>@GLQW`ilosttvvwxyz~zyxyz~~~~~~~~~~~~~uuqqqqqqqjjfjjjqu~rkcinvvttld____go~~~~4'!!!!!!!!!!!!!!!!!!!!!!!!!!!!!!!!!!!!!!!!!!!!",
"!!!!!!!!!!!!!!!!!!!!!!!!!!!!!!!!!!!!!!!!!!!!!!!!!!!!!!!!!!!!!!!!!!!!!!!!!!!!!!!!!!!!!!!!!!!!!!!!!!!!!!!!!!!!!!$&+)(((((((((((),1AH_YUOLIDNVa_ZYWUQJ@96300000//0033335798888777778:=@DFOW`diooostvxyz~yxvxy~~~~~~~~~~~~~{uuuqqqqqqjjjjqqu~pf[fnwtsoeZTTTT_l~~~~4'!!!!!!!!!!!!!!!!!!!!!!!!!!!!!!!!!!!!!!!!!!!!",
"!!!!!!!!!!!!!!!!!!!!!!!!!!!!!!!!!!!!!!!!!!!!!!!!!!!!!!!!!!!!!!!!!!!!!!!!!!!!!!!!!!!!!!!!!!!!!!!!!!!!!#$$$$$$$$&()((((((((((((+,1<HZVTOLIDNVa`^^WUQI@8630000/../0003345778887777789:=>@INUY^bdeilnossvtsstwyxxxyz~~~~~~~|{uuqqqquqqqqqqu{~rkcceidcaZWTTTTZclow~4'!!!!!!!!!!!!!!!!!!!!!!!!!!!!!!!!!!!!!!!!!!!!",
"!!!!!!!!!!!!!!!!!!!!!!!!!!!!!!!!!!!!!!!!!!!!!!!!!!!!!!!!!!!!!!!!!!!!!!!!!!!!!!!!!!!!!!!!!!!!!!!!!!!!!$%******&)))((((((((((((+,1<HWUQNKIDNVa``_YVQI>85300//..-../0003356788777767889:;@ELOTVY^acdiilnooostvvttwy~~~~~~~||{upqquuuuuuuu{{~slda_ZWURRTTTTTVZ_go~4'!!!!!!!!!!!!!!!!!!!!!!!!!!!!!!!!!!!!!!!!!!!!",
"!!!!!!!!!!!!!!!!!!!!!!!!!!!!!!!!!!!!!!!!!!!!!!!!!!!!!!!!!!!!!!!!!!!!!!!!!!!!!!!!!!!!!!!!!!!!!!!!!!!!!$*,,121,,+)(((((((((((((+,1<AUQOMKIDNVaaaaZVQI>85300/..---../000335788777667777779>BDILOUYZ_adeiilnoosssotx~~~~~~~~~~upjpu~~~~~~~~~~tni`WOLIDKNTTTTTTT_l~4'!!!!!!!!!!!!!!!!!!!!!!!!!!!!!!!!!!!!!!!!!!!!",
"!!!!!!!!!!!!!!!!!!!!!!!!!!!!!!!!!!!!!!!!!!!!!!!!!!!!!!!!!!!!!!!!!!!!!!!!!!!!!!!!!!!!!!!!!!!!!!!!!!#$$&*,,,1,,++)(((((((((((((+,1<AUQOMKIEOYdccbZVQI>85300//..-...//000335667766556777789;>@BILQUVYYZ^_addegiiilnosstwy~~~~xrprx~~~~~~~zyxne_WOJFDBEKMOQTTTTZcl>-''''%$!!!!!!!!!!!!!!!!!!!!!!!!!!!!!!!!!!!!!!",
"!!!!!!!!!!!!!!!!!!!!!!!!!!!!!!!!!!!!!!!!!!!!!!!!!!!!!!!!!!!!!!!!!!!!!!!!!!!!!!!!!!!!!!!!!!!!!!!!!!$%**++,,1,+)))(((((((((((((+,1<AUQOLKJIQ^iedc^VQI>7530000/......///0033356765455667777889;>DJLOQQQQUWZZZ^_aacdeilnswz~~~zxuxz~~~~~~~ywsi`VOJBB@>BDILOTTTTVZ_N>4444*%!!!!!!!!!!!!!!!!!!!!!!!!!!!!!!!!!!!!!!",
"!!!!!!!!!!!!!!!!!!!!!!!!!!!!!!!!!!!!!!!!!!!!!!!!!!!!!!!!!!!!!!!!!!!!!!!!!!!!!!!!!!!!!!!!!!!!!!!!!!$*2,+++,1,+((((((((((((((((+,1<AUQOLKKIT`ligd^VOF>75300000/.......//00003576534556676555568=BDIKIIEKOTTTTVWZZZ^adintzz~~~~~~~~~~~~~~xsocWNIB====>@BIMTTTTTTT_l~~~~4'!!!!!!!!!!!!!!!!!!!!!!!!!!!!!!!!!!!!!!",
"!!!!!!!!!!!!!!!!!!!!!!!!!!!!!!!!!!!!!!!!!!!!!!!!!!!!!!!!!!!!!!!!!!!!!!!!!!!!!!!!!!!!!!!!!!!!!!!#$$&*+,,,,11,)((((((((((((((()+,1<HWTOKKKKVanlie_VOE=77665430/..//////00000335433356677665555689;>@@@@CFKKKKNRVWWWZ_bglstvxyz~~~~~~zyxwoidZRJD@==>>@@BIMTTTTTTTZclow~4'!!!!!!!!!!!!!!!!!!!!!!!!!!!!!!!!!!!!!!",
"!!!!!!!!!!!!!!!!!!!!!!!!!!!!!!!!!!!!!!!!!!!!!!!!!!!!!!!!!!!!!!!!!!!!!!!!!!!!!!!!!!!!!!!!!!!!!!!$%&&()+,<111,)(((((()(((((((()+,1<HZUNIKKLWconli`VOD=78:=97530.//00000000000000333577777665434456899:;=>BBBBILRTUUWYZadinovwyz~~~~zzwtoibZTLDB>=>>@@BCINTTTTTTTVZ_go~4'!!!!!!!!!!!!!!!!!!!!!!!!!!!!!!!!!!!!!!",
"!!!!!!!!!!!!!!!!!!!!!!!!!!!!!!!!!!!!!!!!!!!!!!!!!!!!!!!!!!!!!!!!!!!!!!!!!!!!!!!!!!!!!!!!!!!!!!!$&+)((+1H<11+)((((()))((((((()+,1AH_VNEJLOYdsonlaWND;69@F@;740./000030000/////0003577777775330003355778899::@INOOQRUVY_bglstxzz~~zzytolcYRLE>>==>@BBCDJNTTTTTTTTTT_l~4'!!!!!!!!!!!!!!!!!!!!!!!!!!!!!!!!!!!!!!",
"!!!!!!!!!!!!!!!!!!!!!!!!!!!!!!!!!!!!!!!!!!!!!!!!!!!!!!!!!!!!!!!!!!!!!!!!!!!!!!!!!!!!!!!!!!!!!!!$&+)((+1A<1,+)((((()))((((((((+,1AH_VNEJLOYdsoliaVNE>8>END;630./000000000//////00035677777654333345556778899>BIKMOQRTW^agntwxzzzzxvsnid^VOKD>>>>@CDEFILORQQQQRTTTTZcl0'!!!!!!!!!!!!!!!!!!!!!!!!!!!!!!!!!!!!!!",
"!!!!!!!!!!!!!!!!!!!!!!!!!!!!!!!!!!!!!!!!!!!!!!!!!!!!!!!!!!!!!!!!!!!!!!!!!!!!!!!!!!!!!!!!!!!!!!!$&)))(+1<<1,+)((((()+))(((((((+,1<H_VNEJLOYdonli`VMIB=DLUI;530./00000000/////////003468888776554555444567788;>@DKOOOOVZagnwxyzzzzvsnic_WTMJD@@BBDFJKKLMOQQONOQTTTTVZ_.%!!!!!!!!!!!!!!!!!!!!!!!!!!!!!!!!!!!!!!",
"!!!!!!!!!!!!!!!!!!!!!!!!!!!!!!!!!!!!!!!!!!!!!!!!!!!!!!!!!!!!!!!!!!!!!!!!!!!!!!!!!!!!!!!!!!!!!!!$&))))+1<1,++)(((())+)))((((((),1<H_VNEJLOYdonii_VMJD@KT^L=300./0000000///////////0036888888877665543335677889:@INMMLTYaioyyzzzyysnic^WUOKIC@BDEIKLMNOOOQOMLNQTTTTTTT-%!!!!!!!!!!!!!!!!!!!!!!!!!!!!!!!!!!!!!!",
"!!!!!!!!!!!!!!!!!!!!!!!!!!!!!!!!!!!!!!!!!!!!!!!!!!!!!!!!!!!!!!!!!!!!!!!!!!!!!!!!!!!!!!!!!!!!!!!$&))++,1<1,,+)((((()++)))(((()+,1<H_VNFJLOWaligdZUMKIDKQWJ=430.//00000000//////////035778888888777766556777889:>BEFIJNRW`goossstvoid`ZVTOLJFCDFIKLNOOOOOOMLKOUYVUTTTT-%!!!!!!!!!!!!!!!!!!!!!!!!!!!!!!!!!!!!!!",
"!!!!!!!!!!!!!!!!!!!!!!!!!!!!!!!!!!!!!!!!!!!!!!!!!!!!!!!!!!!!!!!!!!!!!!!!!!!!!!!!!!!!!!!!!!!!!!!$%()+,12<11,+)((((()++++))(())+,1<H_VNFJLMV`iecaYTLLKKLOQF;530.////0003300//////////03677888888899998887777789;;=>@CFJLOV`iiilnosld`ZWUTQOLJEIJKLNOQQQOONLKJQW_ZVTTTT-%!!!!!!!!!!!!!!!!!!!!!!!!!!!!!!!!!!!!!!",
"!!!!!!!!!!!!!!!!!!!!!!!!!!!!!!!!!!!!!!!!!!!!!!!!!!!!!!!!!!!!!!!!!!!!!!!!!!!!!!!!!!!!!!!!!!!!!!!$%(),22<<11,+)((((()+++++)))))+,11H_VOIJKLU^eca^WRLMMNMMLC;630..../0033430//////////03457888899:;=>==;:9887789;988;>CDEFOWabddilngaZWVTRQQNLJKLMOOQQRRQNLKKIQZd_YTTTT-%!!!!!!!!!!!!!!!!!!!!!!!!!!!!!!!!!!!!!!",
"!!!!!!!!!!!!!!!!!!!!!!!!!!!!!!!!!!!!!!!!!!!!!!!!!!!!!!!!!!!!!!!!!!!!!!!!!!!!!!!!!!!!!!!!!!!!#$$%&(),222<11,+)((((()++,,++))++,,1<HYUQLLNOV^eca^WRLNOQONLIB>73///.//00333000//....//003467788899;;====;:99889:;:99:=>@CELRYZ_abcd`ZVVUTRQQOMKLMOOQQQQQOLKJIELTZWVUWZ_8-'%$!!!!!!!!!!!!!!!!!!!!!!!!!!!!!!!!!!!",
"!!!!!!!!!!!!!!!!!!!!!!!!!!!!!!!!!!!!!!!!!!!!!!!!!!!!!!!!!!!!!!!!!!!!!!!!!!!!!!!!!!!!!!!!!!!!$%&&(()+222<11,+))(((()++,,,++++,,11AHWUROQQRW_db`^WQLOQTQOLLKJ>600/////00333300/..-../000356778889:;;====;;;;;;;;;;;:99=@DJMQUY^^ZZWVRRRRRRQONLMOOQQRQQOMKIFDCILQRTUZclV@4*%!!!!!!!!!!!!!!!!!!!!!!!!!!!!!!!!!!!",
"!!!!!!!!!!!!!!!!!!!!!!!!!!!!!!!!!!!!!!!!!!!!!!!!!!!!!!!!!!!!!!!!!!!!!!!!!!!!!!!!!!!!!!!!!!!!$&+))()+/22<11,++)(((()+,,22,,,,,111AHTTTTUUVZ`db`^WQLORVROLORVF930///../0033430/.--../0000356778899:;;======>>==;===:869>DEIJOUYWVTQONOQRRRRQONOQQQRRQONLIEDB@CDILQVan~~~~4'!!!!!!!!!!!!!!!!!!!!!!!!!!!!!!!!!!!",
"!!!!!!!!!!!!!!!!!!!!!!!!!!!!!!!!!!!!!!!!!!!!!!!!!!!!!!!!!!!!!!!!!!!!!!!!!!!!!!!!!!!!!!!!!!!!$&))))++/22<111,+))((()+,,222,111111AHWVUTUVW^bgda^WUOQUVUROQRTE93300//.//0035300/...//000345567789::;;;;;;:;;;;;===>=:9;>BDIKNRVVUUUTRTTTTRRQONOQQQQQONLKIDCB@BBDILOWalov~4'!!!!!!!!!!!!!!!!!!!!!!!!!!!!!!!!!!!",
"!!!!!!!!!!!!!!!!!!!!!!!!!!!!!!!!!!!!!!!!!!!!!!!!!!!!!!!!!!!!!!!!!!!!!!!!!!!!!!!!!!!!!!!!!!!!$%(())+,/2<<<<11+))((()++,2222111111AHZWVUVWY`dieb_YVQUVWVUTRQQE;53300/.///0354330/////00344555578;;;;::99988889;=>>>>>>>>>CILNOQTUVVVWVVUUTRQOOOOQQQQOMLIECB@@@@@CEJOV_go~4'!!!!!!!!!!!!!!!!!!!!!!!!!!!!!!!!!!!",
"!!!!!!!!!!!!!!!!!!!!!!!!!!!!!!!!!!!!!!!!!!!!!!!!!!!!!!!!!!!!!!!!!!!!!!!!!!!!!!!!!!!!!!!!!!!!$$&()++-/2<<<<<1,+))(()++,2226<<AAAAAS_ZWUVY^aglic`ZWUVWYWWVUQOD;65430/....0355443000//03555555578;;;;:988777778;>>>>@BC@>=BIMMMMQUWYZZYWVUTRQOOOOQQQQNLKIDB@@>>>=>@BIMR_l~4'!!!!!!!!!!!!!!!!!!!!!!!!!!!!!!!!!!!",
"!!!!!!!!!!!!!!!!!!!!!!!!!!!!!!!!!!!!!!!!!!!!!!!!!!!!!!!!!!!!!!!!!!!!!!!!!!!!!!!!!!!!!!!!!#$$%&(()+,-22<<AAA11++)(())+,2226<<AAAAAHSSUUY^adilgda^WUVWYYWWUQNF>877530///.00344433300033555556789==>>>==;98888:=@@@BCDEDCBEJMLKJMQVWY^ZYWVTQONLMNOOQQOLKIDB@@>>>=>>@DKOZi~D-'%$!!!!!!!!!!!!!!!!!!!!!!!!!!!!!!!!",
"!!!!!!!!!!!!!!!!!!!!!!!!!!!!!!!!!!!!!!!!!!!!!!!!!!!!!!!!!!!!!!!!!!!!!!!!!!!!!!!!!!!!!!!!!$%&&(()++-,22<AAAH<1,+)((()++,127<<AAAAAAAHSVZagiiigdb^YVWYYYYYVQMIB=;98530//./033454433333455556789;>>@BBBB>=:999=>CCDDEIJIIFIKLKIDKOUWY^ZZYVTOMLJKLMOOQOLKIDB@@@>>===>BFKYi~^D4*%!!!!!!!!!!!!!!!!!!!!!!!!!!!!!!!!",
"!!!!!!!!!!!!!!!!!!!!!!!!!!!!!!!!!!!!!!!!!!!!!!!!!!!!!!!!!!!!!!!!!!!!!!!!!!!!!!!!!!!!!!!!!$&++))++--,11<AAHSA<2+)(((()+,,27<<AAAAAAAAHV^dlliigdc_ZVWYZZZZVQLJEB@>=8500/.//033555555555555578;==>@DFFFFC>==;;>BEEFFIKLLLLLLLID@ELRVY^^^^WTNLJFIKLMOQOMKIDB@@@>>==;;>CIVg~~~~4'!!!!!!!!!!!!!!!!!!!!!!!!!!!!!!!!",
"!!!!!!!!!!!!!!!!!!!!!!!!!!!!!!!!!!!!!!!!!!!!!!!!!!!!!!!!!!!!!!!!!!!!!!!!!!!!!!!!!!!!!!!!!$&)))+++,,11<<AHPUG<2,)(((()+,,22<<AAAAAAAHSZagnnnnliic_YZZZZZYVQMLJIECB:630/.///0333444334555557889;=>@CCCC@>====>@BCCCEIKKKKKLLJFCFKMRW^ZZZVQLKFDDFIKKLLKJFDB@@@>>==;;>BDQ^lov~4'!!!!!!!!!!!!!!!!!!!!!!!!!!!!!!!!",
"!!!!!!!!!!!!!!!!!!!!!!!!!!!!!!!!!!!!!!!!!!!!!!!!!!!!!!!!!!!!!!!!!!!!!!!!!!!!!!!!!!!!!!!!!$%())+++,,11<AHPPUG:2,+(((()++,22<<AAHSHAASXadinooooonic_^^ZZYYVRNMMLKIE=730/..//00333333334555567789:=>@@@@>>====>>@@@@BEIIIIKLMKIEFIINUZZZZVOKID@BCDEFIIIIECB@@>>==;;;>@BLU_go~4'!!!!!!!!!!!!!!!!!!!!!!!!!!!!!!!!",
"!!!!!!!!!!!!!!!!!!!!!!!!!!!!!!!!!!!!!!!!!!!!!!!!!!!!!!!!!!!!!!!!!!!!!!!!!!!!!!!!!!!!!!!!!$%(()+++,11<AHSUUTI=6-+)((()++,12<AAHS[SSHS[gilossvvttniba^ZZYYVROOQQOMK@8300....//00000003455555667889;================@CFFFFJKMLKJFDBKRYYYYUOJEB>>@@BBCDDEDCB@@>>==;;;=>@ELR_l~4'!!!!!!!!!!!!!!!!!!!!!!!!!!!!!!!!",
"!!!!!!!!!!!!!!!!!!!!!!!!!!!!!!!!!!!!!!!!!!!!!!!!!!!!!!!!!!!!!!!!!!!!!!!!!!!!!!!!!!!!!!!!!$%()+//222<<AHUUTRKB;2+))(())+,,2<<AHS[SSHS[ginosvxwwwolgc`ZZYYVUQRTTOLI@9530///.//000000033444455667789:;===;::::998:;=>@CCCCEIKKKKIFDJNRVY^WTOKFBBB@BBBCCDCBBB@@>>>==;=>>DJOWco0'!!!!!!!!!!!!!!!!!!!!!!!!!!!!!!!!",
"!!!!!!!!!!!!!!!!!!!!!!!!!!!!!!!!!!!!!!!!!!!!!!!!!!!!!!!!!!!!!!!!!!!!!!!!!!!!!!!!!!!!!!!!!$&)+0876678<?LTTRRMIB2,)))())++,22<<AS[SSHS[glnsvwyyyyvonga^ZZYWVUUUVOKE@;85300/./000000000333333566667789;=;988887768:=>>@@@@CEJKKLKJIIKKQW_ZWUQLIDCBBBBBBBBBBBBB@>>>=;=>>BFKTZd/%!!!!!!!!!!!!!!!!!!!!!!!!!!!!!!!!",
"!!!!!!!!!!!!!!!!!!!!!!!!!!!!!!!!!!!!!!!!!!!!!!!!!!!!!!!!!!!!!!!!!!!!!!!!!!!!!!!!!!!!!!!!!$&+/8KIB=;98@JRRQQONK8,+))(())+,,12<AHSSSHS[glotwy~~~~yvslc^ZZYYWVVWWQKC@>;8530/./000000000000003465545678:=:8777755368=======@CFIKLLKKIECMVa`^ZVQLIDBB@@@@@@BBBBBB@@>>===>@DINUZ.%!!!!!!!!!!!!!!!!!!!!!!!!!!!!!!!!",
"!!!!!!!!!!!!!!!!!!!!!!!!!!!!!!!!!!!!!!!!!!!!!!!!!!!!!!!!!!!!!!!!!!!!!!!!!!!!!!!!!!!!!!#$$&*-/4;9778;>FNVVVVTRQ<1+))(())++,11<AHSSSS[]insvxy~~~~ywtnea_^ZYYWVVUOKDB>=86330//000000000000003344555778:=:8777755357899:;==>BCEJLLLLKIFMUZZYWWVUQLIFEDDCBDFIJKLKJIFDBBBBDEINTY.%!!!!!!!!!!!!!!!!!!!!!!!!!!!!!!!!",
"!!!!!!!!!!!!!!!!!!!!!!!!!!!!!!!!!!!!!!!!!!!!!!!!!!!!!!!!!!!!!!!!!!!!!!!!!!!!!!!!!!!!!!$&)*-./000007=IMTYYWWWVV?1++)(())+++,1<<ASSSS[flosxyz~~~~yxvnica_^ZYYVUQMKFC@=9743000000000000000000333456789;=:877775534567789;=>>@DFKLLNLKJNRWVVVYZ^WTNLKIIFEILOQRUTQQNLIIFDFIKNRV-%!!!!!!!!!!!!!!!!!!!!!!!!!!!!!!!!",
"!!!!!!!!!!!!!!!!!!!!!!!!!!!!!!!!!!!!!!!!!!!!!!!!!!!!!!!!!!!!!!!!!!!!!!!!!!!!!!!!!!!!!!$)1123/.--..4>QUW^^^^^^^G1,+)(()))++,12<AHSS[]fnsvyzz~~~~zxwolgda^^ZZVRNLKID@=9754300000000000000000003467889;=9877775533335578:==>>BDJLMOOMLNQRTTUYaiaZUQOLKJILQUWZ^ZZYVROMKJKKKNQU-%!!!!!!!!!!!!!!!!!!!!!!!!!!!!!!!!",
"!!!!!!!!!!!!!!!!!!!!!!!!!!!!!!!!!!!!!!!!!!!!!!!!!!!!!!!!!!!!!!!!!!!!!!!!!!!!!!!!!!!!!!%*12/.....038ETVYZ^ZZ^^`H1,+)())))++,12<AHSS[]fnotxyz~zzzyxwsnidb_^ZYUQLKKID@=;8765330000/00000000000034667789:9888887655556789;==>>@CFJLOOOOOQRTUVY_c_ZVUTQOOMQTVWYZ^_a_ZYVUQQOOQRU-%!!!!!!!!!!!!!!!!!!!!!!!!!!!!!!!!",
"!!!!!!!!!!!!!!!!!!!!!!!!!!!!!!!!!!!!!!!!!!!!!!!!!!!!!!!!!!!!!!!!!!!!!!!!!!!!!!!!!!!!!!%*20---./058@KUWYZZZZ^`bH<,,+))))+++,11<AHSS[]floswxyzzyxxwwsnlgc`^YWTOLKJID@=;;98764300//////000000003456677889999::87555578:;===>>@BDIKNOQQQRRUVWY^`^YWWWWVUTUVVWWY_cigeda^YWURTUU-%!!!!!!!!!!!!!!!!!!!!!!!!!!!!!!!!",
"!!!!!!!!!!!!!!!!!!!!!!!!!!!!!!!!!!!!!!!!!!!!!!!!!!!!!!!!!!!!!!!!!!!!!!!!!!!!!!!!!!!!!!%*5/-*-.05:BJQWWYZZYY^adH<1,+))))++,,11<AHSS[]finsvwyzyxwwwwsonida^YVQNKJIID@====;986300/..../0000000034555567789;===:877778:=====>>>@BEJMOQUTTRUVYYYZYYYZZ^ZYWWWWWWW`issoolgc_ZVVVU-%!!!!!!!!!!!!!!!!!!!!!!!!!!!!!!!!",
"!!!!!!!!!!!!!!!!!!!!!!!!!!!!!!!!!!!!!!!!!!!!!!!!!!!!!!!!!!!!!!!!!!!!!!!!!!!!!!!!!!!#$%'*/--*-/59@KOUYYYZZYYZ_aH<1,+))))++,111<AAHSS[]fkpvwyzyxwwwwsonieb`ZWTOKKKKIECCCC@>;7400/..../00000003345555667889;;=;988889;=====>>@BDIKMOQQQQQTUWWWWWWWYZ^ZYYYZZZZZaelnstolic_YWVV3*%$#!!!!!!!!!!!!!!!!!!!!!!!!!!!!!",
"!!!!!!!!!!!!!!!!!!!!!!!!!!!!!!!!!!!!!!!!!!!!!!!!!!!!!!!!!!!!!!!!!!!!!!!!!!!!!!!!!!!$'**---**-09@JQUWYZZZYYYZZ^HA11,+)))++,11<<AAAHSS[]fltwxzyxwwwvtsolida_ZVOKLLMLKJJJJEB>9530/..../000000334555555667889;=;;::::;======>>@DIKLMNOOOOOQTUVVVVVVWYZZZY^_aaaacdglsxtonga^YWV>0*'$!!!!!!!!!!!!!!!!!!!!!!!!!!!!!",
"!!!!!!!!!!!!!!!!!!!!!!!!!!!!!!!!!!!!!!!!!!!!!!!!!!!!!!!!!!!!!!!!!!!!!!!!!!!!!!!!!!!%*=3-****-3BJQYYZZZZZYYYYYYPA<1,+)))++,11<<AAAAHSS[]ktwxzyxwwvvtsonigda^WQKLNOOOOOOOLIC;730/....//00003355555555556778:==============>>BFKLLMMMMMMMOQTTUUUUUVWZZZZ_beeeedcbis~yvsld`^YWOI>*%!!!!!!!!!!!!!!!!!!!!!!!!!!!!!",
"!!!!!!!!!!!!!!!!!!!!!!!!!!!!!!!!!!!!!!!!!!!!!!!!!!!!!!!!!!!!!!!!!!!!!!!!!!!!!!!!!!!%*6/-****-4DLRYYZZZZZZZZZ^^SA<1,+++)+,,11<<AAAHSS[]fntvxzyxxwvvttsonleb_YUOOQQONLLLLJEB;7330/////00003345555567777788:=>>>@@@@@@@@@@@@@DFKLMOOOOOOOOQQQQQRTUVWWYYZ_beddbbccis~yxvoidb`^UME-%!!!!!!!!!!!!!!!!!!!!!!!!!!!!!",
"!!!!!!!!!!!!!!!!!!!!!!!!!!!!!!!!!!!!!!!!!!!!!!!!!!!!!!!!!!!!!!!!!!!!!!!!!!!!!!!!!!!$*0-*****-5IMTYYZZZZZ^^__``SHA1,+++++,,11<AAAHSS[fknpsvxzyyxwvtvvvsonid_ZWUTTTOLKKKKFD@;7530000/000034455555678888899;>@BBCCCCCCCCCCCDDEIJLNQQQQQQQQOOOOOQRUUVVWYZ_bgda`abcls~zyxsniidcZUM-%!!!!!!!!!!!!!!!!!!!!!!!!!!!!!",
"!!!!!!!!!!!!!!!!!!!!!!!!!!!!!!!!!!!!!!!!!!!!!!!!!!!!!!!!!!!!!!!!!!!!!!!!!!!!!!!!!!!$'--*****-6KOUYYYZZZ^_`aabbXPH<1++++,,111AAAHSS[]kttssvxzzyyxvtvwxwtsld`^ZWWVUOLFFFFDB@;8543000000034555555578::::;;;>@BDDFFFFFFFFFFFIIIIILOTTUUUUUQOMMLLOQUUUUVWZ_cgc`Z_adls~~zzwtonliaZU-%!!!!!!!!!!!!!!!!!!!!!!!!!!!!!",
"!!!!!!!!!!!!!!!!!!!!!!!!!!!!!!!!!!!!!!!!!!!!!!!!!!!!!!!!!!!!!!!!!!!!!!!!!!!!!!!!!!!$'-******.7KNRVVVWWYZ_addde_XP<1++++,,111AAASSS[SSS[]]jpzzzzxwvvvwsnlida_^YVUQLICCCCB@>;9754333333345777777789:998889;=>BDFFFFFFFFFFFFIIJKMOTTUUUUUQOMNNOQRUUUUVYZ_bdca_acdls~~~zywtsonic^.%!!!!!!!!!!!!!!!!!!!!!!!!!!!!!",
"!!!!!!!!!!!!!!!!!!!!!!!!!!!!!!!!!!!!!!!!!!!!!!!!!!!!!!!!!!!!!!!!!!!!!!!!!!!!!!!!!!!$'*******/8KMQUUUTVWY_ciiiic_WA1,,,+,,11<AAHSSS[SAAAHS]jyzzzyxvvvtnidccba^ZVQMID@@@@>>>=:976444444457888888899;98777789;>BFFFFFFFFFFFFFIKLNQRTTUUUUQOMOOQRTUUUUVYZ_adcbbcdgnt~~~~zyxwvvolg0%!!!!!!!!!!!!!!!!!!!!!!!!!!!!!",
"!!!!!!!!!!!!!!!!!!!!!!!!!!!!!!!!!!!!!!!!!!!!!!!!!!!!!!!!!!!!!!!!!!!!!!!!!!!!!!!!!!!$%******-09KLOQQQOTVY_dllnniebH1,,,,,111<AAS[[[[A111AASjyzz~zxwvtsld^`bdb`^VOJD@=========;98666555578;;;;;;;;;;875555778=BFFFFFFFFFFFFFJLNOQRTTUUUUQOMOQUUUUUUUVY^_abcddegint~~~~~~~~~~yvs3'!!!!!!!!!!!!!!!!!!!!!!!!!!!!!",
"!!!!!!!!!!!!!!!!!!!!!!!!!!!!!!!!!!!!!!!!!!!!!!!!!!!!!!!!!!!!!!!!!!!!!!!!!!!!!!!!#$$%'*****-/4=JKKKJIDKQV^dlnnolhgP<11,,111<AAAHSAAA11,11ASfxyz~zyxvssliddgiecaYQKEB====>>@@>>=9887777789;;;;:9888877567789;>@CB@@@BCDEFFFFIIILORRQQQRRQQOQRUUUUUUUWY^adiiillllov~~~~~~~~~~yxv3'!!!!!!!!!!!!!!!!!!!!!!!!!!!!!",
"!!!!!!!!!!!!!!!!!!!!!!!!!!!!!!!!!!!!!!!!!!!!!!!!!!!!!!!!!!!!!!!!!!!!!!!!!!!!!!!!$%*******-.48>IFEDB>;CLUZdlnosnliSA111111<AAAAAAA111,,11AS]vxyzzyxvsonllllniidZULFB>===>BDCBB>=:9988889:;;;;987777765789:=>>>@>=:=>@BDFFFFEDCILQQQOOOOQQQRTUUUUUUUWZ_cinoosooosx~~~~~~~~~~zyy4'!!!!!!!!!!!!!!!!!!!!!!!!!!!!!",
"!!!!!!!!!!!!!!!!!!!!!!!!!!!!!!!!!!!!!!!!!!!!!!!!!!!!!!!!!!!!!!!!!!!!!!!!!!!!!!!!$*3-*****-0:>BFD@>:85=FRZcnoossoo[H<<111<AAAHAAA11,+++,1AS]vwxzzyyvsnosssssnli`VMIB>>==@DIFFEC@>=;;;;;;;;;;;87555555579;>>B@>=:878:=@CFFFFC@>DKQOOMMNNORUUUUUUUUUUWZ`eltvxywvsvy~~~~~~~~~~~~~4'!!!!!!!!!!!!!!!!!!!!!!!!!!!!!",
"!!!!!!!!!!!!!!!!!!!!!!!!!!!!!!!!!!!!!!!!!!!!!!!!!!!!!!!!!!!!!!!!!!!!!!!!!!!!!!!!$*0.-****-3;>BFC@=;87>FOWailossso]SAA<1<<AAAAAA11,++)),1<AS]jpyyyywsoooosstsnlbYQLFB@>=@CIIIIEB@>>=====;;:987756777778;=>BDDCB@>=>@BDIKKKKIECDFIKLNMLLNQRTTUUUUUVWZ`diowxyzxwvwy~~~~~~~~~~~~~4'!!!!!!!!!!!!!!!!!!!!!!!!!!!!!",
"!!!!!!!!!!!!!!!!!!!!!!!!!!!!!!!!!!!!!!!!!!!!!!!!!!!!!!!!!!!!!!!!!!!!!!!!!!!!!!!!$*0.-*---.4=>CFB>;;:9@FNV^einssssf[SAA<AAAAAAA11,,+))(+,1AAS[jwxyzwtsoonotwtsnd^UOKDB>=@CFIJKIDB@@>>>>>=;98766678:999;=>BDIIIIFEDEFIKMOOOOMKIEB>DJNMLKLNQQRTUUUVWY_dinsyyzzyxwyz~~~~~~~~~~~~~4'!!!!!!!!!!!!!!!!!!!!!!!!!!!!!",
"!!!!!!!!!!!!!!!!!!!!!!!!!!!!!!!!!!!!!!!!!!!!!!!!!!!!!!!!!!!!!!!!!!!!!!!!!!!!!!!!$*0/-----06=@CFB>:;==BFLTZcinssttkf[SAAAAAAAA<1,,+))((),11AAS]vwyzxvsonlotywtsiaYUNJD@=@CFJKMKIDCB@@@@>=;8755568:>>==>>@DILLLMMMMMMMOQUUUURONE>8>FOLKIKLOQQTTUUVY^binsw~~~~zzyzz~~~~~~~~~~~~~4'!!!!!!!!!!!!!!!!!!!!!!!!!!!!!",
"!!!!!!!!!!!!!!!!!!!!!!!!!!!!!!!!!!!!!!!!!!!!!!!!!!!!!!!!!!!!!!!!!!!!!!!!!!!!!!!!$*00/....06=@CFC@=>>@CEJQWaelosstpkfSHAAAAA<<11,,+))((),11AAS]vwyzxvtoninotssoic^WQLID@CEJKLMKIDDB@@>>>=;8756779=@>>====>@CCDDDDDEFIKMOQQQQQQLE@FLQQRRTUVVVVVVWYZ_diotx~~~~~zzz~~~~~~~~~~~~~~4'!!!!!!!!!!!!!!!!!!!!!!!!!!!!!",
"!!!!!!!!!!!!!!!!!!!!!!!!!!!!!!!!!!!!!!!!!!!!!!!!!!!!!!!!!!!!!!!!!!!!!!!!!!!!!!!!$*333300.37=@CFDB@BBDDEFNV_dioostrpk]SAAA<11111,,+))((),11<AS]vwxzxwtolilnooonieaZUOLIDFIKLLMKIEDB@>>==;;875789=>C@>=;989:;;;====>@BDIKLNOQQRQNLOQUWYZ^^^ZZYYYY^_aelsvx~~~~~~z~~~~~~~~~~~~~~~4'!!!!!!!!!!!!!!!!!!!!!!!!!!!!!",
"!!!!!!!!!!!!!!!!!!!!!!!!!!!!!!!!!!!!!!!!!!!!!!!!!!!!!!!!!!!!!!!!!!!!!!!!!!!!!!!!%*357853/37=@CFEDCDEIFDDLU^bgnosttttf[SAA111,,,,,+))((),11<AS]vwxzywvolgiilllnlie`WROKIJLMMMMKIEDB@>=;;;;87579=>BEB>=9877777777778:=@CFJKMORUVVWWWW^ageedb`^^^^`abintwy~~~~~~~~~~~~~~~~~~~~~~4'!!!!!!!!!!!!!!!!!!!!!!!!!!!!!",
"!!!!!!!!!!!!!!!!!!!!!!!!!!!!!!!!!!!!!!!!!!!!!!!!!!!!!!!!!!!!!!!!!!!!!!!!!!!!!!!!%*357975358=>BEDDDDDDEFIOV^aeinottttk][HA111,,,1,+))((),1111A[svxzyxwolgiiiiiliieaZVTOMMNONNMKJFDB>>=;:9877579=>@B@>=:877777777778:=@CFJKMORUVVVYZ^aeillligddddeiinswxz~~~~~~~~~~~~~~~~~~~~~~4'!!!!!!!!!!!!!!!!!!!!!!!!!!!!!",
"!!!!!!!!!!!!!!!!!!!!!!!!!!!!!!!!!!!!!!!!!!!!!!!!!!!!!!!!!!!!!!!!!!!!!!!!!!!!!!!!%*368;97679;>@DDDEDCBEJLQV^adilosttvpkfSA<1,,,,1,+))((+,1111AXsvwyyxwslgggegiiigeb^YWURRQQONMLJID@==;;98776579=>>@>>=:877777777778:=@CFJKMORUVVVY_ceinossonllnnnostwyzz~~~z~~~~~~~~~~~~~~~~~~4'!!!!!!!!!!!!!!!!!!!!!!!!!!!!!",
"!!!!!!!!!!!!!!!!!!!!!!!!!!!!!!!!!!!!!!!!!!!!!!!!!!!!!!!!!!!!!!!!!!!!!!!!!!!!!!!!%*368==;::::=@CDEFDB@DKOUW^`bdinsttvvvv]HA1,+,,1,+)))(+,111,<Ssvwyyxxslgedddgiggeca^ZYWVURQOMLKID>;;;;8755557:>>=====:877777777778:=@CFJKMORUUVVZbilnsvx~yxvvwwxyzz~~~~~~zzz~~~~~~~~~~~~~~~~~4'!!!!!!!!!!!!!!!!!!!!!!!!!!!!!",
"!!!!!!!!!!!!!!!!!!!!!!!!!!!!!!!!!!!!!!!!!!!!!!!!!!!!!!!!!!!!!!!!!!!!!!!!!!!!!#$%'-58=B@>>=;:=@CDDEDBBILRVY^_acglostvvvvfSA11,,,1,++)))+,1111<Hfkpyyyysnigedgillllgda^YWUROONMKJFC>;;987756779;>>>====;9888888889:=>@BDFJKMOQRTUVZaglotwy~zyxxxxyzz~~~~~~~~z~~~~~~~~~~~~~~~~~~4'!!!!!!!!!!!!!!!!!!!!!!!!!!!!!",
"!!!!!!!!!!!!!!!!!!!!!!!!!!!!!!!!!!!!!!!!!!!!!!!!!!!!!!!!!!!!!!!!!!!!!!!!!!!!!$'*-069@IEDB>=:=@CCDDDCBJOVWY^_`aeioosvvvvf[SA11111,++)))+,,111<AS]kyyyytoiigeinoooolgc_YVTQNMMMKIEB>=987765789;=>>>=====;:::::::=>@@BCDEFJKMNOOQUVZaelowxz~zzyyzzzz~~~~~~~~~~~~~~~~~~~~~~~~~~~~4'!!!!!!!!!!!!!!!!!!!!!!!!!!!!!",
"!!!!!!!!!!!!!!!!!!!!!!!!!!!!!!!!!!!!!!!!!!!!!!!!!!!!!!!!!!!!!!!!!!!!!!!!!!!!!%*=:87=DMKJFB>:=@CCCCCDDKQWYZ^^_`dinosvvvvkf[HA1111,++)))++,,11<AA[fyyzzvoliiglovvwwoleaYUQOLLLMKIDB>=97555579;=>@>>=============@CFFFFFFFJKMMMMOTVY`disyzz~~~~~~~~~~~~~~~~~~~~~~~~~~~~~~~~~~~~~4'!!!!!!!!!!!!!!!!!!!!!!!!!!!!!",
"!!!!!!!!!!!!!!!!!!!!!!!!!!!!!!!!!!!!!!!!!!!!!!!!!!!!!!!!!!!!!!!!!!!!!!!!!!!!!%*>>==CKQONLID@@BCB@@BCDKQWYZZZ^^adilosttvpjfSA<111,,+++++,,,111AASfwxyzwsnlieinstwxsnibZVRNKKKKJFDB>=9756778:=>>B@>===========;:=@CCCCCCCEIKKKKNQTW^aioxyz~~~~~~~~~~~~~~~~~~~~~~~~~~~~~~~~~~~~~4'!!!!!!!!!!!!!!!!!!!!!!!!!!!!!",
"!!!!!!!!!!!!!!!!!!!!!!!!!!!!!!!!!!!!!!!!!!!!!!!!!!!!!!!!!!!!!!!!!!!!!!!!!!!!!%*@BCDKOUTTRNKFEDC@>=>BDLQWYYZZYY^adinssstpnk[SAA111,,,,+,,,1111AASfuwy~xsolieinstvxtond^VRNJJJJIFDB@>:757789;=>@B@>==========;98:=@@@@@@@CEJJJJLNQUY_enwxz~~~~~~~~~~~~~~~~~~~~~~~~~~~~~~~~~~~~~4'!!!!!!!!!!!!!!!!!!!!!!!!!!!!!",
"!!!!!!!!!!!!!!!!!!!!!!!!!!!!!!!!!!!!!!!!!!!!!!!!!!!!!!!!!!!!!!!!!!!!!!!!!!!!!%*CFKMQUWWWWUQMKFC@=:>BELQWWYYYWWY^adioosttsrf[SAA1111,,,,,11111AAS]ru{~xvsnidilosvywsog`WRMIIIFFEEC@>:8578;;=>@BDB>==========:878:=======@CFFFFJLNRWZclvxy~~~~~~~~~~~~~~~~~~~~~~~~~~~~~~~~~~~~~4'!!!!!!!!!!!!!!!!!!!!!!!!!!!!!",
"!!!!!!!!!!!!!!!!!!!!!!!!!!!!!!!!!!!!!!!!!!!!!!!!!!!!!!!!!!!!!!!!!!!!!!!!!!!!!$'*0;QTUVY^`YUOLIC>:7:>CJOUVVVVUTVY^bglnosssrk][SA1111,,,,,11111AAS]prx~ywtoieiilotxwtsibZVOKJIFFFEDB@=989;>>>>BCDCB@@@@>=::::875788888888:=>>>@BEINTYaivwy~~~~~~~~~~~~~~~~~~~~~~~~~~~~~~~~~~~~~4'!!!!!!!!!!!!!!!!!!!!!!!!!!!!!",
"!!!!!!!!!!!!!!!!!!!!!!!!!!!!!!!!!!!!!!!!!!!!!!!!!!!!!!!!!!!!!!!!!!!!!!!!!!!!!$$%*3UUUVZae`WQMIC=857;BIMTTTTQQOTWZ`cilnorsslffSAA11111,,111111AAS]pruzyxwolegiinswwvvne`YRLKJIFFFDCB>=;=>BBBBBDEDDCCCC>;888876555666666677889:=@CJOV`itwy~~~~~~~~~~~~~~~~~~~~~~~~~~~~~~~~~~~~~4'!!!!!!!!!!!!!!!!!!!!!!!!!!!!!",
"!!!!!!!!!!!!!!!!!!!!!!!!!!!!!!!!!!!!!!!!!!!!!!!!!!!!!!!!!!!!!!!!!!!!!!!!!!!!!!!!%-WVVUZdndZUNJC;6359>DKQQOONLKOUY^adilooosnnk]SAA111111111111AAS[qpuzzyyslggeelovwwxoicZVOLKIIFFEDCB@>BCEDDCDEFFFFFFF@:77775533333333333335578;>DLT^itwy~~~~~~~~~~~~~~~~~~~~~~~~~~~~~~~~~~~~~4'!!!!!!!!!!!!!!!!!!!!!!!!!!!!!",
"!!!!!!!!!!!!!!!!!!!!!!!!!!!!!!!!!!!!!!!!!!!!!!!!!!!!!!!!!!!!!!!!!!!!!!!!!!!!!!!!%-RQQOW`i`VNJC>9537;DIKNMLLLLLQW^`bdeillnnnlk][SAA1111111111AAAS]jpuzzyytniiedinstvxsniaZVQLIIIFEDDDDDDDEEDDDEFIIJIIF@=887765544333333333345678:BJQYdnsvyyz~~~~~~~~~~~~~~~~~~~~~~~~~~~~~~~~~~4'!!!!!!!!!!!!!!!!!!!!!!!!!!!!!",
"!!!!!!!!!!!!!!!!!!!!!!!!!!!!!!!!!!!!!!!!!!!!!!!!!!!!!!!!!!!!!!!!!!!!!!!!!!!!!!!!%-LLLKTZcYQJC>97538>JKKKKJIKLMUYabcddeiiillkkf[SSAA1111111<AAAS[]jkryyzzvsnieceinovytongaZVOJIIFFEEFIIIIFEEEEFFIKKKIFB>;987766554444333334455678>FOWainsvxy~~~~~~~~~~~~~~~~~~~~~~~~~~~z~~~~~~4'!!!!!!!!!!!!!!!!!!!!!!!!!!!!!",
"!!!!!!!!!!!!!!!!!!!!!!!!!!!!!!!!!!!!!!!!!!!!!!!!!!!!!!!!!!!!!!!!!!!!!!!!!!!!!!!!%-FFFFNV_ULC>976539BNLKIIEDIKNV^eddddddegiiiiff]SSAAA11111AAAS[[]fkryyzzwtoleadgintywvsnicYRKJIFFFFJKMKJFFFFFFFJKMKJFC@>;87777654444333334444556;CLU^dinsvy~~~~~~~~~~~~~~~~~~~~~~~~~~zzz~~~~~4'!!!!!!!!!!!!!!!!!!!!!!!!!!!!!",
"!!!!!!!!!!!!!!!!!!!!!!!!!!!!!!!!!!!!!!!!!!!!!!!!!!!!!!!!!!!!!!!!!!!!!!!!!!!!!!!!%-JKKKORVNF>;85677>JTOLIFFEKOTW^ccbbbbbcdegiiiff][SAAAAAAAAASS[[]]jpxyyzxvsnicdddlowvvtolg`WQNLKKJJKLMLJFFFFIIJKKLKIFD@>>===>>=;:9876545556779;>DMVZbinsvxy~~~~~~~~~~~~~~~z~~~~~~~~~~~z~~~~~~4'!!!!!!!!!!!!!!!!!!!!!!!!!!!!!",
"!!!!!!!!!!!!!!!!!!!!!!!!!!!!!!!!!!!!!!!!!!!!!!!!!!!!!!!!!!!!!!!!!!!!!!!!!!!!!!!!%-KLNOOONI@;86368=DOYTMIFFELRYZ_aaaaaaaabbdgikkkf][SSAAAAAHSSS[[]]fpwxyzyxwoiddbagnttvvsnld^VUQMLLLLMNLJFFFFIKKKKJIIIDB>@BCDIJIFEB>:87667789;>DIOW`dinsvyyz~~~~~~~~~~~~~~zzz~~~~~~~~~~~~~~~~~4'!!!!!!!!!!!!!!!!!!!!!!!!!!!!!",
"!!!!!!!!!!!!!!!!!!!!!!!!!!!!!!!!!!!!!!!!!!!!!!!!!!!!!!!!!!!!!!!!!!!!!!!!!!!!!!!!%-MOQUOKF@=86436;CLU_VNFFFFNV___________``ceinotpkj][SSSHSS[[[[[[[fkvwyzzyyslgca^cissvwtsoic^YUQOONNNNLJFFFFJKMLJIIIIDB>CILNQTTRRLE@=:8888;>BINUZbinosvy~~~~~~~~~~~~~~~~zzyzz~~~~~~~~~~~~~~~~4'!!!!!!!!!!!!!!!!!!!!!!!!!!!!!",
"!!!!!!!!!!!!!!!!!!!!!!!!!!!!!!!!!!!!!!!!!!!!!!!!!!!!!!!!!!!!!!!!!!!!!!!!!!!!!!!!%-TUVWQJB>;87658>FNU^VOJJJJNTWWWVUTQQQQUWY`dinotrppf][[SSS[[[[[[[[]jprwzzzzvolgc_cgloswtsolgb^WTRQOOOOLJFFFFJLMLKIIJJIIFLOUVYZZZZTLE@=9::;>CINUZaelnosvx~~~~~~~~~~~~~~~~~zzz~~~~zzzyyyyzz~~~~4'!!!!!!!!!!!!!!!!!!!!!!!!!!!!!",
"!!!!!!!!!!!!!!!!!!!!!!!!!!!!!!!!!!!!!!!!!!!!!!!!!!!!!!!!!!!!!!!!!!!!!!!!!!!!!!!!%-WYYZQI>;98888=CKOUYUOKKKKMQTQONLIEDDDKOUZclnrvtrrpkf]][[[[[[[[[[]fjpryzzzxtoldabdglovttsnlgaZVURQQOOLKIFFFJLNLKJKKLLMNTW^abdddcZTKE@;==>CKOVZadinoosvxz~~~~~~~~~~~~~~~~~z~~~~zzyxxxxxyz~~~~4'!!!!!!!!!!!!!!!!!!!!!!!!!!!!!",
"!!!!!!!!!!!!!!!!!!!!!!!!!!!!!!!!!!!!!!!!!!!!!!!!!!!!!!!!!!!!!!!!!!!!!!!!!!!!!!!!%.____QE:9889;=BIMQUWUQMMMMMMMKJFB>::99@IOWalnsvwwxwtrlff]][[[[[[[]]fkpyzz~zxwoibbbbinvvttsnld`YVURQQOMKIIFFJLNLLKKLMOTVZaiinonnncYQKD>>@BIOV^bilnooostxzz~~~~~~~~~~~~~~~~~~~~zzyxwvvvvxy~~~~4'!!!!!!!!!!!!!!!!!!!!!!!!!!!!!",
"!!!!!!!!!!!!!!!!!!!!!!!!!!!!!!!!!!!!!!!!!!!!!!!!!!!!!!!!!!!!!!!!!!!!!!!!!!!!!!!!%/db`^OD9:;=>BEJMQRTUTRQOMKKIFC@=;98889>CJQYcintvwwwtrnff][[SSAHSSS[]jpxyz~zyxsledb`dlostvsonib^YVRQOOLKIIIFKLOOOOQUVWZ_cinnooniec`ZVQMNOQUY_adigeddeeilnnnnnnnoswwxyyyyyyzzyyyyyxwvvvvxy~~~~D-'%$!!!!!!!!!!!!!!!!!!!!!!!!!!",
"!!!!!!!!!!!!!!!!!!!!!!!!!!!!!!!!!!!!!!!!!!!!!!!!!!!!!!!!!!!!!!!!!!!!!!!!!!!!!!!!'0ld`YNB8;>@EKOQRUTRQRTUQLJEC@=87665778;>BKT^cissvwvtsnkf][[SAAAAASS]fpvxyzzyytniea^bgnosvtsoldaZWTQOMLJIIIIKMQRTUWZ_adilosssoldabdida^_`abdgggec`ZZZZ_accccccbglostwwwwwxxxxxxxxxwvvvwxyz~~~^D4*%!!!!!!!!!!!!!!!!!!!!!!!!!!",
"!!!!!!!!!!!!!!!!!!!!!!!!!!!!!!!!!!!!!!!!!!!!!!!!!!!!!!!!!!!!!!!!!!!!!!!!!!!!!!!!'3siaWLB8=@FLRWWWWUQMQUWRLFB>:7533335789;=DMV^gostvvttnic[[SAA11AAAS[fktwxzzzzwsngaZ`dinswvtsnid_WTQOLKJIIIIKNQUWZ`cilosvwywtsiaYblwtsoossssolid_YTTRRUVYYYYYWW_dlnsttttvvwwvvwwxwwvvwwxyzz~~~~~4'!!!!!!!!!!!!!!!!!!!!!!!!!!",
"!!!!!!!!!!!!!!!!!!!!!!!!!!!!!!!!!!!!!!!!!!!!!!!!!!!!!!!!!!!!!!!!!!!!!!!!!!!!!!!!'3seZQJB;BJQVY`ZWUTRQUW^UNFB=976578:=>BBCDIMQYainotttvplif][SA<AAAHS[]kstwyyzzxtsid_acdinttttolib^WUOLKIFIIJLORWZadinosvvvvtsscVKWextsonnnlllgc`VOFIIIJKLLLLMOOUY^^^^^^^`acbbbcddddddeeilnoswxy~4'!!!!!!!!!!!!!!!!!!!!!!!!!!",
"!!!!!!!!!!!!!!!!!!!!!!!!!!!!!!!!!!!!!!!!!!!!!!!!!!!!!!!!!!!!!!!!!!!!!!!!!!!!!!!!'3scVKFB>IQZ_be_WQRTUW^aWOF@;8888=@FIKLLLLLLMUZcinstvvsnlkf]SHAAAAHS[]knstwxz~ywtngaaaaelsstwsnlgb_WQLJIDIJLNQUYaginstwxvsosss^K:Laxvsnliggeeb^YOD;;==>>>>>@BDIKMQOMLLLLNORRRRTUUVVWWWWZ`cilotxz4'!!!!!!!!!!!!!!!!!!!!!!!!!!",
"!!!!!!!!!!!!!!!!!!!!!!!!!!!!!!!!!!!!!!!!!!!!!!!!!!!!!!!!!!!!!!!!!!!!!!!!!!!!!!!!'3saQCCCCNYeilnbWMQUW^aeZQF@;78:=DLUVVWVVUQLJOV^diosvwvssnkk]SHHAASS[]flosvxy~zyxoldba^ciosvxvsolidZTKIFDIKMORU^dnovyyzzvsnoosW@3BZyvsniebbaa^YUI;55666666779;>@BD@=::::=@CCCCDEFIJKKLLQUY`elovz4'!!!!!!!!!!!!!!!!!!!!!!!!!!",
"!!!!!!!!!!!!!!!!!!!!!!!!!!!!!!!!!!!!!!!!!!!!!!!!!!!!!!!!!!!!!!!!!!!!!!!!!!!!!!!!'0n_QCEIKUallii^UKMQUW^aWNE@=8;>BKQYZ^`_^^YVRVY^biostwvttpnkf[SSSASS[]filostx~zzytolieceilnsvtsonli`WQMKFIKKOUYaioswyyxxslginoV>0>Wtsoolieca`WQKB9579;=>>>>>@BDDEEDB>>>>@BCCCCDEFIJKKKKORVY_cins@-'%$!!!!!!!!!!!!!!!!!!!!!!!",
"!!!!!!!!!!!!!!!!!!!!!!!!!!!!!!!!!!!!!!!!!!!!!!!!!!!!!!!!!!!!!!!!!!!!!!!!!!!!!!!!'0iZOCILQZgtnicYOFKMQUW^ULD@>:>CIOW`bdegggc`ZZZZagnotwwwvspnf][SSHSS[]fiilnswzzzzxvsoliiiilotssoonld^VQNKJJJOV^dlvwwxxwwniaeioU=0=Uoooonlida^TJ@;858>DIKMLLKKKJJIIIFEDDDDCCCCCDEFIJKKKKLOQUWZaenV@3*%!!!!!!!!!!!!!!!!!!!!!!!",
"!!!!!!!!!!!!!!!!!!!!!!!!!!!!!!!!!!!!!!!!!!!!!!!!!!!!!!!!!!!!!!!!!!!!!!!!!!!!!!!!%/eYNCKQWbn~og_ULCFKMQUWQKC@>=BIMU^eilnossnieb_Zaeloswwxxvtslfc[SSS[[]cgiiiotzz~~~zzwsnlgdinsssssooibZVQLKIFOWbioyyxxwvtlcZagnR;/;QlnooonngaZOB8776;DNRWZYWVUQNLLKKKLKKKIECCCCDEFIJKKKKKLMOQTYaglsx3'!!!!!!!!!!!!!!!!!!!!!!!",
"!!!!!!!!!!!!!!!!!!!!!!!!!!!!!!!!!!!!!!!!!!!!!!!!!!!!!!!!!!!!!!!!!!!!!!!!!!!!!!!!$*/4:DMV`enwlcZRK@DJMOOQLF@@@>ELTYaiiilllliiiecadinoswwxxwtsnkf][S[[[]flliintyzz~~~zxvsolilnooossssngbZVQNLKTZelsyxvtonid^WZ_bM:0;Ndgiliii_VME>99::@FMKJFEEDDDDDDDDEFEEDDCBBCCDDFIKLLLLMMMNOOUY`dls3'!!!!!!!!!!!!!!!!!!!!!!!",
"!!!!!!!!!!!!!!!!!!!!!!!!!!!!!!!!!!!!!!!!!!!!!!!!!!!!!!!!!!!!!!!!!!!!!!!!!!!!!!!!$$%*0EOZeinsi`WOF>CIMLKKFB>@@@JQW_dliiigedgiliigilostwwxxwvtokic][[[]fkonlinsxyz~~~~zxwtonnnlnoostwsnibZURONV`insywsoleb^WUUVWI90:L^acgddcVK>>==>@BDILC;677789;=>>@@@@@@@@@BBCDDEJLNOOOONMLLLOUW^dl0'!!!!!!!!!!!!!!!!!!!!!!!",
"!!!!!!!!!!!!!!!!!!!!!!!!!!!!!!!!!!!!!!!!!!!!!!!!!!!!!!!!!!!!!!!!!!!!!!!!!!!!!!!!!!!%-FT`nnnndZULD=BIMKFC@>=>@CLU_cinlieca_cinnnnooostwwxxwwvsnigccc]]fltoninswxz~~~~~~~yvsonilnoswywsoiaYVUQYcnovyvoneaYVTOOONB83:IVY_ba`_O>58;>BFKKKK=3..//04678:;;====>>@@BCDDEJLOQQRQOMLKIKNQW_e/%!!!!!!!!!!!!!!!!!!!!!!!",
"!!!!!!!!!!!!!!!!!!!!!!!!!!!!!!!!!!!!!!!!!!!!!!!!!!!!!!!!!!!!!!!!!!!!!!!!!!!!!!!!!!!%-LWbonli`WOIB;>BFD@>>>=@DJQZdca`^YWVVUZaeiilllnnoossvvvvsoniecc]]fksonnosvxy~~~~~~~yxvsonnnnotwvsoibZYWV_gostwslib^WVUQOML@839EUVWYWUTLC;>BEDB@BBB;6333468;=>@@@BBBBBBBCDDEIIKLOOQRQONLKIKLOUY_.%!!!!!!!!!!!!!!!!!!!!!!!",
"!!!!!!!!!!!!!!!!!!!!!!!!!!!!!!!!!!!!!!!!!!!!!!!!!!!!!!!!!!!!!!!!!!!!!!!!!!!!!!!!!!!%-RZeslicZTKD>9;>@>;9;;=BINWalbZTOMKKLLRW`bdiiiiiiilossttssoliecc]fknooossswy~~~~~~~zyywtsolinovtssid_^^Zclvtttnic`ZWVUROLJ>738DQQQOMLJIFEIKLD>99:;:98899=@DDEFFIIIIFFEEEEEIJKLMNOQRQOOMKJKLMQUW-%!!!!!!!!!!!!!!!!!!!!!!!",
"!!!!!!!!!!!!!!!!!!!!!!!!!!!!!!!!!!!!!!!!!!!!!!!!!!!!!!!!!!!!!!!!!!!!!!!!!!!!!!!!!!!%-Waisld_VNF@=889:9878:=DLU^gsbUFC@=>@CKQW^aeeggeddilossttssoliecceilnsttssty~~~~~~~~~~zxwolglnssssleaaaaioywtsld_ZWVUUUOKF=738BNLKIDB>DKQQQRF;55669>CCCCFKMMMMMMMMLLKKIIIIJLMMMMOQRQQOMLJKKLMOQ-%!!!!!!!!!!!!!!!!!!!!!!!",
"!!!!!!!!!!!!!!!!!!!!!!!!!!!!!!!!!!!!!!!!!!!!!!!!!!!!!!!!!!!!!!!!!!!!!!!!!!!!!!!!!!!%.Yaisid_ULC>977787768=BKQY^adWL@BBBDIKOTWZ_aaaa_ZY_cilnssstonlieceiilosssswy~~~~~~~~~~zyxsniilnoosniddeelowpkf[SHHPTRRQKC=;98>FONLKIEDILOLKIB=89;>@CFEDCDDDDDDDCCCDDDFIFFFIKLLLKLMONNMLKJKKLNOQ3*%$$!!!!!!!!!!!!!!!!!!!!",
"!!!!!!!!!!!!!!!!!!!!!!!!!!!!!!!!!!!!!!!!!!!!!!!!!!!!!!!!!!!!!!!!!!!!!!!!!!!!!!!!!!!%.^bioid_UK@;855555558>IOW`^ZWOD=@CIKNQTVWYZ^ZZYVUQVZaelosstsoolieegilnosstwyz~~~~~~~~~~zzvoliiglovoniilnoosk][H<<<GQQOOE=79=@FLRONLKKJKLNIB>===@DIJJKIEC@>====;;9;;=@BEEEEIJKKJJKKKKLLKKJKKLNOQ@5.'$!!!!!!!!!!!!!!!!!!!!",
"!!!!!!!!!!!!!!!!!!!!!!!!!!!!!!!!!!!!!!!!!!!!!!!!!!!!!!!!!!!!!!!!!!!!!!!!!!!!!!!!!!!%._cinic_TI=8633333338BMU^e^UME>8>EMQUWWWWWWWVVUOLIMUYagnosvttsnlggeeilnosvwyzz~~~~~~~~~~~wsniebiowsonostssof[SA1,2<NNMM@838@MOQURONNOONMLD;79>CJNUQOMKFC>:7777755577;>DDDDFIJIIFFIIIIJJJJKLLNOQVZa.%!!!!!!!!!!!!!!!!!!!!",
"!!!!!!!!!!!!!!!!!!!!!!!!!!!!!!!!!!!!!!!!!!!!!!!!!!!!!!!!!!!!!!!!!!!!!!!!!!!!!!!!!!!%._bgld_WMB8753333356=ITW^cYOEC@>CIMOOQQQQQOONMLJFDILQW_ginssssonkiigiilnostttwy~~~~~~~~~~xtoid`dinnllnosonlXA<1228?NMMM@838@MOQURONNOONMLC;79>CIMRQONLKIDB@@@B@>>>@BFKONNMNOONMLLLLMMNNOOQRUVYZ`di0%!!!!!!!!!!!!!!!!!!!!",
"!!!!!!!!!!!!!!!!!!!!!!!!!!!!!!!!!!!!!!!!!!!!!!!!!!!!!!!!!!!!!!!!!!!!!!!!!!!!!!!!!!!%._bdiaYTI=6533300368BMWZ_aUJ>@CEIKMLKKKKKJIEDDDCB@BDFOW`diorssronliiiiilnooooswz~~~~~~~~~ywtlcZ`cgiiilnonliS<1126<DMMMM@838@MOQURONNOONMLC;79>CILOOOONLLLLLLMNNMLNOQTVYWWVVVVUTRRRRRRRUUVWYZ`cgins3'!!!!!!!!!!!!!!!!!!!!",
"!!!!!!!!!!!!!!!!!!!!!!!!!!!!!!!!!!!!!!!!!!!!!!!!!!!!!!!!!!!!!!!!!!!!!!!!!!!!!!!!!!!%._ace^UMB8333300/37=IT____QC8>EMMMMKFCCCC@>========>>FOY`gnorssssoliigeilnnliotzz~~~~~~~~zxwlbYZ^abdgilolidA1+,2>BIMMMM@838@MOQURONNOONLLC;79>CFKNOOOOOORUWYYZZZZ^_`abdba`_^ZZYWWWWWWWYZ^`acintwy~4'!!!!!!!!!!!!!!!!!!!!",
"!!!!!!!!!!!!!!!!!!!!!!!!!!!!!!!!!!!!!!!!!!!!!!!!!!!!!!!!!!!!!!!!!!!!!!!!!!!!!!!!!!!%._abcYOE=733000037>KRZdba_RF=@EKID@>:877754333345678;BJQW_eiloossonnlieiillllovyzz~~~~~~~zyxog````aceegic[SA<12:BFKMKID>;8@KUVVWTOLLLLKFD@>;>DIIIILNQTUVYZ_aabbbbcddeiigeddcbbaaa```aabddgiinswxz~D-'%$!!!!!!!!!!!!!!!!!",
"!!!!!!!!!!!!!!!!!!!!!!!!!!!!!!!!!!!!!!!!!!!!!!!!!!!!!!!!!!!!!!!!!!!!!!!!!!!!!!!!!!!%._`aaUJ>8530/.036>KW^dlgb_UK@CFJB=863000/..----..0368=BJOW_cinoossooligiiillnovyyz~~~~~~~~zzsleca_abdcbaXHAA<<?CIKLMIB=>>@KU^^ZZUOJJKKE@=>@BFKMKEBIMRVY^acgiiiiiiilllnnnllliiiiiiigiiillnoostwyzz~^D4*%!!!!!!!!!!!!!!!!!",
"!!!!!!!!!!!!!!!!!!!!!!!!!!!!!!!!!!!!!!!!!!!!!!!!!!!!!!!!!!!!!!!!!!!!!!!!!!!!!!!!!!!%.____QC86430.-05:IVeinsld_VNFFFF=730.----*******--/379=@IOW^dlnossssnlggggilnstxyz~~~~~~~~~~wsnib^`aca^ZHA<AHONNMMMMD=7=DMU^eca_VNFFIIB;8=CKMORKD=DLUY`dilooossoosssssssssssssssssostvwwxyyzz~~~~~~~~4'!!!!!!!!!!!!!!!!!",
"!!!!!!!!!!!!!!!!!!!!!!!!!!!!!!!!!!!!!!!!!!!!!!!!!!!!!!!!!!!!!!!!!!!!!!!!!!!!!!!!!!!%/a_ZWL@853000/5=IR^inosibZULE@=963/..------*-----.048:>BIMTY`einssssoniiiginosvxyz~~~~~~~~~~wsligda`^XUPHAAAHNNMMKIDB>=CKTW^c`ZWQI@@@@>>>BILKJIEDBKTX_cilnrsrrrrrpppppppprssttvvvtstwxxxxyyyyyxxxwwuu?-%$$!!!!!!!!!!!!!!",
"!!!!!!!!!!!!!!!!!!!!!!!!!!!!!!!!!!!!!!!!!!!!!!!!!!!!!!!!!!!!!!!!!!!!!!!!!!!!!!!!!!!%/c^WTI>7530033:IV^enossi`WQKD;730/...---------..//369;>BFKNUZbelosstsonliiinstvyyzz~~~~~~~~~wolllid^WTHAAAAHLNMMMIB=>BDKQWZ_aZWTKB::::>BEIKMIB>BDIPX]fkkprtrrrrrrppkkkppprrtvwxyxwwxxyyyyyyyxwvtssrppS<-'$!!!!!!!!!!!!!!",
"!!!!!!!!!!!!!!!!!!!!!!!!!!!!!!!!!!!!!!!!!!!!!!!!!!!!!!!!!!!!!!!!!!!!!!!!!!!!!!!!!!!%/e^UMD=740/047DUeinssssg^UNJC80-----------...0333357:=@CEIKQV^cioostssonlilotvxyyzzz~~~~~~~~volnose^THA<AHNNMMMMMD=7=DMTW____WTMD=7777=DNNNND=7=DNX]jqqpruuuuuurrpjjjjjqprruxyz~zzyzz~zzyyxxvtsoonlkjf][-%!!!!!!!!!!!!!!",
"!!!!!!!!!!!!!!!!!!!!!!!!!!!!!!!!!!!!!!!!!!!!!!!!!!!!!!!!!!!!!!!!!!!!!!!!!!!!!!!!!!!$*/5>KB;753048@MZinossoncYOIB;60....../////..03444468;>@CEIKQW_cinosttssoninotwxyyzzzzzzz~zyxslglovlbYUHAHLNMLKKKKFB>DLTVWZYYWQKD@=::::@FNKIDB>=DLUX]jjjqjjf][[SSSSSHHSSSSS[[[[]]]]]]]ffff]][[[[[[[[[[[SS-%!!!!!!!!!!!!!!",
"!!!!!!!!!!!!!!!!!!!!!!!!!!!!!!!!!!!!!!!!!!!!!!!!!!!!!!!!!!!!!!!!!!!!!!!!!!!!!!!!!!!$$%*0F@;75307>LVanossoni_UKB;630.///00000000034666689=>@CFJLRY`cilosvtttsonosvwxzzyyyyxyzzxvsnicioxoiaZUPPNMLKJJJJJJJNTWWWWVUTKC==>@@@@DJMIB=>BDLU[[]]]fj][SSAAAA<<111<AAAAAAAHHHHHHHHHSSSHHHAAAHHHPPSSSS-%!!!!!!!!!!!!!!",
"!!!!!!!!!!!!!!!!!!!!!!!!!!!!!!!!!!!!!!!!!!!!!!!!!!!!!!!!!!!!!!!!!!!!!!!!!!!!!!!!!!!!!!%*C>975339IWaissssnieZQF=7300/0033333333334688889;=>@CFKMTYadglnsvvvvssossvwyzzyyxxwxyzwsoid`io~vnib^VTQMKJFFFFKOUWZ_ZWUQOMD=7:@FFFFJKMD=7=DMU[f]][]]][SAA1111,,,,,11111111<<<<<<<<<<<<<<<<<<<<<??AHHH-%!!!!!!!!!!!!!!",
"!!!!!!!!!!!!!!!!!!!!!!!!!!!!!!!!!!!!!!!!!!!!!!!!!!!!!!!!!!!!!!!!!!!!!!!!!!!!!!!!!!!!!!%*C>:7777BQaelstvvngaVL@:63333345555543333579999;=>@BCFKMTY`dinosvvvvtssstwxyzzzyyxxyyzxtsldagoyvsne_WUQMNNNLKJMRWWYZWTOMKIC>:>CJJJJIIIC@=CLUX[]SSAAAHAA111,,,,,+++,,,,,,,,11111111111111111112<<<<<?G.*%$#!!!!!!!!!!!",
"!!!!!!!!!!!!!!!!!!!!!!!!!!!!!!!!!!!!!!!!!!!!!!!!!!!!!!!!!!!!!!!!!!!!!!!!!!!!!!!!!!!!!!%*C>;89;=KYilosvwynd^QF=85334567888865345578;;;;=>@BBCFKMTY`dinosvvvwvtstvwxyzzzzyyyyzzxwtngagnvvttiaYVQNQTVROKQVZYWWTOKIDBB@@CIKKKKIDBCCDLS[[[[HAA<<<11,,,++++++)++++++++++,,,,,,,,,,,,,,,,,112226<<=3-*%$!!!!!!!!!!!",
"!!!!!!!!!!!!!!!!!!!!!!!!!!!!!!!!!!!!!!!!!!!!!!!!!!!!!!!!!!!!!!!!!!!!!!!!!!!!!!!!!!!!!!%*C>;8=@FUbssssvy~nbWLB87535789;==;:8535678:====>@CCCCFKMTW_diostvvwwwvvwwxyyzzzzzzzzzzyxwniaglsvxzndZVRNTY_WTMTW_ZWUOKFC@=@CFJKMMMMIB=BIMU[][[SA11111,,++))))))))))))))))))++++++++++++++++,,,,122268776*%!!!!!!!!!!!",
"!!!!!!!!!!!!!!!!!!!!!!!!!!!!!!!!!!!!!!!!!!!!!!!!!!!!!!!!!!!!!!!!!!!!!!!!!!!!!!!!!!!!!!%*C@>;BJQZessssssodYOF>88767899988765333578:=>>>@BCCCCFKMRW^agnoswwwvvvvwxxyzzzzzzzzzzzyxxoidilosvxoib^WUWZ_WTMOQTOLJFDCCBBDFJIEDEFIDB@GMUSX[SSAA1,,,,,++)))))))((((((())))))+++++++++++++++++,,,,2222222*$!!!!!!!!!!!",
"!!!!!!!!!!!!!!!!!!!!!!!!!!!!!!!!!!!!!!!!!!!!!!!!!!!!!!!!!!!!!!!!!!!!!!!!!!!!!!!!!!!!!!%*CB@>IQZbissssnlgZQEB=99989:;9765333003578:=>@@BBCCCCFKMQVY`dinsxwvvvvwwxyyz~zzzzzzzzzyyxsniilostwsnid`YZ^_WTMLKID@>>>@BDIJKKE@=>@BBCCLS[XSSHAA11,,,+++))))))((((((((((()))))))))))))))++++++++,,,,22222*$!!!!!!!!!!!",
"!!!!!!!!!!!!!!!!!!!!!!!!!!!!!!!!!!!!!!!!!!!!!!!!!!!!!!!!!!!!!!!!!!!!!!!!!!!!!!!!!!!!!!%*CCCCNYeinssssld_TI==;:;=====86330////0478:=>@CCCCCCCFKMQUW^bglsyxvtvvwxxyzz~~zzzzzzzzzyytolllnosttsslea``_WTMIB=:878:=BIMMMMD=78:=@CFPX][SHAA<1,++++))))))(((((((((((((()))))))))))))))))++++++++,,,,,,&$!!!!!!!!!!!",
"!!!!!!!!!!!!!!!!!!!!!!!!!!!!!!!!!!!!!!!!!!!!!!!!!!!!!!!!!!!!!!!!!!!!!!!!!!!!!!!!!!!!!!%-FIIJT_inossone^VNF>>>=;:86400/.......0358;>@BCCCCCCCFKMQTVZ`dioxwtstvwxxyzz~zzyyxxyyzzyywsonnliecgingaZZZZWRMF@:988;>BEKMLKIB=8:=@DKPSSSSAAA11,,++++)))))(((((((((((((((()))))))))))))))))++++++++,,,,,*&$$#!!!!!!!!",
"!!!!!!!!!!!!!!!!!!!!!!!!!!!!!!!!!!!!!!!!!!!!!!!!!!!!!!!!!!!!!!!!!!!!!!!!!!!!!!!!!!!!!!%-KLMNWbnossoniaWNKE@@@@;860.---*-----./037;@BBCCCCCCCFKMORVY^agnvttstvwxxyyzzzyxwwvwxyyzzxwtsnld^VZaiaZVWWYVQME>889:>CIKLMKEB>=:=@CKPXSHAAAA11,++++))))))(((((((((((((((((()))))))))))))))))++++++++,,,,+**%$!!!!!!!!",
"!!!!!!!!!!!!!!!!!!!!!!!!!!!!!!!!!!!!!!!!!!!!!!!!!!!!!!!!!!!!!!!!!!!!!!!!!!!!!!!!!!!!!!%-MOQU^gssssnieZQFEDCCCC=73.*******----.036;CCCCCCCCCCFKMOQUWZ_dltssssvwxxyyzzyxwvtsvwyyzzzyytol_TIQYc^VQTUWUQMD=78:=BIMMMMIB====@CFPX]SAA1111,++))))))))(((((((((((((((((((()))))))))))))))))+++++++,,,,,,1*$!!!!!!!!",
"!!!!!!!!!!!!!!!!!!!!!!!!!!!!!!!!!!!!!!!!!!!!!!!!!!!!!!!!!!!!!!!!!!!!!!!!!!!!!!!!!!!!!!%-MOQU^gssssnieZQFEDCCCC=73.*******----.036;CCCCCCCCCCFKMOQUWZ_dltssssvwxxyyzzyxwvtsvwyyzzzyytol_TIQYc^VQTUWUQMD=78:=BIMMMMIB====@CFPX]SAA1111,++))))))))(((((((((((((((((((()))))))))))))))))+++++++,,,,,,1*$!!!!!!!!"
};