/* XPM */
static char * Arm_flashlight_1[] = {
"300 300 92 1",
"! c None",
"# c #ffffff",
"$ c #fffffe",
"% c #fefefe",
"& c #fdfdfd",
"' c #faf9f9",
"( c #eeeceb",
") c #d7d2ce",
"* c #e29e76",
"+ c #e09d74",
", c #df9c73",
"- c #bab2ad",
". c #c29d88",
"/ c #da9971",
"0 c #d7966f",
"1 c #d3956f",
"2 c #d0926b",
"3 c #cc916b",
"4 c #ca8e68",
"5 c #c48c67",
"6 c #bf8662",
"7 c #b6825f",
"8 c #918c8a",
"9 c #b07d5a",
": c #ad7957",
"; c #a37656",
"< c #9d6f50",
"= c #936d4f",
"> c #8d6446",
"? c #747477",
"@ c #6e6660",
"A c #795f4a",
"B c #5e5f5f",
"C c #7b593d",
"D c #59595a",
"E c #755237",
"F c #6e5036",
"G c #545151",
"H c #694a30",
"I c #5d493a",
"J c #593f2a",
"K c #4b4c4d",
"L c #48484a",
"M c #444345",
"N c #403d3d",
"O c #393a3a",
"P c #443224",
"Q c #373536",
"R c #343434",
"S c #333132",
"T c #303030",
"U c #2e2d2e",
"V c #2c2b2c",
"W c #2f2927",
"X c #2a2929",
"Y c #282828",
"Z c #2a2524",
"[ c #262526",
"] c #29211d",
"^ c #242424",
"_ c #232222",
"` c #222021",
"a c #211f1f",
"b c #221d1c",
"c c #1d1d1e",
"d c #201b1b",
"e c #1c1b1b",
"f c #1b1a1b",
"g c #201714",
"h c #1c1615",
"i c #1a1919",
"j c #1a1515",
"k c #191819",
"l c #191718",
"m c #181616",
"n c #181313",
"o c #171617",
"p c #161516",
"q c #151415",
"r c #151314",
"s c #161212",
"t c #131213",
"u c #1a100e",
"v c #141011",
"w c #131011",
"x c #101011",
"y c #0f0e0e",
"z c #0e0c0c",
"{ c #0d0909",
"| c #090909",
"} c #070707",
"~ c #030303",
"!!!!!!!!!!!!!!!!!!!!!!!!!!!!!!!!!!!!!!!!!!!!!!!!!!!!!!!!!!!!!!!!!!!!!!!!!!!!!!!!!!!!!!!!!!!!!!!!!!!!!!!!!!!!!!!!!!!!!!!!!!!!!!!!!!!!!!!!!!!!!!!!!!!!!!!!!!!!!!!!!!!!!!!!!!!!!!!!!!!!!!!!!!!!!!!!!!!!!!!!!!!!!!!!!!!!!!!!!!!!!!!!!!!!!!!!!!!!!!!!!!!!!!!!!!!!!!!!!!!!!!!!!!!!!!!!!!!!!!!!!!!!!!!!!!!!!!!!!!!!",
"!!!!!!!!!!!!!!!!!!!!!!!!!!!!!!!!!!!!!!!!!!!!!!!!!!!!!!!!!!!!!!!!!!!!!!!!!!!!!!!!!!!!!!!!!!!!!!!!!!!!!!!!!!!!!!!!!!!!!!!!!!!!!!!!!!!!!!!!!!!!!!!!!!!!!!!!!!!!!!!!!!!!!!!!!!!!!!!!!!!!!!!!!!!!!!!!!!!!!!!!!!!!!!!!!!!!!!!!!!!!!!!!!!!!!!!!!!!!!!!!!!!!!!!!!!!!!!!!!!!!!!!!!!!!!!!!!!!!!!!!!!!!!!!!!!!!!!!!!!!!",
"!!!!!!!!!!!!!!!!!!!!!!!!!!!!!!!!!!!!!!!!!!!!!!!!!!!!!!!!!!!!!!!!!!!!!!!!!!!!!!!!!!!!!!!!!!!!!!!!!!!!!!!!!!!!!!!!!!!!!!!!!!!!!!!!!!!!!!!!!!!!!!!!!!!!!!!!!!!!!!!!!!!!!!!!!!!!!!!!!!!!!!!!!!!!!!!!!!!!!!!!!!!!!!!!!!!!!!!!!!!!!!!!!!!!!!!!!!!!!!!!!!!!!!!!!!!!!!!!!!!!!!!!!!!!!!!!!!!!!!!!!!!!!!!!!!!!!!!!!!!!",
"!!!!!!!!!!!!!!!!!!!!!!!!!!!!!!!!!!!!!!!!!!!!!!!!!!!!!!!!!!!!!!!!!!!!!!!!!!!!!!!!!!!!!!!!!!!!!!!!!!!!!!!!!!!!!!!!!!!!!!!!!!!!!!!!!!!!!!!!!!!!!!!!!!!!!!!!!!!!!!!!!!!!!!!!!!!!!!!!!!!!!!!!!!!!!!!!!!!!!!!!!!!!!!!!!!!!!!!!!!!!!!!!!!!!!!!!!!!!!!!!!!!!!!!!!!!!!!!!!!!!!!!!!!!!!!!!!!!!!!!!!!!!!!!!!!!!!!!!!!!!",
"!!!!!!!!!!!!!!!!!!!!!!!!!!!!!!!!!!!!!!!!!!!!!!!!!!!!!!!!!!!!!!!!!!!!!!!!!!!!!!!!!!!!!!!!!!!!!!!!!!!!!!!!!!!!!!!!!!!!!!!!!!!!!!!!!!!!!!!!!!!!!!!!!!!!!!!!!!!!!!!!!!!!!!!!!!!!!!!!!!!!!!!!!!!!!!!!!!!!!!!!!!!!!!!!!!!!!!!!!!!!!!!!!!!!!!!!!!!!!!!!!!!!!!!!!!!!!!!!!!!!!!!!!!!!!!!!!!!!!!!!!!!!!!!!!!!!!!!!!!!!",
"!!!!!!!!!!!!!!!!!!!!!!!!!!!!!!!!!!!!!!!!!!!!!!!!!!!!!!!!!!!!!!!!!!!!!!!!!!!!!!!!!!!!!!!!!!!!!!!!!!!!!!!!!!!!!!!!!!!!!!!!!!!!!!!!!!!!!!!!!!!!!!!!!!!!!!!!!!!!!!!!!!!!!!!!!!!!!!!!!!!!!!!!!!!!!!!!!!!!!!!!!!!!!!!!!!!!!!!!!!!!!!!!!!!!!!!!!!!!!!!!!!!!!!!!!!!!!!!!!!!!!!!!!!!!!!!!!!!!!!!!!!!!!!!!!!!!!!!!!!!!",
"!!!!!!!!!!!!!!!!!!!!!!!!!!!!!!!!!!!!!!!!!!!!!!!!!!!!!!!!!!!!!!!!!!!!!!!!!!!!!!!!!!!!!!!!!!!!!!!!!!!!!!!!!!!!!!!!!!!!!!!!!!!!!!!!!!!!!!!!!!!!!!!!!!!!!!!!!!!!!!!!!!!!!!!!!!!!!!!!!!!!!!!!!!!!!!!!!!!!!!!!!!!!!!!!!!!!!!!!!!!!!!!!!!!!!!!!!!!!!!!!!!!!!!!!!!!!!!!!!!!!!!!!!!!!!!!!!!!!!!!!!!!!!!!!!!!!!!!!!!!!",
"!!!!!!!!!!!!!!!!!!!!!!!!!!!!!!!!!!!!!!!!!!!!!!!!!!!!!!!!!!!!!!!!!!!!!!!!!!!!!!!!!!!!!!!!!!!!!!!!!!!!!!!!!!!!!!!!!!!!!!!!!!!!!!!!!!!!!!!!!!!!!!!!!!!!!!!!!!!!!!!!!!!!!!!!!!!!!!!!!!!!!!!!!!!!!!!!!!!!!!!!!!!!!!!!!!!!!!!!!!!!!!!!!!!!!!!!!!!!!!!!!!!!!!!!!!!!!!!!!!!!!!!!!!!!!!!!!!!!!!!!!!!!!!!!!!!!!!!!!!!!",
"!!!!!!!!!!!!!!!!!!!!!!!!!!!!!!!!!!!!!!!!!!!!!!!!!!!!!!!!!!!!!!!!!!!!!!!!!!!!!!!!!!!!!!!!!!!!!!!!!!!!!!!!!!!!!!!!!!!!!!!!!!!!!!!!!!!!!!!!!!!!!!!!!!!!!!!!!!!!!!!!!!!!!!!!!!!!!!!!!!!!!!!!!!!!!!!!!!!!!!!!!!!!!!!!!!!!!!!!!!!!!!!!!!!!!!!!!!!!!!!!!!!!!!!!!!!!!!!!!!!!!!!!!!!!!!!!!!!!!!!!!!!!!!!!!!!!!!!!!!!!",
"!!!!!!!!!!!!!!!!!!!!!!!!!!!!!!!!!!!!!!!!!!!!!!!!!!!!!!!!!!!!!!!!!!!!!!!!!!!!!!!!!!!!!!!!!!!!!!!!!!!!!!!!!!!!!!!!!!!!!!!!!!!!!!!!!!!!!!!!!!!!!!!!!!!!!!!!!!!!!!!!!!!!!!!!!!!!!!!!!!!!!!!!!!!!!!!!!!!!!!!!!!!!!!!!!!!!!!!!!!!!!!!!!!!!!!!!!!!!!!!!!!!!!!!!!!!!!!!!!!!!!!!!!!!!!!!!!!!!!!!!!!!!!!!!!!!!!!!!!!!!",
"!!!!!!!!!!!!!!!!!!!!!!!!!!!!!!!!!!!!!!!!!!!!!!!!!!!!!!!!!!!!!!!!!!!!!!!!!!!!!!!!!!!!!!!!!!!!!!!!!!!!!!!!!!!!!!!!!!!!!!!!!!!!!!!!!!!!!!!!!!!!!!!!!!!!!!!!!!!!!!!!!!!!!!!!!!!!!!!!!!!!!!!!!!!!!!!!!!!!!!!!!!!!!!!!!!!!!!!!!!!!!!!!!!!!!!!!!!!!!!!!!!!!!!!!!!!!!!!!!!!!!!!!!!!!!!!!!!!!!!!!!!!!!!!!!!!!!!!!!!!!",
"!!!!!!!!!!!!!!!!!!!!!!!!!!!!!!!!!!!!!!!!!!!!!!!!!!!!!!!!!!!!!!!!!!!!!!!!!!!!!!!!!!!!!!!!!!!!!!!!!!!!!!!!!!!!!!!!!!!!!!!!!!!!!!!!!!!!!!!!!!!!!!!!!!!!!!!!!!!!!!!!!!!!!!!!!!!!!!!!!!!!!!!!!!!!!!!!!!!!!!!!!!!!!!!!!!!!!!!!!!!!!!!!!!!!!!!!!!!!!!!!!!!!!!!!!!!!!!!!!!!!!!!!!!!!!!!!!!!!!!!!!!!!!!!!!!!!!!!!!!!!",
"!!!!!!!!!!!!!!!!!!!!!!!!!!!!!!!!!!!!!!!!!!!!!!!!!!!!!!!!!!!!!!!!!!!!!!!!!!!!!!!!!!!!!!!!!!!!!!!!!!!!!!!!!!!!!!!!!!!!!!!!!!!!!!!!!!!!!!!!!!!!!!!!!!!!!!!!!!!!!!!!!!!!!!!!!!!!!!!!!!!!!!!!!!!!!!!!!!!!!!!!!!!!!!!!!!!!!!!!!!!!!!!!!!!!!!!!!!!!!!!!!!!!!!!!!!!!!!!!!!!!!!!!!!!!!!!!!!!!!!!!!!!!!!!!!!!!!!!!!!!!",
"!!!!!!!!!!!!!!!!!!!!!!!!!!!!!!!!!!!!!!!!!!!!!!!!!!!!!!!!!!!!!!!!!!!!!!!!!!!!!!!!!!!!!!!!!!!!!!!!!!!!!!!!!!!!!!!!!!!!!!!!!!!!!!!!!!!!!!!!!!!!!!!!!!!!!!!!!!!!!!!!!!!!!!!!!!!!!!!!!!!!!!!!!!!!!!!!!!!!!!!!!!!!!!!!!!!!!!!!!!!!!!!!!!!!!!!!!!!!!!!!!!!!!!!!!!!!!!!!!!!!!!!!!!!!!!!!!!!!!!!!!!!!!!!!!!!!!!!!!!!!",
"!!!!!!!!!!!!!!!!!!!!!!!!!!!!!!!!!!!!!!!!!!!!!!!!!!!!!!!!!!!!!!!!!!!!!!!!!!!!!!!!!!!!!!!!!!!!!!!!!!!!!!!!!!!!!!!!!!!!!!!!!!!!!!!!!!!!!!!!!!!!!!!!!!!!!!!!!!!!!!!!!!!!!!!!!!!!!!!!!!!!!!!!!!!!!!!!!!!!!!!!!!!!!!!!!!!!!!!!!!!!!!!!!!!!!!!!!!!!!!!!!!!!!!!!!!!!!!!!!!!!!!!!!!!!!!!!!!!!!!!!!!!!!!!!!!!!!!!!!!!!",
"!!!!!!!!!!!!!!!!!!!!!!!!!!!!!!!!!!!!!!!!!!!!!!!!!!!!!!!!!!!!!!!!!!!!!!!!!!!!!!!!!!!!!!!!!!!!!!!!!!!!!!!!!!!!!!!!!!!!!!!!!!!!!!!!!!!!!!!!!!!!!!!!!!!!!!!!!!!!!!!!!!!!!!!!!!!!!!!!!!!!!!!!!!!!!!!!!!!!!!!!!!!!!!!!!!!!!!!!!!!!!!!!!!!!!!!!!!!!!!!!!!!!!!!!!!!!!!!!!!!!!!!!!!!!!!!!!!!!!!!!!!!!!!!!!!!!!!!!!!!!",
"!!!!!!!!!!!!!!!!!!!!!!!!!!!!!!!!!!!!!!!!!!!!!!!!!!!!!!!!!!!!!!!!!!!!!!!!!!!!!!!!!!!!!!!!!!!!!!!!!!!!!!!!!!!!!!!!!!!!!!!!!!!!!!!!!!!!!!!!!!!!!!!!!!!!!!!!!!!!!!!!!!!!!!!!!!!!!!!!!!!!!!!!!!!!!!!!!!!!!!!!!!!!!!!!!!!!!!!!!!!!!!!!!!!!!!!!!!!!!!!!!!!!!!!!!!!!!!!!!!!!!!!!!!!!!!!!!!!!!!!!!!!!!!!!!!!!!!!!!!!!",
"!!!!!!!!!!!!!!!!!!!!!!!!!!!!!!!!!!!!!!!!!!!!!!!!!!!!!!!!!!!!!!!!!!!!!!!!!!!!!!!!!!!!!!!!!!!!!!!!!!!!!!!!!!!!!!!!!!!!!!!!!!!!!!!!!!!!!!!!!!!!!!!!!!!!!!!!!!!!!!!!!!!!!!!!!!!!!!!!!!!!!!!!!!!!!!!!!!!!!!!!!!!!!!!!!!!!!!!!!!!!!!!!!!!!!!!!!!!!!!!!!!!!!!!!!!!!!!!!!!!!!!!!!!!!!!!!!!!!!!!!!!!!!!!!!!!!!!!!!!!!",
"!!!!!!!!!!!!!!!!!!!!!!!!!!!!!!!!!!!!!!!!!!!!!!!!!!!!!!!!!!!!!!!!!!!!!!!!!!!!!!!!!!!!!!!!!!!!!!!!!!!!!!!!!!!!!!!!!!!!!!!!!!!!!!!!!!!!!!!!!!!!!!!!!!!!!!!!!!!!!!!!!!!!!!!!!!!!!!!!!!!!!!!!!!!!!!!!!!!!!!!!!!!!!!!!!!!!!!!!!!!!!!!!!!!!!!!!!!!!!!!!!!!!!!!!!!!!!!!!!!!!!!!!!!!!!!!!!!!!!!!!!!!!!!!!!!!!!!!!!!!!",
"!!!!!!!!!!!!!!!!!!!!!!!!!!!!!!!!!!!!!!!!!!!!!!!!!!!!!!!!!!!!!!!!!!!!!!!!!!!!!!!!!!!!!!!!!!!!!!!!!!!!!!!!!!!!!!!!!!!!!!!!!!!!!!!!!!!!!!!!!!!!!!!!!!!!!!!!!!!!!!!!!!!!!!!!!!!!!!!!!!!!!!!!!!!!!!!!!!!!!!!!!!!!!!!!!!!!!!!!!!!!!!!!!!!!!!!!!!!!!!!!!!!!!!!!!!!!!!!!!!!!!!!!!!!!!!!!!!!!!!!!!!!!!!!!!!!!!!!!!!!!",
"!!!!!!!!!!!!!!!!!!!!!!!!!!!!!!!!!!!!!!!!!!!!!!!!!!!!!!!!!!!!!!!!!!!!!!!!!!!!!!!!!!!!!!!!!!!!!!!!!!!!!!!!!!!!!!!!!!!!!!!!!!!!!!!!!!!!!!!!!!!!!!!!!!!!!!!!!!!!!!!!!!!!!!!!!!!!!!!!!!!!!!!!!!!!!!!!!!!!!!!!!!!!!!!!!!!!!!!!!!!!!!!!!!!!!!!!!!!!!!!!!!!!!!!!!!!!!!!!!!!!!!!!!!!!!!!!!!!!!!!!!!!!!!!!!!!!!!!!!!!!",
"!!!!!!!!!!!!!!!!!!!!!!!!!!!!!!!!!!!!!!!!!!!!!!!!!!!!!!!!!!!!!!!!!!!!!!!!!!!!!!!!!!!!!!!!!!!!!!!!!!!!!!!!!!!!!!!!!!!!!!!!!!!!!!!!!!!!!!!!!!!!!!!!!!!!!!!!!!!!!!!!!!!!!!!!!!!!!!!!!!!!!!!!!!!!!!!!!!!!!!!!!!!!!!!!!!!!!!!!!!!!!!!!!!!!!!!!!!!!!!!!!!!!!!!!!!!!!!!!!!!!!!!!!!!!!!!!!!!!!!!!!!!!!!!!!!!!!!!!!!!!",
"!!!!!!!!!!!!!!!!!!!!!!!!!!!!!!!!!!!!!!!!!!!!!!!!!!!!!!!!!!!!!!!!!!!!!!!!!!!!!!!!!!!!!!!!!!!!!!!!!!!!!!!!!!!!!!!!!!!!!!!!!!!!!!!!!!!!!!!!!!!!!!!!!!!!!!!!!!!!!!!!!!!!!!!!!!!!!!!!!!!!!!!!!!!!!!!!!!!!!!!!!!!!!!!!!!!!!!!!!!!!!!!!!!!!!!!!!!!!!!!!!!!!!!!!!!!!!!!!!!!!!!!!!!!!!!!!!!!!!!!!!!!!!!!!!!!!!!!!!!!!",
"!!!!!!!!!!!!!!!!!!!!!!!!!!!!!!!!!!!!!!!!!!!!!!!!!!!!!!!!!!!!!!!!!!!!!!!!!!!!!!!!!!!!!!!!!!!!!!!!!!!!!!!!!!!!!!!!!!!!!!!!!!!!!!!!!!!!!!!!!!!!!!!!!!!!!!!!!!!!!!!!!!!!!!!!!!!!!!!!!!!!!!!!!!!!!!!!!!!!!!!!!!!!!!!!!!!!!!!!!!!!!!!!!!!!!!!!!!!!!!!!!!!!!!!!!!!!!!!!!!!!!!!!!!!!!!!!!!!!!!!!!!!!!!!!!!!!!!!!!!!!",
"!!!!!!!!!!!!!!!!!!!!!!!!!!!!!!!!!!!!!!!!!!!!!!!!!!!!!!!!!!!!!!!!!!!!!!!!!!!!!!!!!!!!!!!!!!!!!!!!!!!!!!!!!!!!!!!!!!!!!!!!!!!!!!!!!!!!!!!!!!!!!!!!!!!!!!!!!!!!!!!!!!!!!!!!!!!!!!!!!!!!!!!!!!!!!!!!!!!!!!!!!!!!!!!!!!!!!!!!!!!!!!!!!!!!!!!!!!!!!!!!!!!!!!!!!!!!!!!!!!!!!!!!!!!!!!!!!!!!!!!!!!!!!!!!!!!!!!!!!!!!",
"!!!!!!!!!!!!!!!!!!!!!!!!!!!!!!!!!!!!!!!!!!!!!!!!!!!!!!!!!!!!!!!!!!!!!!!!!!!!!!!!!!!!!!!!!!!!!!!!!!!!!!!!!!!!!!!!!!!!!!!!!!!!!!!!!!!!!!!!!!!!!!!!!!!!!!!!!!!!!!!!!!!!!!!!!!!!!!!!!!!!!!!!!!!!!!!!!!!!!!!!!!!!!!!!!!!!!!!!!!!!!!!!!!!!!!!!!!!!!!!!!!!!!!!!!!!!!!!!!!!!!!!!!!!!!!!!!!!!!!!!!!!!!!!!!!!!!!!!!!!!",
"!!!!!!!!!!!!!!!!!!!!!!!!!!!!!!!!!!!!!!!!!!!!!!!!!!!!!!!!!!!!!!!!!!!!!!!!!!!!!!!!!!!!!!!!!!!!!!!!!!!!!!!!!!!!!!!!!!!!!!!!!!!!!!!!!!!!!!!!!!!!!!!!!!!!!!!!!!!!!!!!!!!!!!!!!!!!!!!!!!!!!!!!!!!!!!!!!!!!!!!!!!!!!!!!!!!!!!!!!!!!!!!!!!!!!!!!!!!!!!!!!!!!!!!!!!!!!!!!!!!!!!!!!!!!!!!!!!!!!!!!!!!!!!!!!!!!!!!!!!!!",
"!!!!!!!!!!!!!!!!!!!!!!!!!!!!!!!!!!!!!!!!!!!!!!!!!!!!!!!!!!!!!!!!!!!!!!!!!!!!!!!!!!!!!!!!!!!!!!!!!!!!!!!!!!!!!!!!!!!!!!!!!!!!!!!!!!!!!!!!!!!!!!!!!!!!!!!!!!!!!!!!!!!!!!!!!!!!!!!!!!!!!!!!!!!!!!!!!!!!!!!!!!!!!!!!!!!!!!!!!!!!!!!!!!!!!!!!!!!!!!!!!!!!!!!!!!!!!!!!!!!!!!!!!!!!!!!!!!!!!!!!!!!!!!!!!!!!!!!!!!!!",
"!!!!!!!!!!!!!!!!!!!!!!!!!!!!!!!!!!!!!!!!!!!!!!!!!!!!!!!!!!!!!!!!!!!!!!!!!!!!!!!!!!!!!!!!!!!!!!!!!!!!!!!!!!!!!!!!!!!!!!!!!!!!!!!!!!!!!!!!!!!!!!!!!!!!!!!!!!!!!!!!!!!!!!!!!!!!!!!!!!!!!!!!!!!!!!!!!!!!!!!!!!!!!!!!!!!!!!!!!!!!!!!!!!!!!!!!!!!!!!!!!!!!!!!!!!!!!!!!!!!!!!!!!!!!!!!!!!!!!!!!!!!!!!!!!!!!!!!!!!!!",
"!!!!!!!!!!!!!!!!!!!!!!!!!!!!!!!!!!!!!!!!!!!!!!!!!!!!!!!!!!!!!!!!!!!!!!!!!!!!!!!!!!!!!!!!!!!!!!!!!!!!!!!!!!!!!!!!!!!!!!!!!!!!!!!!!!!!!!!!!!!!!!!!!!!!!!!!!!!!!!!!!!!!!!!!!!!!!!!!!!!!!!!!!!!!!!!!!!!!!!!!!!!!!!!!!!!!!!!!!!!!!!!!!!!!!!!!!!!!!!!!!!!!!!!!!!!!!!!!!!!!!!!!!!!!!!!!!!!!!!!!!!!!!!!!!!!!!!!!!!!!",
"!!!!!!!!!!!!!!!!!!!!!!!!!!!!!!!!!!!!!!!!!!!!!!!!!!!!!!!!!!!!!!!!!!!!!!!!!!!!!!!!!!!!!!!!!!!!!!!!!!!!!!!!!!!!!!!!!!!!!!!!!!!!!!!!!!!!!!!!!!!!!!!!!!!!!!!!!!!!!!!!!!!!!!!!!!!!!!!!!!!!!!!!!!!!!!!!!!!!!!!!!!!!!!!!!!!!!!!!!!!!!!!!!!!!!!!!!!!!!!!!!!!!!!!!!!!!!!!!!!!!!!!!!!!!!!!!!!!!!!!!!!!!!!!!!!!!!!!!!!!!",
"!!!!!!!!!!!!!!!!!!!!!!!!!!!!!!!!!!!!!!!!!!!!!!!!!!!!!!!!!!!!!!!!!!!!!!!!!!!!!!!!!!!!!!!!!!!!!!!!!!!!!!!!!!!!!!!!!!!!!!!!!!!!!!!!!!!!!!!!!!!!!!!!!!!!!!!!!!!!!!!!!!!!!!!!!!!!!!!!!!!!!!!!!!!!!!!!!!!!!!!!!!!!!!!!!!!!!!!!!!!!!!!!!!!!!!!!!!!!!!!!!!!!!!!!!!!!!!!!!!!!!!!!!!!!!!!!!!!!!!!!!!!!!!!!!!!!!!!!!!!!",
"!!!!!!!!!!!!!!!!!!!!!!!!!!!!!!!!!!!!!!!!!!!!!!!!!!!!!!!!!!!!!!!!!!!!!!!!!!!!!!!!!!!!!!!!!!!!!!!!!!!!!!!!!!!!!!!!!!!!!!!!!!!!!!!!!!!!!!!!!!!!!!!!!!!!!!!!!!!!!!!!!!!!!!!!!!!!!!!!!!!!!!!!!!!!!!!!!!!!!!!!!!!!!!!%&&&%!!!!!!!!!!!!!!!!!!!!!!!!!!!!!!!!!!!!!!!!!!!!!!!!!!!!!!!!!!!!!!!!!!!!!!!!!!!!!!!!!!!!!!!!",
"!!!!!!!!!!!!!!!!!!!!!!!!!!!!!!!!!!!!!!!!!!!!!!!!!!!!!!!!!!!!!!!!!!!!!!!!!!!!!!!!!!!!!!!!!!!!!!!!!!!!!!!!!!!!!!!!!!!!!!!!!!!!!!!!!!!!!!!!!!!!!!!!!!!!!!!!!!!!!!!!!!!!!!!!!!!!!!!!!!!!!!!!!!!!!!!!!!!!!!!!!!!!!!%&&''%!!!!!!!!!!!!!!!!!!!!!!!!!!!!!!!!!!!!!!!!!!!!!!!!!!!!!!!!!!!!!!!!!!!!!!!!!!!!!!!!!!!!!!!!",
"!!!!!!!!!!!!!!!!!!!!!!!!!!!!!!!!!!!!!!!!!!!!!!!!!!!!!!!!!!!!!!!!!!!!!!!!!!!!!!!!!!!!!!!!!!!!!!!!!!!!!!!!!!!!!!!!!!!!!!!!!!!!!!!!!!!!!!!!!!!!!!!!!!!!!!!!!!!!!!!!!!!!!!!!!!!!!!!!!!!!!!!!!!!!!!!!!!!!!!!!!!!!!!%&'''&!!!!!!!!!!!!!!!!!!!!!!!!!!!!!!!!!!!!!!!!!!!!!!!!!!!!!!!!!!!!!!!!!!!!!!!!!!!!!!!!!!!!!!!!",
"!!!!!!!!!!!!!!!!!!!!!!!!!!!!!!!!!!!!!!!!!!!!!!!!!!!!!!!!!!!!!!!!!!!!!!!!!!!!!!!!!!!!!!!!!!!!!!!!!!!!!!!!!!!!!!!!!!!!!!!!!!!!!!!!!!!!!!!!!!!!!!!!!!!!!!!!!!!!!!!!!!!!!!!!!!!!!!!!!!!!!!!!!!!!!!!!!!!!!!!!!!!!!!%%&&&%!!!!!!!!!!!!!!!!!!!!!!!!!!!!!!!!!!!!!!!!!!!!!!!!!!!!!!!!!!!!!!!!!!!!!!!!!!!!!!!!!!!!!!!!",
"!!!!!!!!!!!!!!!!!!!!!!!!!!!!!!!!!!!!!!!!!!!!!!!!!!!!!!!!!!!!!!!!!!!!!!!!!!!!!!!!!!!!!!!!!!!!!!!!!!!!!!!!!!!!!!!!!!!!!!!!!!!!!!!!!!!!!!!!!!!!!!!!!!!!!!!!!!!!!!!!!!!!!!!!!!!!!!!!!!!!!!!!!!!!!!!!!!!!!!!!!!!!!!%%%&%!!!!!!!!!!!!!!!!!!!!!!!!!!!!!!!!!!!!!!!!!!!!!!!!!!!!!!!!!!!!!!!!!!!!!!!!!!!!!!!!!!!!!!!!!",
"!!!!!!!!!!!!!!!!!!!!!!!!!!!!!!!!!!!!!!!!!!!!!!!!!!!!!!!!!!!!!!!!!!!!!!!!!!!!!!!!!!!!!!!!!!!!!!!!!!!!!!!!!!!!!!!!!!!!!!!!!!!!!!!!!!!!!!!!!!!!!!!!!!!!!!!!!!!!!!!!!!!!!!!!!!!!!!!!!!!!!!!!!!!!!!!!!!!!!!!!!!!!!!!%%%%!!!!!!!!!!!!!!!!!!!!!!!!!!!!!!!!!!!!!!!!!!!!!!!!!!!!!!!!!!!!!!!!!!!!!!!!!!!!!!!!!!!!!!!!!",
"!!!!!!!!!!!!!!!!!!!!!!!!!!!!!!!!!!!!!!!!!!!!!!!!!!!!!!!!!!!!!!!!!!!!!!!!!!!!!!!!!!!!!!!!!!!!!!!!!!!!!!!!!!!!!!!!!!!!!!!!!!!!!!!!!!!!!!!!!!!!!!!!!!!!!!!!!!!!!!!!!!!!!!!!!!!!!!!!!!!!!!!!!!!!!!!!!!!!!!!!!!!!!!!!!!!!!!!!!!!!!!!!!!!!!!!!!!!!!!!!!!!!!!!!!!!!!!!!!!!!!!!!!!!!!!!!!!!!!!!!!!!!!!!!!!!!!!!!!!!!",
"!!!!!!!!!!!!!!!!!!!!!!!!!!!!!!!!!!!!!!!!!!!!!!!!!!!!!!!!!!!!!!!!!!!!!!!!!!!!!!!!!!!!!!!!!!!!!!!!!!!!!!!!!!!!!!!!!!!!!!!!!!!!!!!!!!!!!!!!!!!!!!!!!!!!!!!!!!!!!!!!!!!!!!!!!!!!!!!!!!!!!!!!!!!!!!!!!!!!!!!!!!!!!!!!!!!!!!!!!!!!!!!!!!!!!!!!!!!!!!!!!!!!!!!!!!!!!!!!!!!!!!!!!!!!!!!!!!!!!!!!!!!!!!!!!!!!!!!!!!!!",
"!!!!!!!!!!!!!!!!!!!!!!!!!!!!!!!!!!!!!!!!!!!!!!!!!!!!!!!!!!!!!!!!!!!!!!!!!!!!!!!!!!!!!!!!!!!!!!!!!!!!!!!!!!!!!!!!!!!!!!!!!!!!!!!!!!!!!!!!!!!!!!!!!!!!!!!!!!!!!!!!!!!!!!!!!!!!!!!!!!!!!!!!!!!!!!!!!!!!!!!!!!!!!!!!!!!!!!!!!!!!!!!!!!!!!!!!!!!!!!!!!!!!!!!!!!!!!!!!!!!!!!!!!!!!!!!!!!!!!!!!!!!!!!!!!!!!!!!!!!!!",
"!!!!!!!!!!!!!!!!!!!!!!!!!!!!!!!!!!!!!!!!!!!!!!!!!!!!!!!!!!!!!!!!!!!!!!!!!!!!!!!!!!!!!!!!!!!!!!!!!!!!!!!!!!!!!!!!!!!!!!!!!!!!!!!!!!!!!!!!!!!!!!!!!!!!!!!!!!!!!!!!!!!!!!!!!!!!!!!!!!!!!!!!!!!!!!!!!!!!!!!!!!!!!!!!!!!!!!!!!!!!!!!!!!!!!!!!!!!!!!!!!!!!!!!!!!!!!!!!!!!!!!!!!!!!!!!!!!!!!!!!!!!!!!!!!!!!!!!!!!!!",
"!!!!!!!!!!!!!!!!!!!!!!!!!!!!!!!!!!!!!!!!!!!!!!!!!!!!!!!!!!!!!!!!!!!!!!!!!!!!!!!!!!!!!!!!!!!!!!!!!!!!!!!!!!!!!!!!!!!!!!!!!!!!!!!!!!!!!!!!!!!!!!!!!!!!!!!!!!!!!!!!!!!!!!!!!!!!!!!!!!!!!!!!!!!!!!!!!!!!!!!!!!!!!!!!!!!!!!!!!!!!!!!!!!!!!!!!!!!!!!!!!!!!!!!!!!!!!!!!!!!!!!!!!!!!!!!!!!!!!!!!!!!!!!!!!!!!!!!!!!!!",
"!!!!!!!!!!!!!!!!!!!!!!!!!!!!!!!!!!!!!!!!!!!!!!!!!!!!!!!!!!!!!!!!!!!!!!!!!!!!!!!!!!!!!!!!!!!!!!!!!!!!!!!!!!!!!!!!!!!!!!!!!!!!!!!!!!!!!!!!!!!!!!!!!!!!!!!!!!!!!!!!!!!!!!!!!!!!!!!!!!!!!!!!!!!!!!!!!!!!!!!!!!!!!!!!!!!!!!!!!!!!!!!!!!!!!!!!!!!!!!!!!!!!!!!!!!!!!!!!!!!!!!!!!!!!!!!!!!!!!!!!!!!!!!!!!!!!!!!!!!!!",
"!!!!!!!!!!!!!!!!!!!!!!!!!!!!!!!!!!!!!!!!!!!!!!!!!!!!!!!!!!!!!!!!!!!!!!!!!!!!!!!!!!!!!!!!!!!!!!!!!!!!!!!!!!!!!!!!!!!!!!!!!!!!!!!!!!!!!!!!!!!!!!!!!!!!!!!!!!!!!!!!!!!!!!!!!!!!!!!!!!!!!!!!!!!!!!!!!!!!!!!!!!!!!!!!!!!!!!!!!!!!!!!!!!!!!!!!!!!!!!!!!!!!!!!!!!!!!!!!!!!!!!!!!!!!!!!!!!!!!!!!!!!!!!!!!!!!!!!!!!!!",
"!!!!!!!!!!!!!!!!!!!!!!!!!!!!!!!!!!!!!!!!!!!!!!!!!!!!!!!!!!!!!!!!!!!!!!!!!!!!!!!!!!!!!!!!!!!!!!!!!!!!!!!!!!!!!!!!!!!!!!!!!!!!!!!!!!!!!!!!!!!!!!!!!!!!!!!!!!!!!!!!!!!!!!!!!!!!!!!!!!!!!!!!!!!!!!!!!!!!!!!!!!!!!!!!!!!!!!!!!!!!!!!!!!!!!!!!!!!!!!!!!!!!!!!!!!!!!!!!!!!!!!!!!!!!!!!!!!!!!!!!!!!!!!!!!!!!!!!!!!!!",
"!!!!!!!!!!!!!!!!!!!!!!!!!!!!!!!!!!!!!!!!!!!!!!!!!!!!!!!!!!!!!!!!!!!!!!!!!!!!!!!!!!!!!!!!!!!!!!!!!!!!!!!!!!!!!!!!!!!!!!!!!!!!!!!!!!!!!!!!!!!!!!!!!!!!!!!!!!!!!!!!!!!!!!!!!!!!!!!!!!!!!!!!!!!!!!!!!!!!!!!!!!!!!!!!!!!!!!!!!!!!!!!!!!!!!!!!!!!!!!!!!!!!!!!!!!!!!!!!!!!!!!!!!!!!!!!!!!!!!!!!!!!!!!!!!!!!!!!!!!!!",
"!!!!!!!!!!!!!!!!!!!!!!!!!!!!!!!!!!!!!!!!!!!!!!!!!!!!!!!!!!!!!!!!!!!!!!!!!!!!!!!!!!!!!!!!!!!!!!!!!!!!!!!!!!!!!!!!!!!!!!!!!!!!!!!!!!!!!!!!!!!!!!!!!!!!!!!!!!!!!!!!!!!!!!!!!!!!!!!!!!!!!!!!!!!!!!!!!!!!!!!!!!!!!!!!!!!!!!!!!!!!!!!!!!!!!!!!!!!!!!!!!!!!!!!!!!!!!!!!!!!!!!!!!!!!!!!!!!!!!!!!!!!!!!!!!!!!!!!!!!!!",
"!!!!!!!!!!!!!!!!!!!!!!!!!!!!!!!!!!!!!!!!!!!!!!!!!!!!!!!!!!!!!!!!!!!!!!!!!!!!!!!!!!!!!!!!!!!!!!!!!!!!!!!!!!!!!!!!!!!!!!!!!!!!!!!!!!!!!!!!!!!!!!!!!!!!!!!!!!!!!!!!!!!!!!!!!!!!!!!!!!!!!!!!!!!!!!!!!!!!!!!!!!!!!!!!!!!!!!!!!!!!!!!!!!!!!!!!!!!!!!!!!!!!!!!!!!!!!!!!!!!!!!!!!!!!!!!!!!!!!!!!!!!!!!!!!!!!!!!!!!!!",
"!!!!!!!!!!!!!!!!!!!!!!!!!!!!!!!!!!!!!!!!!!!!!!!!!!!!!!!!!!!!!!!!!!!!!!!!!!!!!!!!!!!!!!!!!!!!!!!!!!!!!!!!!!!!!!!!!!!!!!!!!!!!!!!!!!!!!!!!!!!!!!!!!!!!!!!!!!!!!!!!!!!!!!!!!!!!!!!!!!!!!!!!!!!!!!!!!!!!!!!!!!!!!!!!!!!!!!!!!!!!!!!!!!!!!!!!!!!!!!!!!!!!!!!!!!!!!!!!!!!!!!!!!!!!!!!!!!!!!!!!!!!!!!!!!!!!!!!!!!!!",
"!!!!!!!!!!!!!!!!!!!!!!!!!!!!!!!!!!!!!!!!!!!!!!!!!!!!!!!!!!!!!!!!!!!!!!!!!!!!!!!!!!!!!!!!!!!!!!!!!!!!!!!!!!!!!!!!!!!!!!!!!!!!!!!!!!!!!!!!!!!!!!!!!!!!!!!!!!!!!!!!!!!!!!!!!!!!!!!!!!!!!!!!!!!!!!!!!!!!!!!!!!!!!!!!!!!!!!!!!!!!!!!!!!!!!!!!!!!!!!!!!!!!!!!!!!!!!!!!!!!!!!!!!!!!!!!!!!!!!!!!!!!!!!!!!!!!!!!!!!!!",
"!!!!!!!!!!!!!!!!!!!!!!!!!!!!!!!!!!!!!!!!!!!!!!!!!!!!!!!!!!!!!!!!!!!!!!!!!!!!!!!!!!!!!!!!!!!!!!!!!!!!!!!!!!!!!!!!!!!!!!!!!!!!!!!!!!!!!!!!!!!!!!!!!!!!!!!!!!!!!!!!!!!!!!!!!!!!!!!!!!!!!!!!!!!!!!!!!!!!!!!!!!!!!!!!!!!!!!!!!!!!!!!!!!!!!!!!!!!!!!!!!!!!!!!!!!!!!!!!!!!!!!!!!!!!!!!!!!!!!!!!!!!!!!!!!!!!!!!!!!!!",
"!!!!!!!!!!!!!!!!!!!!!!!!!!!!!!!!!!!!!!!!!!!!!!!!!!!!!!!!!!!!!!!!!!!!!!!!!!!!!!!!!!!!!!!!!!!!!!!!!!!!!!!!!!!!!!!!!!!!!!!!!!!!!!!!!!!!!!!!!!!!!!!!!!!!!!!!!!!!!!!!!!!!!!!!!!!!!!!!!!!!!!!!!!!!!!!!!!!!!!!!!!!!!!!!!!!!!!!!!!!!!!!!!!!!!!!!!!!!!!!!!!!!!!!!!!!!!!!!!!!!!!!!!!!!!!!!!!!!!!!!!!!!!!!!!!!!!!!!!!!!",
"!!!!!!!!!!!!!!!!!!!!!!!!!!!!!!!!!!!!!!!!!!!!!!!!!!!!!!!!!!!!!!!!!!!!!!!!!!!!!!!!!!!!!!!!!!!!!!!!!!!!!!!!!!!!!!!!!!!!!!!!!!!!!!!!!!!!!!!!!!!!!!!!!!!!!!!!!!!!!!!!!!!!!!!!!!!!!!!!!!!!!!!!!!!!!!!!!!!!!!!!!!!!!!!!!!!!!!!!!!!!!!!!!!!!!!!!!!!!!!!!!!!!!!!!!!!!!!!!!!!!!!!!!!!!!!!!!!!!!!!!!!!!!!!!!!!!!!!!!!!!",
"!!!!!!!!!!!!!!!!!!!!!!!!!!!!!!!!!!!!!!!!!!!!!!!!!!!!!!!!!!!!!!!!!!!!!!!!!!!!!!!!!!!!!!!!!!!!!!!!!!!!!!!!!!!!!!!!!!!!!!!!!!!!!!!!!!!!!!!!!!!!!!!!!!!!!!!!!!!!!!!!!!!!!!!!!!!!!!!!!!!!!!!!!!!!!!!!!!!!!!!!!!!!!!!!!!!!!!!!!!!!!!!!!!!!!!!!!!!!!!!!!!!!!!!!!!!!!!!!!!!!!!!!!!!!!!!!!!!!!!!!!!!!!!!!!!!!!!!!!!!!",
"!!!!!!!!!!!!!!!!!!!!!!!!!!!!!!!!!!!!!!!!!!!!!!!!!!!!!!!!!!!!!!!!!!!!!!!!!!!!!!!!!!!!!!!!!!!!!!!!!!!!!!!!!!!!!!!!!!!!!!!!!!!!!!!!!!!!!!!!!!!!!!!!!!!!!!!!!!!!!!!!!!!!!!!!!!!!!!!!!!!!!!!!!!!!!!!!!!!!!!!!!!!!!!!!!!!!!!!!!!!!!!!!!!!!!!!!!!!!!!!!!!!!!!!!!!!!!!!!!!!!!!!!!!!!!!!!!!!!!!!!!!!!!!!!!!!!!!!!!!!!",
"!!!!!!!!!!!!!!!!!!!!!!!!!!!!!!!!!!!!!!!!!!!!!!!!!!!!!!!!!!!!!!!!!!!!!!!!!!!!!!!!!!!!!!!!!!!!!!!!!!!!!!!!!!!!!!!!!!!!!!!!!!!!!!!!!!!!!!!!!!!!!!!!!!!!!!!!!!!!!!!!!!!!!!!!!!!!!!!!!!!!!!!!!!!!!!!!!!!!!!!!!!!!!!!!!!!!!!!!!!!!!!!!!!!!!!!!!!!!!!!!!!!!!!!!!!!!!!!!!!!!!!!!!!!!!!!!!!!!!!!!!!!!!!!!!!!!!!!!!!!!",
"!!!!!!!!!!!!!!!!!!!!!!!!!!!!!!!!!!!!!!!!!!!!!!!!!!!!!!!!!!!!!!!!!!!!!!!!!!!!!!!!!!!!!!!!!!!!!!!!!!!!!!!!!!!!!!!!!!!!!!!!!!!!!!!!!!!!!!!!!!!!!!!!!!!!!!!!!!!!!!!!!!!!!!!!!!!!!!!!!!!!!!!!!!!!!!!!!!!!!!!!!!!!!!!!!!!!!!!!!!!!!!!!!!!!!!!!!!!!!!!!!!!!!!!!!!!!!!!!!!!!!!!!!!!!!!!!!!!!!!!!!!!!!!!!!!!!!!!!!!!!",
"!!!!!!!!!!!!!!!!!!!!!!!!!!!!!!!!!!!!!!!!!!!!!!!!!!!!!!!!!!!!!!!!!!!!!!!!!!!!!!!!!!!!!!!!!!!!!!!!!!!!!!!!!!!!!!!!!!!!!!!!!!!!!!!!!!!!!!!!!!!!!!!!!!!!!!!!!!!!!!!!!!!!!!!!!!!!!!!!!!!!!!!!!!!!!!!!!!!!!!!!!!!!!!!!!!!!!!!!!!!!!!!!!!!!!!!!!!!!!!!!!!!!!!!!!!!!!!!!!!!!!!!!!!!!!!!!!!!!!!!!!!!!!!!!!!!!!!!!!!!!",
"!!!!!!!!!!!!!!!!!!!!!!!!!!!!!!!!!!!!!!!!!!!!!!!!!!!!!!!!!!!!!!!!!!!!!!!!!!!!!!!!!!!!!!!!!!!!!!!!!!!!!!!!!!!!!!!!!!!!!!!!!!!!!!!!!!!!!!!!!!!!!!!!!!!!!!!!!!!!!!!!!!!!!!!!!!!!!!!!!!!!!!!!!!!!!!!!!!!!!!!!!!!!!!!!!!!!!!!!!!!!!!!!!!!!!!!!!!!!!!!!!!!!!!!!!!!!!!!!!!!!!!!!!!!!!!!!!!!!!!!!!!!!!!!!!!!!!!!!!!!!",
"!!!!!!!!!!!!!!!!!!!!!!!!!!!!!!!!!!!!!!!!!!!!!!!!!!!!!!!!!!!!!!!!!!!!!!!!!!!!!!!!!!!!!!!!!!!!!!!!!!!!!!!!!!!!!!!!!!!!!!!!!!!!!!!!!!!!!!!!!!!!!!!!!!!!!!!!!!!!!!!!!!!!!!!!!!!!!!!!!!!!!!!!!!!!!!!!!!!!!!!!!!!!!!!!!!!!!!!!!!!!!!!!!!!!!!!!!!!!!!!!!!!!!!!!!!!!!!!!!!!!!!!!!!!!!!!!!!!!!!!!!!!!!!!!!!!!!!!!!!!!",
"!!!!!!!!!!!!!!!!!!!!!!!!!!!!!!!!!!!!!!!!!!!!!!!!!!!!!!!!!!!!!!!!!!!!!!!!!!!!!!!!!!!!!!!!!!!!!!!!!!!!!!!!!!!!!!!!!!!!!!!!!!!!!!!!!!!!!!!!!!!!!!!!!!!!!!!!!!!!!!!!!!!!!!!!!!!!!!!!!!!!!!!!!!!!!!!!!!!!!!!!!!!!!!!!!!!!!!!!!!!!!!!!!!!!!!!!!!!!!!!!!!!!!!!!!!!!!!!!!!!!!!!!!!!!!!!!!!!!!!!!!!!!!!!!!!!!!!!!!!!!",
"!!!!!!!!!!!!!!!!!!!!!!!!!!!!!!!!!!!!!!!!!!!!!!!!%%&&&&&&&&&&&%!!!!!!!!!!!!!!!!!!!!!!!!!!!!!!!!!!!!!!!!!!!!!!!!!!!!!!!!!!!!!!!!!!!!!!!!!!!!!!!!!!!!!!!!!!!!!!!!!!!!!!!!!!!!!!!!!!!!!!!!!!!!!!!!!!!!!!!!!!!!!!!!!!!!!!!!!!!!!!!!!!!!!!!!!!!!!!!!!!!!!!!!!!!!!!!!!!!!!!!!!!!!!!!!!!!!!!!!!!!!!!!!!!!!!!!!!!!!!!",
"!!!!!!!!!!!!!!!!!!!!!!!!!!!!!!!!!!!!!!!!!!!!!!!!&'''(''''''''&!!!!!!!!!!!!!!!!!!!!!!!!!!!!!!!!!!!!!!!!!!!!!!!!!!!!!!!!!!!!!!!!!!!!!!!!!!!!!!!!!!!!!!!!!!!!!!!!!!!!!!!!!!!!!!!!!!!!!!!!!!!!!!!!!!!!!!!!!!!!!!!!!!!!!!!!!!!!!!!!!!!!!!!!!!!!!!!!!!!!!!!!!!!!!!!!!!!!!!!!!!!!!!!!!!!!!!!!!!!!!!!!!!!!!!!!!!!!!!",
"!!!!!!!!!!!!!!!!!!!!!!!!!!!!!!!!!!!!!!!!!!!!%%%&''((((((('((('&&&&&&%!!!!!!!!!!!!!!!!!!!!!!!!!!!!!!!!!!!!!!!!!!!!!!!!!!!!!!!!!!!!!!!!!!!!!!!!!!!!!!!!!!!!!!!!!!!!!!!!!!!!!!!!!!!!!!!!!!!!!!!!!!!!!!!!!!!!!!!!!!!!!!!!!!!!!!!!!!!!!!!!!!!!!!!!!!!!!!!!!!!!!!!!!!!!!!!!!!!!!!!!!!!!!!!!!!!!!!!!!!!!!!!!!!!!!!!",
"!!!!!!!!!!!!!!!!!!!!!!!!!!!!!!!!!!!!!!!!!%&''(((())))))))))---))))))('&!!!!!!!!!!!!!!!!!!!!!!!!!!!!!!!!!!!!!!!!!!!!!!!!!!!!!!!!!!!!!!!!!!!!!!!!!!!!!!!!!!!!!!!!!!!!!!!!!!!!!!!!!!!!!!!!!!!!!!!!!!!!!!!!!!!!!!!!!!!!!!!!!!!!!!!!!!!!!!!!!!!!!!!!!!!!!!!!!!!!!!!!!!!!!!!!!!!!!!!!!!!!!!!!!!!!!!!!!!!!!!!!!!!!!",
"!!!!!!!!!!!!!!!!!!!!!!!!!!!!!!!!!!!!!!!!!&''()))))--------888888888-)('!!!!!!!!!!!!!!!!!!!!!!!!!!!!!!!!!!!!!!!!!!!!!!!!!!!!!!!!!!!!!!!!!!!!!!!!!!!!!!!!!!!!!!!!!!!!!!!!!!!!!!!!!!!!!!!!!!!!!!!!!!!!!!!!!!!!!!!!!!!!!!!!!!!!!!!!!!!!!!!!!!!!!!!!!!!!!!!!!!!!!!!!!!!!!!!!!!!!!!!!!!!!!!!!!!!!!!!!!!!!!!!!!!!!!",
"!!!!!!!!!!!!!!!!!!!!!!!!!!!!!!!!!!!!!!%'(())----8888888888?BBBBB@@@8-)))))(('&!!!!!!!!!!!!!!!!!!!!!!!!!!!!!!!!!!!!!!!!!!!!!!!!!!!!!!!!!!!!!!!!!!!!!!!!!!!!!!!!!!!!!!!!!!!!!!!!!!!!!!!!!!!!!!!!!!!!!!!!!!!!!!!!!!!!!!!!!!!!!!!!!!!!!!!!!!!!!!!!!!!!!!!!!!!!!!!!!!!!!!!!!!!!!!!!!!!!!!!!!!!!!!!!!!!!!!!!!!!!!!",
"!!!!!!!!!!!!!!!!!!!!!!!!!!!!!!!!!!!!!%%())-88??@@BDDGGGGGGLNNOONNMMD?88888-)''!!!!!!!!!!!!!!!!!!!!!!!!!!!!!!!!!!!!!!!!!!!!!!!!!!!!!!!!!!!!!!!!!!!!!!!!!!!!!!!!!!!!!!!!!!!!!!!!!!!!!!!!!!!!!!!!!!!!!!!!!!!!!!!!!!!!!!!!!!!!!!!!!!!!!!!!!!!!!!!!!!!!!!!!!!!!!!!!!!!!!!!!!!!!!!!!!!!!!!!!!!!!!!!!!!!!!!!!!!!!!!",
"!!!!!!!!!!!!!!!!!!!!!!!!!!!!!!!!!%&''(()--8?BKLMNOQSSTUUTSWZZ__ZXWUOKGDDB@8-(('&%!!!!!!!!!!!!!!!!!!!!!!!!!!!!!!!!!!!!!!!!!!!!!!!!!!!!!!!!!!!!!!!!!!!!!!!!!!!!!!!!!!!!!!!!!!!!!!!!!!!!!!!!!!!!!!!!!!!!!!!!!!!!!!!!!!!!!!!!!!!!!!!!!!!!!!!!!!!!!!!!!!!!!!!!!!!!!!!!!!!!!!!!!!!!!!!!!!!!!!!!!!!!!!!!!!!!!!!!!!!",
"!!!!!!!!!!!!!!!!!!!!!!!!!!!!!!!!%&'())-88?BKMQSSUWWXZZZZZZZZ__ZXUUUSQOOONMB8-)('&!!!!!!!!!!!!!!!!!!!!!!!!!!!!!!!!!!!!!!!!!!!!!!!!!!!!!!!!!!!!!!!!!!!!!!!!!!!!!!!!!!!!!!!!!!!!!!!!!!!!!!!!!!!!!!!!!!!!!!!!!!!!!!!!!!!!!!!!!!!!!!!!!!!!!!!!!!!!!!!!!!!!!!!!!!!!!!!!!!!!!!!!!!!!!!!!!!!!!!!!!!!!!!!!!!!!!!!!!!!",
"!!!!!!!!!!!!!!!!!!!!!!!!!!!!!!!!&'()-8?@GMRZ_aabbbbbbbbbbbb`__ZVSSTW]dgggdSG?-(('!!!!!!!!!!!!!!!!!!!!!!!!!!!!!!!!!!!!!!!!!!!!!!!!!!!!!!!!!!!!!!!!!!!!!!!!!!!!!!!!!!!!!!!!!!!!!!!!!!!!!!!!!!!!!!!!!!!!!!!!!!!!!!!!!!!!!!!!!!!!!!!!!!!!!!!!!!!!!!!!!!!!!!!!!!!!!!!!!!!!!!!!!!!!!!!!!!!!!!!!!!!!!!!!!!!!!!!!!!!",
"!!!!!!!!!!!!!!!!!!!!!!!!!!!!%&''())-88?DLQU__abbbbbbbbbbbbbb`]_ZZZZ]bddgddZOD8)('%!!!!!!!!!!!!!!!!!!!!!!!!!!!!!!!!!!!!!!!!!!!!!!!!!!!!!!!!!!!!!!!!!!!!!!!!!!!!!!!!!!!!!!!!!!!!!!!!!!!!!!!!!!!!!!!!!!!!!!!!!!!!!!!!!!!!!!!!!!!!!!!!!!!!!!!!!!!!!!!!!!!!!!!!!!!!!!!!!!!!!!!!!!!!!!!!!!!!!!!!!!!!!!!!!!!!!!!!!!",
"!!!!!!!!!!!!!!!!!!!!!!!!!!!!%'(())-88?BKOVZbbbbaabbbbbbbbbbbbbbbbbbbdddbbbbbQ?))'&%!!!!!!!!!!!!!!!!!!!!!!!!!!!!!!!!!!!!!!!!!!!!!!!!!!!!!!!!!!!!!!!!!!!!!!!!!!!!!!!!!!!!!!!!!!!!!!!!!!!!!!!!!!!!!!!!!!!!!!!!!!!!!!!!!!!!!!!!!!!!!!!!!!!!!!!!!!!!!!!!!!!!!!!!!!!!!!!!!!!!!!!!!!!!!!!!!!!!!!!!!!!!!!!!!!!!!!!!!",
"!!!!!!!!!!!!!!!!!!!!!!!!!%%''())---88?BGOUZbbbbaabbbbbbaabbbbbbbdggggddddddhZD8-)('%!!!!!!!!!!!!!!!!!!!!!!!!!!!!!!!!!!!!!!!!!!!!!!!!!!!!!!!!!!!!!!!!!!!!!!!!!!!!!!!!!!!!!!!!!!!!!!!!!!!!!!!!!!!!!!!!!!!!!!!!!!!!!!!!!!!!!!!!!!!!!!!!!!!!!!!!!!!!!!!!!!!!!!!!!!!!!!!!!!!!!!!!!!!!!!!!!!!!!!!!!!!!!!!!!!!!!!!!",
"!!!!!!!!!!!!!!!!!!!!!!!!!%&'()---88888?BMRV`aabaabbaaaaaaa``__`bdggggggdddghdTM?-((%%!!!!!!!!!!!!!!!!!!!!!!!!!!!!!!!!!!!!!!!!!!!!!!!!!!!!!!!!!!!!!!!!!!!!!!!!!!!!!!!!!!!!!!!!!!!!!!!!!!!!!!!!!!!!!!!!!!!!!!!!!!!!!!!!!!!!!!!!!!!!!!!!!!!!!!!!!!!!!!!!!!!!!!!!!!!!!!!!!!!!!!!!!!!!!!!!!!!!!!!!!!!!!!!!!!!!!!!",
"!!!!!!!!!!!!!!!!!!!!!!!!%''()-88888--88@KOTZ^____`a```_____^[[^`bdhhggggddghjsyD8)('&!!!!!!!!!!!!!!!!!!!!!!!!!!!!!!!!!!!!!!!!!!!!!!!!!!!!!!!!!!!!!!!!!!!!!!!!!!!!!!!!!!!!!!!!!!!!!!!!!!!!!!!!!!!!!!!!!!!!!!!!!!!!!!!!!!!!!!!!!!!!!!!!!!!!!!!!!!!!!!!!!!!!!!!!!!!!!!!!!!!!!!!!!!!!!!!!!!!!!!!!!!!!!!!!!!!!!!!",
"!!!!!!!!!!!!!!!!!!!!!!!%&(()-8?@??88888?DMRXXVVXX[^^^[[[[Y[[[[[^_bdghhgdddghhnwM?-)''!!!!!!!!!!!!!!!!!!!!!!!!!!!!!!!!!!!!!!!!!!!!!!!!!!!!!!!!!!!!!!!!!!!!!!!!!!!!!!!!!!!!!!!!!!!!!!!!!!!!!!!!!!!!!!!!!!!!!!!!!!!!!!!!!!!!!!!!!!!!!!!!!!!!!!!!!!!!!!!!!!!!!!!!!!!!!!!!!!!!!!!!!!!!!!!!!!!!!!!!!!!!!!!!!!!!!!!",
"!!!!!!!!!!!!!!!!!!!!!!!&&()-8BGKD??8888?BLOUTRRRTVYYYYXVVVVYYY[[[_adhhhdddghhnvQD8)('!!!!!!!!!!!!!!!!!!!!!!!!!!!!!!!!!!!!!!!!!!!!!!!!!!!!!!!!!!!!!!!!!!!!!!!!!!!!!!!!!!!!!!!!!!!!!!!!!!!!!!!!!!!!!!!!!!!!!!!!!!!!!!!!!!!!!!!!!!!!!!!!!!!!!!!!!!!!!!!!!!!!!!!!!!!!!!!!!!!!!!!!!!!!!!!!!!!!!!!!!!!!!!!!!!!!!!!",
"!!!!!!!!!!!!!!!!!!!!!!&'()-8@MNNLGB???8?BGLOOOORTVY[[[[[[[_accffffimnsnnmjjjjrw[O@-((%!!!!!!!!!!!!!!!!!!!!!!!!!!!!!!!!!!!!!!!!!!!!!!!!!!!!!!!!!!!!!!!!!!!!!!!!!!!!!!!!!!!!!!!!!!!!!!!!!!!!!!!!!!!!!!!!!!!!!!!!!!!!!!!!!!!!!!!!!!!!!!!!!!!!!!!!!!!!!!!!!!!!!!!!!!!!!!!!!!!!!!!!!!!!!!!!!!!!!!!!!!!!!!!!!!!!!!",
"!!!!!!!!!!!!!!!!!!!!!!&((-8@MVVURONLD@???BGLMMOQSVZ[__``aafottxxxtttwxyywvrrrrwpiK8)(&%!!!!!!!!!!!!!!!!!!!!!!!!!!!!!!!!!!!!!!!!!!!!!!!!!!!!!!!!!!!!!!!!!!!!!!!!!!!!!!!!!!!!!!!!!!!!!!!!!!!!!!!!!!!!!!!!!!!!!!!!!!!!!!!!!!!!!!!!!!!!!!!!!!!!!!!!!!!!!!!!!!!!!!!!!!!!!!!!!!!!!!!!!!!!!!!!!!!!!!!!!!!!!!!!!!!!!",
"!!!!!!!!!!!!!!!!!!!!%&'))8@LS_[YYXTOLB????DKMOSUXZabdeefikptxyyyyyxxxyyyywtttrqtxO?-)''%!!!!!!!!!!!!!!!!!!!!!!!!!!!!!!!!!!!!!!!!!!!!!!!!!!!!!!!!!!!!!!!!!!!!!!!!!!!!!!!!!!!!!!!!!!!!!!!!!!!!!!!!!!!!!!!!!!!!!!!!!!!!!!!!!!!!!!!!!!!!!!!!!!!!!!!!!!!!!!!!!!!!!!!!!!!!!!!!!!!!!!!!!!!!!!!!!!!!!!!!!!!!!!!!!!!!",
"!!!!!!!!!!!!!!!!!!!!&'()8?LSX_^^^_YRMD????BLOX]bgghjnsvwttwwxyyyyyyyyyyxxwxyxpkkoSD8-('&!!!!!!!!!!!!!!!!!!!!!!!!!!!!!!!!!!!!!!!!!!!!!!!!!!!!!!!!!!!!!!!!!!!!!!!!!!!!!!!!!!!!!!!!!!!!!!!!!!!!!!!!!!!!!!!!!!!!!!!!!!!!!!!!!!!!!!!!!!!!!!!!!!!!!!!!!!!!!!!!!!!!!!!!!!!!!!!!!!!!!!!!!!!!!!!!!!!!!!!!!!!!!!!!!!!!",
"!!!!!!!!!!!!!!!!!!&&'()-?GT`_`__ac^TND????BMTdhuuuuuvyzyyxwwtvwwxyzzzyxttrtxwldccVNB-)('!!!!!!!!!!!!!!!!!!!!!!!!!!!!!!!!!!!!!!!!!!!!!!!!!!!!!!!!!!!!!!!!!!!!!!!!!!!!!!!!!!!!!!!!!!!!!!!!!!!!!!!!!!!!!!!!!!!!!!!!!!!!!!!!!!!!!!!!!!!!!!!!!!!!!!!!!!!!!!!!!!!!!!!!!!!!!!!!!!!!!!!!!!!!!!!!!!!!!!!!!!!!!!!!!!!!",
"!!!!!!!!!!!!!!!!!!'(()-?GNV____```YRMD???BLS]uuuuuuuvvwtqomlillmmrswwwrolklpmd`_^YUM8)('!!!!!!!!!!!!!!!!!!!!!!!!!!!!!!!!!!!!!!!!!!!!!!!!!!!!!!!!!!!!!!!!!!!!!!!!!!!!!!!!!!!!!!!!!!!!!!!!!!!!!!!!!!!!!!!!!!!!!!!!!!!!!!!!!!!!!!!!!!!!!!!!!!!!!!!!!!!!!!!!!!!!!!!!!!!!!!!!!!!!!!!!!!!!!!!!!!!!!!!!!!!!!!!!!!!!",
"!!!!!!!!!!!!!!!!!!'()8?GSX[^^^`a_^VOMDBBDLSbhu{{{uuuvsplfcaabbbddijjsrofcaaed`ZZX^fX?-)'%!!!!!!!!!!!!!!!!!!!!!!!!!!!!!!!!!!!!!!!!!!!!!!!!!!!!!!!!!!!!!!!!!!!!!!!!!!!!!!!!!!!!!!!!!!!!!!!!!!!!!!!!!!!!!!!!!!!!!!!!!!!!!!!!!!!!!!!!!!!!!!!!!!!!!!!!!!!!!!!!!!!!!!!!!!!!!!!!!!!!!!!!!!!!!!!!!!!!!!!!!!!!!!!!!!!",
"!!!!!!!!!!!!!!!!!!()-8BMUXY[[^___^XSOMKLNS]uuuhb]_`aaa_^[Y[[^^___abdefca`^^___ZZX[aYB8-('&!!!!!!!!!!!!!!!!!!!!!!!!!!!!!!!!!!!!!!!!!!!!!!!!!!!!!!!!!!!!!!!!!!!!!!!!!!!!!!!!!!!!!!!!!!!!!!!!!!!!!!!!!!!!!!!!!!!!!!!!!!!!!!!!!!!!!!!!!!!!!!!!!!!!!!!!!!!!!!!!!!!!!!!!!!!!!!!!!!!!!!!!!!!!!!!!!!!!!!!!!!!!!!!!!!",
"!!!!!!!!!!!!!!!!!!()-?LOXXYZ[^^_^ZYVUUTWZdu{uu]TQQQSUUTSSRTVVXXYYZ[^_`_^YXXXYZ_ZXY^XK@8)('!!!!!!!!!!!!!!!!!!!!!!!!!!!!!!!!!!!!!!!!!!!!!!!!!!!!!!!!!!!!!!!!!!!!!!!!!!!!!!!!!!!!!!!!!!!!!!!!!!!!!!!!!!!!!!!!!!!!!!!!!!!!!!!!!!!!!!!!!!!!!!!!!!!!!!!!!!!!!!!!!!!!!!!!!!!!!!!!!!!!!!!!!!!!!!!!!!!!!!!!!!!!!!!!!!",
"!!!!!!!!!!!!!!!!&&()8@NSXXXXY[[[ZZZZ^]bdhuuubWNKGKKMNNNOOORUUVVVXXXYY[YYXVUUVY^ZYYYVOL8)('!!!%&&''''&&&&%%%!!!!!!!!!!!!!!!!!!!!!!!!!!!!!!!!!!!!!!!!!!!!!!!!!!!!!!!!!!!!!!!!!!!!!!!!!!!!!!!!!!!!!!!!!!!!!!!!!!!!!!!!!!!!!!!!!!!!!!!!!!!!!!!!!!!!!!!!!!!!!!!!!!!!!!!!!!!!!!!!!!!!!!!!!!!!!!!!!!!!!!!!!!!!!!!!!",
"!!!!!!!!!!!!!!!%'')-8BOSVXVXXYZZZZ_adghuundZNGB??@BBDGKMNORTUUUVVVVVVVVXVUUUUVYYXXXVUT?-('!!!&'''''''''''&&%!!!!!!!!!!!!!!!!!!!!!!!!!!!!!!!!!!!!!!!!!!!!!!!!!!!!!!!!!!!!!!!!!!!!!!!!!!!!!!!!!!!!!!!!!!!!!!!!!!!!!!!!!!!!!!!!!!!!!!!!!!!!!!!!!!!!!!!!!!!!!!!!!!!!!!!!!!!!!!!!!!!!!!!!!!!!!!!!!!!!!!!!!!!!!!!!",
"!!!!!!!!!!!!!!!&'()-?GQSUVVVXXXXZZ`dhuuuyhZQG??88???@BDKMOQTUUUUUUTTTTTUUTTSSUVXXVVV^cB-)(&&''((((((((((''''&%%!!!!!!!!!!!!!!!!!!!!!!!!!!!!!!!!!!!!!!!!!!!!!!!!!!!!!!!!!!!!!!!!!!!!!!!!!!!!!!!!!!!!!!%%%%!!!!!!!!!!!!!!!!!!!!!!!!!!!!!!!!!!!!!!!!!!!!!!!!!!!!!!!!!!!!!!!!!!!!!!!!!!!!!!!!!!!!!!!!!!!!!!!!!!!",
"!!!!!!!!!!!!!!!&((-8@LUUUUUVVXXVXZ_dhjuundZQG??8888???BDKMNRSTTSQQNNNNOQQQONOQTUVVUV^cK?-)((())))))))))))(((''&!!!!!!!!!!!!!!!!!!!!!!!!!!!!!!!!!!!!!!!!!!!!!!!!!!!!!!!!!!!!!!!!!!!!!!!!!!!!!!!!!!!!!%%&&&%!!!!!!!!!!!!!!!!!!!!!!!!!!!!!!!!!!!!!!!!!!!!!!!!!!!!!!!!!!!!!!!!!!!!!!!!!!!!!!!!!!!!!!!!!!!!!!!!!!",
"!!!!!!!!!!!!!!!'()-?DNYVUUUUVXVUVWZbhhhhd]WQG?88--888??BDKMORTSQNJIIIIINNNNMMNSTUUUU[`QG?-(())-...------)))((''!!!!!!!!!!!!!!!!!!!!!!!!!!!!!!!!!!!!!!!!!!!!!!!!!!!!!!!!!!!!!!!!!!!!!!!!!!!!!!!!!!!!!%&&&&&%!!!!!!!!!!!!!!!!!!!!!!!!!!!!!!!!!!!!!!!!!!!!!!!!!!!!!!!!!!!!!!!!!!!!!!!!!!!!!!!!!!!!!!!!!!!!!!!!!",
"!!!!!!!!!!!!!!!&((-@LQYVUUUUVVUUVX]bgggdbZVQG@88---88??BDGMOQQPIFCAAAAAAAAAAFINNQQQSZdSL@.---............--))(('&%!!!!!!!!!!!!!!!!!!!!!!!!!!!!!!!!!!!!!!!!!!!!!!!!!!!!!!!!!!!!!!!!!!!!!!!!!!!!!!!!!%&&'&&&%!!!!!!!!!!!!!!!!!!!!!!!!!!!!!!!!!!!!!!!!!!!!!!!!!!!!!!!!!!!!!!!!!!!!!!!!!!!!!!!!!!!!!!!!!!!!!!!!!",
"!!!!!!!!!!!!!!!&((-DQU[XUUUUUUTSVZ]bgdbb`ZUOG@?8---888??BGLOONIE>=;;::99:;<=>AFIINNPWdPJA;66667776653311/*.-))(''%!!!!!!!!!!!!!!!!!!!!!!!!!!!!!!!!!!!!!!!!!!!!!!!!!!!!!!!!!!!!!!!!!!!!!!!!!!!!!!!!%%&'''&&%!!!!!!!!!!!!!!!!!!!!!!!!!!!!!!!!!!!!!!!!!!!!!!!!!!!!!!!!!!!!!!!!!!!!!!!!!!!!!!!!!!!!!!!!!!!!!!!!!",
"!!!!!!!!!!!!!!!&'(-DSV[XUUTTTTUUX]bggdbb`ZVRLB?88--888?BDKMONIF><:6654444569;<>ACFIIPWPHC<:::9997666442211/.-))(('&&%%!!!!!!!!!!!!!!!!!!!!!!!!!!!!!!!!!!!!!!!!!!!!!!!!!!!!!!!!!!!!!!!!!!!!!!!!!!!!%&&''&&%!!!!!!!!!!!!!!!!!!!!!!!!!!!!!!!!!!!!!!!!!!!!!!!!!!!!!!!!!!!!!!!!!!!!!!!!!!!!!!!!!!!!!!!!!!!!!!!!!!",
"!!!!!!!!!!!!!!!%''-DSV[XUTSSSTVZ]dgggdbbb`ZVOKB?88--88?BGMNNJHC>:742000/0023567:;<>CFJFC=;999977654421000121..))((''&%!!!!!!!!!!!!!!!!!!!!!!!!!!!!!!!!!!!!!!!!!!!!!!!!!!!!!!!!!!!!!!!!!!!!!!!!!!!!%&&'&&%%!!!!!!!!!!!!!!!!!!!!!!!!!!!!!!!!!!!!!!!!!!!!!!!!!!!!!!!!!!!!!!!!!!!!!!!!!!!!!!!!!!!!!!!!!!!!!!!!!!",
"!!!!!!!!!!!!!!!!!!-DRV[XVTRRSTX]dhuhgdbbdbb_TOKB?8--88?BKNNPJE><:62/+*******,/02569;=C><:9777665422210/0024331.-))((''&%%!!!!!!!!!!!!!!!!!!!!!!!!!!!!!!!!!!!!!!!!!!!!!!!!!!!!!!!!!!!!!!!!!!!!!!!!!&&&&&%!!!!!!!!!!!!!!!!!!!!!!!!!!!!!!!!!!!!!!!!!!!!!!!!!!!!!!!!!!!!!!!!!!!!!!!!!!!!!!!!!!!!!!!!!!!!!!!!!!!!",
"!!!!!!!!!!!!!!!!!!-DTY_YVUSSTUZbghhggdbbddbaZTNLB?88-88?DMNPJE>=;752/+*******,,024669:97654444210/000000112231..-)))((''&%!!!!!!!!!!!!!!!!!!!!!!!!!!!!!!!!!!!!!!!!!!!!!!!!!!!!!!!!!!!!!!!!!!!!!!!!&&&&&%!!!!!!!!!!!!!!!!!!!!!!!!!!!!!!!!!!!!!!!!!!!!!!!!!!!!!!!!!!!!!!!!!!!!!!!!!!!!!!!!!!!!!!!!!!!!!!!!!!!!",
"!!!!!!!!!!!!!!!!!!-GV^a[XUTTUX`ghnhgbbbbdddba_VRL?88--8?BLNPJE>><:762/+********,/0122221000//,+****,/01111124443..-))(('&%!!!!!!!!!!!!!!!!!!!!!!!!!!!!!!!!!!!!!!!!!!!!!!!!!!!!!!!!!!!!!!!!!!!!!!!!%&&&&%!!!!!!!!!!!!!!!!!!!!!!!!!!!!!!!!!!!!!!!!!!!!!!!!!!!!!!!!!!!!!!!!!!!!!!!!!!!!!!!!!!!!!!!!!!!!!!!!!!!!",
"!!!!!!!!!!!!!!!!!!-?LT`[VVUVY_bhhhgdbbbbdddbb_XTMB?8--8?BLNPJFC>=<:7520,,,++***+,/00000////,,,+***,024444200122331..-))((''&&!!!!!!!!!!!!!!!!!!!!!!!!!!!!!!!!!!!!!!!!!!!!!!!!!!!!!!!!!!!!!!!!!!!!!%&&&%%!!!!!!!!!!!!!!!!!!!!!!!!!!!!!!!!!!!!!!!!!!!!!!!!!!!!!!!!!!!!!!!!!!!!!!!!!!!!!!!!!!!!!!!!!!!!!!!!!!!!",
"!!!!!!!!!!!!!!!!!!)8@Na[VVX[`ddhhgddbb`bbddbb_XUND?8--88BLNPPHEC><;:76410/,,,**++,////,,,,,,,,+***/24666530///124433..-))(('&!!!!!!!!!!!!!!!!!!!!!!!!!!!!!!!!!!!!!!!!!!!!!!!!!!!!!!!!!!!!!!!!!!!!!%%%%%%!!!!!!!!!!!!!!!!!!!!!!!!!!!!!!!!!!!!!!!!!!!!!!!!!!!!!!!!!!!!!!!!!!!!!!!!!!!!!!!!!!!!!!!!!!!!!!!!!!!!",
"!!!!!!!!!!!!!!!!!!(-8BNQTV[`dhhhgdddbbabbdbba]ZUND?8-88?DMOSPJHE>><;:96442100/,,//0000////////,,,/256777640/,,/024554..-))((('&&%!!!!!!!!!!!!!!!!!!!!!!!!!!!!!!!!!!!!!!!!!!!!!!!!!!!!!!!!!!!!!!!!!%%%%%!!!!!!!!!!!!!!!!!!!!!!!!!!!!!!!!!!!!!!!!!!!!!!!!!!!!!!!!!!!!!!!!!!!!!!!!!!!!!!!!!!!!!!!!!!!!!!!!!!!!!",
"!!!!!!!!!!!!!!!!!!(()8?GRX`dhjhhddbbbbbbddbba`ZVOG@?88?BLQRSPJJFC>><<:976654321111222221122100//025679::9620+*+,0124433..-))(('&&%!!!!!!!!!!!!!!!!!!!!!!!!!!!!!!!!!!!!!!!!!!!!!!!!!!!!!!!!!!!!!!!!!%%!!!!!!!!!!!!!!!!!!!!!!!!!!!!!!!!!!!!!!!!!!!!!!!!!!!!!!!!!!!!!!!!!!!!!!!!!!!!!!!!!!!!!!!!!!!!!!!!!!!!!!!",
"!!!!!!!!!!!!!!!!!!!!()-?OYbijjhhdbbbdbdddbbaaaZXQKB??@DLOVUTSPJHEC>><<;:9776654444444444444422123579:;;::640+***+/0245653..-)((''&&&%%%%%%%$$!!!!!!!!!!!!!!!!!!!!!!!!!!!!!!!!!!!!!!!!!!!!!!!!!!!!!!!!!!!!!!!!!!!!!!!!!!!!!!!!!!!!!!!!!!!!!!!!!!!!!!!!!!!!!!!!!!!!!!!!!!!!!!!!!!!!!!!!!!!!!!!!!!!!!!!!!!!!!!!",
"!!!!!!!!!!!!!!!!!!!!'()8NU_dihhhddbbbbbbbb`_`aZVOLDDDKNSV[VTQNJHHEC>><<;::99766666666666666544567:;<<<<:9642/,,,,+/12455531..))(((''''''''&&&%%!!!!!!!!!!!!!!!!!!!!!!!!!!!!!!!!!!!!!!!!!!!!!!!!!!!!!!!!!!!!!!!!!!!!!!!!!!!!!!!!!!!!!!!!!!!!!!!!!!!!!!!!!!!!!!!!!!!!!!!!!!!!!!!!!!!!!!!!!!!!!!!!!!!!!!!!!!!!!",
"!!!!!!!!!!!!!!!!!!!!%&(8MSZbddihhgddbbbbbb_Z_aZUOMKMOU`fc_XSONIHHFEC>>=<<;:::9977777777777765679<=>>>=<;9642100/,*,/013456663.-))(((('''''''&&&%!!!!!!!!!!!!!!!!!!!!!!!!!!!!!!!!!!!!!!!!!!!!!!!!!!!!!!!!!!!!!!!!!!!!!!!!!!!!!!!!!!!!!!!!!!!!!!!!!!!!!!!!!!!!!!!!!!!!!!!!!!!!!!!!!!!!!!!!!!!!!!!!!!!!!!!!!!!!",
"!!!!!!!!!!!!!!!!!!!!!!(-@KSZadhhhgggdbbbb__^_`ZURONQV_ff[TONMMIJJHFEC>>>=<<;;:::::::::;;;;;:::;=>CCC>=<:976442210,//0113456653..-))))))))))))((((((''&%!!!!!!!!!!!!!!!!!!!!!!!!!!!!!!!!!!!!!!!!!!!!!!!!!!!!!!!!!!!!!!!!!!!!!!!!!!!!!!!!!!!!!!!!!!!!!!!!!!!!!!!!!!!!!!!!!!!!!!!!!!!!!!!!!!!!!!!!!!!!!!!!!!!!!",
"!!!!!!!!!!!!!!!!!!!!!!')8@NW]dghhhgggdbb__^[__ZVUTUYafocSMLKKMMNJJHFECC>>=<<<;;;;;;<<==>>>>>=>>CEFEC><;:9766544420000001134666551...----.-----)))))(('&!!!!!!!!!!!!!!!!!!!!!!!!!!!!!!!!!!!!!!!!!!!!!!!!!!!!!!!!!!!!!!!!!!!!!!!!!!!!!!!!!!!!!!!!!!!!!!!!!!!!!!!!!!!!!!!!!!!!!!!!!!!!!!!!!!!!!!!!!!!!!!!!!!!!!",
"!!!!!!!!!!!!!!!!!!!!!!')-8GSZdghhuuhggbb_^^^^^[XVX[ale_TMDDDGLMNJJHHFEECC>>=<<<<<<==>>CCCEECCCEFHHFE>=<;:976655442221000012466666435578;;?888888----)('%!!!!!!!!!!!!!!!!!!!!!!!!!!!!!!!!!!!!!!!!!!!!!!!!!!!!!!!!!!!!!!!!!!!!!!!!!!!!!!!!!!!!!!!!!!!!!!!!!!!!!!!!!!!!!!!!!!!!!!!!!!!!!!!!!!!!!!!!!!!!!!!!!!!!",
"!!!!!!!!!!!!!!!!!!!!!!'((-BQWdgghuuuuggb__^^^^[XXXZam[OKB?BBGLNNNJJJHHEECC>>>>>>>>>CCCEFHHHHHHHHHHFE>=<<;:9765544444220000124456669;=AIIINMLLLGDBDD8-)(&%!!!!!!!!!!!!!!!!!!!!!!!!!!!!!!!!!!!!!!!!!!!!!!!!!!!!!!!!!!!!!!!!!!!!!!!!!!!!!!!!!!!!!!!!!!!!!!!!!!!!!!!!!!!!!!!!!!!!!!!!!!!!!!!!!!!!!!!!!!!!!!!!!!!",
"!!!!!!!!!!!!!!!!!!!!!!!%&-?LSbdgguuuuhgd`___[[[XXYZbjUG@???@DLMNNNJJHHHFEEECCCCCCCEEFHHJJJJJJJJJHHFEC>=<<;:7665555554420///012246:<CHPW]guuuuug]]guK8-)''!!!!!!!!!!!!!!!!!!!!!!!!!!!!!!!!!!!!!!!!!!!!!!!!!!!!!!!!!!!!!!!!!!!!!!!!!!!!!!!!!!!!!!!!!!!!!!!!!!!!!!!!!!!!!!!!!!!!!!!!!!!!!!!!!!!!!!!!!!!!!!!!!!!",
"!!!!!!!!!!!!!!!!!!!!!!!%%)-?GW]dguuuuhgda_^[XVVVVXZ]aSKB?888?DMOQONIIFHHHHHHHHHHHHHHHHHJJJJJJJJJHHFECC>=<<:9766665555442210//046:>EJPW]gghnnuuugghvOB8-((&%!!!!!!!!!!!!!!!!!!!!!!!!!!!!!!!!!!!!!!!!!!!!!!!!!!!!!!!!!!!!!!!!!!!!!!!!!!!!!!!!!!!!!!!!!!!!!!!!!!!!!!!!!!!!!!!!!!!!!!!!!!!!!!!!!!!!!!!!!!!!!!!!!",
"!!!!!!!!!!!!!!!!!!!!!!!!!()-?QWbguuuungdb_[[VSSSUWZWWQMD?88-8BMOTROMGAIJJJJJJJJJJJJJJJJJJJJJJJJJHHFECCC>=<;:977665555665420/,/47=EJP]ggggghjnsvvswyXM?8)(&&!!!!!!!!!!!!!!!!!!!!!!!!!!!!!!!!!!!!!!!!!!!!!!!!!!!!!!!!!!!!!!!!!!!!!!!!!!!!!!!!!!!!!!!!!!!!!!!!!!!!!!!!!!!!!!!!!!!!!!!!!!!!!!!!!!!!!!!!!!!!!!!!!",
"!!!!!!!!!!!!!!!!!!!!!!!!!'()?MQZ]dggggba_ZYVVVVVXZZZZSNGB?888DNOTSSOMIIIIJJJJJJJJJJJJJJJJJJJJJJJHHFFEECA>=<<;:9766666666542246;>HP]]hhggdbdhnvwwwrm[QG?--(('&%!!!!!!!!!!!!!!!!!!!!!!!!!!!!!!!!!!!!!!!!!!!!!!!!!!!!!!!!!!!!!!!!!!!!!!!!!!!!!!!!!!!!!!!!!!!!!!!!!!!!!!!!!!!!!!!!!!!!!!!!!!!!!!!!!!!!!!!!!!!!!!",
"!!!!!!!!!!!!!!!!!!!!!!!!!'')8GNTWZ]]]]]ZZXVUV[[^_ZZ]]WNLGD?8?GOOQUYVSNIAIJPPPPPPPPPPPJJJJJJJJJJJHHFFFECCA>==<;:97766666666569<CJWgvvvjeb]]bemtxyti`YUND?8))('&!!!!!!!!!!!!!!!!!!!!!!!!!!!!!!!!!!!!!!!!!!!!!!!!!!!!!!!!!!!!!!!!!!!!!!!!!!!!!!!!!!!!!!!!!!!!!!!!!!!!!!!!!!!!!!!!!!!!!!!!!!!!!!!!!!!!!!!!!!!!!!",
"!!!!!!!!!!!!!!!!!!!!!!%&''()8@GNNQSPSWTTTTRRV[_```]]bZQNMLB?@GMMNSYYWSMGIJPPPPPPPPPPPPPPPPJPPJJJJHHHFFFCCA>>=<;::9977776677;>CJ]hyzxpea_ZZ_aiqtxxk`_[UOG?8-)('&&!!!!!!!!!!!!!!!!!!!!!!!!!!!!!!!!!!!!!!!!!!!!!!!!!!!!!!!!!!!!!!!!!!!!!!!!!!!!!!!!!!!!!!!!!!!!!!!!!!!!!!!!!!!!!!!!!!!!!!!!!!!!!!!!!!!!!!!!!!!!",
"!!!!!!!!!!!!!!!!!!!!!!%''()-.8@AIIIIIINNNNNNRV[`aaabbZSQQQG@@BDGLNSTUUSQNJJJJPPPPPPPPPPPPPPPPPPPJJJJHHFFCCA>>=<;;;::::997:<>HPWhsspe_^YYYY[^afotxtqokaYRLB8-)(''!!!!!!!!!!!!!!!!!!!!!!!!!!!!!!!!!!!!!!!!!!!!!!!!!!!!!!!!!!!!!!!!!!!!!!!!!!!!!!!!!!!!!!!!!!!!!!!!!!!!!!!!!!!!!!!!!!!!!!!!!!!!!!!!!!!!!!!!!!!!",
"!!!!!!!!!!!!!!!!!!!!!!&'())-..;=AAAAAAIIKLLMOTX^acecbZUSVXMD@??BGLOQSVZbWNJIJPPPPPPPPPW]]]]]WWPPPPJJJJHFFECCA>=<<<<<;;;:9<>HPgnytiaZUUUVXYXV[`eotyzzytoea^K?-)('&%!!!!!!!!!!!!!!!!!!!!!!!!!!!!!!!!!!!!!!!!!!!!!!!!!!!!!!!!!!!!!!!!!!!!!!!!!!!!!!!!!!!!!!!!!!!!!!!!!!!!!!!!!!!!!!!!!!!!!!!!!!!!!!!!!!!!!!!!!!",
"!!!!!!!!!!!!!!!!!!!!!!&())-..77;<==>>AEFIIIINSUX[accc_XVXXQMD@?BDLOQSTVZWSPPPPPPPWWWW]]]gggbb]]WWPPPPJJHFFECCA>>>===<<<<<>HP]jjme^XUSSSTUVTRUY`ktxzzzytqkcRL?8-)('&%!!!!!!!!!!!!!!!!!!!!!!!!!!!!!!!!!!!!!!!!!!!!!!!!!!!!!!!!!!!!!!!!!!!!!!!!!!!!!!!!!!!!!!!!!!!!!!!!!!!!!!!!!!!!!!!!!!!!!!!!!!!!!!!!!!!!!!!!",
"!!!!!!!!!!!!!!!!!!!!!!'()-..77779:;;<>CCEFFIJQRTV_ccc`[Y[[XUMB?BDLOQRSTUWWWZZWSW]]]]]]bghnnnjhggb]]PPPJJHFECCCCCC>>>>==>>FP]gwiaZTRQOQRSTTQORU[eqxyzzzzztpokO@8-(('%%!!!!!!!!!!!!!!!!!!!!!!!!!!!!!!!!!!!!!!!!!!!!!!!!!!!!!!!!!!!!!!!!!!!!!!!!!!!!!!!!!!!!!!!!!!!!!!!!!!!!!!!!!!!!!!!!!!!!!!!!!!!!!!!!!!!!!!!",
"!!!!!!!!!!!!!!!!!!!!!!'()-.7;;;;<<=>>CEFFFFFINQUY^a_[[[[^_[[OKDGKMOQQRSSTWWZZWTZ]bdddbdhjnnnunnhgg]]]PPJJHFECCCCCCC>>>>CFJWghkaZUQONNNOOQRQORTX_fpxyzzzzyxxy_MB8-))('%%!!!!!!!!!!!!!!!!!!!!!!!!!!!!!!!!!!!!!!!!!!!!!!!!!!!!!!!!!!!!!!!!!!!!!!!!!!!!!!!!!!!!!!!!!!!!!!!!!!!!!!!!!!!!!!!!!!!!!!!!!!!!!!!!!!!!!",
"!!!!!!!!!!!!!!!!!!!!!!&()-8;<=>>>CCCEFHHHHFEHJPW]^[VTUZ__a`^VONNNNOOQQQQSSUXYXV[bipqleiihhjnuuuuuugg]]PPJJHFEEEECCCC>>>FJP]hd_[XSOMMLLMMNOQRSTUX_eqxzzz|||zzqcVMB8-)(&%!!!!!!!!!!!!!!!!!!!!!!!!!!!!!!!!!!!!!!!!!!!!!!!!!!!!!!!!!!!!!!!!!!!!!!!!!!!!!!!!!!!!!!!!!!!!!!!!!!!!!!!!!!!!!!!!!!!!!!!!!!!!!!!!!!!!!",
"!!!!!!!!!!!!!!!!!!!!!!&()-8==>CCEFHHHHJJJHFEHJP]]`[VSTWZZZZYVSQONMMMMNOOOQSVYYY`fqxxtlieehhjnuuuuuuugg]PPJHHEEEEEECCCCEJP]di`YVTQNMKKKLMMNORSSTUX_fqxzz||}}zz|ycTB8-)('%!!!!!!!!!!!!!!!!!!!!!!!!!!!!!!!!!!!!!!!!!!!!!!!!!!!!!!!!!!!!!!!!!!!!!!!!!!!!!!!!!!!!!!!!!!!!!!!!!!!!!!!!!!!!!!!!!!!!!!!!!!!!!!!!!!!!",
"!!!!!!!!!!!!!!!!!!!!!!&'().;>CEFHHHJJJJJJHFEHJP]bbb_ZWUSSSSQQONLGDBDGKLMMOQUY[`fotzzxoieeeihjjnnnnnuugg]]PJJHEEEEECCCFJP]bba[XTRNMKKGKLMNOORRQRRTX[cpxz|}}}}}|yqfRK?-)('&!!!!!!!!!!!!!!!!!!!!!!!!!!!!!!!!!!!!!!!!!!!!!!!!!!!!!!!!!!!!!!!!!!!!!!!!!!!!!!!!!!!!!!!!!!!!!!!!!!!!!!!!!!!!!!!!!!!!!!!!!!!!!!!!!!!",
"!!!!!!!!!!!!!!!!!!!!!!!&&).;>FHHJJJJJJJJJJHFHJP]]ggb]WQNNNNNNNLGB@?@BDGKLNOTY`fotx||xoiccceelhhhhhjsuugg]]PJHHEEEEECFJPWgd`[YVROMLKGGKLMNOOQOOOQRTU[eqy|}}}~}|zz|ytN?-)''&!!!!!!!!!!!!!!!!!!!!!!!!!!!!!!!!!!!!!!!!!!!!!!!!!!!!!!!!!!!!!!!!!!!!!!!!!!!!!!!!!!!!!!!!!!!!!!!!!!!!!!!!!!!!!!!!!!!!!!!!!!!!!!!!!!",
"!!!!!!!!!!!!!!!!!!!!!!!%&)-.=CFHJJPPPPPJJJHFHHJJPJJJJJIIIIIIIIILLGDDGKKLNOTYcktxyyyxrlfccccdeeiiiihjnuuug]]PJHHEEEFFHPW]db_YVTONMMLLKKKLMMNONMNOQRTX[apyz||}}|zzzytXK?-)('&%!!!!!!!!!!!!!!!!!!!!!!!!!!!!!!!!!!!!!!!!!!!!!!!!!!!!!!!!!!!!!!!!!!!!!!!!!!!!!!!!!!!!!!!!!!!!!!!!!!!!!!!!!!!!!!!!!!!!!!!!!!!!!!!!",
"!!!!!!!!!!!!!!!!!!!!!!!!!()-8AEHJPPPPPPPJHHFFFFFFECCCCCCCC>>CFINSQNMLLMNOSYcox|||ztpokfccaaabcdddeilnsvuuggPPJHFFEHHJP]bba^XUROMMMNMMKGGKLMOMLMNQRTTTYcqxzz||||zzyxqcR?-)(&%!!!!!!!!!!!!!!!!!!!!!!!!!!!!!!!!!!!!!!!!!!!!!!!!!!!!!!!!!!!!!!!!!!!!!!!!!!!!!!!!!!!!!!!!!!!!!!!!!!!!!!!!!!!!!!!!!!!!!!!!!!!!!!!!",
"!!!!!!!!!!!!!!!!!!!!!!!!!(().=AFJJPPPJJHFECCCCCCC>=>>>>>=<<<<>CJWSSQNNORV[cpx|}}|ypffkfedaaaaacccdilnvvvuug]PPJHHHJJPWbba_[VTROMMNNNNLGGGKLMMMMORSUTSU^cfkoqtxyyyyyxxcK?-)(('&!!!!!!!!!!!!!!!!!!!!!!!!!!!!!!!!!!!!!!!!!!!!!!!!!!!!!!!!!!!!!!!!!!!!!!!!!!!!!!!!!!!!!!!!!!!!!!!!!!!!!!!!!!!!!!!!!!!!!!!!!!!!!!",
"!!!!!!!!!!!!!!!!!!!!!!!!!'')-8=CHJJJJHEC>=<<<=>>>=<<==>=;97679<FPWVURQU[akty|}~}ztfcekiieca```aaceimnsvvvvvg]PPJJJPP]]b]^ZXUSQOOOOOOOLGDDDKLMNOQSTVTRTXYYX[_cfptzyxyyqXN?8))''!!!!!!!!!!!!!!!!!!!!!!!!!!!!!!!!!!!!!!!!!!!!!!!!!!!!!!!!!!!!!!!!!!!!!!!!!!!!!!!!!!!!!!!!!!!!!!!!!!!!!!!!!!!!!!!!!!!!!!!!!!!!!!",
"!!!!!!!!!!!!!!!!!!!!!!!!!&&().8ACHJHHEC><:97:;<=<;9:<<<;7543459CJP][VV^fqy|}}~~ztf`^afklieaa```acdimnsvwyyzsg]]PPP]]bdb]ZXVTROOOOOOOOLGDDDGKLNOQRTUTRSTUTSTUY_ckttxyyxpfM?8-)('&%!!!!!!!!!!!!!!!!!!!!!!!!!!!!!!!!!!!!!!!!!!!!!!!!!!!!!!!!!!!!!!!!!!!!!!!!!!!!!!!!!!!!!!!!!!!!!!!!!!!!!!!!!!!!!!!!!!!!!!!!!!!",
"!!!!!!!!!!!!!!!!!!!!!!!!!%&()-.;AFIHHC><;9766779976799976544336>JP]b_^ftz|}}}|zo_YVV_ffiiieca`_`adimnvvvwyyvshgggguunhd_YVUSQOOOOOOOOMGDDDDDKLMNOOORSTTTTTSRTV[_aktxtqkcUNB8-)(''!!!!!!!!!!!!!!!!!!!!!!!!!!!!!!!!!!!!!!!!!!!!!!!!!!!!!!!!!!!!!!!!!!!!!!!!!!!!!!!!!!!!!!!!!!!!!!!!!!!!!!!!!!!!!!!!!!!!!!!!!!!",
"!!!!!!!!!!!!!!!!!!!!!!!!!!!'()-8=AIHHC=;:7644455542455554444205=HPggdft|}~~}|yt_SQQSYeffilkea`^^`belnsvvvwwxzzzz|~~}zri`YUTROONNNOOOOMKGDDDBDKLMMMMOSTRRSTROOTUVV`ptpkecktXG?-)('&%!!!!!!!!!!!!!!!!!!!!!!!!!!!!!!!!!!!!!!!!!!!!!!!!!!!!!!!!!!!!!!!!!!!!!!!!!!!!!!!!!!!!!!!!!!!!!!!!!!!!!!!!!!!!!!!!!!!!!!!!!",
"!!!!!!!!!!!!!!!!!!!!!!!!!!!')).=AFIIHC=;97665445555555443222104<FPgujnwz|}zrc`[SNMMNS^`cfoqica_^_`cejsvvvwwwxyyz{}}}{wkaYVTRQONNNOONMLGGGDDBDGGKLLLMOQRTTTTTTUVVX[afkpoopp_OD?8-(('!!!!!!!!!!!!!!!!!!!!!!!!!!!!!!!!!!!!!!!!!!!!!!!!!!!!!!!!!!!!!!!!!!!!!!!!!!!!!!!!!!!!!!!!!!!!!!!!!!!!!!!!!!!!!!!!!!!!!!!!!",
"!!!!!!!!!!!!!!!!!!!!!!!!!!!()-8AIIJIHC=:766764445676653222110/4<EPguuvzz{|t`UROMKKKLOV[`eptoec`^^^`dinsvvvvvwwwyz|}}|yoc[XUSQONMMNNMLKGGGGDDDDDGKKKLMORUUUXYYXXXXYY_kttxqkc_ULB8)('%!!!!!!!!!!!!!!!!!!!!!!!!!!!!!!!!!!!!!!!!!!!!!!!!!!!!!!!!!!!!!!!!!!!!!!!!!!!!!!!!!!!!!!!!!!!!!!!!!!!!!!!!!!!!!!!!!!!!!!!!",
"!!!!!!!!!!!!!!!!!!!!!!!!!!!().8AIIJHF><976665433567665432210//3;CJ]uu{zywraTNMLKGGGKMQV^cptpida_^^_adlnsvvvvvwwxyz|}|ypc^XUTRONNMMMMLKGGGGDDBBDDGGKLMNRUVX[__[[YYYX[akptqpkf_SM@8-)('&%!!!!!!!!!!!!!!!!!!!!!!!!!!!!!!!!!!!!!!!!!!!!!!!!!!!!!!!!!!!!!!!!!!!!!!!!!!!!!!!!!!!!!!!!!!!!!!!!!!!!!!!!!!!!!!!!!!!!!",
"!!!!!!!!!!!!!!!!!!!!!!!!!!!(-8?AFHHFC=:766665433467766544420//2:>J]u{{ysf`UNLKGGGGGGLNR[cotqmeb`_^^_adhnvvvvvwwxxyz||xpc_YVTRQOOMMLLMKGGGGDDBBBDDGKLLNRUX[_aaa_^[YYYY^cotxtf`YUMB8-)('%!!!!!!!!!!!!!!!!!!!!!!!!!!!!!!!!!!!!!!!!!!!!!!!!!!!!!!!!!!!!!!!!!!!!!!!!!!!!!!!!!!!!!!!!!!!!!!!!!!!!!!!!!!!!!!!!!!!!!",
"!!!!!!!!!!!!!!!!!!!!!!!!!!!(-8=EFFFC><7666554333467666655520//29>H]g{{sd[UOLGGDGGGGGKLOXakrqnida_^^^_bejssvvvwttxxz{{xqf_YVTSRQONMLLMKGGGGDDBBBBBDKKLMOTVY[__`_[XVUUUV[akxxkccaXRG8-)(''%!!!!!!!!!!!!!!!!!!!!!!!!!!!!!!!!!!!!!!!!!!!!!!!!!!!!!!!!!!!!!!!!!!!!!!!!!!!!!!!!!!!!!!!!!!!!!!!!!!!!!!!!!!!!!!!!!!!",
"!!!!!!!!!!!!!!!!!!!!!!!!!!!(-8@EFFEC>;7655443322356666655530004:>H]guzdXSOMKGGDGGGGGGKNV`fqrrlda`_^[_`bijnuvvwxxxxyzzytf`YVUSRRROMLLLKGGDDDDBBBBBDDGKLNOQRSTUXXTOOOORTUU_ktttpkaYOG?8)((&%!!!!!!!!!!!!!!!!!!!!!!!!!!!!!!!!!!!!!!!!!!!!!!!!!!!!!!!!!!!!!!!!!!!!!!!!!!!!!!!!!!!!!!!!!!!!!!!!!!!!!!!!!!!!!!!!!!",
"!!!!!!!!!!!!!!!!!!!!!!!!!!!(-?AEEECC>;6554322222345555666530015:>J]uuv^QNLKGGGDGKGGGGGMT^corwmdaa_^Z^_`dgjsuvwxxxxxyyyxk`[VUTSSSONMLKKGGDDDDBBBBBBBDGKLMMNNNORSOMMMMORQOUaqz}ytofa_S?-)(''!!!!!!!!!!!!!!!!!!!!!!!!!!!!!!!!!!!!!!!!!!!!!!!!!!!!!!!!!!!!!!!!!!!!!!!!!!!!!!!!!!!!!!!!!!!!!!!!!!!!!!!!!!!!!!!!!!",
"!!!!!!!!!!!!!!!!!!!!!!!!!%&).@AEFFEC>;7653322222234455666530136=EJguuhVNMKKGGGDGGGGDDDMRYcorxpda`__[^^_bdhnnsvwxxxxxyyyqf`[XUSSSQNMLKGGGDDDDBBBBBBBDDGKLMMMMNOQONOOONNOOTYapxxxtqkcXL@8-)(''%!!!!!!!!!!!!!!!!!!!!!!!!!!!!!!!!!!!!!!!!!!!!!!!!!!!!!!!!!!!!!!!!!!!!!!!!!!!!!!!!!!!!!!!!!!!!!!!!!!!!!!!!!!!!!!!",
"!!!!!!!!!!!!!!!!!!!!!!!!!&')8@AFFFEC><965332222222344566652/149>JPgujaTMLGGGGGGGGGDDDDLOV`lryqea`__^^Z^`bdhjnsvwxxxxxyzwqfa^VTTTQNMKGGGDDDDDBBBBBBBBBDGKKLLLMMOORSTQMLNQRTYaotzzytf`[XK?-)('%!!!!!!!!!!!!!!!!!!!!!!!!!!!!!!!!!!!!!!!!!!!!!!!!!!!!!!!!!!!!!!!!!!!!!!!!!!!!!!!!!!!!!!!!!!!!!!!!!!!!!!!!!!!!!!!",
"!!!!!!!!!!!!!!!!!!!!!!!!!&')8@AFFFE>=<:75433322222234555442/47<EP]uud_SMLGGGGGGGGDDDDDLOU_iqxpd`^[^[ZZZ_adhhjnsswxxxxyzytof`YUTSOMLKGGGGDDDBBBBBBBBBBBDGGKKKLMNOQRTRNMMNOQTY`aepyypkkoSG?8))''&!!!!!!!!!!!!!!!!!!!!!!!!!!!!!!!!!!!!!!!!!!!!!!!!!!!!!!!!!!!!!!!!!!!!!!!!!!!!!!!!!!!!!!!!!!!!!!!!!!!!!!!!!!!!!",
"!!!!!!!!!!!!!!!!!!!!!!!!!&')8@AFFFC>=<:7655432222224554320006;>J]guud[SNLKGGGGGGGDDDGGLOT[eowlc_[YYZZZZ[_adihjjnrtxxxyzywsoe^VTROMKKKKKGGDDBBBBBBBBBBBBDGGKKLMMNOORRONMKMNQTVTS^qyxxqo[RK@8-(('!!!!!!!!!!!!!!!!!!!!!!!!!!!!!!!!!!!!!!!!!!!!!!!!!!!!!!!!!!!!!!!!!!!!!!!!!!!!!!!!!!!!!!!!!!!!!!!!!!!!!!!!!!!!!",
"!!!!!!!!!!!!!!!!!!!!!!!!!&')8@AFEEC><;:976654332222444210/24:>FPgguhb[TOMKGGGGGGGDDDGKMOSYckri`^YXXXXZZZ[_bdihhjnrtxxyzyywqkaYURNLKKKKKKGDDBBBBBBBBBBBBBDGGKKLLMMOQRRQMGKMOOQONTcqtxqokcVMB8-)('&!!!!!!!!!!!!!!!!!!!!!!!!!!!!!!!!!!!!!!!!!!!!!!!!!!!!!!!!!!!!!!!!!!!!!!!!!!!!!!!!!!!!!!!!!!!!!!!!!!!!!!!!!!!",
"!!!!!!!!!!!!!!!!!!!!!!!!!%&)-@AEEFC><;:9977665544322320///6:>HP]guuugaXRNLLKKGGGDDDGKMNQSX_ckc_[YXXVXXZZZ^`bdhhhjmrtxxyyzwrke`VRMKGGGKKKGDDBBBBBBBBBBBBBBDDGGKKLMNOQRQNLLMMNOOORTX_ckqqkaUNB?-)('!!!!!!!!!!!!!!!!!!!!!!!!!!!!!!!!!!!!!!!!!!!!!!!!!!!!!!!!!!!!!!!!!!!!!!!!!!!!!!!!!!!!!!!!!!!!!!!!!!!!!!!!!!!",
"!!!!!!!!!!!!!!!!!!!!!!!!!!%)-?ACEFE><;99::99776653221/,+,09>HP]guuuuug[UOMMLLKGDDDGGLNORTV[`ca^[YXVUVXXZZ[_`dddghhmtxxxyzwrmieYRMGDDGKKKGDDBBBBBBBBBBBBBBBDDDGGKLMOOQRONMLLMMNQONORVcxxtpfaUO?-)(%!!!!!!!!!!!!!!!!!!!!!!!!!!!!!!!!!!!!!!!!!!!!!!!!!!!!!!!!!!!!!!!!!!!!!!!!!!!!!!!!!!!!!!!!!!!!!!!!!!!!!!!!!!",
"!!!!!!!!!!!!!!!!!!!!!!!!!!!(-8=AEFEC><;;;;;;:976543221/159>FJPgguuuugg]ZUQOONMMMMMNOOQSTUVX[_^^[YXVUVXXXZZ[_bdddhhjprtxyzywrpkaYQLGGGKKKGGDBBDBBBBBBBBBBBBBDDGGKMMOOQRQOONOOQRRRRRRS^qtxxpf[TG?-)(('&%!!!!!!!!!!!!!!!!!!!!!!!!!!!!!!!!!!!!!!!!!!!!!!!!!!!!!!!!!!!!!!!!!!!!!!!!!!!!!!!!!!!!!!!!!!!!!!!!!!!!!!",
"!!!!!!!!!!!!!!!!!!!!!!!!!!!()-8ACFECC><<<<<<<;:765433225:>FJP]uuuuggggb]ZXVSSSTTUVYYXVVVVVVVY[[[YYXUVVXXZZZ^abddddhjptxyzzyxtpkeVNKGGKLKGGDBDDDBBBBBBBBBBBBBDGKLMNOOQRRRRRTUVUTUXUQOXftzzxocYOK@8-)'&%!!!!!!!!!!!!!!!!!!!!!!!!!!!!!!!!!!!!!!!!!!!!!!!!!!!!!!!!!!!!!!!!!!!!!!!!!!!!!!!!!!!!!!!!!!!!!!!!!!!!!!",
"!!!!!!!!!!!!!!!!!!!!!!!!!!!()-.;ACEECC>>>>>>>>=<;:99997:=CHJPW]]g]]]WPPPPQNNNNQV_cee`[UQORTTUVYYYYXVVVXXYZZZ_adddddhjptxyzzywrok[QMMLLMLKGDBDDDBBBBBBBBBBBBBDGKLMNORRSTTTTUVXXVY^[VT[eqz|zxk_UOG?-)('&!!!!!!!!!!!!!!!!!!!!!!!!!!!!!!!!!!!!!!!!!!!!!!!!!!!!!!!!!!!!!!!!!!!!!!!!!!!!!!!!!!!!!!!!!!!!!!!!!!!!!!",
"!!!!!!!!!!!!!!!!!!!!!!!!!!!'()-.;AEEEECCCEEEEECCCA>>>>>>CCFHJPPPPPPPJHHFFFFAFIIPdstre^QLLNOQQSUVVXVVVVVXXYZZ[_adddddimptxyzyxtpi`XTQONMMLKDDDDDBBDDBBBBDBBBBDDGKLNSUTTTUTTTUVY[_aaccccqz}|zqeXOK@8-)('%!!!!!!!!!!!!!!!!!!!!!!!!!!!!!!!!!!!!!!!!!!!!!!!!!!!!!!!!!!!!!!!!!!!!!!!!!!!!!!!!!!!!!!!!!!!!!!!!!!!!!",
"!!!!!!!!!!!!!!!!!!!!!!!!!!!&'()-8=CEFEEFHHHHHHHHHFFHHFECCCCCEHIJJJJFC>>======AEPbuwvcVMBBKNNOOSTUVVVVVVXXYZZZ[`bdddddimrxxyzywqic`[VTQNMMLGDDDDDDDDDBBBDBBBBDDGGKNTVVVUUUUUUV[acckqxocqz}}|xo^SMG@8))(&%!!!!!!!!!!!!!!!!!!!!!!!!!!!!!!!!!!!!!!!!!!!!!!!!!!!!!!!!!!!!!!!!!!!!!!!!!!!!!!!!!!!!!!!!!!!!!!!!!!!!",
"!!!!!!!!!!!!!!!!!!!!!!!!!!!%&'()-8=AEEFHHHHHHHHHHHHHHFEC>>==>>CCECC><:997677:;=FP]ghVMD??DLMMOORTUVVVVVXXXYYYZ^`bdddddimrxyyyytlea^YURONNNLKGDDDDDDDDBBBBBBBDGGKKMOSUXVVVXXY[`effotytqtz|}}zxk^TNG?8-('&!!!!!!!!!!!!!!!!!!!!!!!!!!!!!!!!!!!!!!!!!!!!!!!!!!!!!!!!!!!!!!!!!!!!!!!!!!!!!!!!!!!!!!!!!!!!!!!!!!!!",
"!!!!!!!!!!!!!!!!!!!!!!!!!!!!!%'')-8=EEFHHHHHHJHHHJJJJHFC=;:79;;<=<;96531/,/2467>IP]bND?88@GKLMOQRTUVVXXXXXYXXX[_addddddiotxyzzwpic`[VROOQQNMKGGDDDDDDDBBBBBBDGKKGLNQUYXVX[^`cekkoqxyyyyxz}~}|ypaXQKB8)''!!!!!!!!!!!!!!!!!!!!!!!!!!!!!!!!!!!!!!!!!!!!!!!!!!!!!!!!!!!!!!!!!!!!!!!!!!!!!!!!!!!!!!!!!!!!!!!!!!!!",
"!!!!!!!!!!!!!!!!!!!!!!!!!!!!!%'')-8=EFHHHHHFFFECCCCC>>>=;9766779:976642//+/146:>EJW]L?888?GKKMNORTUVVXXXXXXXVXY[_abddddilptxyzywpfa_YURRRQONLGGGDDDDDDBBBBBBDDGGGKLMOSTUX^`acefffkkoqxyyz||zttqkaXRM?-((%%!!!!!!!!!!!!!!!!!!!!!!!!!!!!!!!!!!!!!!!!!!!!!!!!!!!!!!!!!!!!!!!!!!!!!!!!!!!!!!!!!!!!!!!!!!!!!!!!!!",
"!!!!!!!!!!!!!!!!!!!!!!!!!!!!!%'().;AHHHHHHFECC>>==<;99;;765333456555440,,+/047<=>FPZG8888?DGKLMNQSTVVXXXXXXVVVVX[`abdddddlptxyyzwlca^YUTRQOOMKGGDDDDDDDBBBBBBBDDGGKLMOQTX_aceeeccaaaktxyzzyqfottkea_D8)(&%!!!!!!!!!!!!!!!!!!!!!!!!!!!!!!!!!!!!!!!!!!!!!!!!!!!!!!!!!!!!!!!!!!!!!!!!!!!!!!!!!!!!!!!!!!!!!!!!!!",
"!!!!!!!!!!!!!!!!!!!!!!!!!!!!!&'(-8=AHHJJJHEC>><;:9964577643112234444441////039==>FP]D88-8?BDKLLMORTVXXYXXXXVVUVVY^`abddddilprwyzyqkea[XTRQQQMLKGGDDDDDDDBBBBBBBDGGGKMNQTVY_`aaaa`_^[afptxtqkafqtofkqN?-)''%!!!!!!!!!!!!!!!!!!!!!!!!!!!!!!!!!!!!!!!!!!!!!!!!!!!!!!!!!!!!!!!!!!!!!!!!!!!!!!!!!!!!!!!!!!!!!!!!!",
"!!!!!!!!!!!!!!!!!!!!!!!!!!!!!&((-8ACHJJJJHC=<;:7654212553110123444445531111139>>>FP]G88-88?BKKLMORTXYYYYXXXVVUUUX[_abbddddiimrwzyxrkc_YUSRQQNLKKGDDDDDDDDDDBBBBDGGGKMORRTTV[_^^^^[[Y[^akookeackkeakt[N@-((&!!!!!!!!!!!!!!!!!!!!!!!!!!!!!!!!!!!!!!!!!!!!!!!!!!!!!!!!!!!!!!!!!!!!!!!!!!!!!!!!!!!!!!!!!!!!!!!!!",
"!!!!!!!!!!!!!!!!!!!!!!!!!!!!!&()-;AFHJJJJH>;:97520//,/12100013444444565433213:>>>FP]G?8--8?BKKLMNOTXY[[[YXXVVUUUVY[`abbdddddimtyyyxqfa[XTRRQNMLLKGDDDDDDDDDBBBBDGDDGMOQQQQRUXXXXXXXXVV[aeccaacffa_fqqoO8)('%!!!!!!!!!!!!!!!!!!!!!!!!!!!!!!!!!!!!!!!!!!!!!!!!!!!!!!!!!!!!!!!!!!!!!!!!!!!!!!!!!!!!!!!!!!!!!!!!",
"!!!!!!!!!!!!!!!!!!!!!!!!!!!!!&()-=CFHJJJHC=:99630/,,,/000/01245555556655432139=>EJPWLB8--88?DKLMNOTXY[[[ZZXXVUUUVX[_aabbddddeipvwyxrlc_YUSRRONMMMKDDDDDDDDDBBBBBDDDDKMMONNNORSTUTUUVVUY___^_acffa_aafpVB8-('%!!!!!!!!!!!!!!!!!!!!!!!!!!!!!!!!!!!!!!!!!!!!!!!!!!!!!!!!!!!!!!!!!!!!!!!!!!!!!!!!!!!!!!!!!!!!!!!",
"!!!!!!!!!!!!!!!!!!!!!!!!!!!!!&()-=EHHJJHE><77751,+*+,,,///02456666666666542137<CHJPSNK8))-8?BGLMNOSXY[^^^[YXVVVVVVY^`aabbbddddinvyytpf`[VTTTQOOONLGGDDDBDDDBBBBBBBBBDGKMMLLMNORRRRSTUUXYYXV^cfffc_[XatkOD-('&!!!!!!!!!!!!!!!!!!!!!!!!!!!!!!!!!!!!!!!!!!!!!!!!!!!!!!!!!!!!!!!!!!!!!!!!!!!!!!!!!!!!!!!!!!!!!!!",
"!!!!!!!!!!!!!!!!!!!!!!!!!!!!!&().=FHJHHFC>;99962/+*+,,,,//13455566666666532127;CJPWTOM?---8?@DLMNORVY[^^^[[XXVVUVVY^`aabbbddddehmswwwoe`YVUTSRQONMKKGDDDDBBBBDDDBBBBDDGLKKKLLMNNMMNOTXY[[[[YXVUVXYVT[oo[O?)('&%!!!!!!!!!!!!!!!!!!!!!!!!!!!!!!!!!!!!!!!!!!!!!!!!!!!!!!!!!!!!!!!!!!!!!!!!!!!!!!!!!!!!!!!!!!!!!",
"!!!!!!!!!!!!!!!!!!!!!!!!!!!!!'().=FHJHFC>=;99963/,*+,,,,,/14455566776666520027;EP]ZWSN@8-888?BLNNORUX[^^_^[YXVUUVVY^``aabdeeddddhnvwytoe`[XUUTSQONMLGGGDDBBBBDDDDDBBBDDGGGGGKKLKGKLMRY[[_acVONNNQTRQVcqqfB-)(&&!!!!!!!!!!!!!!!!!!!!!!!!!!!!!!!!!!!!!!!!!!!!!!!!!!!!!!!!!!!!!!!!!!!!!!!!!!!!!!!!!!!!!!!!!!!!!",
"!!!!!!!!!!!!!!!!!!!!!!!!!!!!!'().AHHJHEC><:99:741/+,,,,,,/14455556776666400149=HW]]ZTOD?88-8?@GMMNOSUY[^^[[YXVUUVVY^_`aaaceeedddejsyzwqkc`[XVVTROOOMKKKGDDDBDDGDDDDDDDDGGDDGGKKKKKKLNSSRTY_TNMMNQTROT_oyyM?-)'&!!!!!!!!!!!!!!!!!!!!!!!!!!!!!!!!!!!!!!!!!!!!!!!!!!!!!!!!!!!!!!!!!!!!!!!!!!!!!!!!!!!!!!!!!!!!!",
"!!!!!!!!!!!!!!!!!!!!!!!!!!!!!')-8AHHHFC>=<:79:7520/,,,,,,,134454466776652/036;>J]ggbUNGB?---8?BKLNOQTVY[[[YYXVVUVVX[_``aacefeedbejswzxrofc_[YVUSRQONLLLLKGGDDGGDDGGGGGGGGDDGGKKLMMLKLLLKLOUQNNOQTUTRUYctz^N?)''!!!!!!!!!!!!!!!!!!!!!!!!!!!!!!!!!!!!!!!!!!!!!!!!!!!!!!!!!!!!!!!!!!!!!!!!!!!!!!!!!!!!!!!!!!!!!",
"!!!!!!!!!!!!!!!!!!!!!!!!!!!!!')-8AHHHEC>=;979:96320/,,,,,,034444356666531/157=EJ]ggdUNLG?---88?BKMNORUXYYYYXXVVUVVX[^_``aceffeddejswyxwqofa_[XUTSRQOMMMMLKGGGGGGGKLLLLKKGDDDGKKMNMLKGDDBDLONMNRTVXUTUX_pzxpD-('!!!!!!!!!!!!!!!!!!!!!!!!!!!!!!!!!!!!!!!!!!!!!!!!!!!!!!!!!!!!!!!!!!!!!!!!!!!!!!!!!!!!!!!!!!!!!",
"!!!!!!!!!!!!!!!!!!!!!!!!!!!!!')-8AHHHE>>=;:9:;964310/,,,,,/12332246654200146:CJPgggbUNLG?----88?DKMNQUXXYXXXXXVVVVVY[^_``acffiedimswyyywrlc^[YVUTTTRONNMLKKKKLLLKLMMMMMMKDDDDGGGKKLLGDBBBGKGGLOTXYVTVY`ktxyM8)(&%!!!!!!!!!!!!!!!!!!!!!!!!!!!!!!!!!!!!!!!!!!!!!!!!!!!!!!!!!!!!!!!!!!!!!!!!!!!!!!!!!!!!!!!!!!!",
"!!!!!!!!!!!!!!!!!!!!!!!!!!!!!')-8AHHHC>><;;;;;9754210/,+,,//0222035542/+0367<FP]ggd]TOLG?8----8?@DKMOUXXXXXXXXXVVUVVY[__`accfkielnvwwyzyyqc[[[YVUVXUSQNMLKKLMMNMMNOOONNNKGDDDDDDBDKMKDB@@BBBBGOUX[XUX^acky}T@-)'&!!!!!!!!!!!!!!!!!!!!!!!!!!!!!!!!!!!!!!!!!!!!!!!!!!!!!!!!!!!!!!!!!!!!!!!!!!!!!!!!!!!!!!!!!!!",
"!!!!!!!!!!!!!!!!!!!!!!!!!!!!!')-8AEFFC>=<<;;;;:766543210/,,,/00//1321000257;>J]bgggbVOMKB8--)--8?BGLOSVXYXXXXXXXVVVXY[^_`aaceiifmswwwxzyytkc_[YXVXYUTQONMMMMNNNNMMMMLLLKGDDDBDDDDDGKGDDDDGKKGMQUX[YVX[_epx|`M?-('&!!!!!!!!!!!!!!!!!!!!!!!!!!!!!!!!!!!!!!!!!!!!!!!!!!!!!!!!!!!!!!!!!!!!!!!!!!!!!!!!!!!!!!!!!!",
"!!!!!!!!!!!!!!!!!!!!!!!!!!!!!')-8=ACEC>=<<<<;;:7766665531/,++,,,+///,,1355:>EPgghhgdZROMD?8-))-8?@DKNRUX[[ZZZZXXXXXXY[^_``acefiipwywrwyyyxroc[YYYYYVTROOOOOQOONNMMLKGDDDDDDBBDDGGGGDDDGKMNOOOQTVY[YYYY^ftyzqcM8((&!!!!!!!!!!!!!!!!!!!!!!!!!!!!!!!!!!!!!!!!!!!!!!!!!!!!!!!!!!!!!!!!!!!!!!!!!!!!!!!!!!!!!!!!!!",
"!!!!!!!!!!!!!!!!!!!!!!!!!!!!!')).=ACCC>=<<<<<;:97777766642100000012201467:=EJPghuhggZUROKB?-))--8?BKMOTVY[[ZZZZYYYYZZ^__`aaadeilrwywrwyyyywtf`^^[[[XUTRRRSTTRQOONMLKGGGGGGGDDDGKLLKGGGKMNORSTUVXYYYYYY[cptyyyV?-)'&%!!!!!!!!!!!!!!!!!!!!!!!!!!!!!!!!!!!!!!!!!!!!!!!!!!!!!!!!!!!!!!!!!!!!!!!!!!!!!!!!!!!!!!!!",
"!!!!!!!!!!!!!!!!!!!!!!!!!!!!!'()-8AACCC>=<<<<<;:999777776666655666766679<>EJP]hhuhhg]YURMD?8--)-8?BDLORTVY^__^^[[[^__`aaaabbdeilnyzwvwyyzyxwpfc_^^[YXVVUUVVVUTRQONMMNNNNNNMKGKLMNNNMMMNOOOOSVXYYYXXYYY[_aoxzycL?-('&!!!!!!!!!!!!!!!!!!!!!!!!!!!!!!!!!!!!!!!!!!!!!!!!!!!!!!!!!!!!!!!!!!!!!!!!!!!!!!!!!!!!!!!!",
"!!!!!!!!!!!!!!!!!!!!!!!!!!!!!'()-8=ACCC>>=<<<<<;;:::::::::::999::;;;::;<CFJWgghuuhhgb_ZVNG@88-)-8?@DKNQRUY_```____`abbbbbbbbdehhsyzyvwwyzzyxtqia^__^[[[[[[YYXVTRQOOORTTTTTQMKLMOQRRRRQQRQOOSY[^[YXXXYY[Y[fxyyq[O8)('!!!!!!!!!!!!!!!!!!!!!!!!!!!!!!!!!!!!!!!!!!!!!!!!!!!!!!!!!!!!!!!!!!!!!!!!!!!!!!!!!!!!!!!!",
"!!!!!!!!!!!!!!!!!!!!!!!!!!!!!&(().8=ACCCC>>>>>==<<=<<<<<<<<<<<<<>>>>>CCFJPW]gguuuhggb`ZXQLD?88---8?BKMOQSV[_``aaaaabbbba``bbdhhjsyzwnsvwzzyxwtlc``c`^^^^_`_^YVUTSRRRTTTTTTRONOOOOOSTROORROOT[^____[XXYYYYfyxqkc[B8)(!!!!!!!!!!!!!!!!!!!!!!!!!!!!!!!!!!!!!!!!!!!!!!!!!!!!!!!!!!!!!!!!!!!!!!!!!!!!!!!!!!!!!!!!",
"!!!!!!!!!!!!!!!!!!!!!!!!!!!!!%'')-.;>CCECCCCC>>>>>>>>>>>>>>>>>>CCEFHHJPP]gguuuuuuggdbb_ZTNKD@8----8BGMNOQUZ^`abdbbbbbbb]]]]bdhhjvyyvjnnvzzzyxxpcacfc`__`cfca^XUUUUTTTUTTTTTSSSSONOTVRNORSQOT[__ace_XXYYXYfytfcptM?-)%!!!!!!!!!!!!!!!!!!!!!!!!!!!!!!!!!!!!!!!!!!!!!!!!!!!!!!!!!!!!!!!!!!!!!!!!!!!!!!!!!!!!!!!",
"!!!!!!!!!!!!!!!!!!!!!!!!!!!!!%&'()-.9=>CCEEECCC>>>CCCCCCC>>>CCEEFHHHHJJPPW]]]guuuggdbb`_XSNGB?8---8?DKMNOQTVY^`a_ZZZZZZWWZZ]dhjswzzwsvvyz{zyyywoieecccacefea_[YYYYXXXXXVVUTTTTTRQRTVRNOSTQOU_``aac_[[_`__ckfccoqTL8)''!!!!!!!!!!!!!!!!!!!!!!!!!!!!!!!!!!!!!!!!!!!!!!!!!!!!!!!!!!!!!!!!!!!!!!!!!!!!!!!!!!!!!!",
"!!!!!!!!!!!!!!!!!!!!!!!!!!!!!!%&'()-.8=ACEEEECCCCCCCCCCCC>>CCFHHJJJJHIJJJJJPP]gggggddbba__VLB??8--8?BGLMNNORUXZZZWUUSSSTTVWZbhnvyzzywyzz||{zzyyxtiacffeeeecaa______^^^[[YXVUTTTTTUUUROQTTQQV_aaa``_^afkkfa__acfkaY@-('!!!!!!!!!!!!!!!!!!!!!!!!!!!!!!!!!!!!!!!!!!!!!!!!!!!!!!!!!!!!!!!!!!!!!!!!!!!!!!!!!!!!!!",
"!!!!!!!!!!!!!!!!!!!!!!!!!!!!!!!!'(()-8=ACECCCC>>>>>>>>>>CCC>CFHHJJJHHHHJJHHHJPgggggggddddd_NDB?8-)-??BDKMMMNNORTSSQQQQSSUWZadjsyz{{zzz{{|}|{{zzzyqefkkfeeccccaaaaaaaa`__^[YVUUTVXXUTRRSTTRRV_``_____akpoka[[_aacfkL8)('&%!!!!!!!!!!!!!!!!!!!!!!!!!!!!!!!!!!!!!!!!!!!!!!!!!!!!!!!!!!!!!!!!!!!!!!!!!!!!!!!!!!!",
"!!!!!!!!!!!!!!!!!!!!!!!!!!!!!!!!'()-.;ACCCC>>===<<<<<<<<>C>>CCEFFHHHHFFFFFEEFPggggggggggghbQKDB?---88?@DLLKGGGLNNNNNOQSVZ`djnvwzz{{{{{{|}}}}}|||zywrpkfecaceecccaaaaaaa``_^[YXXY[XTQTVVVVUTX[^^^^^^^`cfffa[[[___ekSD8-''&!!!!!!!!!!!!!!!!!!!!!!!!!!!!!!!!!!!!!!!!!!!!!!!!!!!!!!!!!!!!!!!!!!!!!!!!!!!!!!!!!!!",
"!!!!!!!!!!!!!!!!!!!!!!!!!!!!!!!!'()-.;CCCC>=<;;;::::997:<>>>>>>CCCEEEEEECCCCCJ]dgggggghhhhbTMKG?8--888?BGGDB@@DKLMMNOSV[dltxyyz{{{{||}}|}}}}}}}||||yrokecaeiieecacccaaaaaaa`_^[^_YSOT[[YXXVXXY[[[[[^_cceea_^^^^^cf`VK8(('!!!!!!!!!!!!!!!!!!!!!!!!!!!!!!!!!!!!!!!!!!!!!!!!!!!!!!!!!!!!!!!!!!!!!!!!!!!!!!!!!!!",
"!!!!!!!!!!!!!!!!!!!!!!!!!!!!!!%&(().7=>>>=<<;;::977655569;;:::;;<<=>>>CCCCCCCJW]ghhhgughgb^SMML@8--8888?@@B???BLMNQSV^dlswyzzz{{{{{{{{{|||}}}}}}}||zywqpkfiiiffeeccacccccccaa`_`a_YVY_[YXVVVVXXY[__`ckofcccfopoke`^[N?-)'!!!!!!!!!!!!!!!!!!!!!!!!!!!!!!!!!!!!!!!!!!!!!!!!!!!!!!!!!!!!!!!!!!!!!!!!!!!!!!!!!!!",
"!!!!!!!!!!!!!!!!!!!!!!!!!!!!!!&'()-.;=>=;;;;::9976530002566554455679:;>CCCC>CHP]guuuuuhhd_VRONMB8------8????88@MNQU^eryz{||{{{{{{zzzzzz{|||{|}}}}}|{zyxxrpokkffffecaccccccccccccccaaa`^YXVUUUUUX[_ackttkcfox|}|zfXYaVD8-(!!!!!!!!!!!!!!!!!!!!!!!!!!!!!!!!!!!!!!!!!!!!!!!!!!!!!!!!!!!!!!!!!!!!!!!!!!!!!!!!!!!",
"!!!!!!!!!!!!!!!!!!!!!!!!!!!!!%''()-.===<:::::9766421///023211001145667:<=>>>CHJPguuuuuhgbZTQONMB8------888????GSUX`iry{{{{zywstvwwwwwwwxyyyyzz{{||{zzyyxxwqlkkkkkecaaaccccccccccccccca_^[YXVUVX[_acfqyyxqtxz}}}}qaae[NB8)('!!!!!!!!!!!!!!!!!!!!!!!!!!!!!!!!!!!!!!!!!!!!!!!!!!!!!!!!!!!!!!!!!!!!!!!!!!!!!!!!!",
"!!!!!!!!!!!!!!!!!!!!!!!!!!!!!%'()).7=<<;999:9965421/,,,,//,,,++,,0233457:<>>CFJPgguuuuhg`VROONMD?88------8@B@DQeeepxz{{{{zxribdeiloollloqqqqrwxyyzyyyxxxyytokkkkkfaaaaaccccccccccccccaa__[[XUX^`acfotz||||z||}~~zqokcXQ?-)(!!!!!!!!!!!!!!!!!!!!!!!!!!!!!!!!!!!!!!!!!!!!!!!!!!!!!!!!!!!!!!!!!!!!!!!!!!!!!!!!!",
"!!!!!!!!!!!!!!!!!!!!!!!!!!!!!&'()-.9=<;:9799976420///,,+********,/1101247:<>CEHP]ggguuhg`VROONMGB?88888-8?GKLO_xwwxzzyxwwsme_XY[`ceeeeefkkkkloqrwwxwtttwxywqokkkkfcaaaacccccccccccccccaa`__[Y_ckkkpqxz}}|zzyyz}~}ztkec`G8-)''!!!!!!!!!!!!!!!!!!!!!!!!!!!!!!!!!!!!!!!!!!!!!!!!!!!!!!!!!!!!!!!!!!!!!!!!!!!!!!!",
"!!!!!!!!!!!!!!!!!!!!!!!!!!!!!&'()-.;=<;:979977531//010,********,/022112367;=>CHJW]bgguggbZTRONMKB??888???DQUY`pzzyyywpeeddb_VRSTX^`aaa`aceeeffilmmpppppqwyxwqiefkkfecaaacccccccccccccccaaaacfotyyyxtxzzyytpkkpz~}ztfaffOD8-('!!!!!!!!!!!!!!!!!!!!!!!!!!!!!!!!!!!!!!!!!!!!!!!!!!!!!!!!!!!!!!!!!!!!!!!!!!!!!!!",
"!!!!!!!!!!!!!!!!!!!!!!!!!!!!!&(()-.;=<::979976520//131/*******,/12322222469;>CFJP]]gggggd_XUROMKDB???@BBDQiwyz{{zzywmaY[ZZZWSOOQTX^^_^^_`aacccdeeeiiikilryxxrfcfkkkiecaaaccccccccccccecceefptyz}}}zttxxtqfc`_at}}|xeafq[Q@-)(!!!!!!!!!!!!!!!!!!!!!!!!!!!!!!!!!!!!!!!!!!!!!!!!!!!!!!!!!!!!!!!!!!!!!!!!!!!!!!!",
"!!!!!!!!!!!!!!!!!!!!!!!!!!!!!&(()-.8;;::9779775310/131/+*****+,/12333344567:<>EJP]]ggggggb_YUQNLGDDBGLMNOYlwz{zyric`YTQRSUWWUTTTUX[[^^^^__aaccddeeeffiilqrtwtofffikkfecaaaccccccccccfkkopqqtttttttqooookfc`^Y^fxz}zkcee^VL?8)%%!!!!!!!!!!!!!!!!!!!!!!!!!!!!!!!!!!!!!!!!!!!!!!!!!!!!!!!!!!!!!!!!!!!!!!!!!!!!!",
"!!!!!!!!!!!!!!!!!!!!!!!!!!!!!&(()-.8;;::99997764211231/,+***++,0223334565567;>CJP]]gggggggg`YSOMLKMNRY_`afqy{{zwdYUSONMNNQTWZZZXXXY[[[[^^_`aaccddddddeilmlqwtroiefkkkfecaaacccccccccfptxyyyxqofeeecccccaa`_YVX_fx~|tfc_`cUM@-&&!!!!!!!!!!!!!!!!!!!!!!!!!!!!!!!!!!!!!!!!!!!!!!!!!!!!!!!!!!!!!!!!!!!!!!!!!!!!!",
"!!!!!!!!!!!!!!!!!!!!!!!!!!!!!&'()-.8;;<;:9979975443332/,+***,/01223345566567;>CJP]ggggghhggbZVROOORU[aekpqtpfa_XTONNNMMOQSVXZZYXXYY[[[[[^^__`aaccddddeikllprttqkcfkkkkfea^^`cccccccckpqttttpfecacccccaaaa_[XTTY`eokfc_^ak_SG8)('!!!!!!!!!!!!!!!!!!!!!!!!!!!!!!!!!!!!!!!!!!!!!!!!!!!!!!!!!!!!!!!!!!!!!!!!!!!!",
"!!!!!!!!!!!!!!!!!!!!!!!!!!!!!&'()-.8===<:9979:976655420/,+++/022123455566669;>CJPgguggghhugd]ZVVY[_aacirxwwaTONMLKKKLMORVWXZXXXVX[[[[[[[[^^^__`accddceeikooprttkcfkkkkkf`YX^accceecckqppokfca``aacccaaaaa_[VSRUYXUV[^[[cpeYN@8)(!!!!!!!!!!!!!!!!!!!!!!!!!!!!!!!!!!!!!!!!!!!!!!!!!!!!!!!!!!!!!!!!!!!!!!!!!!!!",
"!!!!!!!!!!!!!!!!!!!!!!!!!!!!!%''()-8;=>><;979::977665421/,,+/23223445566667:<>CJWguuugghuuug]]^_aeilllmrviaRKDDDDDGKMORUZZYXXVVVX[[[[[[[[[[[[^_``cccceefklooqttoeffkkkkkaYX[_`cceeeffkkfeca_[^__acccaaa`_YURONRUSOQSTTT_okaTK?-)('!!!!!!!!!!!!!!!!!!!!!!!!!!!!!!!!!!!!!!!!!!!!!!!!!!!!!!!!!!!!!!!!!!!!!!!!!!",
"!!!!!!!!!!!!!!!!!!!!!!!!!!!!!!&'())-8=AC>>;79:::977766652//,/23344555666679;<>CJ]guuuguuuuug]`aacflprwslaTND????@DKNQTVXZYXVVVVVXY[[[[YYYYY[[[^^_`ccceeefkooqttpffffkklofa_YX[acefffeccaa`_^Y[[_`aaaaa`^YTOMKKNSRQONMMMTfof^OK?-)(!!!!!!!!!!!!!!!!!!!!!!!!!!!!!!!!!!!!!!!!!!!!!!!!!!!!!!!!!!!!!!!!!!!!!!!!!!",
"!!!!!!!!!!!!!!!!!!!!!!!!!!!!!!!%'())-8AFEC<9:;;;:977977652/,/2344566666679;<=>CJ]guuuuuuuuugabeffimqvynaULB?8888?DLRXZZZZXVUUUVXXYYYYYYYYYYY[[[[^_acceeefiloqttpofeefkoookcXTX_aefkkc___^^[YYYY[^__``_^YUOLGDDLOQQNLGGGQcqpk[TB8-)'&!!!!!!!!!!!!!!!!!!!!!!!!!!!!!!!!!!!!!!!!!!!!!!!!!!!!!!!!!!!!!!!!!!!!!!!!",
"!!!!!!!!!!!!!!!!!!!!!!!!!!!!!!!!''())-8=AA>=<<;;:::99997651,,/02234555567:;=>>CJ]guuuuuuuuuhdillopmmaXRMG?88888?@DLQUVYXXXVVXXXXXYYY[[[[[[^^^_^^^^_acceeffklprtrqkeefkoolkc[VXY^accca^[YYYYYYYYXUTUVTQOONKDB@BDLMMMMMMMVqxpka[M@8-)(!!!!!!!!!!!!!!!!!!!!!!!!!!!!!!!!!!!!!!!!!!!!!!!!!!!!!!!!!!!!!!!!!!!!!!!!",
"!!!!!!!!!!!!!!!!!!!!!!!!!!!!!!!!%&'(()-8=ACC><<;;;;:99:9763,*+,/012334567;<=>CEJ]uuuuuuuuuusqqqrtvnhVNGB?8---88?BGMOSUVVVVXXXYXXYYY[[[[[^_`````_^^[_acefeefkoqtttoeefkkkkke_YVTV^```_[YXVVVY[[YUQNORNLGKKDB???@DGKMNOOQ_zzqkkkVM@8-)!!!!!!!!!!!!!!!!!!!!!!!!!!!!!!!!!!!!!!!!!!!!!!!!!!!!!!!!!!!!!!!!!!!!!!!!",
"!!!!!!!!!!!!!!!!!!!!!!!!!!!!!!!!!%''())-.8;==<<<<;;;::::9962112456666677:;<>>EHPguuuuuuuzzywwwwvvnaXNGB?88----8?BKMOQSUVVXXYXXXXY[^^^^[[[^`aab``_^[_`acfffiloqtttpkkkkkfffec`[XY____^[XUTSSV[[YVROOOMGDDDB@@@@BDDGLNRRTcz|xqpo_UL?8)''&!!!!!!!!!!!!!!!!!!!!!!!!!!!!!!!!!!!!!!!!!!!!!!!!!!!!!!!!!!!!!!!!!!!!!",
"!!!!!!!!!!!!!!!!!!!!!!!!!!!!!!!!!!&''(())-.8;<===<;;:::::;765567:;<;;:;;;<=>CHP]guuuuuu{{{{zyywvshWNKB?8------88BMNNORUVXYYYXXXXY^```__[ZZ_bbba`_^^^_`cefikopqtqpqqpkffeeeefic`_```_^YVTROOTY[[YUSOMKGDB@@BBBDDGDDKNSTUez}zyqkfcTL?-(('!!!!!!!!!!!!!!!!!!!!!!!!!!!!!!!!!!!!!!!!!!!!!!!!!!!!!!!!!!!!!!!!!!!!!",
"!!!!!!!!!!!!!!!!!!!!!!!!!!!!!!!!!!!%%&'(()--.8;;;;;;9:;;<<;:99:<=>>>>=>>>>>CFJW]uuuuuu{{{{{zzyvsjbRLGD?8-88---88@MNNNRUXYYYXVUTTV[``a_^ZVV^bbba`_````acffkoqqttqqqtqkeccccekpkecaa`_^YVTQOORUVXVTRNKGDBB?BBDGKKKGGKOSTUcy|||xqtxfVL8-)(&&!!!!!!!!!!!!!!!!!!!!!!!!!!!!!!!!!!!!!!!!!!!!!!!!!!!!!!!!!!!!!!!!!!!",
"!!!!!!!!!!!!!!!!!!!!!!!!!!!!!!!!!!!!%&&'(())--..888889;==>>===>>CCEEEEFFFFFFJP]guuuu{{{{{{{zyvnhd^QKKLD?8888---8?KMMOSXXYXVUSQOORVZ_b_ZVRRXbbaaaacffkkkkklpttttttqpofcccaacfkkkfcca_^[VTROOOQQQOONKDBBBBBDKLMMMMMMNORRT^oy}}|zz|xkXK?-)''!!!!!!!!!!!!!!!!!!!!!!!!!!!!!!!!!!!!!!!!!!!!!!!!!!!!!!!!!!!!!!!!!!!",
"!!!!!!!!!!!!!!!!!!!!!!!!!!!!!!!!!!!!!!!%%&'(())----..88=AAACCCCEHHJJJJJJJJJJJWguuuuu{{{}}{zyvnhb_XOKMQM@???88--8?DKMOTXXXVUSONMMNRV^b_[UOOVdcaccckpqtqpooottxxxxxqofeccaaacekkokfca`_[VTRQOONNMMLKDB@@BDGLMOQRQQRSSRRRSYct}~~~~~~}zcU?)('!!!!!!!!!!!!!!!!!!!!!!!!!!!!!!!!!!!!!!!!!!!!!!!!!!!!!!!!!!!!!!!!!!!",
"!!!!!!!!!!!!!!!!!!!!!!!!!!!!!!!!!!!!!!!!%&''((()))))--.88?=AAAFIJJJJHHHJHHHHJPP]uuu{{{}}}{zwvjdbZVQNOQND???88---8?BGMNQOOOOOONMKMOSYa``^XYaooooopttxxxtttttxxxxxxxtqoieaaackqokkfcca_[XTRROONMLKKGDBBDDDGKMNQRRRRTUX[_aktz~~~~~~~}|tfK?-)!!!!!!!!!!!!!!!!!!!!!!!!!!!!!!!!!!!!!!!!!!!!!!!!!!!!!!!!!!!!!!!!!!!",
"!!!!!!!!!!!!!!!!!!!!!!!!!!!!!!!!!!!!!!!!!%%%&&''((((()--888?@AIIPJJJHFFFFFFFHJJWu{{{{~}}{zvvnhd]XUTTSRNKD@?88---8??BGKMMLMMMMNLGKMOVacfffktxyyyyyyyyyyxxxxxyyyyyyyxxtqfaaaepxpkiffca_^XTRROONLKGGDDBDKKGDKLNQSRRTTX`itz|}~~~~~~~~~}}}`O?)!!!!!!!!!!!!!!!!!!!!!!!!!!!!!!!!!!!!!!!!!!!!!!!!!!!!!!!!!!!!!!!!!!!",
"!!!!!!!!!!!!!!!!!!!!!!!!!!!!!!!!!!!!!!!!!!!!!!&''''((())---88?@GIIIIFFCCC>>>>CCJP]u{}~}{zyvunhgbZVVVUTOMKB??88--88??BDDDGGKMOROMNRV^fkoooptxxxxyyxxxxxxxxxxxxxxyyyyxxtofcacotqokkfec_[UQOOONMMKGGDDBDGKKKMMOSUXY^`epx|~~~}||}~~~~~~~}xcG8)(%!!!!!!!!!!!!!!!!!!!!!!!!!!!!!!!!!!!!!!!!!!!!!!!!!!!!!!!!!!!!!!!!",
"!!!!!!!!!!!!!!!!!!!!!!!!!!!!!!!!!!!!!!!!!!!!!!%%&&''''((())--88?@BGGFCA>=<;:9::>FPg{}~{zvvuuujgd_ZZXVUROLGB??88--88???@@BBGMS_YVYafoqtttqpppqttttttttttttrttttxxxxxxxxtpkcckopqpkkfc_YRMMMNNMMMLGDDBDGKMNOORU[cotxz|}~~~~zqoy~~~~~~~}|yR@8)&!!!!!!!!!!!!!!!!!!!!!!!!!!!!!!!!!!!!!!!!!!!!!!!!!!!!!!!!!!!!!!!!",
"!!!!!!!!!!!!!!!!!!!!!!!!!!!!!!!!!!!!!!!!!!!!!!!!!!!!!&'''(())--88?@@@AA>=;:7654:=H]}}~{vuuuunjhgb_ZZZXTOMKGB?88---88????BDKNXofcktxxxttrpmlklopqqpppppppppoopqqqtttxxxxtpfefkoqpokkf`[RMLMMMMMMMGDDDGGLNRTUY_eqz}~~~~}|zzqcaqz}~~~~~}}}cM?-&!!!!!!!!!!!!!!!!!!!!!!!!!!!!!!!!!!!!!!!!!!!!!!!!!!!!!!!!!!!!!!!!",
"!!!!!!!!!!!!!!!!!!!!!!!!!!!!!!!!!!!!!!!!!!!!!!!!!!!!!%&&''((())---88?@AAA>=:7516:CW}}{zuuuunjhhdba`_ZXSNLLKD?88-88888?@BGLOVaqpooqtrrpoliifeiiikkiiiiiiiiiiffikkklpqtxxxtpkfefkkoookc`VOMLKLMMMMGDGLMMNQTYakqyz}~~~|yk``a`__fqz~~~~~}}~qVD-'!!!!!!!!!!!!!!!!!!!!!!!!!!!!!!!!!!!!!!!!!!!!!!!!!!!!!!!!!!!!!!!!",
"!!!!!!!!!!!!!!!!!!!!!!!!!!!!!!!!!!!!!!!!!!!!!!!!!!!!!!!!!!&&'(((()-88?@DFFC=95/36>P}{zuuuunjhhddddbaZXSMKLMG??8888888?BGMR^fottttqpomieddddddddeeddddddddddccddcceflqtxxxtqfcccfopppkc^UOLGKMMMMGDLORRTUYctz}~~~~~}ykYQRTUY^`cx~~~~~~~~zpO8''&%%!!!!!!!!!!!!!!!!!!!!!!!!!!!!!!!!!!!!!!!!!!!!!!!!!!!!!!!!!!!!",
"!!!!!!!!!!!!!!!!!!!!!!!!!!!!!!!!!!!!!!!!!!!!!!!!!!!!!!!!!!%&'''((()--88?@AFAA=;<=F]}{uuuuunhhddddba_ZVQMKKLD?8888????DMOT[coopppollkiieedddddddeddddddddddddddddcdeilprtxtqfccekpqqqok`XSOMNOONMMLNQTX_coxz}~~}ztfa`[TORTV[___fx|}~~}}}|y^B--)('!!!!!!!!!!!!!!!!!!!!!!!!!!!!!!!!!!!!!!!!!!!!!!!!!!!!!!!!!!!!",
"!!!!!!!!!!!!!!!!!!!!!!!!!!!!!!!!!!!!!!!!!!!!!!!!!!!!!!!!!!!!%&&&''(()--8?BGIIIEFFJb{zuuuuunhddddbb`_XUQMKGGB?888?DDDGOY`ekppmliiiiieeeeedddddeedddeeeeddddddddddddddeiotttqkcefoqttqpoc[VTSTTRONOQRTXapy}~~~~}yp^SRRRONQTX_a^X_ft|~~}}}}}xUK8-)(!!!!!!!!!!!!!!!!!!!!!!!!!!!!!!!!!!!!!!!!!!!!!!!!!!!!!!!!!!!!",
"!!!!!!!!!!!!!!!!!!!!!!!!!!!!!!!!!!!!!!!!!!!!!!!!!!!!!!!!!!!!!!!!!''(())-8?@GIIJJPWg{uuuuunhhddddba`_YVSOMKGB????DNONOXcfooppmiiiiiiieeifeeeffiiiiiiiiieeeeeeedddddcddekpqtqkefekopqtqpc^XVUUVTQORTX^cqz}~~}ztkc^UQOQRQQRTVY[XUY_ky}}~~~~~}o[B8-(!!!!!!!!!!!!!!!!!!!!!!!!!!!!!!!!!!!!!!!!!!!!!!!!!!!!!!!!!!!!",
"!!!!!!!!!!!!!!!!!!!!!!!!!!!!!!!!!!!!!!!!!!!!!!!!!!!!!!!!!!!!!!!!!&&''(()--8@GMWW]guzuuuuuhhddddcba`_[YVURMGB@@BDN[^[_clllllllliiikiiiiiiiiillllllllllkiiieeeeeedddddddfkptqofeccekqttqc[XUTUVTRRTVaqy|}~~}zkYTSRRRRSTUVUTTTUTSUYcqz}~~~~~~{wN?-)!!!!!!!!!!!!!!!!!!!!!!!!!!!!!!!!!!!!!!!!!!!!!!!!!!!!!!!!!!!!",
"!!!!!!!!!!!!!!!!!!!!!!!!!!!!!!!!!!!!!!!!!!!!!!!!!!!!!!!!!!!!!!!!!!!!!&'())-8@LXapvuuuuuuuhhddddcaa`___[YVNKGBDLOXoqppppmiiiiklliklliiiilllmmmmmmmooooollkiiiieeeddddddeelqroifcccfpxtqe^XUTUVUUUX_p|~~~}ztk[RNOOQSTTTVYUTRRRRRTX_kx|~~~~~~~~WG8)!!!!!!!!!!!!!!!!!!!!!!!!!!!!!!!!!!!!!!!!!!!!!!!!!!!!!!!!!!!!",
"!!!!!!!!!!!!!!!!!!!!!!!!!!!!!!!!!!!!!!!!!!!!!!!!!!!!!!!!!!!!!!!!!!!!!&''())-8DS^nvuuuuuunhdddbbaaaaaaa_ZUQMLKMQYaopmmlkiiiiklmlilmmmlllmmmmpppppoooppqqpppppokieeedddddekpqqpolkfkqxtqf_YXUUUX[aktz~~}zk_YVTRQQRSTTTSTTSRSTTTSUY_aky~~~~~~~}aO?)!!%!!!!!!!!!!!!!!!!!!!!!!!!!!!!!!!!!!!!!!!!!!!!!!!!!!!!!!!!!",
"!!!!!!!!!!!!!!!!!!!!!!!!!!!!!!!!!!!!!!!!!!!!!!!!!!!!!!!!!!!!!!!!!!!!!%&&''(-8?NVjuuuuuuuhgdbbbaaaaabddaZUSOOOS_popoliieiiklloolilmpmmmmmmppppppppoopqqqtttttqpkfeeddddddiopqrttqootttqf`[YVUUYcq|~~~~|qYOONORTTUUUTRRQOQRSTUTTVY[^`q|}~~~~~}r_B-&&%%!!!!!!!!!!!!!!!!!!!!!!!!!!!!!!!!!!!!!!!!!!!!!!!!!!!!!!!!",
"!!!!!!!!!!!!!!!!!!!!!!!!!!!!!!!!!!!!!!!!!!!!!!!!!!!!!!!!!!!!!!!!!!!!!!&&&'()--8@Q]guuuuuggdbaaaaaaaba_ZXVVVVUYakopoliiiikklllmmmmppmmlifeeccceeeeeefkooppqqqqqplkfedddddflpqrttpkkkopqkc_[Y^`ftz}~}}xk_VQQOQRSSRROQRRRRSTTTSRQTV[_aiswz|}~}}yiK8)('%$!!!!!!!!!!!!!!!!!!!!!!!!!!!!!!!!!!!!!!!!!!!!!!!!!!!!!!!",
"!!!!!!!!!!!!!!!!!!!!!!!!!!!!!!!!!!!!!!!!!!!!!!!!!!!!!!!!!!!!!!!!!!!!!!%%&''((((8DSbuuuuhgdbba``aabaa_ZXXY^caaacikpolklllllkilmmppppmoiec`__^______`ccefkkopqqttqoiecddddeioqtrqofccckqkca__fqy}~}}zyfYTTSRRRSSRQOMNQTTUUVUTRONQUX_bbbdox|}~~{xQ?-)'&%!!!!!!!!!!!!!!!!!!!!!!!!!!!!!!!!!!!!!!!!!!!!!!!!!!!!!!!",
"!!!!!!!!!!!!!!!!!!!!!!!!!!!!!!!!!!!!!!!!!!!!!!!!!!!!!!!!!!!!!!!!!!!!!!!%&&'((''-BQ]uuuuggdba```abbbb^XX[_ckfeefklomlllmmlllmmmmooifecc`_^[^^^____``acefikkloqqtqqkeeeeddeilqtttoffffoqofcceqz|}}|yqf_XTTSSRRRQQOOOQTUUUSQOOOOORUZbddbipx|}}{{z[G?-('&!!!!!!!!!!!!!!!!!!!!!!!!!!!!!!!!!!!!!!!!!!!!!!!!!!!!!!!",
"!!!!!!!!!!!!!!!!!!!!!!!!!!!!!!!!!!!!!!!!!!!!!!!!!!!!!!!!!!!!!!!!!!!!!!!!%&''('&-BQ]uuuuggdba``aadddb_XYaklliceiomjmmllllmmppppmlfc`_^^^[[[^__```aacceffiikkkoqqqqoffeeedeimqxxxqkkoqqtokfkqy}}|zxo`XXYXURRRQOOOORTVVVUTOMMMNOQTX_emheqyz}}{yzzfRD8(('!!!!!!!!!!!!!!!!!!!!!!!!!!!!!!!!!!!!!!!!!!!!!!!!!!!!!!!",
"!!!!!!!!!!!!!!!!!!!!!!!!!!!!!!!!!!!!!!!!!!!!!!!!!!!!!!!!!!!!!!!!!!!!!!!!%&''''!-@N]uuuuggdba`aaddddd`[^ftqmieekmmjjmmllmmmpppliea_[YXYY[[^_``acccceeefiiiikkkpqqtpkffeedeilrxxytpptxttpkotyz}|ztocYSTYYTQQQOOOORTXXVTTRNLKMMOTVYamwtqx{}}|zvz{t`M8(('!!!!!!!!!!!!!!!!!!!!!!!!!!!!!!!!!!!!!!!!!!!!!!!!!!!!!!!",
"!!!!!!!!!!!!!!!!!!!!!!!!!!!!!!!!!!!!!!!!!!!!!!!!!!!!!!!!!!!!!!!!!!!!!!!!%%&''&!-?LWuuuuggdba`abddhhhdceorqoliimmjjjjlmmprqmlec`^^[YYY[^_`aaccddeeeeeeefiikkkkopqqpkkffeeeeiqxyzxtttxttqptyzzyxtpfa[VUUTONNOORTTUUTRONNNNNNNORTX_ftzyyz}}|{{yz|t`M8('&!!!!!!!!!!!!!!!!!!!!!!!!!!!!!!!!!!!!!!!!!!!!!!!!!!!!!!!",
"!!!!!!!!!!!!!!!!!!!!!!!!!!!!!!!!!!!!!!!!!!!!!!!!!!!!!!!!!!!!!!!!!!!!!!!!!%%&&%!)8DWuuuuhgdbbabddhhjjnrrrrqmmmmjnjjhllmmqtrlea^YXVXXY[^`aceeeeeeeeeeeeeefikkkkoopqpokkfeeecfqxz|zxxxxtqqtx|}ypkkfca_[VTOMLMMOUY[[URNKGKKMQRRSTU[cpy|}}}}}{{{{{|s_M8('%!!!!!!!!!!!!!!!!!!!!!!!!!!!!!!!!!!!!!!!!!!!!!!!!!!!!!!!",
"!!!!!!!!!!!!!!!!!!!!!!!!!!!!!!!!!!!!!!!!!!!!!!!!!!!!!!!!!!!!!!!!!!!!!!!!!%%%%%!)8@Suuuuhhddbbddhhjnnrrrttrpmmjjjjhjmnpppofa_^[YYYY[^`acdefeeeeeeeeeeeeeefkkkkkopqpkffffeeceoty|zxxxxxtxxyzzqfeeca`_[XTROOORRRRQQONMLLMMORSTV[ckqxz}}}}}}{{{||{s^L8'&%!!!!!!!!!!!!!!!!!!!!!!!!!!!!!!!!!!!!!!!!!!!!!!!!!!!!!!!",
"!!!!!!!!!!!!!!!!!!!!!!!!!!!!!!!!!!!!!!!!!!!!!!!!!!!!!!!!!!!!!!!!!!!!!!!!!%%%%!!)-?Quuuuhhdddddhhjssvtttwwrpnnnjjjlmnsrplfa[YXXYY[^_aeeiillieeeeeeeeeeeeefikkkkkoqoffffffecekpx|zxxxyxxyzzxqfaaaaa`_[XTTTUVXTOMMLLLLMMOQRRTU[fxzz|}}}}}|||||}|{qZL-'%!!!!!!!!!!!!!!!!!!!!!!!!!!!!!!!!!!!!!!!!!!!!!!!!!!!!!!!!",
"!!!!!!!!!!!!!!!!!!!!!!!!!!!!!!!!!!!!!!!!!!!!!!!!!!!!!!!!!!!!!!!!!!!!!!!!!%%%%!!)-?Nuuunhhideehhjnsvwwwtttrnnnnjjmmprrplea_[YY[^_``aeiilmmliiffffeeeeeeeefiifiikpqofefffeeeefkqyxxxyzyyyzyqkcaaaa__[XXVVXXXVRNLLKLMMNOQSTUY_et|}}}}}}}||{yvyz{{sZL-'#!!!!!!!!!!!!!!!!!!!!!!!!!!!!!!!!!!!!!!!!!!!!!!!!!!!!!!!!",
"!!!!!!!!!!!!!!!!!!!!!!!!!!!!!!!!!!!!!!!!!!!!!!!!!!!!!!!!!!!!!!!!!!!!!!!!!%%!!!!(-8Muuunhhiiihhjjprwxxwttsrnnjjjjnprrpic`[[[^`aadddiijmmmmlliifffffeeeeeiiifffkkpqofeffeeeeeffoqtxyz|zzyxqkccaaa_^YXUVY[YXUTOMKLLMOOOQRTV^cqy|}}}}|{|}||yggguy{s^L8'$#!!!!!!!!!!!!!!!!!!!!!!!!!!!!!!!!!!!!!!!!!!!!!!!!!!!!!!!",
"!!!!!!!!!!!!!!!!!!!!!!!!!!!!!!!!!!!!!!!!!!!!!!!!!!!!!!!!!!!!!!!!!!!!!!!!!%%!!!!()8Luuunhhhhhhjjpqrwxxxwvsnnnjmmprrrqlea^Y[_aceiilljjjjmmlllliiiiiffffiiiiifefkopqofeffeeeeecefkqxy||||xqkeaaa`_^YXUTVY[XTRONLKLMORTTTUV_ftz}}}}}|{{{|{zh]]]buznZK8'%#!!!!!!!!!!!!!!!!!!!!!!!!!!!!!!!!!!!!!!!!!!!!!!!!!!!!!!!",
"!!!!!!!!!!!!!!!!!!!!!!!!!!!!!!!!!!!!!!!!!!!!!!!!!!!!!!!!!!!!!!!!!!!!!!!!%%%!!!!((-Guuunhhhhhjnnrrrwxwwvsnnnnnrrrttqmic`__adeeiiljmjjjmlllkiiiiiifiiiiiiiiifefkoqtofeffeedcccckqtxz|}|zxkecaa`_[XUTUVVUTONNNMMMNOQRTUX_epxz|}}}}||{{zzug]WPW]]gbSG-'&%!!!!!!!!!!!!!!!!!!!!!!!!!!!!!!!!!!!!!!!!!!!!!!!!!!!!!!!",
"!!!!!!!!!!!!!!!!!!!!!!!!!!!!!!!!!!!!!!!!!!!!!!!!!!!!!!!!!!!!!!!!!!!!!!!!%&%%!!!''-Guuunhhhhjnsstrrwwwvssnnjnnrvwttqkc`^`belmliljjnnjjmiikkiiiiiffiiilllliifeflprtpffffeec``acoxxyz}}|ztfacca_[VTSRUYVROMKLLMMNOSSSTX_oz|}}}}|{{|||{yu]PPPPPPW]WPG-('&!!!!!!!!!!!!!!!!!!!!!!!!!!!!!!!!!!!!!!!!!!!!!!!!!!!!!!!",
"!!!!!!!!!!!!!!!!!!!!!!!!!!!!!!!!!!!!!!!!!!!!!!!!!!!!!!!!!!!!!!!!!!!!!!!!%&&%!!!&'-Duuunhhhhjnsrttttvvsssnnnnrttwtqofccadiiljllmnnnnmmliiiiiifffiiiilllllkiifkprrrmifiiiedcaacoxxyy||zxpea`_^[YXVUTTTQNMLLMNNOOQTUX^cpy|}}}||||{{yngg]WPPPPPPPPPJA-('&!!!!!!!!!!!!!!!!!!!!!!!!!!!!!!!!!!!!!!!!!!!!!!!!!!!!!!!",
"!!!!!!!!!!!!!!!!!!!!!!!!!!!!!!!!!!!!!!!!!!!!!!!!!!!!!!!!!!!!!!!!!!!!!!!!&&&%!!!%%-Duuuujhhhjnnrttwtrssssnnprtwttrpkedeeimjllmmnnnnnmlkfffffefffiilmmmmmmlkkkorvrpliilmlieccccoxxyyyyxqkc`_[YVXYYYXTONLKLMNQRRRSTY`kx|}}}}|{{||{zu]WPPPPPPJPPJJJIA-('&!!!!!!!!!!!!!!!!!!!!!!!!!!!!!!!!!!!!!!!!!!!!!!!!!!!!!!!",
"!!!!!!!!!!!!!!!!!!!!!!!!!!!!!!!!!!!!!!!!!!!!!!!!!!!!!!!!!!!!!!!!!!!!!!!!%&&%!!!!!)@bguuunjjnnrrrtwrrrsssnnrrtwttqoieeiljjjjjmnnsnnmmkkffffeeffiilmmmmmmmllooprtqmliljjjieeccepxyyxxtqofc_[YXVXYYUTOMLKKMNORTTTX[akx|~~~}}|zyvsug]PPPPJJJJJJJJJHHA.)('%$!!!!!!!!!!!!!!!!!!!!!!!!!!!!!!!!!!!!!!!!!!!!!!!!!!!!!",
"!!!!!!!!!!!!!!!!!!!!!!!!!!!!!!!!!!!!!!!!!!!!!!!!!!!!!!!!!!!!!!!!!!!!!!!!%&%%!!!!!)?S]uuuunnnrrrrttsnssssnrrtwwttoffeiljjmmjnnssrnmmlkfffffeefiimjjmmllopppqrrrrpklljjjjiieefkpxyzyqkffca_YXXYYYUQNMKKKLNQRRTTXapty|}}}}}}{zug]]WPPPJJJHHHHJJJJHHA8-)(&%!!!!!!!!!!!!!!!!!!!!!!!!!!!!!!!!!!!!!!!!!!!!!!!!!!!!!",
"!!!!!!!!!!!!!!!!!!!!!!!!!!!!!!!!!!!!!!!!!!!!!!!!!!!!!!!!!!!!!!!!!!!!!!!!!%%!!!!!!)8KTuuuuunsrrrttrsnssssnrtwwwtqlffijnnmmjnssvsrnmliiffffffeiimmnmmmilopqqrttrpliljnnnmlieekotyyzxoccec`^YVXYXURNLKGKLMOTTTUX_pz|}}}}}}}|zug]PPPPJJJHHFHHHJJJJHFC=8-('&$!!!!!!!!!!!!!!!!!!!!!!!!!!!!!!!!!!!!!!!!!!!!!!!!!!!!",
"!!!!!!!!!!!!!!!!!!!!!!!!!!!!!!!!!!!!!!!!!!!!!!!!!!!!!!!!!!!!!!!!!!!!!!!!!!!!!!!!!(-?Lvuuuuustttttrsssssnnrwwwtrqlilmnnnnnnssssrnmmliiiffiiiilmmnnmmlklprrtttrqmliljnnnmmliiqttxxxtkccca_[YVXXTONLKKKMNORTTU[eqy{|}}}}}}{ug]]PPPPJJJHFFFHHHHJJHHHFA=.)('%%!!!!!!!!!!!!!!!!!!!!!!!!!!!!!!!!!!!!!!!!!!!!!!!!!!!",
"!!!!!!!!!!!!!!!!!!!!!!!!!!!!!!!!!!!!!!!!!!!!!!!!!!!!!!!!!!!!!!!!!!!!!!!!!!!!!!!!!()-Bzzuuuuvwwxwtrsvsssnnswwwtqpmlmsssssssvvssnmmliiiiiiiillmnnnnmmlkoqrwwwtrpmlilnnssnnmkmtyxtttpfccca^YXXVVQMKGGKLNQTTTUYey}}|}}}}}}}yg]WPPPPJJHHFFFFHHHHHHHHHHHF8-)(&%!!!!!!!!!!!!!!!!!!!!!!!!!!!!!!!!!!!!!!!!!!!!!!!!!!!",
"!!!!!!!!!!!!!!!!!!!!!!!!!!!!!!!!!!!!!!!!!!!!!!!!!!!!!!!!!!!!!!!!!!!!!!!!!!!!!!!!!'()@z{uuuuvwwwwsnsssssnrvxwwrqppnrvvsssssvvsnnmmliiiiiillmmmnnnmmkloprttvtrqmllljnsvvvsrqrtxrpookfcaa_YXXVTRNLKKLMNORUVY_eqz}}}}}}{zuug]WPPJJJJHHFECCCEEFFFHHHHHHH=8-)''%$!!!!!!!!!!!!!!!!!!!!!!!!!!!!!!!!!!!!!!!!!!!!!!!!!",
"!!!!!!!!!!!!!!!!!!!!!!!!!!!!!!!!!!!!!!!!!!!!!!!!!!!!!!!!!!!!!!!!!!!!!!!!!!!!!!!!!&')?z{zuuuvwwwtrnsusnsstwxwtrqmnsvvvvssssvsnnmmllllliiljjnnnnmmliilprtwtrrrpiiijnnsvwwxxyxtqlffffeca_[XVVUQNLKGLMOQRTV[coyz{{|}}}{zug]WPPJJJJHFFECCC>>>CECCFHHHHHHEA8-('%$!!!!!!!!!!!!!!!!!!!!!!!!!!!!!!!!!!!!!!!!!!!!!!!!!",
"!!!!!!!!!!!!!!!!!!!!!!!!!!!!!!!!!!!!!!!!!!!!!!!!!!!!!!!!!!!!!!!!!!!!!!!!!!!!!!!!!!!(?lvvvuuvwwwrnnnuunsswwxttrnnsvvvvvssssvsnnmllllllllmjmnnnjjiiikoqrtttrrqmiiljnsvyyyyyyxqlfcceeca`^YXVUTOLKKLMORTUX[aiw{|{{|}{zug]WPPJJJHHHFCCCC>>>>>>CCCEFHHHHHHHA.))'%$!!!!!!!!!!!!!!!!!!!!!!!!!!!!!!!!!!!!!!!!!!!!!!!!",
"!!!!!!!!!!!!!!!!!!!!!!!!!!!!!!!!!!!!!!!!!!!!!!!!!!!!!!!!!!!!!!!!!!!!!!!!!!!!!!!!!!!(8Vdwzvsvwvtrnnnunnsvwwwtrrrnsvvvvvvsssssnpmllmmmmmmmmnnnmiieeioqttttttrpmlljnsvwyzzzzxtlfeccecca_[YXVTRMKKMNORTUY`ddhw{}}|{zug]]PPJJHHFFEEC>>>>>>>===>>CCCEHHHHHFC=8-'&%!!!!!!!!!!!!!!!!!!!!!!!!!!!!!!!!!!!!!!!!!!!!!!!!",
"!!!!!!!!!!!!!!!!!!!!!!!!!!!!!!!!!!!!!!!!!!!!!!!!!!!!!!!!!!!!!!!!!!!!!!!!!!!!!!!!!!!(8GTr{ysvwvrrnnnunnswxwtrqnrsvvvvvvvvssssnpommmmmmmmmmmmmieeeelprvvtrrtqplmjnnsvyyzzzywpfcccceca_[YXXUROLGKNQRUVY_innuy{||{zug]PPJJHFCCCCCC>>=======<<<>CCCCFHHHHFFHC.)('!!!!!!!!!!!!!!!!!!!!!!!!!!!!!!!!!!!!!!!!!!!!!!!!",
"!!!!!!!!!!!!!!!!!!!!!!!!!!!!!!!!!!!!!!!!!!!!!!!!!!!!!!!!!!!!!!!!!!!!!!!!!!!!!!!!!!!()8Bc|zwwvsnnnnnnnnswxwtrpmrvvvvvvvvvvvvsrnnppnmmmmmmliieeefimprrstttrqpommjnsvyyzzyxrpkfeefffca^[XVURNLLLMORUX^adjsyz{{{yug]]PPJHFECCC>>>>=<<;;;;;;<<=>>>>CEFHHHHHHE=.)(%$!!!!!!!!!!!!!!!!!!!!!!!!!!!!!!!!!!!!!!!!!!!!!!",
"!!!!!!!!!!!!!!!!!!!!!!!!!!!!!!!!!!!!!!!!!!!!!!!!!!!!!!!!!!!!!!!!!!!!!!!!!!!!!!!!!!!&'(8X}zxwssnnnnnnnnrwxwtrmmrvvvvvvvvvvvvvsrnnnnnmmmliiedaceiprsvsrrttqopopmnsvwyzzzxrkeceffkffc`[YXUSOLGLNORUX^djnuy{}|{yug]PPJJFCCC>>>>===<;:977799;=>>>>>CCEFHHHHHFFE8)%$!!!!!!!!!!!!!!!!!!!!!!!!!!!!!!!!!!!!!!!!!!!!!!",
"!!!!!!!!!!!!!!!!!!!!!!!!!!!!!!!!!!!!!!!!!!!!!!!!!!!!!!!!!!!!!!!!!!!!!!!!!!!!!!!!!!!%''8T|{zxrnnnnunjnmrwxxwrppnsvvvvvvvvssrnnjjmjjledddcccccekorstvssrtrqoompnsvyzzzyxrkkffkkopkfa[XVTRONMLNQTY_aemwyzz{{uug]]PPJHFC>>>>>=<<;;997766777:;<==>>>CCEFHHHHHFF8-)(%!!!!!!!!!!!!!!!!!!!!!!!!!!!!!!!!!!!!!!!!!!!!!",
"!!!!!!!!!!!!!!!!!!!!!!!!!!!!!!!!!!!!!!!!!!!!!!!!!!!!!!!!!!!!!!!!!!!!!!!!!!!!!!!!!!!!%&8Rz{{yrnjjnunhjjqwxxxtqpnsvvvvvvvssnnjjhiiieda_____`aciprtvsrtttrqplmmnsvyz{{zxtoffkkpqttoc_XUTROMMNORU[eorvy{||{zug]]PPPJHCC>>>===<<;9776656666779:;;=>>CCEFHHHHHHF=8-)%%!!!!!!!!!!!!!!!!!!!!!!!!!!!!!!!!!!!!!!!!!!!!",
"!!!!!!!!!!!!!!!!!!!!!!!!!!!!!!!!!!!!!!!!!!!!!!!!!!!!!!!!!!!!!!!!!!!!!!!!!!!!!!!!!!!!!!-GYp|yrnnjnnjhhmptxxxtqqrnsvvvvvsnnmlidddbaa`^[^^^`aciotwvttrttrqpommnsvyz{{zytplkoqttttqka[URQONMNOSX_epwyz{}|{zug]PPPJJHE>>==<<<<;:976544455666779::<=>>CCEEFHHHHFA=8)''%!!!!!!!!!!!!!!!!!!!!!!!!!!!!!!!!!!!!!!!!!!!",
"!!!!!!!!!!!!!!!!!!!!!!!!!!!!!!!!!!!!!!!!!!!!!!!!!!!!!!!!!!!!!!!!!!!!!!!!!!!!!!!%%%!!!!)8DY}ynnnnnnjhllmrxxxxtrrrsvvvssnnmieda__^^^[[[^_aeimrrwwtttrrqqpppnrvwyz{{zywqoqqxzzytqkc_XTOONNNOSV`kqvyz{{}{yug]PPPJHFC>>==<;;::9776543334556677799;<==>>CCEFHHHFEC;-((%!!!!!!!!!!!!!!!!!!!!!!!!!!!!!!!!!!!!!!!!!!!",
"!!!!!!!!!!!!!!!!!!!!!!!!!!!!!!!!!!!!!!!!!!!!!!!!!!!!!!!!!!!!!!!!!!!!!!!!!!!!!!!%&&%!!!)-?O|ysnnnnnjiiimqwxxxttrrssssrnnmieda_^[YYY[[[_aemrtwwwwttrrqqppnnsvyz{{{{zxtqptyz}|ytkc_YURONMNOSV[fyyyy{{{{yug]PPPJHFC>==<;;:9777655432223456667779:;<<=>>CCEFHHFHHA.)(&%!!!!!!!!!!!!!!!!!!!!!!!!!!!!!!!!!!!!!!!!!!",
"!!!!!!!!!!!!!!!!!!!!!!!!!!!!!!!!!!!!!!!!!!!!!!!!!!!!!!!!!!!!!!!!!!!!!!!!!!!!!!%&'&&!!!()8Lzysnnnnnjllljnttxtttttsssrrpmliedaa`___`aacfimrtwwwwttrrrqppnnsvyz{{{zyyxxyzz||zytke`YUSQOOOORTX_lz{zz{{zugg]PPJJHEC>=<;;;99776655554334455666677799:;<=>>CCEEFHHHA=8)'&%!!!!!!!!!!!!!!!!!!!!!!!!!!!!!!!!!!!!!!!!!",
"!!!!!!!!!!!!!!!!!!!!!!!!!!!!!!!!!!!!!!!!!!!!!!!!!!!!!!!!!!!!!!!!!!!!!!!!!!!!!%%&''&%!!&&-Dywvsuunsmlllhjqrttrrtttrrrqpmlifecccccceimrtwwwwwwwttrqrrqomnsvyz{||{ywxxz}~~~|ytkc`^VROOOOQRSUY`p{{{{|{ug]]PPJHHC>==<;:99776555445555555555666677779;<<=>>CCCEHHFFFA-(&%!!!!!!!!!!!!!!!!!!!!!!!!!!!!!!!!!!!!!!!!!",
"!!!!!!!!!!!!!!!!!!!!!!!!!!!!!!!!!!!!!!!!!!!!!!!!!!!!!!!!!!!!!!!!!!!!!!!!!!!!!!%&''&&%!!!)8DRsvuussnpmhhjnrrrrqrrrrrrrqppomlkkkiiloprtwwwwwtttwtqppppmnsvyzzzzzzzyzz}~~~}zxpe_[VTROOORSUX^cmy|}|{zug]PPPJHEC>=<<;;977765432223333445555555567777:;;<=>>>CCFFFFFC8-)(!!!!!!!!!!!!!!!!!!!!!!!!!!!!!!!!!!!!!!!!!",
"!!!!!!!!!!!!!!!!!!!!!!!!!!!!!!!!!!!!!!!!!!!!!!!!!!!!!!!!!!!!!!!!!!!!!!!!!!!!!!!&&&&&%!!!()-Bnvussvsrnjhjnnrrppqqqrrttrrrrrrrrrrrrtttwwwwttrrtwtqooomnsvyz{zyxxxz|}~~~~}}zxka[VSRQQQQSUY`itz|}}}{ug]PPJHFCC>=<;;;977665431000011224555544445667779:;<=>>CCCEHHFEA=-(%!!!!!!!!!!!!!!!!!!!!!!!!!!!!!!!!!!!!!!!!",
"!!!!!!!!!!!!!!!!!!!!!!!!!!!!!!!!!!!!!!!!!!!!!!!!!!!!!!!!!!!!!!!!!!!!!!!!!!!!!!!%&&&&%!!!'()?`jnsvvvsnjjjjnnpmmppqrrtttttwwwwwwwttttwwttrrrppqtqplolmnsvwxyxxxyz|}~~~~~}|yqf`YURQQRRTV[akwz}}}{zug]PPJHFC>>=<;;:976665431//////012344444333556667799;<=>>>>CFHFEEF8-('!!!!!!!!!!!!!!!!!!!!!!!!!!!!!!!!!!!!!!!",
"!!!!!!!!!!!!!!!!!!!!!!!!!!!!!!!!!!!!!!!!!!!!!!!!!!!!!!!!!!!!!!!!!!!!!!!!!!!!!!!%%&&&%!!!&')8Q^jvvvvvsnjjjnnnjmmmpqrrttttwwtttsrqqrttttrqpookooollmnrssrnokqty|}~~~~~~~|ztkc_YURQQRUX`iqwz{}}}yg]]PPJHFC>==<;;97766554311///,///123333332334555666779;<<>>>CEEFFFE=8-)!!!!!!!!!!!!!!!!!!!!!!!!!!!!!!!!!!!!!!!",
"!!!!!!!!!!!!!!!!!!!!!!!!!!!!!!!!!!!!!!!!!!!!!!!!!!!!!!!!!!!!!!!!!!!!!!!!!!!!!!!!%%&&%!!!!!(-GQdvvvvvsrnjjjnnjmmlmprrsvvvvvttrrqoppqqqqqokkfffffklmsstrmiecktz~~~~~~~~}zyqe`[XTRRRTXalyz{|}}{{u]WPPJHFC>=;;;;9776655431////,,,,/1133222222234445566679:;<>>CCCFFFEA=8)''%!!!!!!!!!!!!!!!!!!!!!!!!!!!!!!!!!!!!",
"!!!!!!!!!!!!!!!!!!!!!!!!!!!!!!!!!!!!!!!!!!!!!!!!!!!!!!!!!!!!!!!!!!!!!!!!!!!!!!!!!%%%!!!!!!')-@Vvvywvtnpmllllllmmprrssvvvvvttsrqpookookkkkfffffkllmnppmifkkxz}~~~~~~~}zxqfa[VSRQRUYaltz{|}}{ug]PPPJHEC>=<;;;97766554311////,,,,/12233222222334445555677:;<>>>CEFEECA;-)(&!!!!!!!!!!!!!!!!!!!!!!!!!!!!!!!!!!!!",
"!!!!!!!!!!!!!!!!!!!!!!!!!!!!!!!!!!!!!!!!!!!!!!!!!!!!!!!!!!!!!!!!!!!!!!!!!!!!!!!!!!!!!!!!!!&'(8Oswzywrqmokifiklmprrrssvvvvvttssqpokfffffffffffkklmmmmlieeotz~~~~~~~~}zxqkc_VROOOTYaoyz|}}}}{g]PPJJHEC>=<<;;97665554311////,,,,,/1223322222223333455555679;<>>CCEEEFFA8-)'!!!!!!!!!!!!!!!!!!!!!!!!!!!!!!!!!!!!",
"!!!!!!!!!!!!!!!!!!!!!!!!!!!!!!!!!!!!!!!!!!!!!!!!!!!!!!!!!!!!!!!!!!!!!!!!!!!!!!!!!!!!!!!!!!!&'-?LTlpvtpolkffffikoooppppppqpppooookfffffffffffiliideeefioqyz}~~~~~~~}|xqofc_XSORTXakx{|}}}{ug]PPJJHEC>=<;;;97765554311/////,,,,,/0112222222222222334445567:;<=>CCEEEFA=8-('&!!!!!!!!!!!!!!!!!!!!!!!!!!!!!!!!!!",
"!!!!!!!!!!!!!!!!!!!!!!!!!!!!!!!!!!!!!!!!!!!!!!!!!!!!!!!!!!!!!!!!!!!!!!!!!!!!!!!!!!!!!!!!!!!%%)-8G[drrqokffffffffkkkkkkkkkkkkkkfffffffffffffklliba_^`clxz}~~~~~~~~~|yqkffc_YTRUYaktz}}}}|yg]PPJJHEC><;;;:97665544311/////,,,,,,///0111222222111122333345679:;<>>CEECCAA.)('!!!!!!!!!!!!!!!!!!!!!!!!!!!!!!!!!!",
"!!!!!!!!!!!!!!!!!!!!!!!!!!!!!!!!!!!!!!!!!!!!!!!!!!!!!!!!!!!!!!!!!!!!!!!!!!!!!!!!!!!!!!!!!!!!!((-8DMU[affffffffffffffffffffffffffffffccc`_^`adidba`_cftz~~~~~~~~~~|ytkecc_YXUU[coxz}~}}{zg]PPJJHE>><;;:9776555543111////,,,,,,,,////011112221110111222345669:;<>CEECCEC8-)(!!!!!!!!!!!!!!!!!!!!!!!!!!!!!!!!!!",
"!!!!!!!!!!!!!!!!!!!!!!!!!!!!!!!!!!!!!!!!!!!!!!!!!!!!!!!!!!!!!!!!!!!!!!!!!!!!!!!!!!!!!!!!!!!!!'(()-8BLRYafffffffffffffffffffffffffffcc`[USQSU[dddeikqxz}~~~~~~~~}|ytpkea_XTTX^eqyz}}}}{ug]PPJJHE>=<;;:9776555543211////,,,,,/////////000112221100000112235679:<>>CCEEEE=8-(%!!!!!!!!!!!!!!!!!!!!!!!!!!!!!!!!!",
"!!!!!!!!!!!!!!!!!!!!!!!!!!!!!!!!!!!!!!!!!!!!!!!!!!!!!!!!!!!!!!!!!!!!!!!!!!!!!!!!!!!!!!!!!!!!!!!&'(-8?GNSYYY^`ccffffffffffffccc``_[[YXSOMKGKMQY`elrxz|}~~~~~~~~~|ytokfe_YURT[eqz}~~~}{zg]PPJJHE>=;::;97655555433111///,,,,,/////,,,,////01222210/////011245679;<>>CEFEECA.)'&!!!!!!!!!!!!!!!!!!!!!!!!!!!!!!!!",
"!!!!!!!!!!!!!!!!!!!!!!!!!!!!!!!!!!!!!!!!!!!!!!!!!!!!!!!!!!!!!!!!!!!!!!!!!!!!!!!!!!!!!!!!!!!!!!!%&')---888?@GOV^ccffffffffcc`[UQMKGB@??888888@KQYirz|}~~~~~~~~~}ztqkffea_[X[eqy|}~~}{ug]PPJJHEC><;:997655555433111///,,,,,,//////,,,,,,//0112110///////01245679;<>>CEEECC;-)(!!!!!!!!!!!!!!!!!!!!!!!!!!!!!!!!",
"!!!!!!!!!!!!!!!!!!!!!!!!!!!!!!!!!!!!!!!!!!!!!!!!!!!!!!!!!!!!!!!!!!!!!!!!!!!!!!!!!!!!!!!!!!!!!!!!!&'''(((()-8GQXccffffffffcc^UOKB?88--))((())8?GSet|~~~~~~~~~~}|xpkfeeecaccktz|}}~}{zg]PPJJHEC><;;:9775555544331////,,,,,,,/////,,,,,+,,,/0111100//,,,//01245679;=>>CCEEFA8-)%!!!!!!!!!!!!!!!!!!!!!!!!!!!!!!!",
"!!!!!!!!!!!!!!!!!!!!!!!!!!!!!!!!!!!!!!!!!!!!!!!!!!!!!!!!!!!!!!!!!!!!!!!!!!!!!!!!!!!!!!!!!!!!!!!!!!!!!!&''()-8??@@BBBDBBBB@@??888---))(''&'(()-?GTc|~~~~~~~~~~|ztokffffffkoty|}}}}{ug]PPJJHFC><;::97655445543311///,,,,,,,,,////,,,,,+++,/0011100//,,,,//0124567:<=>>CCEFA=8)('&!!!!!!!!!!!!!!!!!!!!!!!!!!!!!",
"!!!!!!!!!!!!!!!!!!!!!!!!!!!!!!!!!!!!!!!!!!!!!!!!!!!!!!!!!!!!!!!!!!!!!!!!!!!!!!!!!!!!!!!!!!!!!!!!!!!!!!%%''(()))-----------))))))(((('''&%&''()-?LX|}~~~~~~~~}zxqkkfffkkoqtyz|}}}{ug]PPJJHEC>=<;:976554445543111//,,,,,+,,,,,,,,,,,,,++++,/011110///,,,,,/0135679:<=>CCCECA;-)('!!!!!!!!!!!!!!!!!!!!!!!!!!!!!",
"!!!!!!!!!!!!!!!!!!!!!!!!!!!!!!!!!!!!!!!!!!!!!!!!!!!!!!!!!!!!!!!!!!!!!!!!!!!!!!!!!!!!!!!!!!!!!!!!!!!!!!!!!!!!!&''((()))(((('&%!!!!!!!!!!!!!!%'(-8DQqy}~~~~~~}|ytpkffkkkpqxyz|}}~{zg]PPJJHEC>><;;976544444544311//,,,,,+++,,+++++,,,,+++**+,/01110//,,,,,,//0135677:<=>>CCCE=.-)'&%!!!!!!!!!!!!!!!!!!!!!!!!!!!",
"!!!!!!!!!!!!!!!!!!!!!!!!!!!!!!!!!!!!!!!!!!!!!!!!!!!!!!!!!!!!!!!!!!!!!!!!!!!!!!!!!!!!!!!!!!!!!!!!!!!!!!!!!!!!!%''''((((('''&%%!!!!!!!!!!!!!!%()-8DMXey}~~~~~}zytpfffkopqqxz|}}}}zu]PPJJHECC>=<;:77654444444331//,,,,,++++,,+++++,,,,+++**+,/0000/,,,,,,,,//01245667:;=>>CCEA;.)('&!!!!!!!!!!!!!!!!!!!!!!!!!!!",
"!!!!!!!!!!!!!!!!!!!!!!!!!!!!!!!!!!!!!!!!!!!!!!!!!!!!!!!!!!!!!!!!!!!!!!!!!!!!!!!!!!!!!!!!!!!!!!!!!!!!!!!!!!!!!!!!!!!!!!!!!!!!!!!!!!!!!!!!!!!%()-8@GMVp|~~~~}|zyxpfffkpqtty|}}}}}ug]PJJHFC>>==<;97655443334331//,,,,,+++++,++++++,,,,+++**+,/////,*+*+,,,,,//012355679;=>>CEC=;-(('!!!!!!!!!!!!!!!!!!!!!!!!!!!",
"!!!!!!!!!!!!!!!!!!!!!!!!!!!!!!!!!!!!!!!!!!!!!!!!!!!!!!!!!!!!!!!!!!!!!!!!!!!!!!!!!!!!!!!!!!!!!!!!!!!!!!!!!!!!!!!!!!!!!!!!!!!!!!!!!!!!!!!!!!!%())-88?K_y}~~~~}|zyqkffkqxyz|}}}}{zg]PPJJHEC>>==<;96655433334311///,,,,,,,+,,,+++++,,,,+++***+,////,,+*+,,,,,,/012245669;<=>>CC>=.-)(&%!!!!!!!!!!!!!!!!!!!!!!!!!",
"!!!!!!!!!!!!!!!!!!!!!!!!!!!!!!!!!!!!!!!!!!!!!!!!!!!!!!!!!!!!!!!!!!!!!!!!!!!!!!!!!!!!!!!!!!!!!!!!!!!!!!!!!!!!!!!!!!!!!!!!!!!!!!!!!!!!!!!!!!!!'(())-8@Uq|~~~~~}|ztpkekqy|}}}}~}zu]PPJJHEC>>==<;:7665553323421///,////,,,,,,,+++++,,,,+++****+,,///,+**++,,,,//012235679;<=>>CCC=7-(&%!!!!!!!!!!!!!!!!!!!!!!!!!",
"!!!!!!!!!!!!!!!!!!!!!!!!!!!!!!!!!!!!!!!!!!!!!!!!!!!!!!!!!!!!!!!!!!!!!!!!!!!!!!!!!!!!!!!!!!!!!!!!!!!!!!!!!!!!!!!!!!!!!!!!!!!!!!!!!!!!!!!!!!!!''((()-8KTk|~~~~~}zytpkotz|~~}}}{u]WPPJJHCC>===<;97665553323310////////,,,,,,,+++++,,,,+++****++,///,,*+++,,,,,//01224569:;<=>>CC=;.)((%%!!!!!!!!!!!!!!!!!!!!!!!",
"!!!!!!!!!!!!!!!!!!!!!!!!!!!!!!!!!!!!!!!!!!!!!!!!!!!!!!!!!!!!!!!!!!!!!!!!!!!!!!!!!!!!!!!!!!!!!!!!!!!!!!!!!!!!!!!!!!!!!!!!!!!!!!!!!!!!!!!!!!!!&&'''()-?KUtz~~~~}}zytpqxz|~~}}{y]PPPJJHEC>>===;:9766555332331//////////,,,,,,+++++,,,,+++******,////,*++,,,,,,//011245679;<<<=>C>;5.-(&%!!!!!!!!!!!!!!!!!!!!!!!",
"!!!!!!!!!!!!!!!!!!!!!!!!!!!!!!!!!!!!!!!!!!!!!!!!!!!!!!!!!!!!!!!!!!!!!!!!!!!!!!!!!!!!!!!!!!!!!!!!!!!!!!!!!!!!!!!!!!!!!!!!!!!!!!!!!!!!!!!!!!!!!!!!'(()8?KVk}~~~~}|zytxyz}~}}{vg]PPJJHFC>>====;99766554331221//////////,,,,,,+++++,,,,+++******,////,*+,,,,,,,,//01234567:;;;<>C><97.)''&!!!!!!!!!!!!!!!!!!!!!!",
"!!!!!!!!!!!!!!!!!!!!!!!!!!!!!!!!!!!!!!!!!!!!!!!!!!!!!!!!!!!!!!!!!!!!!!!!!!!!!!!!!!!!!!!!!!!!!!!!!!!!!!!!!!!!!!!!!!!!!!!!!!!!!!!!!!!!!!!!!!!!!!!!&''()-?GRx|~~~~}|zyyz|}~}}zg]PPJJHFEC>>===<;97776654321221000000////,,+++++++,,+++++++*****+,,,,,++,,,,+,,,,,//02345679:;;<=>>><9.-)('%!!!!!!!!!!!!!!!!!!!!!",
"!!!!!!!!!!!!!!!!!!!!!!!!!!!!!!!!!!!!!!!!!!!!!!!!!!!!!!!!!!!!!!!!!!!!!!!!!!!!!!!!!!!!!!!!!!!!!!!!!!!!!!!!!!!!!!!!!!!!!!!!!!!!!!!!!!!!!!!!!!!!!!!!!!!&')-8Gat}~~~~}}zz|}}~}}u]PPPJJHEC>>>===<;977776533212211100000///,,++++++,,,+++++++****++,,,,+++,/,,+,,,,,//012355679:;<<<>C><7.)('&%!!!!!!!!!!!!!!!!!!!!",
"!!!!!!!!!!!!!!!!!!!!!!!!!!!!!!!!!!!!!!!!!!!!!!!!!!!!!!!!!!!!!!!!!!!!!!!!!!!!!!!!!!!!!!!!!!!!!!!!!!!!!!!!!!!!!!!!!!!!!!!!!!!!!!!!!!!!!!!!!!!!!!!!!!!&&()-?KUt}~~~~}||}}}}{zgPJPPJHHEC>>>===<;9977765433333221100000//,,++++++,,,+++++++*****++,,++++,,,,,,,,,,//0123456679:;;<=>>=;5.)(('!!!!!!!!!!!!!!!!!!!!",
"!!!!!!!!!!!!!!!!!!!!!!!!!!!!!!!!!!!!!!!!!!!!!!!!!!!!!!!!!!!!!!!!!!!!!!!!!!!!!!!!!!!!!!!!!!!!!!!!!!!!!!!!!!!!!!!!!!!!!!!!!!!!!!!!!!!!!!!!!!!!!!!!!!!%%''(-?Kf|}~~~}}}}}}}zu]PJJPJHFECA>====<;99777665544443321011110//,++++++,,,++++,,+******+,,+***+,,,,,++,,,//023456679::;;<>>>=;7.)('%!!!!!!!!!!!!!!!!!!!",
"!!!!!!!!!!!!!!!!!!!!!!!!!!!!!!!!!!!!!!!!!!!!!!!!!!!!!!!!!!!!!!!!!!!!!!!!!!!!!!!!!!!!!!!!!!!!!!!!!!!!!!!!!!!!!!!!!!!!!!!!!!!!!!!!!!!!!!!!!!!!!!!!!!!!!%&()8@Upy||z|}}}}|{g]PPJJJJHFECA>====<;99777666555544321011100//,++++++,,++++++,++*****+++****++,,,,++,,,,/0123456679::;<===<<;.-)(''!!!!!!!!!!!!!!!!!!",
"!!!!!!!!!!!!!!!!!!!!!!!!!!!!!!!!!!!!!!!!!!!!!!!!!!!!!!!!!!!!!!!!!!!!!!!!!!!!!!!!!!!!!!!!!!!!!!!!!!!!!!!!!!!!!!!!!!!!!!!!!!!!!!!!!!!!!!!!!!!!!!!!!!!!!#%')-?M[kxxtz}}}|zu]PJJJJJHHECCA>====<;9977777766655421000000///,,+++++,,+****+++++**********+++++,,,,++,,//1234456679::;<<<<<;7.-)('!!!!!!!!!!!!!!!!!!",
"!!!!!!!!!!!!!!!!!!!!!!!!!!!!!!!!!!!!!!!!!!!!!!!!!!!!!!!!!!!!!!!!!!!!!!!!!!!!!!!!!!!!!!!!!!!!!!!!!!!!!!!!!!!!!!!!!!!!!!!!!!!!!!!!!!!!!!!!!!!!!!!!!!!!!!!'()8BNYkkkx|}}{u]PJJJJJJHHECC>>====<;:9777777766554210000000///,,,++++,+*****++++*********+++++++,,,,+,,,/01234556779:;;;;;;<:7.-)(&&$!!!!!!!!!!!!!!!",
"!!!!!!!!!!!!!!!!!!!!!!!!!!!!!!!!!!!!!!!!!!!!!!!!!!!!!!!!!!!!!!!!!!!!!!!!!!!!!!!!!!!!!!!!!!!!!!!!!!!!!!!!!!!!!!!!!!!!!!!!!!!!!!!!!!!!!!!!!!!!!!!!!!!!!!!&((-8DO_`aq|}}z]PPJJJPJJHFECC>>=====;:97777777766542100000000////,,+++++******************+,++++,,,,,,+,,//02244566779:;;;;;;;95.-)('%!!!!!!!!!!!!!!!",
"!!!!!!!!!!!!!!!!!!!!!!!!!!!!!!!!!!!!!!!!!!!!!!!!!!!!!!!!!!!!!!!!!!!!!!!!!!!!!!!!!!!!!!!!!!!!!!!!!!!!!!!!!!!!!!!!!!!!!!!!!!!!!!!!!!!!!!!!!!!!!!!!!!!!!!!!##)-?KTX^k{}}vPJJJJPPJJHFECC>>=====<;:9799997766542100000111100/,,,++++******************+,,,,,,,,,,,++,,/012345566779:;;;;;;:75.)((&!!!!!!!!!!!!!!!",
"!!!!!!!!!!!!!!!!!!!!!!!!!!!!!!!!!!!!!!!!!!!!!!!!!!!!!!!!!!!!!!!!!!!!!!!!!!!!!!!!!!!!!!!!!!!!!!!!!!!!!!!!!!!!!!!!!!!!!!!!!!!!!!!!!!!!!!!!!!!!!!!!!!!!!!!!!#)-8BOXkw|}}yPJJJJPPJHHFECCA>>====<;:9999997766532100000111100///,,+++******************+,,,,,,,,,,,,,,,//012455666779:;;;;;;97..)('&%!!!!!!!!!!!!!",
"!!!!!!!!!!!!!!!!!!!!!!!!!!!!!!!!!!!!!!!!!!!!!!!!!!!!!!!!!!!!!!!!!!!!!!!!!!!!!!!!!!!!!!!!!!!!!!!!!!!!!!!!!!!!!!!!!!!!!!!!!!!!!!!!!!!!!!!!!!!!!!!!!!!!!!!!!!()-?MXz{|}}yWJJJJPPJHHEECCA>>>===<;::99999776653210000011111100//,,++******************+,,,,,,,,,,,,,,,,//123455667779:;;;;;:96..)('%!!!!!!!!!!!!!",
"!!!!!!!!!!!!!!!!!!!!!!!!!!!!!!!!!!!!!!!!!!!!!!!!!!!!!!!!!!!!!!!!!!!!!!!!!!!!!!!!!!!!!!!!!!!!!!!!!!!!!!!!!!!!!!!!!!!!!!!!!!!!!!!!!!!!!!!!!!!!!!!!!!!!!!!!!!((-8BOqy|}}yWJJJJJJJHHEECCA>>>>==<<;::9999777654211000111111100//,,+*******************+,,,,,,,,,,,,,,,//00134556667779:;;;;;:75.-)('!!!!!!!!!!!!!",
"!!!!!!!!!!!!!!!!!!!!!!!!!!!!!!!!!!!!!!!!!!!!!!!!!!!!!!!!!!!!!!!!!!!!!!!!!!!!!!!!!!!!!!!!!!!!!!!!!!!!!!!!!!!!!!!!!!!!!!!!!!!!!!!!!!!!!!!!!!!!!!!!!!!!!!!!!!'')-8G`oz||yWJJJJJJJJHFEECCA>>>===<;;::999777654211111111111000//,+********************+,,,,,,,,,,,,,////00123556677779::;;<;;975.-)($!!!!!!!!!!!!",
"!!!!!!!!!!!!!!!!!!!!!!!!!!!!!!!!!!!!!!!!!!!!!!!!!!!!!!!!!!!!!!!!!!!!!!!!!!!!!!!!!!!!!!!!!!!!!!!!!!!!!!!!!!!!!!!!!!!!!!!!!!!!!!!!!!!!!!!!!!!!!!!!!!!!!!!!!!!!()-?MTalphPJJJJJJJHHFEEECAA>>>===<;;::99977655321111111111000//,+********************+,,,,,,,,,,,////00011234566677799:;;;;;:973.)('&!!!!!!!!!!!",
"!!!!!!!!!!!!!!!!!!!!!!!!!!!!!!!!!!!!!!!!!!!!!!!!!!!!!!!!!!!!!!!!!!!!!!!!!!!!!!!!!!!!!!!!!!!!!!!!!!!!!!!!!!!!!!!!!!!!!!!!!!!!!!!!!!!!!!!!!!!!!!!!!!!!!!!!!!!!'()-8@LORSPJHHHJJHHHHFEECCCA>>>==<<;;::9997765432211111111100/,,+********************++,,,,,,+,,,////00112234566777999:::;;;;:95.-)('!!!!!!!!!!!",
"!!!!!!!!!!!!!!!!!!!!!!!!!!!!!!!!!!!!!!!!!!!!!!!!!!!!!!!!!!!!!!!!!!!!!!!!!!!!!!!!!!!!!!!!!!!!!!!!!!!!!!!!!!!!!!!!!!!!!!!!!!!!!!!!!!!!!!!!!!!!!!!!!!!!!!!!!!!!%&'))8?BGGIHHHHHHHHHHHFEECCA>>>>==<<;;::999765433221111111100/,++**********************+,,,,++,,,///00122233456677999999:;;;;;:76.-)($$!!!!!!!!!",
"!!!!!!!!!!!!!!!!!!!!!!!!!!!!!!!!!!!!!!!!!!!!!!!!!!!!!!!!!!!!!!!!!!!!!!!!!!!!!!!!!!!!!!!!!!!!!!!!!!!!!!!!!!!!!!!!!!!!!!!!!!!!!!!!!!!!!!!!!!!!!!!!!!!!!!!!!!!!%%'(()--888=AFHHHHHHHFEEEECCC>>>==<<;;;::997765433322211112110/,+*************++++++++*+,,,,,+,,,///01222344456677999:999::;;;;975.-)('&!!!!!!!!",
"!!!!!!!!!!!!!!!!!!!!!!!!!!!!!!!!!!!!!!!!!!!!!!!!!!!!!!!!!!!!!!!!!!!!!!!!!!!!!!!!!!!!!!!!!!!!!!!!!!!!!!!!!!!!!!!!!!!!!!!!!!!!!!!!!!!!!!!!!!!!!!!!!!!!!!!!!!!!#%&''(((()-.=EHHHHHHFEEEEEECCC>>>==<<;;;;:99765544333222223221/,+***********+,,//,,,,,+,,/,,,,,,,///01223444455677799:::99:;;;;;:75.)((&!!!!!!!!",
"!!!!!!!!!!!!!!!!!!!!!!!!!!!!!!!!!!!!!!!!!!!!!!!!!!!!!!!!!!!!!!!!!!!!!!!!!!!!!!!!!!!!!!!!!!!!!!!!!!!!!!!!!!!!!!!!!!!!!!!!!!!!!!!!!!!!!!!!!!!!!!!!!!!!!!!!!!!!#%%%%%%$!')-8AHHHHHHFEEEEEECCCC>>>==<<<<;;:99766554433323333310,+**********+,//0/////,,,,,,,,,,,,//001234444556677799:::999:;;;;;973-)('&%!!!!!!",
"!!!!!!!!!!!!!!!!!!!!!!!!!!!!!!!!!!!!!!!!!!!!!!!!!!!!!!!!!!!!!!!!!!!!!!!!!!!!!!!!!!!!!!!!!!!!!!!!!!!!!!!!!!!!!!!!!!!!!!!!!!!!!!!!!!!!!!!!!!!!!!!!!!!!!!!!!!!!!$%%&&%%$&((-AHHHHHHFFEEEEEECCC>>>===<<<<;;:9977655443333344420/+**********,/00111000/,,,,,,,,,,,//00123444555666777999:9999::;;;:96..)('&!!!!!!",
"!!!!!!!!!!!!!!!!!!!!!!!!!!!!!!!!!!!!!!!!!!!!!!!!!!!!!!!!!!!!!!!!!!!!!!!!!!!!!!!!!!!!!!!!!!!!!!!!!!!!!!!!!!!!!!!!!!!!!!!!!!!!!!!!!!!!!!!!!!!!!!!!!!!!!!!!!!!!!$%%&&&%%!!!-;CFHHHHHFEEEEEECCCC>>>====<<<<;::97766554433344431/,**********,/112111110/,,,,,,//////01234445556666777999999999:;;;;;96.-)('$$!!!!",
"!!!!!!!!!!!!!!!!!!!!!!!!!!!!!!!!!!!!!!!!!!!!!!!!!!!!!!!!!!!!!!!!!!!!!!!!!!!!!!!!!!!!!!!!!!!!!!!!!!!!!!!!!!!!!!!!!!!!!!!!!!!!!!!!!!!!!!!!!!!!!!!!!!!!!!!!!!!!!!$%&&&%%$$!)-8AHHHHHHFEEEEECCCC>>>>>====<<<;;:99776554333333210/,,++*****+,/1111111110/,,,///////00124445566666677777999999999:;;;:75.-)(&%!!!!",
"!!!!!!!!!!!!!!!!!!!!!!!!!!!!!!!!!!!!!!!!!!!!!!!!!!!!!!!!!!!!!!!!!!!!!!!!!!!!!!!!!!!!!!!!!!!!!!!!!!!!!!!!!!!!!!!!!!!!!!!!!!!!!!!!!!!!!!!!!!!!!!!!!!!!!!!!!!!!!!!%%%&&%%$!((-=HHHHHHFEEEEECCCCC>>>>>>>===<<;;::9776543222222210//,++***+,/011110011110,,,//00000011245556666666677777799999779;;;;:95.-('&!!!!",
"!!!!!!!!!!!!!!!!!!!!!!!!!!!!!!!!!!!!!!!!!!!!!!!!!!!!!!!!!!!!!!!!!!!!!!!!!!!!!!!!!!!!!!!!!!!!!!!!!!!!!!!!!!!!!!!!!!!!!!!!!!!!!!!!!!!!!!!!!!!!!!!!!!!!!!!!!!!!!!!$%%&%%%$!'();HHHHHHHFEEEECCCCCC>>>>>>>>==<<;;:997665543333333210//,,++,,/01110//01110/,///012211223455666666666667777799997799:;;;:75.))($!!!",
"!!!!!!!!!!!!!!!!!!!!!!!!!!!!!!!!!!!!!!!!!!!!!!!!!!!!!!!!!!!!!!!!!!!!!!!!!!!!!!!!!!!!!!!!!!!!!!!!!!!!!!!!!!!!!!!!!!!!!!!!!!!!!!!!!!!!!!!!!!!!!!!!!!!!!!!!!!!!!!!$$%%%%%$!&')8FHHHHHHHFEEEECCCCCC>>>>>>>===<;;:99776665544444432210//,,,//00120///0110/,,/01233222245556666666666667777779777779:;;;975.-)%$!!",
"!!!!!!!!!!!!!!!!!!!!!!!!!!!!!!!!!!!!!!!!!!!!!!!!!!!!!!!!!!!!!!!!!!!!!!!!!!!!!!!!!!!!!!!!!!!!!!!!!!!!!!!!!!!!!!!!!!!!!!!!!!!!!!!!!!!!!!!!!!!!!!!!!!!!!!!!!!!!!!!$$%%%%%$!!!)8FFHHHHHHFEEEECCCCCCCCC>>>>===<<;::97766665444455432110//,///00120////110/,//01244323345556666776666666777779777779:;;;:95.-)%$!!"
};