/* XPM */
static char *Arm_pistol_static[] = {
/* columns rows colors chars-per-pixel */
"256 256 215 2 ",
"   c #030303",
".  c #0A0606",
"X  c #090807",
"o  c #070708",
"O  c #080708",
"+  c #0B0B0C",
"@  c #070809",
"#  c #110705",
"$  c #130906",
"%  c #130D0B",
"&  c #180F0C",
"*  c #15100F",
"=  c #1B110E",
"-  c #0F0F10",
";  c #100F10",
":  c #0F1011",
">  c #131313",
",  c #1C1412",
"<  c #1A1817",
"1  c #171718",
"2  c #181718",
"3  c #171818",
"4  c #1C1C1C",
"5  c #211613",
"6  c #231916",
"7  c #241D1A",
"8  c #281F1A",
"9  c #26211E",
"0  c #2C221C",
"q  c #31261E",
"w  c #33281F",
"e  c #1F1F20",
"r  c #201F20",
"t  c #1F2020",
"y  c #242424",
"u  c #292625",
"i  c #2C2826",
"p  c #272728",
"a  c #282728",
"s  c #272828",
"d  c #2B2B2C",
"f  c #342B23",
"g  c #3A2D23",
"h  c #322E2C",
"j  c #362D26",
"k  c #3E3024",
"l  c #34302D",
"z  c #3B322B",
"x  c #2F2F30",
"c  c #302F30",
"v  c #2F3030",
"b  c #333434",
"n  c #393634",
"m  c #3B3936",
"M  c #373738",
"N  c #383738",
"B  c #373838",
"V  c #3B3B3C",
"C  c #373837",
"Z  c #2F302F",
"A  c #1F201F",
"S  c #443426",
"D  c #443629",
"F  c #4A3929",
"G  c #473829",
"H  c #523E2C",
"J  c #423B34",
"K  c #4A3D32",
"L  c #413E3B",
"P  c #56412E",
"I  c #59432F",
"U  c #44413E",
"Y  c #4B443D",
"T  c #4C4137",
"R  c #5C4531",
"E  c #57483B",
"W  c #644A34",
"Q  c #6A4E37",
"!  c #634D3B",
"~  c #6D513A",
"^  c #69503A",
"/  c #74553B",
"(  c #79593E",
")  c #725237",
"_  c #3F3F40",
"`  c #403F40",
"'  c #3F4040",
"]  c #444444",
"[  c #494645",
"{  c #474748",
"}  c #474848",
"|  c #4B4B4B",
" . c #4A4846",
".. c #514F4E",
"X. c #534C45",
"o. c #51504F",
"O. c #5A524D",
"+. c #4F4F50",
"@. c #504F50",
"#. c #4F5050",
"$. c #535353",
"%. c #595755",
"&. c #5B5856",
"*. c #5C5B5B",
"=. c #575758",
"-. c #4F504F",
";. c #665649",
":. c #7D5C42",
">. c #755A44",
",. c #625A54",
"<. c #625F5C",
"1. c #685B52",
"2. c #62605F",
"3. c #6A615C",
"4. c #6E6055",
"5. c #776456",
"6. c #7E614A",
"7. c #5F5F60",
"8. c #5F6061",
"9. c #626263",
"0. c #6A6665",
"q. c #676768",
"w. c #6B6A6B",
"e. c #6A6867",
"r. c #726E6C",
"t. c #766B64",
"y. c #7B716C",
"u. c #75706E",
"i. c #747272",
"p. c #7B7674",
"a. c #7D7A7A",
"s. c #7D7877",
"d. c #706F70",
"f. c #605F60",
"g. c #3F403F",
"h. c #815F44",
"j. c #836145",
"k. c #89664A",
"l. c #8E6A4D",
"z. c #85654B",
"x. c #906B4F",
"c. c #866C59",
"v. c #936E51",
"b. c #967054",
"n. c #9A7356",
"m. c #94735A",
"M. c #9E7659",
"N. c #8D705B",
"B. c #A37A5C",
"V. c #A67C5D",
"C. c #857265",
"Z. c #977964",
"A. c #827A76",
"S. c #827D7C",
"D. c #877C76",
"F. c #AA7F60",
"G. c #A57D60",
"H. c #89817E",
"J. c #998273",
"K. c #AD8162",
"L. c #AF866B",
"P. c #B48566",
"I. c #B78868",
"U. c #BA8A69",
"Y. c #B78767",
"T. c #AF8F7A",
"R. c #C28D6C",
"E. c #C88F6D",
"W. c #C7906E",
"Q. c #CA916F",
"!. c #CE9370",
"~. c #CC987A",
"^. c #827F80",
"/. c #868181",
"(. c #8B8583",
"). c #8E8988",
"_. c #938C8C",
"`. c #938A87",
"'. c #98918F",
"]. c #9B9493",
"[. c #9E9896",
"{. c #9A9493",
"}. c #A29996",
"|. c #A49C9B",
" X c #A59A95",
".X c #B29888",
"XX c #A9A09E",
"oX c #A7A09F",
"OX c #B9A49A",
"+X c #ACA4A2",
"@X c #ACA7A6",
"#X c #B2A9A7",
"$X c #B5ACAA",
"%X c #B2A9A6",
"&X c #B8B0AF",
"*X c #BBB4B3",
"=X c #BEB9B9",
"-X c #B7B1B1",
";X c #C79E86",
":X c #C9A795",
">X c #C3BDBC",
",X c #C9BBB5",
"<X c #C8B2A7",
"1X c #C6C0BF",
"2X c #C6C1C1",
"3X c #CAC5C4",
"4X c #CECACA",
"5X c #CCC8C7",
"6X c #D0CCCC",
"7X c #D9D6D5",
"8X c #E8E6E6",
"9X c #F7F6F6",
"0X c #F0EFEF",
"qX c #E0DDDD",
"wX c None",
/* pixels */
"wXwXwXwXwXwXwXwXwXwXwXwXwXwXwXwXwXwXwXwXwXwXwXwXwXwXwXwXwXwXwXwXwXwXwXwXwXwXwXwXwXwXwXwXwXwXwXwXwXwXwXwXwXwXwXwXwXwXwXwXwXwXwXwXwXwXwXwXwXwXwXwXwXwXwXwXwXwXwXwXwXwXwXwXwXwXwXwXwXwXwXwXwXwXwXwXwXwXwXwXwXwXwXwXwXwXwXwXwXwXwXwXwXwXwXwXwXwXwXwXwXwXwXwXwXwXwXwXwXwXwXwXwXwXwXwXwXwXwXwXwXwXwXwXwXwXwXwXwXwXwXwXwXwXwXwXwXwXwXwXwXwXwXwXwXwXwXwXwXwXwXwXwXwXwXwXwXwXwXwXwXwXwXwXwXwXwXwXwXwXwXwXwXwXwXwXwXwXwXwXwXwXwXwXwXwXwXwXwXwXwXwXwXwXwXwXwXwXwXwXwXwXwXwXwXwXwXwXwXwXwXwXwXwXwXwXwXwXwXwXwXwXwXwXwXwXwXwXwXwXwXwXwXwXwXwX",
"wXwXwXwXwXwXwXwXwXwXwXwXwXwXwXwXwXwXwXwXwXwXwXwXwXwXwXwXwXwXwXwXwXwXwXwXwXwXwXwXwXwXwXwXwXwXwXwXwXwXwXwXwXwXwXwXwXwXwXwXwXwXwXwXwXwXwXwXwXwXwXwXwXwXwXwXwXwXwXwXwXwXwXwXwXwXwXwXwXwXwXwXwXwXwXwXwXwXwXwXwXwXwXwXwXwXwXwXwXwXwXwXwXwXwXwXwXwXwXwXwXwXwXwXwXwXwXwXwXwXwXwXwXwXwXwXwXwXwXwXwXwXwXwXwXwXwXwXwXwXwXwXwXwXwXwXwXwXwXwXwXwXwXwXwXwXwXwXwXwXwXwXwXwXwXwXwXwXwXwXwXwXwXwXwXwXwXwXwXwXwXwXwXwXwXwXwXwXwXwXwXwXwXwXwXwXwXwXwXwXwXwXwXwXwXwXwXwXwXwXwXwXwXwXwXwXwXwXwXwXwXwXwXwXwXwXwXwXwXwXwXwXwXwXwXwXwXwXwXwXwXwXwXwXwXwX",
"wXwXwXwXwXwXwXwXwXwXwXwXwXwXwXwXwXwXwXwXwXwXwXwXwXwXwXwXwXwXwXwXwXwXwXwXwXwXwXwXwXwXwXwXwXwXwXwXwXwXwXwXwXwXwXwXwXwXwXwXwXwXwXwXwXwXwXwXwXwXwXwXwXwXwXwXwXwXwXwXwXwXwXwXwXwXwXwXwXwXwXwXwXwXwXwXwXwXwXwXwXwXwXwXwXwXwXwXwXwXwXwXwXwXwXwXwXwXwXwXwXwXwXwXwXwXwXwXwXwXwXwXwXwXwXwXwXwXwXwXwXwXwXwXwXwXwXwXwXwXwXwXwXwXwXwXwXwXwXwXwXwXwXwXwXwXwXwXwXwXwXwXwXwXwXwXwXwXwXwXwXwXwXwXwXwXwXwXwXwXwXwXwXwXwXwXwXwXwXwXwXwXwXwXwXwXwXwXwXwXwXwXwXwXwXwXwXwXwXwXwXwXwXwXwXwXwXwXwXwXwXwXwXwXwXwXwXwXwXwXwXwXwXwXwXwXwXwXwXwXwXwXwXwXwXwX",
"wXwXwXwXwXwXwXwXwXwXwXwXwXwXwXwXwXwXwXwXwXwXwXwXwXwXwXwXwXwXwXwXwXwXwXwXwXwXwXwXwXwXwXwXwXwXwXwXwXwXwXwXwXwXwXwXwXwXwXwXwXwXwXwXwXwXwXwXwXwXwXwXwXwXwXwXwXwXwXwXwXwXwXwXwXwXwXwXwXwXwXwXwXwXwXwXwXwXwXwXwXwXwXwXwXwXwXwXwXwXwXwXwXwXwXwXwXwXwXwXwXwXwXwXwXwXwXwXwXwXwXwXwXwXwXwXwXwXwXwXwXwXwXwXwXwXwXwXwXwXwXwXwXwXwXwXwXwXwXwXwXwXwXwXwXwXwXwXwXwXwXwXwXwXwXwXwXwXwXwXwXwXwXwXwXwXwXwXwXwXwXwXwXwXwXwXwXwXwXwXwXwXwXwXwXwXwXwXwXwXwXwXwXwXwXwXwXwXwXwXwXwXwXwXwXwXwXwXwXwXwXwXwXwXwXwXwXwXwXwXwXwXwXwXwXwXwXwXwXwXwXwXwXwXwXwX",
"wXwXwXwXwXwXwXwXwXwXwXwXwXwXwXwXwXwXwXwXwXwXwXwXwXwXwXwXwXwXwXwXwXwXwXwXwXwXwXwXwXwXwXwXwXwXwXwXwXwXwXwXwXwXwXwXwXwXwXwXwXwXwXwXwXwXwXwXwXwXwXwXwXwXwXwXwXwXwXwXwXwXwXwXwXwXwXwXwXwXwXwXwXwXwXwXwXwXwXwXwXwXwXwXwXwXwXwXwXwXwXwXwXwXwXwXwXwXwXwXwXwXwXwXwXwXwXwXwXwXwXwXwXwXwXwXwXwXwXwXwXwXwXwXwXwXwXwXwXwXwXwXwXwXwXwXwXwXwXwXwXwXwXwXwXwXwXwXwXwXwXwXwXwXwXwXwXwXwXwXwXwXwXwXwXwXwXwXwXwXwXwXwXwXwXwXwXwXwXwXwXwXwXwXwXwXwXwXwXwXwXwXwXwXwXwXwXwXwXwXwXwXwXwXwXwXwXwXwXwXwXwXwXwXwXwXwXwXwXwXwXwXwXwXwXwXwXwXwXwXwXwXwXwXwXwX",
"wXwXwXwXwXwXwXwXwXwXwXwXwXwXwXwXwXwXwXwXwXwXwXwXwXwXwXwXwXwXwXwXwXwXwXwXwXwXwXwXwXwXwXwXwXwXwXwXwXwXwXwXwXwXwXwXwXwXwXwXwXwXwXwXwXwXwXwXwXwXwXwXwXwXwXwXwXwXwXwXwXwXwXwXwXwXwXwXwXwXwXwXwXwXwXwXwXwXwXwXwXwXwXwXwXwXwXwXwXwXwXwXwXwXwXwXwXwXwXwXwXwXwXwXwXwXwXwXwXwXwXwXwXwXwXwXwXwXwXwXwXwXwXwXwXwXwXwXwXwXwXwXwXwXwXwXwXwXwXwXwXwXwXwXwXwXwXwXwXwXwXwXwXwXwXwXwXwXwXwXwXwXwXwXwXwXwXwXwXwXwXwXwXwXwXwXwXwXwXwXwXwXwXwXwXwXwXwXwXwXwXwXwXwXwXwXwXwXwXwXwXwXwXwXwXwXwXwXwXwXwXwXwXwXwXwXwXwXwXwXwXwXwXwXwXwXwXwXwXwXwXwXwXwXwXwX",
"wXwXwXwXwXwXwXwXwXwXwXwXwXwXwXwXwXwXwXwXwXwXwXwXwXwXwXwXwXwXwXwXwXwXwXwXwXwXwXwXwXwXwXwXwXwXwXwXwXwXwXwXwXwXwXwXwXwXwXwXwXwXwXwXwXwXwXwXwXwXwXwXwXwXwXwXwXwXwXwXwXwXwXwXwXwXwXwXwXwXwXwXwXwXwXwXwXwXwXwXwXwXwXwXwXwXwXwXwXwXwXwXwXwXwXwXwXwXwXwXwXwXwXwXwXwXwXwXwXwXwXwXwXwXwXwXwXwXwXwXwXwXwXwXwXwXwXwXwXwXwXwXwXwXwXwXwXwXwXwXwXwXwXwXwXwXwXwXwXwXwXwXwXwXwXwXwXwXwXwXwXwXwXwXwXwXwXwXwXwXwXwXwXwXwXwXwXwXwXwXwXwXwXwXwXwXwXwXwXwXwXwXwXwXwXwXwXwXwXwXwXwXwXwXwXwXwXwXwXwXwXwXwXwXwXwXwXwXwXwXwXwXwXwXwXwXwXwXwXwXwXwXwXwXwXwX",
"wXwXwXwXwXwXwXwXwXwXwXwXwXwXwXwXwXwXwXwXwXwXwXwXwXwXwXwXwXwXwXwXwXwXwXwXwXwXwXwXwXwXwXwXwXwXwXwXwXwXwXwXwXwXwXwXwXwXwXwXwXwXwXwXwXwXwXwXwXwXwXwXwXwXwXwXwXwXwXwXwXwXwXwXwXwXwXwXwXwXwXwXwXwXwXwXwXwXwXwXwXwXwXwXwXwXwXwXwXwXwXwXwXwXwXwXwXwXwXwXwXwXwXwXwXwXwXwXwXwXwXwXwXwXwXwXwXwXwXwXwXwXwXwXwXwXwXwXwXwXwXwXwXwXwXwXwXwXwXwXwXwXwXwXwXwXwXwXwXwXwXwXwXwXwXwXwXwXwXwXwXwXwXwXwXwXwXwXwXwXwXwXwXwXwXwXwXwXwXwXwXwXwXwXwXwXwXwXwXwXwXwXwXwXwXwXwXwXwXwXwXwXwXwXwXwXwXwXwXwXwXwXwXwXwXwXwXwXwXwXwXwXwXwXwXwXwXwXwXwXwXwXwXwXwXwX",
"wXwXwXwXwXwXwXwXwXwXwXwXwXwXwXwXwXwXwXwXwXwXwXwXwXwXwXwXwXwXwXwXwXwXwXwXwXwXwXwXwXwXwXwXwXwXwXwXwXwXwXwXwXwXwXwXwXwXwXwXwXwXwXwXwXwXwXwXwXwXwXwXwXwXwXwXwXwXwXwXwXwXwXwXwXwXwXwXwXwXwXwXwXwXwXwXwXwXwXwXwXwXwXwXwXwXwXwXwXwXwXwXwXwXwXwXwXwXwXwXwXwXwXwXwXwXwXwXwXwXwXwXwXwXwXwXwXwXwXwXwXwXwXwXwXwXwXwXwXwXwXwXwXwXwXwXwXwXwXwXwXwXwXwXwXwXwXwXwXwXwXwXwXwXwXwXwXwXwXwXwXwXwXwXwXwXwXwXwXwXwXwXwXwXwXwXwXwXwXwXwXwXwXwXwXwXwXwXwXwXwXwXwXwXwXwXwXwXwXwXwXwXwXwXwXwXwXwXwXwXwXwXwXwXwXwXwXwXwXwXwXwXwXwXwXwXwXwXwXwXwXwXwXwXwXwX",
"wXwXwXwXwXwXwXwXwXwXwXwXwXwXwXwXwXwXwXwXwXwXwXwXwXwXwXwXwXwXwXwXwXwXwXwXwXwXwXwXwXwXwXwXwXwXwXwXwXwXwXwXwXwXwXwXwXwXwXwXwXwXwXwXwXwXwXwXwXwXwXwXwXwXwXwXwXwXwXwXwXwXwXwXwXwXwXwXwXwXwXwXwXwXwXwXwXwXwXwXwXwXwXwXwXwXwXwXwXwXwXwXwXwXwXwXwXwXwXwXwXwXwXwXwXwXwXwXwXwXwXwXwXwXwXwXwXwXwXwXwXwXwXwXwXwXwXwXwXwXwXwXwXwXwXwXwXwXwXwXwXwXwXwXwXwXwXwXwXwXwXwXwXwXwXwXwXwXwXwXwXwXwXwXwXwXwXwXwXwXwXwXwXwXwXwXwXwXwXwXwXwXwXwXwXwXwXwXwXwXwXwXwXwXwXwXwXwXwXwXwXwXwXwXwXwXwXwXwXwXwXwXwXwXwXwXwXwXwXwXwXwXwXwXwXwXwXwXwXwXwXwXwXwXwXwX",
"wXwXwXwXwXwXwXwXwXwXwXwXwXwXwXwXwXwXwXwXwXwXwXwXwXwXwXwXwXwXwXwXwXwXwXwXwXwXwXwXwXwXwXwXwXwXwXwXwXwXwXwXwXwXwXwXwXwXwXwXwXwXwXwXwXwXwXwXwXwXwXwXwXwXwXwXwXwXwXwXwXwXwXwXwXwXwXwXwXwXwXwXwXwXwXwXwXwXwXwXwXwXwXwXwXwXwXwXwXwXwXwXwXwXwXwXwXwXwXwXwXwXwXwXwXwXwXwXwXwXwXwXwXwXwXwXwXwXwXwXwXwXwXwXwXwXwXwXwXwXwXwXwXwXwXwXwXwXwXwXwXwXwXwXwXwXwXwXwXwXwXwXwXwXwXwXwXwXwXwXwXwXwXwXwXwXwXwXwXwXwXwXwXwXwXwXwXwXwXwXwXwXwXwXwXwXwXwXwXwXwXwXwXwXwXwXwXwXwXwXwXwXwXwXwXwXwXwXwXwXwXwXwXwXwXwXwXwXwXwXwXwXwXwXwXwXwXwXwXwXwXwXwXwXwXwX",
"wXwXwXwXwXwXwXwXwXwXwXwXwXwXwXwXwXwXwXwXwXwXwXwXwXwXwXwXwXwXwXwXwXwXwXwXwXwXwXwXwXwXwXwXwXwXwXwXwXwXwXwXwXwXwXwXwXwXwXwXwXwXwXwXwXwXwXwXwXwXwXwXwXwXwXwXwXwXwXwXwXwXwXwXwXwXwXwXwXwXwXwXwXwXwXwXwXwXwXwXwXwXwXwXwXwXwXwXwXwXwXwXwXwXwXwXwXwXwXwXwXwXwXwXwXwXwXwXwXwXwXwXwXwXwXwXwXwXwXwXwXwXwXwXwXwXwXwXwXwXwXwXwXwXwXwXwXwXwXwXwXwXwXwXwXwXwXwXwXwXwXwXwXwXwXwXwXwXwXwXwXwXwXwXwXwXwXwXwXwXwXwXwXwXwXwXwXwXwXwXwXwXwXwXwXwXwXwXwXwXwXwXwXwXwXwXwXwXwXwXwXwXwXwXwXwXwXwXwXwXwXwXwXwXwXwXwXwXwXwXwXwXwXwXwXwXwXwXwXwXwXwXwXwXwXwX",
"wXwXwXwXwXwXwXwXwXwXwXwXwXwXwXwXwXwXwXwXwXwXwXwXwXwXwXwXwXwXwXwXwXwXwXwXwXwXwXwXwXwXwXwXwXwXwXwXwXwXwXwXwXwXwXwXwXwXwXwXwXwXwXwXwXwXwXwXwXwXwXwXwXwXwXwXwXwXwXwXwXwXwXwXwXwXwXwXwXwXwXwXwXwXwXwXwXwXwXwXwXwXwXwXwXwXwXwXwXwXwXwXwXwXwXwXwXwXwXwXwXwXwXwXwXwXwXwXwXwXwXwXwXwXwXwXwXwXwXwXwXwXwXwXwXwXwXwXwXwXwXwXwXwXwXwXwXwXwXwXwXwXwXwXwXwXwXwXwXwXwXwXwXwXwXwXwXwXwXwXwXwXwXwXwXwXwXwXwXwXwXwXwXwXwXwXwXwXwXwXwXwXwXwXwXwXwXwXwXwXwXwXwXwXwXwXwXwXwXwXwXwXwXwXwXwXwXwXwXwXwXwXwXwXwXwXwXwXwXwXwXwXwXwXwXwXwXwXwXwXwXwXwXwXwXwX",
"wXwXwXwXwXwXwXwXwXwXwXwXwXwXwXwXwXwXwXwXwXwXwXwXwXwXwXwXwXwXwXwXwXwXwXwXwXwXwXwXwXwXwXwXwXwXwXwXwXwXwXwXwXwXwXwXwXwXwXwXwXwXwXwXwXwXwXwXwXwXwXwXwXwXwXwXwXwXwXwXwXwXwXwXwXwXwXwXwXwXwXwXwXwXwXwXwXwXwXwXwXwXwXwXwXwXwXwXwXwXwXwXwXwXwXwXwXwXwXwXwXwXwXwXwXwXwXwXwXwXwXwXwXwXwXwXwXwXwXwXwXwXwXwXwXwXwXwXwXwXwXwXwXwXwXwXwXwXwXwXwXwXwXwXwXwXwXwXwXwXwXwXwXwXwXwXwXwXwXwXwXwXwXwXwXwXwXwXwXwXwXwXwXwXwXwXwXwXwXwXwXwXwXwXwXwXwXwXwXwXwXwXwXwXwXwXwXwXwXwXwXwXwXwXwXwXwXwXwXwXwXwXwXwXwXwXwXwXwXwXwXwXwXwXwXwXwXwXwXwXwXwXwXwXwXwX",
"wXwXwXwXwXwXwXwXwXwXwXwXwXwXwXwXwXwXwXwXwXwXwXwXwXwXwXwXwXwXwXwXwXwXwXwXwXwXwXwXwXwXwXwXwXwXwXwXwXwXwXwXwXwXwXwXwXwXwXwXwXwXwXwXwXwXwXwXwXwXwXwXwXwXwXwXwXwXwXwXwXwXwXwXwXwXwXwXwXwXwXwXwXwXwXwXwXwXwXwXwXwXwXwXwXwXwXwXwXwXwXwXwXwXwXwXwXwXwXwXwXwXwXwXwXwXwXwXwXwXwXwXwXwXwXwXwXwXwXwXwXwXwXwXwXwXwXwXwXwXwXwXwXwXwXwXwXwXwXwXwXwXwXwXwXwXwXwXwXwXwXwXwXwXwXwXwXwXwXwXwXwXwXwXwXwXwXwXwXwXwXwXwXwXwXwXwXwXwXwXwXwXwXwXwXwXwXwXwXwXwXwXwXwXwXwXwXwXwXwXwXwXwXwXwXwXwXwXwXwXwXwXwXwXwXwXwXwXwXwXwXwXwXwXwXwXwXwXwXwXwXwXwXwXwXwX",
"wXwXwXwXwXwXwXwXwXwXwXwXwXwXwXwXwXwXwXwXwXwXwXwXwXwXwXwXwXwXwXwXwXwXwXwXwXwXwXwXwXwXwXwXwXwXwXwXwXwXwXwXwXwXwXwXwXwXwXwXwXwXwXwXwXwXwXwXwXwXwXwXwXwXwXwXwXwXwXwXwXwXwXwXwXwXwXwXwXwXwXwXwXwXwXwXwXwXwXwXwXwXwXwXwXwXwXwXwXwXwXwXwXwXwXwXwXwXwXwXwXwXwXwXwXwXwXwXwXwXwXwXwXwXwXwXwXwXwXwXwXwXwXwXwXwXwXwXwXwXwXwXwXwXwXwXwXwXwXwXwXwXwXwXwXwXwXwXwXwXwXwXwXwXwXwXwXwXwXwXwXwXwXwXwXwXwXwXwXwXwXwXwXwXwXwXwXwXwXwXwXwXwXwXwXwXwXwXwXwXwXwXwXwXwXwXwXwXwXwXwXwXwXwXwXwXwXwXwXwXwXwXwXwXwXwXwXwXwXwXwXwXwXwXwXwXwXwXwXwXwXwXwXwXwXwX",
"wXwXwXwXwXwXwXwXwXwXwXwXwXwXwXwXwXwXwXwXwXwXwXwXwXwXwXwXwXwXwXwXwXwXwXwXwXwXwXwXwXwXwXwXwXwXwXwXwXwXwXwXwXwXwXwXwXwXwXwXwXwXwXwXwXwXwXwXwXwXwXwXwXwXwXwXwXwXwXwXwXwXwXwXwXwXwXwXwXwXwXwXwXwXwXwXwXwXwXwXwXwXwXwXwXwXwXwXwXwXwXwXwXwXwXwXwXwXwXwXwXwXwXwXwXwXwXwXwXwXwXwXwXwXwXwXwXwXwXwXwXwXwXwXwXwXwXwXwXwXwXwXwXwXwXwXwXwXwXwXwXwXwXwXwXwXwXwXwXwXwXwXwXwXwXwXwXwXwXwXwXwXwXwXwXwXwXwXwXwXwXwXwXwXwXwXwXwXwXwXwXwXwXwXwXwXwXwXwXwXwXwXwXwXwXwXwXwXwXwXwXwXwXwXwXwXwXwXwXwXwXwXwXwXwXwXwXwXwXwXwXwXwXwXwXwXwXwXwXwXwXwXwXwXwXwX",
"wXwXwXwXwXwXwXwXwXwXwXwXwXwXwXwXwXwXwXwXwXwXwXwXwXwXwXwXwXwXwXwXwXwXwXwXwXwXwXwXwXwXwXwXwXwXwXwXwXwXwXwXwXwXwXwXwXwXwXwXwXwXwXwXwXwXwXwXwXwXwXwXwXwXwXwXwXwXwXwXwXwXwXwXwXwXwXwXwXwXwXwXwXwXwXwXwXwXwXwXwXwXwXwXwXwXwXwXwXwXwXwXwXwXwXwXwXwXwXwXwXwXwXwXwXwXwXwXwXwXwXwXwXwXwXwXwXwXwXwXwXwXwXwXwXwXwXwXwXwXwXwXwXwXwXwXwXwXwXwXwXwXwXwXwXwXwXwXwXwXwXwXwXwXwXwXwXwXwXwXwXwXwXwXwXwXwXwXwXwXwXwXwXwXwXwXwXwXwXwXwXwXwXwXwXwXwXwXwXwXwXwXwXwXwXwXwXwXwXwXwXwXwXwXwXwXwXwXwXwXwXwXwXwXwXwXwXwXwXwXwXwXwXwXwXwXwXwXwXwXwXwXwXwXwXwX",
"wXwXwXwXwXwXwXwXwXwXwXwXwXwXwXwXwXwXwXwXwXwXwXwXwXwXwXwXwXwXwXwXwXwXwXwXwXwXwXwXwXwXwXwXwXwXwXwXwXwXwXwXwXwXwXwXwXwXwXwXwXwXwXwXwXwXwXwXwXwXwXwXwXwXwXwXwXwXwXwXwXwXwXwXwXwXwXwXwXwXwXwXwXwXwXwXwXwXwXwXwXwXwXwXwXwXwXwXwXwXwXwXwXwXwXwXwXwXwXwXwXwXwXwXwXwXwXwXwXwXwXwXwXwXwXwXwXwXwXwXwXwXwXwXwXwXwXwXwXwXwXwXwXwXwXwXwXwXwXwXwXwXwXwXwXwXwXwXwXwXwXwXwXwXwXwXwXwXwXwXwXwXwXwXwXwXwXwXwXwXwXwXwXwXwXwXwXwXwXwXwXwXwXwXwXwXwXwXwXwXwXwXwXwXwXwXwXwXwXwXwXwXwXwXwXwXwXwXwXwXwXwXwXwXwXwXwXwXwXwXwXwXwXwXwXwXwXwXwXwXwXwXwXwXwXwX",
"wXwXwXwXwXwXwXwXwXwXwXwXwXwXwXwXwXwXwXwXwXwXwXwXwXwXwXwXwXwXwXwXwXwXwXwXwXwXwXwXwXwXwXwXwXwXwXwXwXwXwXwXwXwXwXwXwXwXwXwXwXwXwXwXwXwXwXwXwXwXwXwXwXwXwXwXwXwXwXwXwXwXwXwXwXwXwXwXwXwXwXwXwXwXwXwXwXwXwXwXwXwXwXwXwXwXwXwXwXwXwXwXwXwXwXwXwXwXwXwXwXwXwXwXwXwXwXwXwXwXwXwXwXwXwXwXwXwXwXwXwXwXwXwXwXwXwXwXwXwXwXwXwXwXwXwXwXwXwXwXwXwXwXwXwXwXwXwXwXwXwXwXwXwXwXwXwXwXwXwXwXwXwXwXwXwXwXwXwXwXwXwXwXwXwXwXwXwXwXwXwXwXwXwXwXwXwXwXwXwXwXwXwXwXwXwXwXwXwXwXwXwXwXwXwXwXwXwXwXwXwXwXwXwXwXwXwXwXwXwXwXwXwXwXwXwXwXwXwXwXwXwXwXwXwXwX",
"wXwXwXwXwXwXwXwXwXwXwXwXwXwXwXwXwXwXwXwXwXwXwXwXwXwXwXwXwXwXwXwXwXwXwXwXwXwXwXwXwXwXwXwXwXwXwXwXwXwXwXwXwXwXwXwXwXwXwXwXwXwXwXwXwXwXwXwXwXwXwXwXwXwXwXwXwXwXwXwXwXwXwXwXwXwXwXwXwXwXwXwXwXwXwXwXwXwXwXwXwXwXwXwXwXwXwXwXwXwXwXwXwXwXwXwXwXwXwXwXwXwXwXwXwXwXwXwXwXwXwXwXwXwXwXwXwXwXwXwXwXwXwXwXwXwXwXwXwXwXwXwXwXwXwXwXwXwXwXwXwXwXwXwXwXwXwXwXwXwXwXwXwXwXwXwXwXwXwXwXwXwXwXwXwXwXwXwXwXwXwXwXwXwXwXwXwXwXwXwXwXwXwXwXwXwXwXwXwXwXwXwXwXwXwXwXwXwXwXwXwXwXwXwXwXwXwXwXwXwXwXwXwXwXwXwXwXwXwXwXwXwXwXwXwXwXwXwXwXwXwXwXwXwXwXwX",
"wXwXwXwXwXwXwXwXwXwXwXwXwXwXwXwXwXwXwXwXwXwXwXwXwXwXwXwXwXwXwXwXwXwXwXwXwXwXwXwXwXwXwXwXwXwXwXwXwXwXwXwXwXwXwXwXwXwXwXwXwXwXwXwXwXwXwXwXwXwXwXwXwXwXwXwXwXwXwXwXwXwXwXwXwXwXwXwXwXwXwXwXwXwXwXwXwXwXwXwXwXwXwXwXwXwXwXwXwXwXwXwXwXwXwXwXwXwXwXwXwXwXwXwXwXwXwXwXwXwXwXwXwXwXwXwXwXwXwXwXwXwXwXwXwXwXwXwXwXwXwXwXwXwXwXwXwXwXwXwXwXwXwXwXwXwXwXwXwXwXwXwXwXwXwXwXwXwXwXwXwXwXwXwXwXwXwXwXwXwXwXwXwXwXwXwXwXwXwXwXwXwXwXwXwXwXwXwXwXwXwXwXwXwXwXwXwXwXwXwXwXwXwXwXwXwXwXwXwXwXwXwXwXwXwXwXwXwXwXwXwXwXwXwXwXwXwXwXwXwXwXwXwXwXwXwX",
"wXwXwXwXwXwXwXwXwXwXwXwXwXwXwXwXwXwXwXwXwXwXwXwXwXwXwXwXwXwXwXwXwXwXwXwXwXwXwXwXwXwXwXwXwXwXwXwXwXwXwXwXwXwXwXwXwXwXwXwXwXwXwXwXwXwXwXwXwXwXwXwXwXwXwXwXwXwXwXwXwXwXwXwXwXwXwXwXwXwXwXwXwXwXwXwXwXwXwXwXwXwXwXwXwXwXwXwXwXwXwXwXwXwXwXwXwXwXwXwXwXwXwXwXwXwXwXwXwXwXwXwXwXwXwXwXwXwXwXwXwXwXwXwXwXwXwXwXwXwXwXwXwXwXwXwXwXwXwXwXwXwXwXwXwXwXwXwXwXwXwXwXwXwXwXwXwXwXwXwXwXwXwXwXwXwXwXwXwXwXwXwXwXwXwXwXwXwXwXwXwXwXwXwXwXwXwXwXwXwXwXwXwXwXwXwXwXwXwXwXwXwXwXwXwXwXwXwXwXwXwXwXwXwXwXwXwXwXwXwXwXwXwXwXwXwXwXwXwXwXwXwXwXwXwXwX",
"wXwXwXwXwXwXwXwXwXwXwXwXwXwXwXwXwXwXwXwXwXwXwXwXwXwXwXwXwXwXwXwXwXwXwXwXwXwXwXwXwXwXwXwXwXwXwXwXwXwXwXwXwXwXwXwXwXwXwXwXwXwXwXwXwXwXwXwXwXwXwXwXwXwXwXwXwXwXwXwXwXwXwXwXwXwXwXwXwXwXwXwXwXwXwXwXwXwXwXwXwXwXwXwXwXwXwXwXwXwXwXwXwXwXwXwXwXwXwXwXwXwXwXwXwXwXwXwXwXwXwXwXwXwXwXwXwXwXwXwXwXwXwXwXwXwXwXwXwXwXwXwXwXwXwXwXwXwXwXwXwXwXwXwXwXwXwXwXwXwXwXwXwXwXwXwXwXwXwXwXwXwXwXwXwXwXwXwXwXwXwXwXwXwXwXwXwXwXwXwXwXwXwXwXwXwXwXwXwXwXwXwXwXwXwXwXwXwXwXwXwXwXwXwXwXwXwXwXwXwXwXwXwXwXwXwXwXwXwXwXwXwXwXwXwXwXwXwXwXwXwXwXwXwXwXwX",
"wXwXwXwXwXwXwXwXwXwXwXwXwXwXwXwXwXwXwXwXwXwXwXwXwXwXwXwXwXwXwXwXwXwXwXwXwXwXwXwXwXwXwXwXwXwXwXwXwXwXwXwXwXwXwXwXwXwXwXwXwXwXwXwXwXwXwXwXwXwXwXwXwXwXwXwXwXwXwXwXwXwXwXwXwXwXwXwXwXwXwXwXwXwXwXwXwXwXwXwXwXwXwXwXwXwXwXwXwXwXwXwXwXwXwXwXwXwXwXwXwXwXwXwXwXwXwXwXwXwXwXwXwXwXwXwXwXwXwXwXwXwXwXwXwXwXwXwXwXwXwXwXwXwXwXwXwXwXwXwXwXwXwXwXwXwXwXwXwXwXwXwXwXwXwXwXwXwXwXwXwXwXwXwXwXwXwXwXwXwXwXwXwXwXwXwXwXwXwXwXwXwXwXwXwXwXwXwXwXwXwXwXwXwXwXwXwXwXwXwXwXwXwXwXwXwXwXwXwXwXwXwXwXwXwXwXwXwXwXwXwXwXwXwXwXwXwXwXwXwXwXwXwXwXwXwX",
"wXwXwXwXwXwXwXwXwXwXwXwXwXwXwXwXwXwXwXwXwXwXwXwXwXwXwXwXwXwXwXwXwXwXwXwXwXwXwXwXwXwXwXwXwXwXwXwXwXwXwXwXwXwXwXwXwXwXwXwXwXwXwXwXwXwXwXwXwXwXwXwXwXwXwXwXwXwXwXwXwXwXwXwXwXwXwXwXwXwXwXwXwXwXwXwXwXwXwXwXwXwXwXwXwXwXwXwXwXwXwXwXwXwXwXwXwXwXwXwXwXwXwXwXwXwXwXwXwXwXwXwXwXwXwXwXwXwXwXwXwXwXwXwXwXwXwXwXwXwXwXwXwXwXwXwXwXwXwXwXwXwXwXwXwXwXwXwXwXwXwXwXwXwXwXwXwXwXwXwXwXwXwXwXwXwXwXwXwXwXwXwXwXwXwXwXwXwXwXwXwXwXwXwXwXwXwXwXwXwXwXwXwXwXwXwXwXwXwXwXwXwXwXwXwXwXwXwXwXwXwXwXwXwXwXwXwXwXwXwXwXwXwXwXwXwXwXwXwXwXwXwXwXwXwXwX",
"wXwXwXwXwXwXwXwXwXwXwXwXwXwXwXwXwXwXwXwXwXwXwXwXwXwXwXwXwXwXwXwXwXwXwXwXwXwXwXwXwXwXwXwXwXwXwXwXwXwXwXwXwXwXwXwXwXwXwXwXwXwXwXwXwXwXwXwXwXwXwXwXwXwXwXwXwXwXwXwXwXwXwXwXwXwXwXwXwXwXwXwXwXwXwXwXwXwXwXwXwXwXwXwXwXwXwXwXwXwXwXwXwXwXwXwXwXwXwXwXwXwXwXwXwXwXwXwXwXwXwXwXwXwXwXwXwXwXwXwXwXwXwXwXwXwXwXwXwXwXwXwXwXwXwXwXwXwXwXwXwXwXwXwXwXwXwXwXwXwXwXwXwXwXwXwXwXwXwXwXwXwXwXwXwXwXwXwXwXwXwXwXwXwXwXwXwXwXwXwXwXwXwXwXwXwXwXwXwXwXwXwXwXwXwXwXwXwXwXwXwXwXwXwXwXwXwXwXwXwXwXwXwXwXwXwXwXwXwXwXwXwXwXwXwXwXwXwXwXwXwXwXwXwXwXwX",
"wXwXwXwXwXwXwXwXwXwXwXwXwXwXwXwXwXwXwXwXwXwXwXwXwXwXwXwXwXwXwXwXwXwXwXwXwXwXwXwXwXwXwXwXwXwXwXwXwXwXwXwXwXwXwXwXwXwXwXwXwXwXwXwXwXwXwXwXwXwXwXwXwXwXwXwXwXwXwXwXwXwXwXwXwXwXwXwXwXwXwXwXwXwXwXwXwXwXwXwXwXwXwXwXwXwXwXwXwXwXwXwXwXwXwXwXwXwXwXwXwXwXwXwXwXwXwXwXwXwXwXwXwXwXwXwXwXwXwXwXwXwXwXwXwXwXwXwXwXwXwXwXwXwXwXwXwXwXwXwXwXwXwXwXwXwXwXwXwXwXwXwXwXwXwXwXwXwXwXwXwXwXwXwXwXwXwXwXwXwXwXwXwXwXwXwXwXwXwXwXwXwXwXwXwXwXwXwXwXwXwXwXwXwXwXwXwXwXwXwXwXwXwXwXwXwXwXwXwXwXwXwXwXwXwXwXwXwXwXwXwXwXwXwXwXwXwXwXwXwXwXwXwXwXwXwX",
"wXwXwXwXwXwXwXwXwXwXwXwXwXwXwXwXwXwXwXwXwXwXwXwXwXwXwXwXwXwXwXwXwXwXwXwXwXwXwXwXwXwXwXwXwXwXwXwXwXwXwXwXwXwXwXwXwXwXwXwXwXwXwXwXwXwXwXwXwXwXwXwXwXwXwXwXwXwXwXwXwXwXwXwXwXwXwXwXwXwXwXwXwXwXwXwXwXwXwXwXwXwXwXwXwXwXwXwXwXwXwXwXwXwXwXwXwXwXwXwXwXwXwXwXwXwXwXwXwXwXwXwXwXwXwXwXwXwXwXwXwXwXwXwXwXwXwXwXwXwXwXwXwXwXwXwXwXwXwXwXwXwXwXwXwXwXwXwXwXwXwXwXwXwXwXwXwXwXwXwXwXwXwXwXwXwXwXwXwXwXwXwXwXwXwXwXwXwXwXwXwXwXwXwXwXwXwXwXwXwXwXwXwXwXwXwXwXwXwXwXwXwXwXwXwXwXwXwXwXwXwXwXwXwXwXwXwXwXwXwXwXwXwXwXwXwXwXwXwXwXwXwXwXwXwXwX",
"wXwXwXwXwXwXwXwXwXwXwXwXwXwXwXwXwXwXwXwXwXwXwXwXwXwXwXwXwXwXwXwXwXwXwXwXwXwXwXwXwXwXwXwXwXwXwXwXwXwXwXwXwXwXwXwXwXwXwXwXwXwXwXwXwXwXwXwXwXwXwXwXwXwXwXwXwXwXwXwXwXwXwXwXwXwXwXwXwXwXwXwXwXwXwXwXwXwXwXwXwXwXwXwXwXwXwXwXwXwXwXwXwXwXwXwXwXwXwXwXwXwXwXwXwXwXwXwXwXwXwXwXwXwXwXwXwXwXwXwXwXwXwXwXwXwXwXwXwXwXwXwXwXwXwXwXwXwXwXwXwXwXwXwXwXwXwXwXwXwXwXwXwXwXwXwXwXwXwXwXwXwXwXwXwXwXwXwXwXwXwXwXwXwXwXwXwXwXwXwXwXwXwXwXwXwXwXwXwXwXwXwXwXwXwXwXwXwXwXwXwXwXwXwXwXwXwXwXwXwXwXwXwXwXwXwXwXwXwXwXwXwXwXwXwXwXwXwXwXwXwXwXwXwXwXwX",
"wXwXwXwXwXwXwXwXwXwXwXwXwXwXwXwXwXwXwXwXwXwXwXwXwXwXwXwXwXwXwXwXwXwXwXwXwXwXwXwXwXwXwXwXwXwXwXwXwXwXwXwXwXwXwXwXwXwXwXwXwXwXwXwXwXwXwXwXwXwXwXwXwXwXwXwXwXwXwXwXwXwXwXwXwXwXwXwXwXwXwXwXwXwXwXwXwXwXwXwXwXwXwXwXwXwXwXwXwXwXwXwXwXwXwXwXwXwXwXwXwXwXwXwXwXwXwXwXwXwXwXwXwXwXwXwXwXwXwXwXwXwXwXwXwXwXwXwXwXwXwXwXwXwXwXwXwXwXwXwXwXwXwXwXwXwXwXwXwXwXwXwXwXwXwXwXwXwXwXwXwXwXwXwXwXwXwXwXwXwXwXwXwXwXwXwXwXwXwXwXwXwXwXwXwXwXwXwXwXwXwXwXwXwXwXwXwXwXwXwXwXwXwXwXwXwXwXwXwXwXwXwXwXwXwXwXwXwXwXwXwXwXwXwXwXwXwXwXwXwXwXwXwXwXwXwX",
"wXwXwXwXwXwXwXwXwXwXwXwXwXwXwXwXwXwXwXwXwXwXwXwXwXwXwXwXwXwXwXwXwXwXwXwXwXwXwXwXwXwXwXwXwXwXwXwXwXwXwXwXwXwXwXwXwXwXwXwXwXwXwXwXwXwXwXwXwXwXwXwXwXwXwXwXwXwXwXwXwXwXwXwXwXwXwXwXwXwXwXwXwXwXwXwXwXwXwXwXwXwXwXwXwXwXwXwXwXwXwXwXwXwXwXwXwXwXwXwXwXwXwXwXwXwXwXwXwXwXwXwXwXwXwXwXwXwXwXwXwXwXwXwXwXwXwXwXwXwXwXwXwXwXwXwXwXwXwXwXwXwXwXwXwXwXwXwXwXwXwXwXwXwXwXwXwXwXwXwXwXwXwXwXwXwXwXwXwXwXwXwXwXwXwXwXwXwXwXwXwXwXwXwXwXwXwXwXwXwXwXwXwXwXwXwXwXwXwXwXwXwXwXwXwXwXwXwXwXwXwXwXwXwXwXwXwXwXwXwXwXwXwXwXwXwXwXwXwXwXwXwXwXwXwXwX",
"wXwXwXwXwXwXwXwXwXwXwXwXwXwXwXwXwXwXwXwXwXwXwXwXwXwXwXwXwXwXwXwXwXwXwXwXwXwXwXwXwXwXwXwXwXwXwXwXwXwXwXwXwXwXwXwXwXwXwXwXwXwXwXwXwXwXwXwXwXwXwXwXwXwXwXwXwXwXwXwXwXwXwXwXwXwXwXwXwXwXwXwXwXwXwXwXwXwXwXwXwXwXwXwXwXwXwXwXwXwXwXwXwXwXwXwXwXwXwXwXwXwXwXwXwXwXwXwXwXwXwXwXwXwXwXwXwXwXwXwXwXwXwXwXwXwXwXwXwXwXwXwXwXwXwXwXwXwXwXwXwXwXwXwXwXwXwXwXwXwXwXwXwXwXwXwXwXwXwXwXwXwXwXwXwXwXwXwXwXwXwXwXwXwXwXwXwXwXwXwXwXwXwXwXwXwXwXwXwXwXwXwXwXwXwXwXwXwXwXwXwXwXwXwXwXwXwXwXwXwXwXwXwXwXwXwXwXwXwXwXwXwXwXwXwXwXwXwXwXwXwXwXwXwXwXwX",
"wXwXwXwXwXwXwXwXwXwXwXwXwXwXwXwXwXwXwXwXwXwXwXwXwXwXwXwXwXwXwXwXwXwXwXwXwXwXwXwXwXwXwXwXwXwXwXwXwXwXwXwXwXwXwXwXwXwXwXwXwXwXwXwXwXwXwXwXwXwXwXwXwXwXwXwXwXwXwXwXwXwXwXwXwXwXwXwXwXwXwXwXwXwXwXwXwXwXwXwXwXwXwXwXwXwXwXwXwXwXwXwXwXwXwXwXwXwXwXwXwXwXwXwXwXwXwXwXwXwXwXwXwXwXwXwXwXwXwXwXwXwXwXwXwXwXwXwXwXwXwXwXwXwXwXwXwXwXwXwXwXwXwXwXwXwXwXwXwXwXwXwXwXwXwXwXwXwXwXwXwXwXwXwXwXwXwXwXwXwXwXwXwXwXwXwXwXwXwXwXwXwXwXwXwXwXwXwXwXwXwXwXwXwXwXwXwXwXwXwXwXwXwXwXwXwXwXwXwXwXwXwXwXwXwXwXwXwXwXwXwXwXwXwXwXwXwXwXwXwXwXwXwXwXwXwX",
"wXwXwXwXwXwXwXwXwXwXwXwXwXwXwXwXwXwXwXwXwXwXwXwXwXwXwXwXwXwXwXwXwXwXwXwXwXwXwXwXwXwXwXwXwXwXwXwXwXwXwXwXwXwXwXwXwXwXwXwXwXwXwXwXwXwXwXwXwXwXwXwXwXwXwXwXwXwXwXwXwXwXwXwXwXwXwXwXwXwXwXwXwXwXwXwXwXwXwXwXwXwXwXwXwXwXwXwXwXwXwXwXwXwXwXwXwXwXwXwXwXwXwXwXwXwXwXwXwXwXwXwXwXwXwXwXwXwXwXwXwXwXwXwXwXwXwXwXwXwXwXwXwXwXwXwXwXwXwXwXwXwXwXwXwXwXwXwXwXwXwXwXwXwXwXwXwXwXwXwXwXwXwXwXwXwXwXwXwXwXwXwXwXwXwXwXwXwXwXwXwXwXwXwXwXwXwXwXwXwXwXwXwXwXwXwXwXwXwXwXwXwXwXwXwXwXwXwXwXwXwXwXwXwXwXwXwXwXwXwXwXwXwXwXwXwXwXwXwXwXwXwXwXwXwXwX",
"wXwXwXwXwXwXwXwXwXwXwXwXwXwXwXwXwXwXwXwXwXwXwXwXwXwXwXwXwXwXwXwXwXwXwXwXwXwXwXwXwXwXwXwXwXwXwXwXwXwXwXwXwXwXwXwXwXwXwXwXwXwXwXwXwXwXwXwXwXwXwXwXwXwXwXwXwXwXwXwXwXwXwXwXwXwXwXwXwXwXwXwXwXwXwXwXwXwXwXwXwXwXwXwXwXwXwXwXwXwXwXwX8X2X2X@X@X6X9XwXwXwXwXwXwXwXwXwXwXwXwXwXwXwXwXwXwXwXwXwXwXwXwXwXwXwXwXwXwXwXwXwXwXwXwXwXwXwXwXwXwXwXwXwXwXwXwXwXwXwXwXwXwXwXwXwXwXwXwXwXwXwXwXwXwXwXwXwXwXwXwXwXwXwXwXwXwXwXwXwXwXwXwXwXwXwXwXwXwXwXwXwXwXwXwXwXwXwXwXwXwXwXwXwXwXwXwXwXwXwXwXwXwXwXwXwXwXwXwXwXwXwXwXwXwXwXwXwXwXwXwXwXwXwXwXwX",
"wXwXwXwXwXwXwXwXwXwXwXwXwXwXwXwXwXwXwXwXwXwXwXwXwXwXwXwXwXwXwXwXwXwXwXwXwXwXwXwXwXwXwXwXwXwXwXwXwXwXwXwXwXwXwXwXwXwXwXwXwXwXwXwXwXwXwXwXwXwXwXwXwXwXwXwXwXwXwXwXwXwXwXwXwXwXwXwXwXwXwXwXwXwXwXwXwXwXwXwXwXwXwXwXwXwXwXwXwXwXwXwX>X_.s.3.*.{.2XwXwXwXwXwXwXwXwXwXwXwXwXwXwXwXwXwXwXwXwXwXwXwXwXwXwXwXwXwXwXwXwXwXwXwXwXwXwXwXwXwXwXwXwXwXwXwXwXwXwXwXwXwXwXwXwXwXwXwXwXwXwXwXwXwXwXwXwXwXwXwXwXwXwXwXwXwXwXwXwXwXwXwXwXwXwXwXwXwXwXwXwXwXwXwXwXwXwXwXwXwXwXwXwXwXwXwXwXwXwXwXwXwXwXwXwXwXwXwXwXwXwXwXwXwXwXwXwXwXwXwXwXwXwXwXwXwX",
"wXwXwXwXwXwXwXwXwXwXwXwXwXwXwXwXwXwXwXwXwXwXwXwXwXwXwXwXwXwXwXwXwXwXwXwXwXwXwXwXwXwXwXwXwXwXwXwXwXwXwXwXwXwXwXwXwXwXwXwXwXwXwXwXwXwXwXwXwXwXwXwXwXwXwXwXwXwXwXwXwXwXwXwXwXwXwXwXwXwXwXwXwXwXwXwXwXwXwXwXwXwXwXwXwXwXwXwXwXwXwXwX*Xi.| M x i.#XwXwXwXwXwXwXwXwXwXwXwXwXwXwXwXwXwXwXwXwXwXwXwXwXwXwXwXwXwXwXwXwXwXwXwXwXwXwXwXwXwXwXwXwXwXwXwXwXwXwXwXwXwXwXwXwXwXwXwXwXwXwXwXwXwXwXwXwXwXwXwXwXwXwXwXwXwXwXwXwXwXwXwXwXwXwXwXwXwXwXwXwXwXwXwXwXwXwXwXwXwXwXwXwXwXwXwXwXwXwXwXwXwXwXwXwXwXwXwXwXwXwXwXwXwXwXwXwXwXwXwXwXwXwXwXwXwX",
"wXwXwXwXwXwXwXwXwXwXwXwXwXwXwXwXwXwXwXwXwXwXwXwXwXwXwXwXwXwXwXwXwXwXwXwXwXwXwXwXwXwXwXwXwXwXwXwXwXwXwXwXwXwXwXwXwXwXwXwXwXwXwXwXwXwXwXwXwXwXwXwXwXwXwXwXwXwXwXwXwXwXwXwXwXwXwXwXwXwXwXwXwXwXwXwXwXwXwXwXwXwXwXwXwXwXwXwXwXwXwXwX*Xp.$.} V *./.%X7XwXwXwXwXwXwXwXwXwXwXwXwXwXwXwXwXwXwXwXwXwXwXwXwXwXwXwXwXwXwXwXwXwXwXwXwXwXwXwXwXwXwXwXwXwXwXwXwXwXwXwXwXwXwXwXwXwXwXwXwXwXwXwXwXwXwXwXwXwXwXwXwXwXwXwXwXwXwXwXwXwXwXwXwXwXwXwXwXwXwXwXwXwXwXwXwXwXwXwXwXwXwXwXwXwXwXwXwXwXwXwXwXwXwXwXwXwXwXwXwXwXwXwXwXwXwXwXwXwXwXwXwXwXwXwX",
"wXwXwXwXwXwXwXwXwXwXwXwXwXwXwXwXwXwXwXwXwXwXwXwXwXwXwXwXwXwXwXwXwXwXwXwXwXwXwXwXwXwXwXwXwXwXwXwXwXwXwXwXwXwXwXwXwXwXwXwXwXwXwXwXwXwXwXwXwXwXwXwXwXwXwXwXwXwXwXwXwXwXwXwXwXwXwXwXwXwXwXwXwXwXwXwXwXwXwXwXwXwXwXwXwXwXwXwXwXwXwXwX*Xa.7.=.|  . .3.-XwXwXwXwXwXwXwXwXwXwXwXwXwXwXwXwXwXwXwXwXwXwXwXwXwXwXwXwXwXwXwXwXwXwXwXwXwXwXwXwXwXwXwXwXwXwXwXwXwXwXwXwXwXwXwXwXwXwXwXwXwXwXwXwXwXwXwXwXwXwXwXwXwXwXwXwXwXwXwXwXwXwXwXwXwXwXwXwXwXwXwXwXwXwXwXwXwXwXwXwXwXwXwXwXwXwXwXwXwXwXwXwXwXwXwXwXwXwXwXwXwXwXwXwXwXwXwXwXwXwXwXwXwXwXwX",
"wXwXwXwXwXwXwXwXwXwXwXwXwXwXwXwXwXwXwXwXwXwXwXwXwXwXwXwXwXwXwXwXwXwXwXwXwXwXwXwXwXwXwXwXwXwXwXwXwXwXwXwXwXwXwXwXwXwXwXwXwXwXwXwXwXwXwXwXwXwXwXwXwXwXwXwXwXwXwXwXwXwXwXwXwXwXwXwXwXwXwXwXwXwXwXwXwXwXwXwXwXwX4X$XXX+XXX+X+X+X+XoX(.7.+.{ _ V b $.$XwXwXwXwXwXwXwXwXwXwXwXwXwXwXwXwXwXwXwXwXwXwXwXwXwXwXwXwXwXwXwXwXwXwXwXwXwXwXwXwXwXwXwXwXwXwXwXwXwXwXwXwXwXwXwXwXwXwXwXwXwXwXwXwXwXwXwXwXwXwXwXwXwXwXwXwXwXwXwXwXwXwXwXwXwXwXwXwXwXwXwXwXwXwXwXwXwXwXwXwXwXwXwXwXwXwXwXwXwXwXwXwXwXwXwXwXwXwXwXwXwXwXwXwXwXwXwXwXwXwXwXwXwXwXwX",
"wXwXwXwXwXwXwXwXwXwXwXwXwXwXwXwXwXwXwXwXwXwXwXwXwXwXwXwXwXwXwXwXwXwXwXwXwXwXwXwXwXwXwXwXwXwXwXwXwXwXwXwXwXwXwXwXwXwXwXwXwXwXwXwXwXwXwXwXwXwXwXwXwXwXwXwXwXwXwXwXwXwXwXwXwXwXwXwXwXwXwXwXwXwXwXwXwXwXwXwXwXwX+X=...X.X.......%.$.+.' M x y x c %.|.wXwXwXwXwXwXwXwXwXwXwXwXwXwXwXwXwXwXwXwXwXwXwXwXwXwXwXwXwXwXwXwXwXwXwXwXwXwXwXwXwXwXwXwXwXwXwXwXwXwXwXwXwXwXwXwXwXwXwXwXwXwXwXwXwXwXwXwXwXwXwXwXwXwXwXwXwXwXwXwXwXwXwXwXwXwXwXwXwXwXwXwXwXwXwXwXwXwXwXwXwXwXwXwXwXwXwXwXwXwXwXwXwXwXwXwXwXwXwXwXwXwXwXwXwXwXwXwXwXwXwXwXwXwXwX",
"wXwXwXwXwXwXwXwXwXwXwXwXwXwXwXwXwXwXwXwXwXwXwXwXwXwXwXwXwXwXwXwXwXwXwXwXwXwXwXwXwXwXwXwXwXwXwXwXwXwXwXwXwXwXwXwXwXwXwXwXwXwXwXwXwXwXwXwXwXwXwXwXwXwXwXwXwXwXwXwXwXwXwXwXwXwXwXwXwXwXwXwXwXwXwXwXwXwXwXwXwX+Xr., . # $ .   . + > 3 y y e 1 r u X.`.wXwXwXwXwXwXwXwXwXwXwXwXwXwXwXwXwXwXwXwXwXwXwXwXwXwXwXwXwXwXwXwXwXwXwXwXwXwXwXwXwXwXwXwXwXwXwXwXwXwXwXwXwXwXwXwXwXwXwXwXwXwXwXwXwXwXwXwXwXwXwXwXwXwXwXwXwXwXwXwXwXwXwXwXwXwXwXwXwXwXwXwXwXwXwXwXwXwXwXwXwXwXwXwXwXwXwXwXwXwXwXwXwXwXwXwXwXwXwXwXwXwXwXwXwXwXwXwXwXwXwXwXwXwXwX",
"wXwXwXwXwXwXwXwXwXwXwXwXwXwXwXwXwXwXwXwXwXwXwXwXwXwXwXwXwXwXwXwXwXwXwXwXwXwXwXwXwXwXwXwXwXwXwXwXwXwXwXwXwXwXwXwXwXwXwXwXwXwXwXwXwXwXwXwXwXwXwXwXwXwXwXwXwXwXwXwXwXwXwXwXwXwXwXwXwXwXwXwXwXwXwXwXwXwXwX5X+Xy.U , # # # # o . + - > e 1 > ; ; 1 h $.S.(.(.[.1XwXwXwXwXwXwXwXwXwXwXwXwXwXwXwXwXwXwXwXwXwXwXwXwXwXwXwXwXwXwXwXwXwXwXwXwXwXwXwXwXwXwXwXwXwXwXwXwXwXwXwXwXwXwXwXwXwXwXwXwXwXwXwXwXwXwXwXwXwXwXwXwXwXwXwXwXwXwXwXwXwXwXwXwXwXwXwXwXwXwXwXwXwXwXwXwXwXwXwXwXwXwXwXwXwXwXwXwXwXwXwXwXwXwXwXwXwXwXwXwXwXwXwXwXwXwXwXwXwXwX",
"wXwXwXwXwXwXwXwXwXwXwXwXwXwXwXwXwXwXwXwXwXwXwXwXwXwXwXwXwXwXwXwXwXwXwXwXwXwXwXwXwXwXwXwXwXwXwXwXwXwXwXwXwXwXwXwXwXwXwXwXwXwXwXwXwXwXwXwXwXwXwXwXwXwXwXwXwXwXwXwXwXwXwXwXwXwXwXwXwXwXwXwXwXwXwXwXwXwXwX%X%.8 , % # $ # . o o @ @ + > ; + o o o + > 4 y r L }.wXwXwXwXwXwXwXwXwXwXwXwXwXwXwXwXwXwXwXwXwXwXwXwXwXwXwXwXwXwXwXwXwXwXwXwXwXwXwXwXwXwXwXwXwXwXwXwXwXwXwXwXwXwXwXwXwXwXwXwXwXwXwXwXwXwXwXwXwXwXwXwXwXwXwXwXwXwXwXwXwXwXwXwXwXwXwXwXwXwXwXwXwXwXwXwXwXwXwXwXwXwXwXwXwXwXwXwXwXwXwXwXwXwXwXwXwXwXwXwXwXwXwXwXwXwXwXwXwXwX",
"wXwXwXwXwXwXwXwXwXwXwXwXwXwXwXwXwXwXwXwXwXwXwXwXwXwXwXwXwXwXwXwXwXwXwXwXwXwXwXwXwXwXwXwXwXwXwXwXwXwXwXwXwXwXwXwXwXwXwXwXwXwXwXwXwXwXwXwXwXwXwXwXwXwXwXwXwXwXwXwXwXwXwXwXwXwXwXwXwXwXwXwXwXwXwXwXwX4X%Xp.J & & $ % = = * * * > % - % + O                 e 0.}.#X@X&X6XwXwXwXwXwXwXwXwXwXwXwXwXwXwXwXwXwXwXwXwXwXwXwXwXwXwXwXwXwXwXwXwXwXwXwXwXwXwXwXwXwXwXwXwXwXwXwXwXwXwXwXwXwXwXwXwXwXwXwXwXwXwXwXwXwXwXwXwXwXwXwXwXwXwXwXwXwXwXwXwXwXwXwXwXwXwXwXwXwXwXwXwXwXwXwXwXwXwXwXwXwXwXwXwXwXwXwXwXwXwXwXwXwXwXwXwXwXwXwXwXwXwXwXwXwX",
"wXwXwXwXwXwXwXwXwXwXwXwXwXwXwXwXwXwXwXwXwXwXwXwXwXwXwXwXwXwXwXwXwXwXwXwXwXwXwXwXwXwXwXwXwXwXwXwXwXwXwXwXwXwXwXwXwXwXwXwXwXwXwXwXwXwXwXwXwXwXwXwXwXwXwXwXwXwXwXwXwXwXwXwXwXwXwXwXwXwXwXwXwXwXwXwX4X|.3. .n 0 , # = 7 p 9 9 4 4 1 = $ # # .           O @ > n %.*.&.e.$XwXwXwXwXwXwXwXwXwXwXwXwXwXwXwXwXwXwXwXwXwXwXwXwXwXwXwXwXwXwXwXwXwXwXwXwXwXwXwXwXwXwXwXwXwXwXwXwXwXwXwXwXwXwXwXwXwXwXwXwXwXwXwXwXwXwXwXwXwXwXwXwXwXwXwXwXwXwXwXwXwXwXwXwXwXwXwXwXwXwXwXwXwXwXwXwXwXwXwXwXwXwXwXwXwXwXwXwXwXwXwXwXwXwXwXwXwXwXwXwXwXwXwXwXwX",
"wXwXwXwXwXwXwXwXwXwXwXwXwXwXwXwXwXwXwXwXwXwXwXwXwXwXwXwXwXwXwXwXwXwXwXwXwXwXwXwXwXwXwXwXwXwXwXwXwXwXwXwXwXwXwXwXwXwXwXwXwXwXwXwXwXwXwXwXwXwXwXwXwXwXwXwXwXwXwXwXwXwXwXwXwXwXwXwXwXwXwXwXwXwXwXwX$Xy.5 6 g n 7 + > p b b v d i y 5 % # # #         o O + + + + + + 9 s.%XwXwXwXwXwXwXwXwXwXwXwXwXwXwXwXwXwXwXwXwXwXwXwXwXwXwXwXwXwXwXwXwXwXwXwXwXwXwXwXwXwXwXwXwXwXwXwXwXwXwXwXwXwXwXwXwXwXwXwXwXwXwXwXwXwXwXwXwXwXwXwXwXwXwXwXwXwXwXwXwXwXwXwXwXwXwXwXwXwXwXwXwXwXwXwXwXwXwXwXwXwXwXwXwXwXwXwXwXwXwXwXwXwXwXwXwXwXwXwXwXwXwXwXwX",
"wXwXwXwXwXwXwXwXwXwXwXwXwXwXwXwXwXwXwXwXwXwXwXwXwXwXwXwXwXwXwXwXwXwXwXwXwXwXwXwXwXwXwXwXwXwXwXwXwXwXwXwXwXwXwXwXwXwXwXwXwXwXwXwXwXwXwXwXwXwXwXwXwXwXwXwXwXwXwXwXwXwXwXwXwXwXwXwXwXwXwXwXwXwXwXwX$Xu., 5 f l i y u b m m V n n b r 5 & $ # # # .   .   O . . . . @ >  .S.$X4XwXwXwXwXwXwXwXwXwXwXwXwXwXwXwXwXwXwXwXwXwXwXwXwXwXwXwXwXwXwXwXwXwXwXwXwXwXwXwXwXwXwXwXwXwXwXwXwXwXwXwXwXwXwXwXwXwXwXwXwXwXwXwXwXwXwXwXwXwXwXwXwXwXwXwXwXwXwXwXwXwXwXwXwXwXwXwXwXwXwXwXwXwXwXwXwXwXwXwXwXwXwXwXwXwXwXwXwXwXwXwXwXwXwXwXwXwXwXwXwXwXwX",
"wXwXwXwXwXwXwXwXwXwXwXwXwXwXwXwXwXwXwXwXwXwXwXwXwXwXwXwXwXwXwXwXwXwXwXwXwXwXwXwXwXwXwXwXwXwXwXwXwXwXwXwXwXwXwXwXwXwXwXwXwXwXwXwXwXwXwXwXwXwXwXwXwXwXwXwXwXwXwXwXwXwXwXwXwXwXwXwXwXwXwXwXwXwXwXwX&Xy.= 5 u j b m V V U Y  . .[ [ z 6 5 $ # # $ # .               o + < a 0.-XwXwXwXwXwXwXwXwXwXwXwXwXwXwXwXwXwXwXwXwXwXwXwXwXwXwXwXwXwXwXwXwXwXwXwXwXwXwXwXwXwXwXwXwXwXwXwXwXwXwXwXwXwXwXwXwXwXwXwXwXwXwXwXwXwXwXwXwXwXwXwXwXwXwXwXwXwXwXwXwXwXwXwXwXwXwXwXwXwXwXwXwXwXwXwXwXwXwXwXwXwXwXwXwXwXwXwXwXwXwXwXwXwXwXwXwXwXwXwXwXwXwX",
"wXwXwXwXwXwXwXwXwXwXwXwXwXwXwXwXwXwXwXwXwXwXwXwXwXwXwXwXwXwXwXwXwXwXwXwXwXwXwXwXwXwXwXwXwXwXwXwXwXwXwXwXwXwXwXwXwXwXwXwXwXwXwXwXwXwXwXwXwXwXwXwXwXwXwXwXwXwXwXwXwXwXwXwXwXwXwXwXwXwXwXwXwXwXwXwX$Xy.5 = 0 i b V L ] [  .| $.&.&. .h r 5 = & & $ # #             o o     n S.$X4XwXwXwXwXwXwXwXwXwXwXwXwXwXwXwXwXwXwXwXwXwXwXwXwXwXwXwXwXwXwXwXwXwXwXwXwXwXwXwXwXwXwXwXwXwXwXwXwXwXwXwXwXwXwXwXwXwXwXwXwXwXwXwXwXwXwXwXwXwXwXwXwXwXwXwXwXwXwXwXwXwXwXwXwXwXwXwXwXwXwXwXwXwXwXwXwXwXwXwXwXwXwXwXwXwXwXwXwXwXwXwXwXwXwXwXwXwXwXwXwX",
"wXwXwXwXwXwXwXwXwXwXwXwXwXwXwXwXwXwXwXwXwXwXwXwXwXwXwXwXwXwXwXwXwXwXwXwXwXwXwXwXwXwXwXwXwXwXwXwXwXwXwXwXwXwXwXwXwXwXwXwXwXwXwXwXwXwXwXwXwXwXwXwXwXwXwXwXwXwXwXwXwXwXwXwXwXwXwXwXwXwXwXwXwXwXwXwX$Xy., = 9 i d h b V U ..&.7.q.e.=.U z i r 6 5 & % $ # $                 4 ] w.#X6XwXwXwXwXwXwXwXwXwXwXwXwXwXwXwXwXwXwXwXwXwXwXwXwXwXwXwXwXwXwXwXwXwXwXwXwXwXwXwXwXwXwXwXwXwXwXwXwXwXwXwXwXwXwXwXwXwXwXwXwXwXwXwXwXwXwXwXwXwXwXwXwXwXwXwXwXwXwXwXwXwXwXwXwXwXwXwXwXwXwXwXwXwXwXwXwXwXwXwXwXwXwXwXwXwXwXwXwXwXwXwXwXwXwXwXwXwXwXwX",
"wXwXwXwXwXwXwXwXwXwXwXwXwXwXwXwXwXwXwXwXwXwXwXwXwXwXwXwXwXwXwXwXwXwXwXwXwXwXwXwXwXwXwXwXwXwXwXwXwXwXwXwXwXwXwXwXwXwXwXwXwXwXwXwXwXwXwXwXwXwXwXwXwXwXwXwXwXwXwXwXwXwXwXwXwXwXwXwXwXwXwXwXwXwXwXwX$Xy.5 = 9 u u u h n ] @.7.e.p./.e.$.[ J h u r 6 & $ $ $ $ .               o > i.$XwXwXwXwXwXwXwXwXwXwXwXwXwXwXwXwXwXwXwXwXwXwXwXwXwXwXwXwXwXwXwXwXwXwXwXwXwXwXwXwXwXwXwXwXwXwXwXwXwXwXwXwXwXwXwXwXwXwXwXwXwXwXwXwXwXwXwXwXwXwXwXwXwXwXwXwXwXwXwXwXwXwXwXwXwXwXwXwXwXwXwXwXwXwXwXwXwXwXwXwXwXwXwXwXwXwXwXwXwXwXwXwXwXwXwXwXwXwXwX",
"wXwXwXwXwXwXwXwXwXwXwXwXwXwXwXwXwXwXwXwXwXwXwXwXwXwXwXwXwXwXwXwXwXwXwXwXwXwXwXwXwXwXwXwXwXwXwXwXwXwXwXwXwXwXwXwXwXwXwXwXwXwXwXwXwXwXwXwXwXwXwXwXwXwXwXwXwXwXwXwXwXwXwXwXwXwXwXwXwXwXwXwXwXwXwXwX$Xy.= = u d a u d n [ =.e.s.`.].H.u.3.$.[ J z u 8 6 , & & $ $ $ . . . . . . % [ S.}.}.|.>X6XwXwXwXwXwXwXwXwXwXwXwXwXwXwXwXwXwXwXwXwXwXwXwXwXwXwXwXwXwXwXwXwXwXwXwXwXwXwXwXwXwXwXwXwXwXwXwXwXwXwXwXwXwXwXwXwXwXwXwXwXwXwXwXwXwXwXwXwXwXwXwXwXwXwXwXwXwXwXwXwXwXwXwXwXwXwXwXwXwXwXwXwXwXwXwXwXwXwXwXwXwXwXwXwXwXwXwXwXwXwXwXwXwXwX",
"wXwXwXwXwXwXwXwXwXwXwXwXwXwXwXwXwXwXwXwXwXwXwXwXwXwXwXwXwXwXwXwXwXwXwXwXwXwXwXwXwXwXwXwXwXwXwXwXwXwXwXwXwXwXwXwXwXwXwXwXwXwXwXwXwXwXwXwXwXwXwXwXwXwXwXwXwXwXwXwXwXwXwXwXwXwXwXwXwXwXwXwXwXwXwXwX$Xu., , u d d a h N ] 7.p.`.}.@X}.}.(.w.*...U z j u 8 5 5 = = = % $ $ $ # # $ 6 d b V V ).1XwXwXwXwXwXwXwXwXwXwXwXwXwXwXwXwXwXwXwXwXwXwXwXwXwXwXwXwXwXwXwXwXwXwXwXwXwXwXwXwXwXwXwXwXwXwXwXwXwXwXwXwXwXwXwXwXwXwXwXwXwXwXwXwXwXwXwXwXwXwXwXwXwXwXwXwXwXwXwXwXwXwXwXwXwXwXwXwXwXwXwXwXwXwXwXwXwXwXwXwXwXwXwXwXwXwXwXwXwXwXwXwXwXwX",
"wXwXwXwXwXwXwXwXwXwXwXwXwXwXwXwXwXwXwXwXwXwXwXwXwXwXwXwXwXwXwXwXwXwXwXwXwXwXwXwXwXwXwXwXwXwXwXwXwXwXwXwXwXwXwXwXwXwXwXwXwXwXwXwXwXwXwXwXwXwXwXwXwXwXwXwXwXwXwXwXwXwXwXwXwXwXwXwXwXwXwXwXwXwXwXwX$Xy.5 , u b x d b N ] 7.i.`.}.$X$X$X XH.S.2.%.[ m n j i 6 8 6 8 8 6 5 5 5 , , * % + + * &.'.1X6XwXwXwXwXwXwXwXwXwXwXwXwXwXwXwXwXwXwXwXwXwXwXwXwXwXwXwXwXwXwXwXwXwXwXwXwXwXwXwXwXwXwXwXwXwXwXwXwXwXwXwXwXwXwXwXwXwXwXwXwXwXwXwXwXwXwXwXwXwXwXwXwXwXwXwXwXwXwXwXwXwXwXwXwXwXwXwXwXwXwXwXwXwXwXwXwXwXwXwXwXwXwXwXwXwXwXwXwXwXwXwXwX",
"wXwXwXwXwXwXwXwXwXwXwXwXwXwXwXwXwXwXwXwXwXwXwXwXwXwXwXwXwXwXwXwXwXwXwXwXwXwXwXwXwXwXwXwXwXwXwXwXwXwXwXwXwXwXwXwXwXwXwXwXwXwXwXwXwXwXwXwXwXwXwXwXwXwXwXwXwXwXwXwXwXwXwXwXwXwXwXwXwXwXwXwXwXwXwXwX$Xy., , y d b N V _ ] =.7.d.).}.|.$X+XXX'.S.w.7.@.] J n l l h l z m m J J z j j f u 7 7 m &.).1XwXwXwXwXwXwXwXwXwXwXwXwXwXwXwXwXwXwXwXwXwXwXwXwXwXwXwXwXwXwXwXwXwXwXwXwXwXwXwXwXwXwXwXwXwXwXwXwXwXwXwXwXwXwXwXwXwXwXwXwXwXwXwXwXwXwXwXwXwXwXwXwXwXwXwXwXwXwXwXwXwXwXwXwXwXwXwXwXwXwXwXwXwXwXwXwXwXwXwXwXwXwXwXwXwXwXwXwXwXwXwXwX",
"wXwXwXwXwXwXwXwXwXwXwXwXwXwXwXwXwXwXwXwXwXwXwXwXwXwXwXwXwXwXwXwXwXwXwXwXwXwXwXwXwXwXwXwXwXwXwXwXwXwXwXwXwXwXwXwXwXwXwXwXwXwXwXwXwXwXwXwXwXwXwXwXwXwXwXwXwXwXwXwXwXwXwXwXwXwXwXwXwXwXwXwXwXwXwXwX$Xr., = 4 d b ` ] ] ] ] | %.i.).].$X$X$X+XXX(.A.9.@.| [ U L L U  . .$.&.%.| Y U U D z 0 7 > b {.wXwXwXwXwXwXwXwXwXwXwXwXwXwXwXwXwXwXwXwXwXwXwXwXwXwXwXwXwXwXwXwXwXwXwXwXwXwXwXwXwXwXwXwXwXwXwXwXwXwXwXwXwXwXwXwXwXwXwXwXwXwXwXwXwXwXwXwXwXwXwXwXwXwXwXwXwXwXwXwXwXwXwXwXwXwXwXwXwXwXwXwXwXwXwXwXwXwXwXwXwXwXwXwXwXwXwXwXwXwXwXwX",
"wXwXwXwXwXwXwXwXwXwXwXwXwXwXwXwXwXwXwXwXwXwXwXwXwXwXwXwXwXwXwXwXwXwXwXwXwXwXwXwXwXwXwXwXwXwXwXwXwXwXwXwXwXwXwXwXwXwXwXwXwXwXwXwXwXwXwXwXwXwXwXwXwXwXwXwXwXwXwXwXwXwXwXwXwXwXwXwXwXwXwXwXwXwXwXwX$Xr.> + r d N ] ] ] } ] ] | 7.w.A.}.$X$X$X+X'.'.s.q.7.*.%.$.o.@.$.#.| | ] m b b h i 0 6 *   4 =.{.2X4XwXwXwXwXwXwXwXwXwXwXwXwXwXwXwXwXwXwXwXwXwXwXwXwXwXwXwXwXwXwXwXwXwXwXwXwXwXwXwXwXwXwXwXwXwXwXwXwXwXwXwXwXwXwXwXwXwXwXwXwXwXwXwXwXwXwXwXwXwXwXwXwXwXwXwXwXwXwXwXwXwXwXwXwXwXwXwXwXwXwXwXwXwXwXwXwXwXwXwXwXwXwXwXwXwXwXwXwXwX",
"wXwXwXwXwXwXwXwXwXwXwXwXwXwXwXwXwXwXwXwXwXwXwXwXwXwXwXwXwXwXwXwXwXwXwXwXwXwXwXwXwXwXwXwXwXwXwXwXwXwXwXwXwXwXwXwXwXwXwXwXwXwXwXwXwXwXwXwXwXwXwXwXwXwXwXwXwXwXwXwXwXwXwXwXwXwXwXwXwXwXwXwXwXwXwXwX$Xr.- % 4 d b ` ] | } ] V _ { $.0.S.|.$X$X$X$X|._.s.u.w.w.0.9.8.&.%.L a 7 4 > > * % % + o   + y V (.2XwXwXwXwXwXwXwXwXwXwXwXwXwXwXwXwXwXwXwXwXwXwXwXwXwXwXwXwXwXwXwXwXwXwXwXwXwXwXwXwXwXwXwXwXwXwXwXwXwXwXwXwXwXwXwXwXwXwXwXwXwXwXwXwXwXwXwXwXwXwXwXwXwXwXwXwXwXwXwXwXwXwXwXwXwXwXwXwXwXwXwXwXwXwXwXwXwXwXwXwXwXwXwXwXwXwXwXwXwX",
"wXwXwXwXwXwXwXwXwXwXwXwXwXwXwXwXwXwXwXwXwXwXwXwXwXwXwXwXwXwXwXwXwXwXwXwXwXwXwXwXwXwXwXwXwXwXwXwXwXwXwXwXwXwXwXwXwXwXwXwXwXwXwXwXwXwXwXwXwXwXwXwXwXwXwXwXwXwXwXwXwXwXwXwXwXwXwXwXwXwXwXwXwXwXwXwX>X^.d y y d b ` ] | | ] V V ` ] 7.a._.+X$X$X&X&X|._._.D.A.r.q.8.=.} x > + + @ @                 o | }.wXwXwXwXwXwXwXwXwXwXwXwXwXwXwXwXwXwXwXwXwXwXwXwXwXwXwXwXwXwXwXwXwXwXwXwXwXwXwXwXwXwXwXwXwXwXwXwXwXwXwXwXwXwXwXwXwXwXwXwXwXwXwXwXwXwXwXwXwXwXwXwXwXwXwXwXwXwXwXwXwXwXwXwXwXwXwXwXwXwXwXwXwXwXwXwXwXwXwXwXwXwXwXwXwXwXwXwXwX",
"wXwXwXwXwXwXwXwXwXwXwXwXwXwXwXwXwXwXwXwXwXwXwXwXwXwXwXwXwXwXwXwXwXwXwXwXwXwXwXwXwXwXwXwXwXwXwXwXwXwXwXwXwXwXwXwXwXwXwXwXwXwXwXwXwXwXwXwXwXwXwXwXwXwXwXwXwXwXwXwXwXwXwXwXwXwXwXwXwXwXwXwXwXwXwXwX6X=X`.<.V d N ] | +.$.+.+.+.+.$.9.S._.}.%X&X2X>X#X{._._.D.w.$.] b s 4 : + - : : : - @ o         @ d *._.>XwXwXwXwXwXwXwXwXwXwXwXwXwXwXwXwXwXwXwXwXwXwXwXwXwXwXwXwXwXwXwXwXwXwXwXwXwXwXwXwXwXwXwXwXwXwXwXwXwXwXwXwXwXwXwXwXwXwXwXwXwXwXwXwXwXwXwXwXwXwXwXwXwXwXwXwXwXwXwXwXwXwXwXwXwXwXwXwXwXwXwXwXwXwXwXwXwXwXwXwXwXwXwXwXwXwXwX",
"wXwXwXwXwXwXwXwXwXwXwXwXwXwXwXwXwXwXwXwXwXwXwXwXwXwXwXwXwXwXwXwXwXwXwXwXwXwXwXwXwXwXwXwXwXwXwXwXwXwXwXwXwXwXwXwXwXwXwXwXwXwXwXwXwXwXwXwXwXwXwXwXwXwXwXwXwXwXwXwXwXwXwXwXwXwXwXwXwXwXwXwXwXwXwXwXwXwXwX].@.d b ` } $.*.7.7.8.7.7.q.S._._.}.-X5X3X*XXXXX+X_.3.V y > @ @ + - > 3 3 4 3 : + o o   X + % > b _.wXwXwXwXwXwXwXwXwXwXwXwXwXwXwXwXwXwXwXwXwXwXwXwXwXwXwXwXwXwXwXwXwXwXwXwXwXwXwXwXwXwXwXwXwXwXwXwXwXwXwXwXwXwXwXwXwXwXwXwXwXwXwXwXwXwXwXwXwXwXwXwXwXwXwXwXwXwXwXwXwXwXwXwXwXwXwXwXwXwXwXwXwXwXwXwXwXwXwXwXwXwXwXwXwXwXwX",
"wXwXwXwXwXwXwXwXwXwXwXwXwXwXwXwXwXwXwXwXwXwXwXwXwXwXwXwXwXwXwXwXwXwXwXwXwXwXwXwXwXwXwXwXwXwXwXwXwXwXwXwXwXwXwXwXwXwXwXwXwXwXwXwXwXwXwXwXwXwXwXwXwXwXwXwXwXwXwXwXwXwXwXwXwXwXwXwXwXwXwXwXwXwXwXwXwXwXwX+X=.d b V | *.9.<.*.$.+.| =.w.d.(.'.$X>X5X,X$X$X@X/.=.d 2 - @ > < y y x d d y 4 > - - - > > > @ 4 2.}.@X+X$XqXwXwXwXwXwXwXwXwXwXwXwXwXwXwXwXwXwXwXwXwXwXwXwXwXwXwXwXwXwXwXwXwXwXwXwXwXwXwXwXwXwXwXwXwXwXwXwXwXwXwXwXwXwXwXwXwXwXwXwXwXwXwXwXwXwXwXwXwXwXwXwXwXwXwXwXwXwXwXwXwXwXwXwXwXwXwXwXwXwXwXwXwXwXwXwXwXwXwXwXwXwXwX",
"wXwXwXwXwXwXwXwXwXwXwXwXwXwXwXwXwXwXwXwXwXwXwXwXwXwXwXwXwXwXwXwXwXwXwXwXwXwXwXwXwXwXwXwXwXwXwXwXwXwXwXwXwXwXwXwXwXwXwXwXwXwXwXwXwXwXwXwXwXwXwXwXwXwXwXwXwXwXwXwXwXwXwXwXwXwXwXwXwXwXwXwXwXwXwXwXwXwXwX|.=.p b V | 9.w.7.| ] b h m | 9./.].+X#X$X$X2X$X'.A.+.r > ; ; r b V _ _ _ _ b p e 4 4 4 r r 7 , 7 n O.*.<.q.@XwXwXwXwXwXwXwXwXwXwXwXwXwXwXwXwXwXwXwXwXwXwXwXwXwXwXwXwXwXwXwXwXwXwXwXwXwXwXwXwXwXwXwXwXwXwXwXwXwXwXwXwXwXwXwXwXwXwXwXwXwXwXwXwXwXwXwXwXwXwXwXwXwXwXwXwXwXwXwXwXwXwXwXwXwXwXwXwXwXwXwXwXwXwXwXwXwXwXwXwXwXwX",
"wXwXwXwXwXwXwXwXwXwXwXwXwXwXwXwXwXwXwXwXwXwXwXwXwXwXwXwXwXwXwXwXwXwXwXwXwXwXwXwXwXwXwXwXwXwXwXwXwXwXwXwXwXwXwXwXwXwXwXwXwXwXwXwXwXwXwXwXwXwXwXwXwXwXwXwXwXwXwXwXwXwXwXwXwXwXwXwXwXwXwXwXwXwXwXwXwXwXwX+X$.p x V | 9.w.=.V h 6 & 0 b ..r.S.)._.}.+X>XXXS.7._ 2 1 e y _ +.=.=.=.+.] _ b i u r r r d i 7 7 6 , , 5 j ^.$XwXwXwXwXwXwXwXwXwXwXwXwXwXwXwXwXwXwXwXwXwXwXwXwXwXwXwXwXwXwXwXwXwXwXwXwXwXwXwXwXwXwXwXwXwXwXwXwXwXwXwXwXwXwXwXwXwXwXwXwXwXwXwXwXwXwXwXwXwXwXwXwXwXwXwXwXwXwXwXwXwXwXwXwXwXwXwXwXwXwXwXwXwXwXwXwXwXwXwXwXwX",
"wXwXwXwXwXwXwXwXwXwXwXwXwXwXwXwXwXwXwXwXwXwXwXwXwXwXwXwXwXwXwXwXwXwXwXwXwXwXwXwXwXwXwXwXwXwXwXwXwXwXwXwXwXwXwXwXwXwXwXwXwXwXwXwXwXwXwXwXwXwXwXwXwXwXwXwXwXwXwXwXwXwXwXwXwXwXwXwXwXwXwXwXwXwXwXwXwXwXwXoX$.t x B { $.*.' j 7 = & , 0 b | *.w.S.D.D._.S.8.+.b r c { =.q.s.s.w.q.*.+._ M x d u u u i u r 8 7 7 8 u b 7.(.@X2X8X5X1X=X-X[._.'._.'._.].&X&X-X-X-X].].>XwXwXwXwXwXwXwXwXwXwXwXwXwXwXwXwXwXwXwXwXwXwXwXwXwXwXwXwXwXwXwXwXwXwXwXwXwXwXwXwXwXwXwXwXwXwXwXwXwXwXwXwXwXwXwXwXwXwXwXwXwXwXwXwXwXwXwXwXwXwXwXwXwXwXwXwXwXwXwX",
"wXwXwXwXwXwXwXwXwXwXwXwXwXwXwXwXwXwXwXwXwXwXwXwXwXwXwXwXwXwXwXwXwXwXwXwXwXwXwXwXwXwXwXwXwXwXwXwXwXwXwXwXwXwXwXwXwXwXwXwXwXwXwXwXwXwXwXwXwXwXwXwXwXwXwXwXwXwXwXwXwXwXwXwXwXwXwXwXwXwXwXwXwXwXwXwXwXwXwXoX+.e d b _ { ] b 6 & & $ % & 5 i n | 2.r.0.2.@.` x d c | w./.[.oX{.^.a.q.+._ N c x i i i q y u y u i d b N V V <.].2X&X'.S.9.' B M b M b X.w.s.i.r.2.T J ).wXwXwXwXwXwXwXwXwXwXwXwXwXwXwXwXwXwXwXwXwXwXwXwXwXwXwXwXwXwXwXwXwXwXwXwXwXwXwXwXwXwXwXwXwXwXwXwXwXwXwXwXwXwXwXwXwXwXwXwXwXwXwXwXwXwXwXwXwXwXwXwXwXwXwXwXwXwXwX",
"wXwXwXwXwXwXwXwXwXwXwXwXwXwXwXwXwXwXwXwXwXwXwXwXwXwXwXwXwXwXwXwXwXwXwXwXwXwXwXwXwXwXwXwXwXwXwXwXwXwXwXwXwXwXwXwXwXwXwXwXwXwXwXwXwXwXwXwXwXwXwXwXwXwXwXwXwXwXwXwXwXwXwXwXwXwXwXwXwXwXwXwXwXwXwXwXwXwXwXXX| 4 s b V ] ] l 6 = % # # # & = 7 b  ...| } ` b c ` ..e.).@X$X$X+X{.).q.$._ M d i i a u 8 y i h h h c b b c x +.).2X#X].i.$.b p 4 3 e a V $.*.=.o.V 9 5 p.wXwXwXwXwXwXwXwXwXwXwXwXwXwXwXwXwXwXwXwXwXwXwXwXwXwXwXwXwXwXwXwXwXwXwXwXwXwXwXwXwXwXwXwXwXwXwXwXwXwXwXwXwXwXwXwXwXwXwXwXwXwXwXwXwXwXwXwXwXwXwXwXwXwXwXwXwXwXwX",
"wXwXwXwXwXwXwXwXwXwXwXwXwXwXwXwXwXwXwXwXwXwXwXwXwXwXwXwXwXwXwXwXwXwXwXwXwXwXwXwXwXwXwXwXwXwXwXwXwXwXwXwXwXwXwXwXwXwXwXwXwXwXwXwXwXwXwXwXwXwXwXwXwXwXwXwXwXwXwXwXwXwXwXwXwXwXwXwXwXwXwXwXwXwXwXwXwXwXwX|.+.4 y v V { | m u 6 = # # # & & , 7 f b b b n V | 8./.'.$X5X3X5X*X+X'.S.7.] x e 7 7 r 8 r i h c c c d d i c b 7.).2X&XoX_.w.+.N y 4 b | $.$.$.| } b 6 5 A.wXwXwXwXwXwXwXwXwXwXwXwXwXwXwXwXwXwXwXwXwXwXwXwXwXwXwXwXwXwXwXwXwXwXwXwXwXwXwXwXwXwXwXwXwXwXwXwXwXwXwXwXwXwXwXwXwXwXwXwXwXwXwXwXwXwXwXwXwXwXwXwXwXwXwXwXwXwXwX",
"wXwXwXwXwXwXwXwXwXwXwXwXwXwXwXwXwXwXwXwXwXwXwXwXwXwXwXwXwXwXwXwXwXwXwXwXwXwXwXwXwXwXwXwXwXwXwXwXwXwXwXwXwXwXwXwXwXwXwXwXwXwXwXwXwXwXwXwXwXwXwXwXwXwXwXwXwXwXwXwXwXwXwXwXwXwXwXwXwXwXwXwXwXwXwXwXwXwXwX+X| 3 y d V | $.] l 0 5 % # # $ # $ & , 5 8 8 c ] *.S.oX2X4X4X4X6X4X*X+X(.7.] d ; = 6 7 7 y i n N n c d y y c ` 8._.>X$X#X].A.9.| i y ] 9.2.$.] ] V d , 6 A.wXwXwXwXwXwXwXwXwXwXwXwXwXwXwXwXwXwXwXwXwXwXwXwXwXwXwXwXwXwXwXwXwXwXwXwXwXwXwXwXwXwXwXwXwXwXwXwXwXwXwXwXwXwXwXwXwXwXwXwXwXwXwXwXwXwXwXwXwXwXwXwXwXwXwXwXwXwXwX",
"wXwXwXwXwXwXwXwXwXwXwXwXwXwXwXwXwXwXwXwXwXwXwXwXwXwXwXwXwXwXwXwXwXwXwXwXwXwXwXwXwXwXwXwXwXwXwXwXwXwXwXwXwXwXwXwXwXwXwXwXwXwXwXwXwXwXwXwXwXwXwXwXwXwXwXwXwXwXwXwXwXwXwXwXwXwXwXwXwXwXwXwXwXwXwXwXwXwXwX|.| 3 y a M ] | ] U b 0 , & $ # $ $ & & & 6 r M | 8.S.+X3X6X6X4X4X4X5X@X(.=.V y , 6 y d i i d c b c b c x x c V *.).$X#X}.`.s.q.+.V d ] $...] V b v 0 = 5 A.wXwXwXwXwXwXwXwXwXwXwXwXwXwXwXwXwXwXwXwXwXwXwXwXwXwXwXwXwXwXwXwXwXwXwXwXwXwXwXwXwXwXwXwXwXwXwXwXwXwXwXwXwXwXwXwXwXwXwXwXwXwXwXwXwXwXwXwXwXwXwXwXwXwXwXwXwXwXwX",
"wXwXwXwXwXwXwXwXwXwXwXwXwXwXwXwXwXwXwXwXwXwXwXwXwXwXwXwXwXwXwXwXwXwXwXwXwXwXwXwXwXwXwXwXwXwXwXwXwXwXwXwXwXwXwXwXwXwXwXwXwXwXwXwXwXwXwXwXwXwXwXwXwXwXwXwXwXwXwXwXwXwXwXwXwXwXwXwXwXwXwXwXwXwXwXwXwXwXwXoX .3 4 p b V  .| $.] j 7 5 & # # # $ & = 6 0 m =.r.'.#X3X4X4X4XqX7X4X*X/.| i r 5 7 h b b h d d c b b n N N N b @.D.}.[._.`.i.w.*.{ _ _ _ g.B b d p 4 = 5 p.wXwXwXwXwXwXwXwXwXwXwXwXwXwXwXwXwXwXwXwXwXwXwXwXwXwXwXwXwXwXwXwXwXwXwXwXwXwXwXwXwXwXwXwXwXwXwXwXwXwXwXwXwXwXwXwXwXwXwXwXwXwXwXwXwXwXwXwXwXwXwXwXwXwXwXwXwXwXwX",
"wXwXwXwXwXwXwXwXwXwXwXwXwXwXwXwXwXwXwXwXwXwXwXwXwXwXwXwXwXwXwXwXwXwXwXwXwXwXwXwXwXwXwXwXwXwXwXwXwXwXwXwXwXwXwXwXwXwXwXwXwXwXwXwXwXwXwXwXwXwXwXwXwXwXwXwXwXwXwXwXwXwXwXwXwXwXwXwXwXwXwXwXwXwXwXwXwXwXwX|.| > 9 p d N L } o.| L f 8 & $ & # & & = 6 u V =.u._.@X,X4X6X6X7X6X>X|.0.n u h c L | @.] V N c x b b V m V N N | 0.A.s.s.w.<.*.+._ M b x d d s y 4 1 * 6 3.}.2X9XwXwXwXwXwXwXwXwXwXwXwXwXwXwXwXwXwXwXwXwXwXwXwXwXwXwXwXwXwXwXwXwXwXwXwXwXwXwXwXwXwXwXwXwXwXwXwXwXwXwXwXwXwXwXwXwXwXwXwXwXwXwXwXwXwXwXwXwXwXwXwXwXwXwXwXwX",
"wXwXwXwXwXwXwXwXwXwXwXwXwXwXwXwXwXwXwXwXwXwXwXwXwXwXwXwXwXwXwXwXwXwXwXwXwXwXwXwXwXwXwXwXwXwXwXwXwXwXwXwXwXwXwXwXwXwXwXwXwXwXwXwXwXwXwXwXwXwXwXwXwXwXwXwXwXwXwXwXwXwXwXwXwXwXwXwXwXwXwXwXwXwXwXwXwXwXwX|.| 3 y d b n V ]  . . .U z 6 & & $ & & 5 5 7 b ..9.S.{.@X,X4X4X4X>XD.O.N 8 i | 9.r./.s.9.@.] V b b d b b ` ] ] +.=.&.*.+.} _ b c y e e e 4 < < 1 > > * < J 9._.6XwXwXwXwXwXwXwXwXwXwXwXwXwXwXwXwXwXwXwXwXwXwXwXwXwXwXwXwXwXwXwXwXwXwXwXwXwXwXwXwXwXwXwXwXwXwXwXwXwXwXwXwXwXwXwXwXwXwXwXwXwXwXwXwXwXwXwXwXwXwXwXwXwXwXwXwX",
"wXwXwXwXwXwXwXwXwXwXwXwXwXwXwXwXwXwXwXwXwXwXwXwXwXwXwXwXwXwXwXwXwXwXwXwXwXwXwXwXwXwXwXwXwXwXwXwXwXwXwXwXwXwXwXwXwXwXwXwXwXwXwXwXwXwXwXwXwXwXwXwXwXwXwXwXwXwXwXwXwXwXwXwXwXwXwXwXwXwXwXwXwXwXwXwXwXwXwX+X+.< y x b b n b V ] ..$.L 0 = & $ & 5 5 5 5 h } 7.w./.'.+X-X5X4XoX$.= & $ h 9.}.+X$X}.D.0.$.] N b a b b ` } @.@.{ _ b x i e 2 > - + + @ + + + + - * > 3 4 4 $.|.wXwXwXwXwXwXwXwXwXwXwXwXwXwXwXwXwXwXwXwXwXwXwXwXwXwXwXwXwXwXwXwXwXwXwXwXwXwXwXwXwXwXwXwXwXwXwXwXwXwXwXwXwXwXwXwXwXwXwXwXwXwXwXwXwXwXwXwXwXwXwXwXwXwXwXwX",
"wXwXwXwXwXwXwXwXwXwXwXwXwXwXwXwXwXwXwXwXwXwXwXwXwXwXwXwXwXwXwXwXwXwXwXwXwXwXwXwXwXwXwXwXwXwXwXwXwXwXwXwXwXwXwXwXwXwXwXwXwXwXwXwXwXwXwXwXwXwXwXwXwXwXwXwXwXwXwXwXwXwXwXwXwXwXwXwXwXwXwXwXwXwXwXwXwXwXwX|.$.4 u d h x c c b V ] | ] n h 7 5 5 = = , , i ] =.9.r./._.].@X>X].X.& & = n y.+X$X>X>X|.).i.9.#.U b b b m ] | | ] _ N c p y e 1 > > 3 > 3 4 4 4 4 4 y y y 4 m e.|.2X6XwXwXwXwXwXwXwXwXwXwXwXwXwXwXwXwXwXwXwXwXwXwXwXwXwXwXwXwXwXwXwXwXwXwXwXwXwXwXwXwXwXwXwXwXwXwXwXwXwXwXwXwXwXwXwXwXwXwXwXwXwXwXwXwXwXwXwXwXwXwXwXwXwX",
"wXwXwXwXwXwXwXwXwXwXwXwXwXwXwXwXwXwXwXwXwXwXwXwXwXwXwXwXwXwXwXwXwXwXwXwXwXwXwXwXwXwXwXwXwXwXwXwXwXwXwXwXwXwXwXwXwXwXwXwXwXwXwXwXwXwXwXwXwXwXwXwXwXwXwXwXwXwXwXwXwXwXwXwXwXwXwXwXwXwXwXwXwXwXwXwXwXwXwXXX=.y s a d d d a a x V ] } .. .n 8 5 = & & , u V +.7.w.d.^.(.[.+XA.L & 5 q [ H.$X>X7X7X>X}.].A.w.%.' V b c V ] ] { ] _ M x p y y r y y y a v b v b l b b a p a V .._.2XwXwXwXwXwXwXwXwXwXwXwXwXwXwXwXwXwXwXwXwXwXwXwXwXwXwXwXwXwXwXwXwXwXwXwXwXwXwXwXwXwXwXwXwXwXwXwXwXwXwXwXwXwXwXwXwXwXwXwXwXwXwXwXwXwXwXwXwXwXwXwXwXwX",
"wXwXwXwXwXwXwXwXwXwXwXwXwXwXwXwXwXwXwXwXwXwXwXwXwXwXwXwXwXwXwXwXwXwXwXwXwXwXwXwXwXwXwXwXwXwXwXwXwXwXwXwXwXwXwXwXwXwXwXwXwXwXwXwXwXwXwXwXwXwXwXwXwXwXwXwXwXwXwXwXwXwXwXwXwXwXwXwXwXwXwXwXwXwXwXwXwXwXwXXX$.y u a d a a u y a b V ] $.@.L l 0 = $ & 5 u V | =.9.w.w.d.S.S.2.n & 6 l ..A.}.>X7X7X6X>X$X}.).w.$.] V c M V ` { { { { ] M c c x x b b m V g.g.g.V V V b d p 4 4 e.+XwXwXwXwXwXwXwXwXwXwXwXwXwXwXwXwXwXwXwXwXwXwXwXwXwXwXwXwXwXwXwXwXwXwXwXwXwXwXwXwXwXwXwXwXwXwXwXwXwXwXwXwXwXwXwXwXwXwXwXwXwXwXwXwXwXwXwXwXwXwXwXwXwX",
"wXwXwXwXwXwXwXwXwXwXwXwXwXwXwXwXwXwXwXwXwXwXwXwXwXwXwXwXwXwXwXwXwXwXwXwXwXwXwXwXwXwXwXwXwXwXwXwXwXwXwXwXwXwXwXwXwXwXwXwXwXwXwXwXwXwXwXwXwXwXwXwXwXwXwXwXwXwXwXwXwXwXwXwXwXwXwXwXwXwXwXwXwXwXwXwXwXwXwX|.| , y d x d d a p s d b V  .[ [ [ j , $ , 6 i V { +.=.9.q.w.8.%.` u 5 r n ..q.D.}.>X4X4X6X1X$X}.).d.*. .V N N _ { +.$.7.7.=.+.] _ V ] { } | | |  .] ] V m b d y y ] i.{.6XwXwXwXwXwXwXwXwXwXwXwXwXwXwXwXwXwXwXwXwXwXwXwXwXwXwXwXwXwXwXwXwXwXwXwXwXwXwXwXwXwXwXwXwXwXwXwXwXwXwXwXwXwXwXwXwXwXwXwXwXwXwXwXwXwXwXwXwXwXwXwX",
"wXwXwXwXwXwXwXwXwXwXwXwXwXwXwXwXwXwXwXwXwXwXwXwXwXwXwXwXwXwXwXwXwXwXwXwXwXwXwXwXwXwXwXwXwXwXwXwXwXwXwXwXwXwXwXwXwXwXwXwXwXwXwXwXwXwXwXwXwXwXwXwXwXwXwXwXwXwXwXwXwXwXwXwXwXwXwXwXwXwXwXwXwXwXwXwXwXwXwX|.[ = 7 c b c d a p p a b b b L | &.J 6 $ 5 7 h V ] | +.=.*.7.{ c 8 6 , u m | =.w._.$X>X6X4X4X1X$X}.).d.%.` _ b _ ] @.8.p.a.w.9.*.#. .+.$.$.=.%.$.+.| ] V V V b s t y d #.oXwXwXwXwXwXwXwXwXwXwXwXwXwXwXwXwXwXwXwXwXwXwXwXwXwXwXwXwXwXwXwXwXwXwXwXwXwXwXwXwXwXwXwXwXwXwXwXwXwXwXwXwXwXwXwXwXwXwXwXwXwXwXwXwXwXwXwXwXwXwXwX",
"wXwXwXwXwXwXwXwXwXwXwXwXwXwXwXwXwXwXwXwXwXwXwXwXwXwXwXwXwXwXwXwXwXwXwXwXwXwXwXwXwXwXwXwXwXwXwXwXwXwXwXwXwXwXwXwXwXwXwXwXwXwXwXwXwXwXwXwXwXwXwXwXwXwXwXwXwXwXwXwXwXwXwXwXwXwXwXwXwXwXwXwXwXwXwXwXwXwXwX1XD.%.[ b x d d a y p a a d x n [ ..n 6 % , 7 u b _ _ ] | $.$.` a 8 6 5 u N U  ...r.`.}.>X6X4X4X1X$X}.).d.%.@.] { $.7.r.A.D.w.q.&.| ] ] ] ] ' ' V b b b v b b v t 3 4 t V a.*X7X9XwXwXwXwXwXwXwXwXwXwXwXwXwXwXwXwXwXwXwXwXwXwXwXwXwXwXwXwXwXwXwXwXwXwXwXwXwXwXwXwXwXwXwXwXwXwXwXwXwXwXwXwXwXwXwXwXwXwXwXwXwXwXwXwXwXwXwXwX",
"wXwXwXwXwXwXwXwXwXwXwXwXwXwXwXwXwXwXwXwXwXwXwXwXwXwXwXwXwXwXwXwXwXwXwXwXwXwXwXwXwXwXwXwXwXwXwXwXwXwXwXwXwXwXwXwXwXwXwXwXwXwXwXwXwXwXwXwXwXwXwXwXwXwXwXwXwXwXwXwXwXwXwXwXwXwXwXwXwXwXwXwXwXwXwXwXwXwXwX4X2X|.i.V d i p p y y y p a d x M L i , $ = 5 r i x b _ ] { { N d y 6 6 u b N b c } 8.A.|.1X4X6X4X>X$X}.(.d.2.%.=.2.w.d.C.r.w.9.$.] V B v d y y 4 3 3 e t p s y 1 - > t b $.e.XX6XwXwXwXwXwXwXwXwXwXwXwXwXwXwXwXwXwXwXwXwXwXwXwXwXwXwXwXwXwXwXwXwXwXwXwXwXwXwXwXwXwXwXwXwXwXwXwXwXwXwXwXwXwXwXwXwXwXwXwXwXwXwXwXwXwXwXwXwX",
"wXwXwXwXwXwXwXwXwXwXwXwXwXwXwXwXwXwXwXwXwXwXwXwXwXwXwXwXwXwXwXwXwXwXwXwXwXwXwXwXwXwXwXwXwXwXwXwXwXwXwXwXwXwXwXwXwXwXwXwXwXwXwXwXwXwXwXwXwXwXwXwXwXwXwXwXwXwXwXwXwXwXwXwXwXwXwXwXwXwXwXwXwXwXwXwXwXwXwXwXwXwX).n p p y y y y y y p d x x h 8 & $ & & 5 r p x c M V _ c a 8 6 8 u h d y 4 h ] *.a.|.>X2X4X4X>X$X}.).A.r.e.r.r.r.r.e.7.%.| ] B d 4 3 > + @   o - > 4 9 4 * X * A s b g.y.-XwXwXwXwXwXwXwXwXwXwXwXwXwXwXwXwXwXwXwXwXwXwXwXwXwXwXwXwXwXwXwXwXwXwXwXwXwXwXwXwXwXwXwXwXwXwXwXwXwXwXwXwXwXwXwXwXwXwXwXwXwXwXwXwXwXwXwXwX",
"wXwXwXwXwXwXwXwXwXwXwXwXwXwXwXwXwXwXwXwXwXwXwXwXwXwXwXwXwXwXwXwXwXwXwXwXwXwXwXwXwXwXwXwXwXwXwXwXwXwXwXwXwXwXwXwXwXwXwXwXwXwXwXwXwXwXwXwXwXwXwXwXwXwXwXwXwXwXwXwXwXwXwXwXwXwXwXwXwXwXwXwXwXwXwXwXwXwXwXwXwXwX(.h 6 y p p y y t 4 p d b d d 7 , & & & = 5 7 r u d c c i r 7 7 7 r i a 7 , r c { 2.a.}.&X>X2X6X1X%X|.}.(.D.A.w.q.8.*.#. .] ] V p > + @ o       o @ : > > - + > 1 y h m #.d.{.1XwXwXwXwXwXwXwXwXwXwXwXwXwXwXwXwXwXwXwXwXwXwXwXwXwXwXwXwXwXwXwXwXwXwXwXwXwXwXwXwXwXwXwXwXwXwXwXwXwXwXwXwXwXwXwXwXwXwXwXwXwXwXwXwXwXwX",
"wXwXwXwXwXwXwXwXwXwXwXwXwXwXwXwXwXwXwXwXwXwXwXwXwXwXwXwXwXwXwXwXwXwXwXwXwXwXwXwXwXwXwXwXwXwXwXwXwXwXwXwXwXwXwXwXwXwXwXwXwXwXwXwXwXwXwXwXwXwXwXwXwXwXwXwXwXwXwXwXwXwXwXwXwXwXwXwXwXwXwXwXwXwXwXwXwXwXwXwXwXwXS.8 5 y d s y y y 4 p c b h p 7 , & $ $ % & = = 6 7 r a r , 5 8 u r r 6 6 = 5 7 h { =.s.}.@X>X6X4X2X>X@XXX'.A.2.7.%.| ] V V ] V y @                     + - > > > < p b Z A C {.wXwXwXwXwXwXwXwXwXwXwXwXwXwXwXwXwXwXwXwXwXwXwXwXwXwXwXwXwXwXwXwXwXwXwXwXwXwXwXwXwXwXwXwXwXwXwXwXwXwXwXwXwXwXwXwXwXwXwXwXwXwXwXwXwXwX",
"wXwXwXwXwXwXwXwXwXwXwXwXwXwXwXwXwXwXwXwXwXwXwXwXwXwXwXwXwXwXwXwXwXwXwXwXwXwXwXwXwXwXwXwXwXwXwXwXwXwXwXwXwXwXwXwXwXwXwXwXwXwXwXwXwXwXwXwXwXwXwXwXwXwXwXwXwXwXwXwXwXwXwXwXwXwXwXwXwXwXwXwXwXwXwXwXwXwXwXwXwXwXA.6 5 h V b a p y 4 p l l d p e ; % & & & & & & = 5 r r 4 , 6 r u 7 6 5 5 = 5 8 r c U *.s.'.oX*X*X5X2X$X|._.0.$.{ ` b x d x B b 4 o                     o - 1 > > > y h A X t ).wXwXwXwXwXwXwXwXwXwXwXwXwXwXwXwXwXwXwXwXwXwXwXwXwXwXwXwXwXwXwXwXwXwXwXwXwXwXwXwXwXwXwXwXwXwXwXwXwXwXwXwXwXwXwXwXwXwXwXwXwXwXwXwXwXwX",
"wXwXwXwXwXwXwXwXwXwXwXwXwXwXwXwXwXwXwXwXwXwXwXwXwXwXwXwXwXwXwXwXwXwXwXwXwXwXwXwXwXwXwXwXwXwXwXwXwXwXwXwXwXwXwXwXwXwXwXwXwXwXwXwXwXwXwXwXwXwXwXwXwXwXwXwXwXwXwXwXwXwXwXwXwXwXwXwXwXwXwXwXwXwXwXwXwXwXwXwXwXwXD.7 7 ] $.] b a y 4 p d h d d 7 = % = 6 5 % $ & & = 1 1 , 5 6 r 8 8 5 = 5 5 6 7 u u r M +.9.S.|.@X&X&XXX_.A.=.N c r t e 3 y d s 3                       X > A 4 > > 4 y 3 X y ).wXwXwXwXwXwXwXwXwXwXwXwXwXwXwXwXwXwXwXwXwXwXwXwXwXwXwXwXwXwXwXwXwXwXwXwXwXwXwXwXwXwXwXwXwXwXwXwXwXwXwXwXwXwXwXwXwXwXwXwXwXwXwXwXwXwX",
"wXwXwXwXwXwXwXwXwXwXwXwXwXwXwXwXwXwXwXwXwXwXwXwXwXwXwXwXwXwXwXwXwXwXwXwXwXwXwXwXwXwXwXwXwXwXwXwXwXwXwXwXwXwXwXwXwXwXwXwXwXwXwXwXwXwXwXwXwXwXwXwXwXwXwXwXwXwXwXwXwXwXwXwXwXwXwXwXwXwXwXwXwXwXwXwXwXwXwXwXwXwXA.7 0  .9.#.V b s t y i i a a 7 % + 5 r 8 = $ $ $ & & & 5 6 7 8 7 5 = & 5 5 8 r 8 6 = 7 x ] 8.S._.+X%X|.).w.[ s A 3 * - + > A 4 >                       o 2 y 4 > * 2 4 1 + p S.wXwXwXwXwXwXwXwXwXwXwXwXwXwXwXwXwXwXwXwXwXwXwXwXwXwXwXwXwXwXwXwXwXwXwXwXwXwXwXwXwXwXwXwXwXwXwXwXwXwXwXwXwXwXwXwXwXwXwXwXwXwXwXwXwXwX",
"wXwXwXwXwXwXwXwXwXwXwXwXwXwXwXwXwXwXwXwXwXwXwXwXwXwXwXwXwXwXwXwXwXwXwXwXwXwXwXwXwXwXwXwXwXwXwXwXwXwXwXwXwXwXwXwXwXwXwXwXwXwXwXwXwXwXwXwXwXwXwXwXwXwXwXwXwXwXwXwXwXwXwXwXwXwXwXwXwXwXwXwXwXwXwXwXwXwXwXwXwXwXD.6 0 ] %.#.| _ x y y y y u u < % $ = 7 8 8 6 5 $ $ & & 5 r r r 6 5 = = 6 7 6 7 6 5 & 5 u b +.7.a.'.}.).d.=.C t < > > - + > 2 1 +                       o > y < > > > 1 2 4 i $.H.-X4XwXwXwXwXwXwXwXwXwXwXwXwXwXwXwXwXwXwXwXwXwXwXwXwXwXwXwXwXwXwXwXwXwXwXwXwXwXwXwXwXwXwXwXwXwXwXwXwXwXwXwXwXwXwXwXwXwXwXwXwXwXwXwX",
"wXwXwXwXwXwXwXwXwXwXwXwXwXwXwXwXwXwXwXwXwXwXwXwXwXwXwXwXwXwXwXwXwXwXwXwXwXwXwXwXwXwXwXwXwXwXwXwXwXwXwXwXwXwXwXwXwXwXwXwXwXwXwXwXwXwXwXwXwXwXwXwXwXwXwXwXwXwXwXwXwXwXwXwXwXwXwXwXwXwXwXwXwXwXwXwXwXwXwXwXwXwXS.7 7 B | #.=.| B p y 7 e 4 7 , % + & 5 8 i f 6 $ # $ & 7 d h 6 , , = = 6 r 7 5 = = & 5 e i N ] 7.a.).i.=.' d 1 1 3 1 - @ + > * X                       o > 4 < > : * : 4 d b d a e.*XwXwXwXwXwXwXwXwXwXwXwXwXwXwXwXwXwXwXwXwXwXwXwXwXwXwXwXwXwXwXwXwXwXwXwXwXwXwXwXwXwXwXwXwXwXwXwXwXwXwXwXwXwXwXwXwXwXwXwXwXwXwXwX",
"wXwXwXwXwXwXwXwXwXwXwXwXwXwXwXwXwXwXwXwXwXwXwXwXwXwXwXwXwXwXwXwXwXwXwXwXwXwXwXwXwXwXwXwXwXwXwXwXwXwXwXwXwXwXwXwXwXwXwXwXwXwXwXwXwXwXwXwXwXwXwXwXwXwXwXwXwXwXwXwXwXwXwXwXwXwXwXwXwXwXwXwXwXwXwXwXwXwXwXwXwXwXD.6 , a B { %.$.' b i p e 4 < , + + & , 7 u f 7 5 & $ $ 6 h i 7 = = = 5 7 u 7 5 , = , , 7 y x b +.w./.9.} b t 1 1 4 1 - @ + - + o         @ > < 4 < 4 A p v b p > + + + 1 p d > o | +XwXwXwXwXwXwXwXwXwXwXwXwXwXwXwXwXwXwXwXwXwXwXwXwXwXwXwXwXwXwXwXwXwXwXwXwXwXwXwXwXwXwXwXwXwXwXwXwXwXwXwXwXwXwXwXwXwXwXwXwXwXwXwX",
"wXwXwXwXwXwXwXwXwXwXwXwXwXwXwXwXwXwXwXwXwXwXwXwXwXwXwXwXwXwXwXwXwXwXwXwXwXwXwXwXwXwXwXwXwXwXwXwXwXwXwXwXwXwXwXwXwXwXwXwXwXwXwXwXwXwXwXwXwXwXwXwXwXwXwXwXwXwXwXwXwXwXwXwXwXwXwXwXwXwXwXwXwXwXwXwXwXwXwXwXwXwXD.6 & < y b } +.|  .V a y 4 > > $ $ $ = , 6 7 7 r 7 , ; 7 i f 6 = , 5 6 7 u 6 = = 5 7 7 7 p d b } 9.d.=.V s t > < 4 1 - X + + + @       o e V { { | o.O.*.*.*.V <     o + > > + o | +XwXwXwXwXwXwXwXwXwXwXwXwXwXwXwXwXwXwXwXwXwXwXwXwXwXwXwXwXwXwXwXwXwXwXwXwXwXwXwXwXwXwXwXwXwXwXwXwXwXwXwXwXwXwXwXwXwXwXwXwXwXwXwX",
"wXwXwXwXwXwXwXwXwXwXwXwXwXwXwXwXwXwXwXwXwXwXwXwXwXwXwXwXwXwXwXwXwXwXwXwXwXwXwXwXwXwXwXwXwXwXwXwXwXwXwXwXwXwXwXwXwXwXwXwXwXwXwXwXwXwXwXwXwXwXwXwXwXwXwXwXwXwXwXwXwXwXwXwXwXwXwXwXwXwXwXwXwXwXwXwXwXwXwXwXwXwXA.7 # + > s V | =.*.] l y 4 > > + # $ ; ; & = 7 f r 1 ; 7 i r 8 , 5 5 6 8 r 6 , = 6 7 0 u i d v ] *.9.#.v t 4 3 < 4 > * X @ + + X       - b *.w.w.e.A.`.(.(.r.| A             o   ..+XwXwXwXwXwXwXwXwXwXwXwXwXwXwXwXwXwXwXwXwXwXwXwXwXwXwXwXwXwXwXwXwXwXwXwXwXwXwXwXwXwXwXwXwXwXwXwXwXwXwXwXwXwXwXwXwXwXwXwXwXwXwXwX",
"wXwXwXwXwXwXwXwXwXwXwXwXwXwXwXwXwXwXwXwXwXwXwXwXwXwXwXwXwXwXwXwXwXwXwXwXwXwXwXwXwXwXwXwXwXwXwXwXwXwXwXwXwXwXwXwXwXwXwXwXwXwXwXwXwXwXwXwXwXwXwXwXwXwXwXwXwXwXwXwXwXwXwXwXwXwXwXwXwXwXwXwXwXwXwXwXwXwXwXwXwXwXA.7 . @ + e d _ +.*.#.] b p 1 > % # & = , & = 5 7 < > , e u u 6 5 = 5 6 8 7 6 = = 6 7 y u a b V } *.9.} d 4 < > > 4 3 : + : > > @   o + e M %.9.w.w.A.H.p.u.0.#.v 4 > @ X + + @ @ $.+XwXwXwXwXwXwXwXwXwXwXwXwXwXwXwXwXwXwXwXwXwXwXwXwXwXwXwXwXwXwXwXwXwXwXwXwXwXwXwXwXwXwXwXwXwXwXwXwXwXwXwXwXwXwXwXwXwXwXwXwXwXwXwX",
"wXwXwXwXwXwXwXwXwXwXwXwXwXwXwXwXwXwXwXwXwXwXwXwXwXwXwXwXwXwXwXwXwXwXwXwXwXwXwXwXwXwXwXwXwXwXwXwXwXwXwXwXwXwXwXwXwXwXwXwXwXwXwXwXwXwXwXwXwXwXwXwXwXwXwXwXwXwXwXwXwXwXwXwXwXwXwXwXwXwXwXwXwXwXwXwXwXwXwXwXwXwXD.6 # + + > e v  .=.%.$.] h < > % $ , 7 5 5 = & % & > 2 r r r 5 = 5 5 6 7 6 5 = = 6 y u u d n ] #.*.8.] s < > : > 4 < > - > 4 4 > o + 4 d B } =.w.y.y.y.w.q.7.$.} V p > * 1 > > + &.#XwXwXwXwXwXwXwXwXwXwXwXwXwXwXwXwXwXwXwXwXwXwXwXwXwXwXwXwXwXwXwXwXwXwXwXwXwXwXwXwXwXwXwXwXwXwXwXwXwXwXwXwXwXwXwXwXwXwXwXwXwXwXwX",
"wXwXwXwXwXwXwXwXwXwXwXwXwXwXwXwXwXwXwXwXwXwXwXwXwXwXwXwXwXwXwXwXwXwXwXwXwXwXwXwXwXwXwXwXwXwXwXwXwXwXwXwXwXwXwXwXwXwXwXwXwXwXwXwXwXwXwXwXwXwXwXwXwXwXwXwXwXwXwXwXwXwXwXwXwXwXwXwXwXwXwXwXwXwXwXwXwXwXwXwXwXwXD.6 # + + ; > y V +.+.=.+._ e > & $ 5 r 6 5 5 & $ ; , 2 7 y y 5 , 5 5 6 5 5 5 = = 6 u u i b ] +.$.=.#.V y 3 > : > 4 < > + > 4 e +   + 7 d B _ +.7.0.w.d.q.7.+.| | ] a > > < < 3 > | `.*X6XwXwXwXwXwXwXwXwXwXwXwXwXwXwXwXwXwXwXwXwXwXwXwXwXwXwXwXwXwXwXwXwXwXwXwXwXwXwXwXwXwXwXwXwXwXwXwXwXwXwXwXwXwXwXwXwXwXwXwXwXwX",
"wXwXwXwXwXwXwXwXwXwXwXwXwXwXwXwXwXwXwXwXwXwXwXwXwXwXwXwXwXwXwXwXwXwXwXwXwXwXwXwXwXwXwXwXwXwXwXwXwXwXwXwXwXwXwXwXwXwXwXwXwXwXwXwXwXwXwXwXwXwXwXwXwXwXwXwXwXwXwXwXwXwXwXwXwXwXwXwXwXwXwXwXwXwXwXwXwXwXwXwXwXwXA.7 $ > > > - 4 p b _ +.+._ c r = $ = 5 5 6 6 5 , , 2 2 7 u y 5 & 5 6 6 5 5 5 = = 6 0 a b L +.*.=. .V d e 4 > > 3 4 3 > + - : + o   @ 1 t x M ] { +.7.q.7.+._ _ _ b y > > 2 < 1 > d ..a.-XwXwXwXwXwXwXwXwXwXwXwXwXwXwXwXwXwXwXwXwXwXwXwXwXwXwXwXwXwXwXwXwXwXwXwXwXwXwXwXwXwXwXwXwXwXwXwXwXwXwXwXwXwXwXwXwXwXwXwXwXwX",
"wXwXwXwXwXwXwXwXwXwXwXwXwXwXwXwXwXwXwXwXwXwXwXwXwXwXwXwXwXwXwXwXwXwXwXwXwXwXwXwXwXwXwXwXwXwXwXwXwXwXwXwXwXwXwXwXwXwXwXwXwXwXwXwXwXwXwXwXwXwXwXwXwXwXwXwXwXwXwXwXwXwXwXwXwXwXwXwXwXwXwXwXwXwXwXwXwXwXwXwXwXwXA.6 % 1 1 > - - > r _ _ | _ _ a 5 & & = 5 r r 8 7 5 5 4 8 i y 5 & & 5 5 5 = = = , 6 9 i V ] =.q.*._ s y 4 4 < 2 4 4 3 > @ o o       o + > y b b c b ] 7.=.] b c c d 4 - > > < 3 > > + p (.wXwXwXwXwXwXwXwXwXwXwXwXwXwXwXwXwXwXwXwXwXwXwXwXwXwXwXwXwXwXwXwXwXwXwXwXwXwXwXwXwXwXwXwXwXwXwXwXwXwXwXwXwXwXwXwXwXwXwXwXwX",
"wXwXwXwXwXwXwXwXwXwXwXwXwXwXwXwXwXwXwXwXwXwXwXwXwXwXwXwXwXwXwXwXwXwXwXwXwXwXwXwXwXwXwXwXwXwXwXwXwXwXwXwXwXwXwXwXwXwXwXwXwXwXwXwXwXwXwXwXwXwXwXwXwXwXwXwXwXwXwXwXwXwXwXwXwXwXwXwXwXwXwXwXwXwXwXwXwXwXwX4X*X`.O.5 % = 1 > > > > e e _ _ _ _ b a r 6 = 5 5 5 7 7 7 7 4 7 y 8 5 & 5 5 5 5 = , , 5 6 9 h n [ +.*.| v e e 4 4 4 < 2 4 3 % @             + > y x x x x ] *.=.| _ V b x 4 @ @ + > > > > @ 4 /.wXwXwXwXwXwXwXwXwXwXwXwXwXwXwXwXwXwXwXwXwXwXwXwXwXwXwXwXwXwXwXwXwXwXwXwXwXwXwXwXwXwXwXwXwXwXwXwXwXwXwXwXwXwXwXwXwXwXwXwXwX",
"wXwXwXwXwXwXwXwXwXwXwXwXwXwXwXwXwXwXwXwXwXwXwXwXwXwXwXwXwXwXwXwXwXwXwXwXwXwXwXwXwXwXwXwXwXwXwXwXwXwXwXwXwXwXwXwXwXwXwXwXwXwXwXwXwXwXwXwXwXwXwXwXwXwXwXwXwXwXwXwXwXwXwXwXwXwXwXwXwXwXwXwXwXwXwXwXwXwXwX*Xr.J u & & > > 1 1 1 : > e e y _ { _ _ _ r 6 * = , 5 7 7 6 6 7 7 7 5 & = 5 5 = & = 5 5 6 7 u n L ` ] M y 1 1 4 4 4 2 4 2 1 + .           o + > r d c d d ] *.7.@.{ ] ] b < o   o @ ; > > > u (.wXwXwXwXwXwXwXwXwXwXwXwXwXwXwXwXwXwXwXwXwXwXwXwXwXwXwXwXwXwXwXwXwXwXwXwXwXwXwXwXwXwXwXwXwXwXwXwXwXwXwXwXwXwXwXwXwXwXwXwXwX",
"wXwXwXwXwXwXwXwXwXwXwXwXwXwXwXwXwXwXwXwXwXwXwXwXwXwXwXwXwXwXwXwXwXwXwXwXwXwXwXwXwXwXwXwXwXwXwXwXwXwXwXwXwXwXwXwXwXwXwXwXwXwXwXwXwXwXwXwXwXwXwXwXwXwXwXwXwXwXwXwXwXwXwXwXwXwXwXwXwXwXwXwXwXwXwXwXwXwXwX`.L $ $ $ & > > 1 e e 1 1 : - e d _ { +.| N r 6 = & 5 5 5 6 6 6 6 5 , & , 5 5 = = = 5 5 6 6 u b m b b p 4 > 1 2 2 2 2 2 4 > @ o           o + > r d d p i _ =.7.=.+.{ { _ y + @     + > 1 1 d p.XXwXwXwXwXwXwXwXwXwXwXwXwXwXwXwXwXwXwXwXwXwXwXwXwXwXwXwXwXwXwXwXwXwXwXwXwXwXwXwXwXwXwXwXwXwXwXwXwXwXwXwXwXwXwXwXwXwXwXwXwX",
"wXwXwXwXwXwXwXwXwXwXwXwXwXwXwXwXwXwXwXwXwXwXwXwXwXwXwXwXwXwXwXwXwXwXwXwXwXwXwXwXwXwXwXwXwXwXwXwXwXwXwXwXwXwXwXwXwXwXwXwXwXwXwXwXwXwXwXwXwXwXwXwXwXwXwXwXwXwXwXwXwXwXwXwXwXwXwXwXwXwXwXwXwXwXwXwX6X-XH.%.n 7 , % ; > 1 e e e r p e e e y d _ ' +.{ ` d r ; 5 = 5 5 5 5 5 , & & , 5 5 = = = 6 6 9 5 y h N h i y 4 , 4 4 4 4 2 2 2 > X             o + > r d d p y b +.@.@.+.@.@.{ V p 1 X   + > 2 A a  .w.|.3XwXwXwXwXwXwXwXwXwXwXwXwXwXwXwXwXwXwXwXwXwXwXwXwXwXwXwXwXwXwXwXwXwXwXwXwXwXwXwXwXwXwXwXwXwXwXwXwXwXwXwXwXwXwXwXwXwXwX",
"wXwXwXwXwXwXwXwXwXwXwXwXwXwXwXwXwXwXwXwXwXwXwXwXwXwXwXwXwXwXwXwXwXwXwXwXwXwXwXwXwXwXwXwXwXwXwXwXwXwXwXwXwXwXwXwXwXwXwXwXwXwXwXwXwXwXwXwXwXwXwXwXwXwXwXwXwXwXwXwXwXwXwXwXwXwXwXwXwXwXwXwXwXwXwXwX*XA.u 0 h i 4 ; > 2 e e e p x b p e e 1 1 p _ ' %.=.] r * * & * = 5 = $ & & & = 5 5 = = = 6 6 9 5 0 h b d y e e r 4 4 4 1 > > 2 > o               @ > 4 d a y r c ] | | | @.=.7.| L a >   @ ; 2 p a y > @.%XwXwXwXwXwXwXwXwXwXwXwXwXwXwXwXwXwXwXwXwXwXwXwXwXwXwXwXwXwXwXwXwXwXwXwXwXwXwXwXwXwXwXwXwXwXwXwXwXwXwXwXwXwXwXwXwXwXwX",
"wXwXwXwXwXwXwXwXwXwXwXwXwXwXwXwXwXwXwXwXwXwXwXwXwXwXwXwXwXwXwXwXwXwXwXwXwXwXwXwXwXwXwXwXwXwXwXwXwXwXwXwXwXwXwXwXwXwXwXwXwXwXwXwXwXwXwXwXwXwXwXwXwXwXwXwXwXwXwXwXwXwXwXwXwXwXwXwXwXwXwXwXwXwXwXwX$XA.0 r d r e : > 1 e 1 e p M _ _ y e > - e _ _ | *.| b y 1 % & & & & $ $ & & = 6 5 = & , 5 7 6 5 u b V b p A A r 4 4 4 > : : > + o             o + ; e d p e e b { =.7.7.w.r.r.q.*.V 2   o + 3 p d < o ' |.wXwXwXwXwXwXwXwXwXwXwXwXwXwXwXwXwXwXwXwXwXwXwXwXwXwXwXwXwXwXwXwXwXwXwXwXwXwXwXwXwXwXwXwXwXwXwXwXwXwXwXwXwXwXwXwXwXwX",
"wXwXwXwXwXwXwXwXwXwXwXwXwXwXwXwXwXwXwXwXwXwXwXwXwXwXwXwXwXwXwXwXwXwXwXwXwXwXwXwXwXwXwXwXwXwXwXwXwXwXwXwXwXwXwXwXwXwXwXwXwXwXwXwXwXwXwXwXwXwXwXwXwXwXwXwXwXwXwXwXwXwXwXwXwXwXwXwXwXwXwXwXwXwXwXwX$XS.b r a r e : > > 1 1 > r _ +._ _ y e - > e d ] %.$.] b y > % & & $ # # % & = 6 6 = = , 7 9 6 5 i V ] V d p y 4 e e 4 > @ @ o o                 - ; e p p 4 e _ $.q.d.A._.'.'._.A.$.r     o > d b A o ] oXwXwXwXwXwXwXwXwXwXwXwXwXwXwXwXwXwXwXwXwXwXwXwXwXwXwXwXwXwXwXwXwXwXwXwXwXwXwXwXwXwXwXwXwXwXwXwXwXwXwXwXwXwXwXwXwXwXwX",
"wXwXwXwXwXwXwXwXwXwXwXwXwXwXwXwXwXwXwXwXwXwXwXwXwXwXwXwXwXwXwXwXwXwXwXwXwXwXwXwXwXwXwXwXwXwXwXwXwXwXwXwXwXwXwXwXwXwXwXwXwXwXwXwXwXwXwXwXwXwXwXwXwXwXwXwXwXwXwXwXwXwXwXwXwXwXwXwXwXwXwXwXwXwXwXwX$XS.N d r r r e 1 1 1 > - e _ { _ _ p 1 @ - > e M | | +.] h 2 > = & $ $ $ $ % , 6 6 , & 5 7 0 7 5 h U  .V b d y t t t 4 > + @ o o   o           o + > e d p 4 4 b 7.w.S._.'.oXoX]._.7.r       > b V p X V _.wXwXwXwXwXwXwXwXwXwXwXwXwXwXwXwXwXwXwXwXwXwXwXwXwXwXwXwXwXwXwXwXwXwXwXwXwXwXwXwXwXwXwXwXwXwXwXwXwXwXwXwXwXwXwXwXwXwX",
"wXwXwXwXwXwXwXwXwXwXwXwXwXwXwXwXwXwXwXwXwXwXwXwXwXwXwXwXwXwXwXwXwXwXwXwXwXwXwXwXwXwXwXwXwXwXwXwXwXwXwXwXwXwXwXwXwXwXwXwXwXwXwXwXwXwXwXwXwXwXwXwXwXwXwXwXwXwXwXwXwXwXwXwXwXwXwXwXwXwXwXwXwXwXwXwX$XS.d r r r r r y e 1 > - e a _ x p e e : : : 1 p b _  .| V h y 4 5 5 = = & = , 4 5 = & , 7 9 7 5 h ] | V v p y e 4 4 < < < 1 > > > > +           + ; e d p y y c _ =.q.D.(._._./.a.=.r       > d V y X t $.).=X6XwXwXwXwXwXwXwXwXwXwXwXwXwXwXwXwXwXwXwXwXwXwXwXwXwXwXwXwXwXwXwXwXwXwXwXwXwXwXwXwXwXwXwXwXwXwXwXwXwXwXwXwXwXwXwX",
"wXwXwXwXwXwXwXwXwXwXwXwXwXwXwXwXwXwXwXwXwXwXwXwXwXwXwXwXwXwXwXwXwXwXwXwXwXwXwXwXwXwXwXwXwXwXwXwXwXwXwXwXwXwXwXwXwXwXwXwXwXwXwXwXwXwXwXwXwXwXwXwXwXwXwXwXwXwXwXwXwXwXwXwXwXwXwXwXwXwXwXwXwXwXwXwX$Xp.5 ; e r d _ b p e > - > e r e e : > 1 : : : > 1 x ' +.| { V h 7 6 5 , 2 1 1 1 , & & 5 7 9 7 5 l [ o.g.v p y 4 4 3 4 A y y y y y y 3 o       o + ; r a d d p a a _ +.q.u.A.s.w.7.] r o     > d V y + o > a /.>XwXwXwXwXwXwXwXwXwXwXwXwXwXwXwXwXwXwXwXwXwXwXwXwXwXwXwXwXwXwXwXwXwXwXwXwXwXwXwXwXwXwXwXwXwXwXwXwXwXwXwXwXwXwXwX",
"wXwXwXwXwXwXwXwXwXwXwXwXwXwXwXwXwXwXwXwXwXwXwXwXwXwXwXwXwXwXwXwXwXwXwXwXwXwXwXwXwXwXwXwXwXwXwXwXwXwXwXwXwXwXwXwXwXwXwXwXwXwXwXwXwXwXwXwXwXwXwXwXwXwXwXwXwXwXwXwXwXwXwXwXwXwXwXwXwXwXwXwXwXwXwXwX$Xy.5 2 r N ] @._ b e e - - > e e > : 1 e 1 1 : - > t b _ ] +.{ L b h r 4 2 > > > * & & , 7 y 9 6 l | &.g.d y A A A t y A A p d v v d 4 @         + ; 4 y p y y e e d ] 7.9.9.7.=.| c 1 o     > d V 9 @     + i.$XwXwXwXwXwXwXwXwXwXwXwXwXwXwXwXwXwXwXwXwXwXwXwXwXwXwXwXwXwXwXwXwXwXwXwXwXwXwXwXwXwXwXwXwXwXwXwXwXwXwXwXwXwXwXwX",
"wXwXwXwXwXwXwXwXwXwXwXwXwXwXwXwXwXwXwXwXwXwXwXwXwXwXwXwXwXwXwXwXwXwXwXwXwXwXwXwXwXwXwXwXwXwXwXwXwXwXwXwXwXwXwXwXwXwXwXwXwXwXwXwXwXwXwXwXwXwXwXwXwXwXwXwXwXwXwXwXwXwXwXwXwXwXwXwXwXwXwXwXwXwXwXwX$Xu.* r ] %.7.9.7._ b e : + + : : > 1 1 e 1 1 1 1 > e e d _ { +.@.+.V d 4 > + % + % % & , 7 0 7 7 z $.*.] p A A t p v a < - 4 v B B b y +         + ; 2 2 > > > e e r _ { { { ] ` _ r %       > d C 4 @     : i.&XwXwXwXwXwXwXwXwXwXwXwXwXwXwXwXwXwXwXwXwXwXwXwXwXwXwXwXwXwXwXwXwXwXwXwXwXwXwXwXwXwXwXwXwXwXwXwXwXwXwXwXwXwXwXwX",
"wXwXwXwXwXwXwXwXwXwXwXwXwXwXwXwXwXwXwXwXwXwXwXwXwXwXwXwXwXwXwXwXwXwXwXwXwXwXwXwXwXwXwXwXwXwXwXwXwXwXwXwXwXwXwXwXwXwXwXwXwXwXwXwXwXwXwXwXwXwXwXwXwXwXwXwXwXwXwXwXwXwXwXwXwXwXwXwXwXwXwXwXwXwXwXwX$Xu.* d $.t.r.d.q.$._ a > @ @ @ + : 1 1 e e e e 1 > 1 > e x ' +.7.9.| b y 2 + + @ $ $ & , 7 9 7 7 n =.9.] y 4 4 y d B v 1 o 4 b ' ' U a +       o % ; ; - +     @ 1 r b _ b b c c a r +       - a b 4 o     > i.$XwXwXwXwXwXwXwXwXwXwXwXwXwXwXwXwXwXwXwXwXwXwXwXwXwXwXwXwXwXwXwXwXwXwXwXwXwXwXwXwXwXwXwXwXwXwXwXwXwXwXwXwXwXwXwX",
"wXwXwXwXwXwXwXwXwXwXwXwXwXwXwXwXwXwXwXwXwXwXwXwXwXwXwXwXwXwXwXwXwXwXwXwXwXwXwXwXwXwXwXwXwXwXwXwXwXwXwXwXwXwXwXwXwXwXwXwXwXwXwXwXwXwXwXwXwXwXwXwXwXwXwXwXwXwXwXwXwXwXwXwXwXwXwXwXwXwXwXwXwXwXwXwX$Xu.; 7 L %.<.q.w.q.=.b ; - - - > > 2 2 2 4 4 e 3 3 3 1 1 y x _ | +.| ] M p 1 : O . . $ 5 7 r 7 7 z #.=.V y 4 e t d B x >   t V  .| } v >         + % + @ o     : < s b ] ' B b b b t +       - d b t @     + i.$XwXwXwXwXwXwXwXwXwXwXwXwXwXwXwXwXwXwXwXwXwXwXwXwXwXwXwXwXwXwXwXwXwXwXwXwXwXwXwXwXwXwXwXwXwXwXwXwXwXwXwXwXwXwXwX",
"wXwXwXwXwXwXwXwXwXwXwXwXwXwXwXwXwXwXwXwXwXwXwXwXwXwXwXwXwXwXwXwXwXwXwXwXwXwXwXwXwXwXwXwXwXwXwXwXwXwXwXwXwXwXwXwXwXwXwXwXwXwXwXwXwXwXwXwXwXwXwXwXwXwXwXwXwXwXwXwXwXwXwXwXwXwXwXwXwXwXwXwXwXwXwXwX$Xu.; ; r J @.9.w.u.d.] 1 + ; > 1 5 , > ; 2 4 4 3 e e 3 1 1 1 e x _ | =.| M p 1 O   . . ; 7 r 7 7 l } #.B y e 4 t d b d > @ y ] $.$.#.b >       o @ + @         : 4 d V } ] V V V V p *       > d B y @     + p.&XwXwXwXwXwXwXwXwXwXwXwXwXwXwXwXwXwXwXwXwXwXwXwXwXwXwXwXwXwXwXwXwXwXwXwXwXwXwXwXwXwXwXwXwXwXwXwXwXwXwXwXwXwXwXwX",
"wXwXwXwXwXwXwXwXwXwXwXwXwXwXwXwXwXwXwXwXwXwXwXwXwXwXwXwXwXwXwXwXwXwXwXwXwXwXwXwXwXwXwXwXwXwXwXwXwXwXwXwXwXwXwXwXwXwXwXwXwXwXwXwXwXwXwXwXwXwXwXwXwXwXwXwXwXwXwXwXwXwXwXwXwXwXwXwXwXwXwXwXwXwXwXwX$Xd.- . 5 r L %.9.u.u.] 1 + ; , < 6 6 > - > 2 e e e e 1 3 > : 1 y x ' $.#.] b y > O o o ; 7 7 7 6 u V ] b e 4 4 e s b p >   4 B ] ] ] a -       o @ + @     o + > t x V | ] ' V b b y @       > p d < o     * i.$XwXwXwXwXwXwXwXwXwXwXwXwXwXwXwXwXwXwXwXwXwXwXwXwXwXwXwXwXwXwXwXwXwXwXwXwXwXwXwXwXwXwXwXwXwXwXwXwXwXwXwXwXwXwXwX",
"wXwXwXwXwXwXwXwXwXwXwXwXwXwXwXwXwXwXwXwXwXwXwXwXwXwXwXwXwXwXwXwXwXwXwXwXwXwXwXwXwXwXwXwXwXwXwXwXwXwXwXwXwXwXwXwXwXwXwXwXwXwXwXwXwXwXwXwXwXwXwXwXwXwXwXwXwXwXwXwXwXwXwXwXwXwXwXwXwXwXwXwXwXwXwXwX$Xu.+ o $ 5 h Y %.9.2.V 1 + & & , r 7 > + > 2 e e 3 e e e 3 e 1 3 e x ' { | | M y > - + & 4 7 6 5 9 l V i 4 < 4 4 y d y >   - 4 y t y > @           o o   o > 4 t y d ' #. .] b a 4 + o       @ 4 y > o     : i.&XwXwXwXwXwXwXwXwXwXwXwXwXwXwXwXwXwXwXwXwXwXwXwXwXwXwXwXwXwXwXwXwXwXwXwXwXwXwXwXwXwXwXwXwXwXwXwXwXwXwXwXwXwXwXwX",
"wXwXwXwXwXwXwXwXwXwXwXwXwXwXwXwXwXwXwXwXwXwXwXwXwXwXwXwXwXwXwXwXwXwXwXwXwXwXwXwXwXwXwXwXwXwXwXwXwXwXwXwXwXwXwXwXwXwXwXwXwXwXwXwXwXwXwXwXwXwXwXwXwXwXwXwXwXwXwXwXwXwXwXwXwXwXwXwXwXwXwXwXwXwXwXwX$Xr.+   . & 8 z [ %.%.n > . $ $ , y y > + ; 2 e e 1 e e e e e 1 > : t x _ +.*.{ c y 3 - = , 5 5 , 6 i d y 2 2 4 4 9 p A :                                 + 4 d a p d ] o. .' v e + o         o - > +       - i.$XwXwXwXwXwXwXwXwXwXwXwXwXwXwXwXwXwXwXwXwXwXwXwXwXwXwXwXwXwXwXwXwXwXwXwXwXwXwXwXwXwXwXwXwXwXwXwXwXwXwXwXwXwXwXwX",
"wXwXwXwXwXwXwXwXwXwXwXwXwXwXwXwXwXwXwXwXwXwXwXwXwXwXwXwXwXwXwXwXwXwXwXwXwXwXwXwXwXwXwXwXwXwXwXwXwXwXwXwXwXwXwXwXwXwXwXwXwXwXwXwXwXwXwXwXwXwXwXwXwXwXwXwXwXwXwXwXwXwXwXwXwXwXwXwXwXwXwXwXwXwXwXwX$Xr.+     # 5 8 z K [ i = # # $ , y e > o + - > > 1 e e e e e : > > 3 e x M _ _ V N d p r 8 6 5 , 5 7 0 7 2 2 > > 2 4 4 : o                         O + > < p d a p d ] -. .V b p 4 > o         + + o       - i.&XwXwXwXwXwXwXwXwXwXwXwXwXwXwXwXwXwXwXwXwXwXwXwXwXwXwXwXwXwXwXwXwXwXwXwXwXwXwXwXwXwXwXwXwXwXwXwXwXwXwXwXwXwXwXwX",
"wXwXwXwXwXwXwXwXwXwXwXwXwXwXwXwXwXwXwXwXwXwXwXwXwXwXwXwXwXwXwXwXwXwXwXwXwXwXwXwXwXwXwXwXwXwXwXwXwXwXwXwXwXwXwXwXwXwXwXwXwXwXwXwXwXwXwXwXwXwXwXwXwXwXwXwXwXwXwXwXwXwXwXwXwXwXwXwXwXwXwXwXwXwXwXwX$Xi.$       % & 0 z n r & # # $ , y y ;       + : e e e e e e e 1 1 > : > 4 y b  .| } ` b u 7 < , , = 5 4 4 2 ; + - > 1 > + @ o                   @ ; < y p a d a p b ] o.} V b b d 4 +                     + p.&XwXwXwXwXwXwXwXwXwXwXwXwXwXwXwXwXwXwXwXwXwXwXwXwXwXwXwXwXwXwXwXwXwXwXwXwXwXwXwXwXwXwXwXwXwXwXwXwXwXwXwXwXwXwXwX",
"wXwXwXwXwXwXwXwXwXwXwXwXwXwXwXwXwXwXwXwXwXwXwXwXwXwXwXwXwXwXwXwXwXwXwXwXwXwXwXwXwXwXwXwXwXwXwXwXwXwXwXwXwXwXwXwXwXwXwXwXwXwXwXwXwXwXwXwXwXwXwXwXwXwXwXwXwXwXwXwXwXwXwXwXwXwXwXwXwXwXwXwXwXwXwXwX$Xi., .     . # = 8 u 6 $ $ & = < y 4 ;         + 1 : 1 1 e e 1 1 : - - @ + - p ] +.@.| ` c r 7 5 , & & , y 4 > + - - > > > + o o               o @ > 4 p d a a p t d V | ] C b b V p -                     + 2. X2X9XwXwXwXwXwXwXwXwXwXwXwXwXwXwXwXwXwXwXwXwXwXwXwXwXwXwXwXwXwXwXwXwXwXwXwXwXwXwXwXwXwXwXwXwXwXwXwXwXwXwXwXwXwX",
"wXwXwXwXwXwXwXwXwXwXwXwXwXwXwXwXwXwXwXwXwXwXwXwXwXwXwXwXwXwXwXwXwXwXwXwXwXwXwXwXwXwXwXwXwXwXwXwXwXwXwXwXwXwXwXwXwXwXwXwXwXwXwXwXwXwXwXwXwXwXwXwXwXwXwXwXwXwXwXwXwXwXwXwXwXwXwXwXwXwXwXwXwXwXwXwX$Xs.y % o   o o . = , & $ & 6 i y t 3 -         o + - > e 1 e e > : > > : - - e t b ' +.{ _ a d y 7 , = 6 s p t 3 1 * - : > - - + + @ @ X o     o o + < s s y 4 3 > y v V V d v b B s -               o @ @ : V w.XX7XwXwXwXwXwXwXwXwXwXwXwXwXwXwXwXwXwXwXwXwXwXwXwXwXwXwXwXwXwXwXwXwXwXwXwXwXwXwXwXwXwXwXwXwXwXwXwXwXwXwXwXwXwX",
"wXwXwXwXwXwXwXwXwXwXwXwXwXwXwXwXwXwXwXwXwXwXwXwXwXwXwXwXwXwXwXwXwXwXwXwXwXwXwXwXwXwXwXwXwXwXwXwXwXwXwXwXwXwXwXwXwXwXwXwXwXwXwXwXwXwXwXwXwXwXwXwXwXwXwXwXwXwXwXwXwXwXwXwXwXwXwXwXwXwXwXwXwXwXwXwX&X^.b 4 +             . # = i b i 7 > +             @ + : : 1 1 1 : > 1 e : - @ @ e _ +.{ _ _ x i 7 5 , 9 x v x p 4 > - - > > > > > + + + @ o o     @ 3 s p < > > + > p b b a d b V s -             o @ + + : t d *.+XwXwXwXwXwXwXwXwXwXwXwXwXwXwXwXwXwXwXwXwXwXwXwXwXwXwXwXwXwXwXwXwXwXwXwXwXwXwXwXwXwXwXwXwXwXwXwXwXwXwXwXwXwX",
"wXwXwXwXwXwXwXwXwXwXwXwXwXwXwXwXwXwXwXwXwXwXwXwXwXwXwXwXwXwXwXwXwXwXwXwXwXwXwXwXwXwXwXwXwXwXwXwXwXwXwXwXwXwXwXwXwXwXwXwXwXwXwXwXwXwXwXwXwXwXwXwXwXwXwXwXwXwXwXwXwXwXwXwXwXwXwXwXwXwXwXwXwXwXwXwX7X*Xs. .4               . = i b d y 3 > O O + + o o + + : e 1 e 1 1 1 1 e : : + @ : p _ _ { _ x i y 9 7 d V _ B b s A 2 1 > 2 4 A 4 A 4 4 2 > - + + + 4 p y 4 > > > > t p p y y s d A -   o + + + + + > > > > < 4 V a.XX2X6XwXwXwXwXwXwXwXwXwXwXwXwXwXwXwXwXwXwXwXwXwXwXwXwXwXwXwXwXwXwXwXwXwXwXwXwXwXwXwXwXwXwXwXwXwXwXwXwXwXwX",
"wXwXwXwXwXwXwXwXwXwXwXwXwXwXwXwXwXwXwXwXwXwXwXwXwXwXwXwXwXwXwXwXwXwXwXwXwXwXwXwXwXwXwXwXwXwXwXwXwXwXwXwXwXwXwXwXwXwXwXwXwXwXwXwXwXwXwXwXwXwXwXwXwXwXwXwXwXwXwXwXwXwXwXwXwXwXwXwXwXwXwXwXwXwXwXwXwX7X%Xp.d               . = u M x p e 3 - > > > - - + - + : e e e e e e e 1 e : @ + 1 e b +.+._ i y a h V |  .] V b v p A 2 4 y s v b b d s 9 4 < 3 3 4 t A 4 1 > > 2 < 4 4 3 1 < 3 > + @ > > 1 1 > 1 3 < 3 3 4 < p V .._.2XwXwXwXwXwXwXwXwXwXwXwXwXwXwXwXwXwXwXwXwXwXwXwXwXwXwXwXwXwXwXwXwXwXwXwXwXwXwXwXwXwXwXwXwXwXwXwXwXwXwX",
"wXwXwXwXwXwXwXwXwXwXwXwXwXwXwXwXwXwXwXwXwXwXwXwXwXwXwXwXwXwXwXwXwXwXwXwXwXwXwXwXwXwXwXwXwXwXwXwXwXwXwXwXwXwXwXwXwXwXwXwXwXwXwXwXwXwXwXwXwXwXwXwXwXwXwXwXwXwXwXwXwXwXwXwXwXwXwXwXwXwXwXwXwXwXwXwXwXwXwX$X%.4 : o           & u b b d y 4 3 3 4 2 > : - + - : e e e e e e : 1 1 : - @ - - d ] | b r y x M  .*.=.| ] V B d y 4 y p b V } ] V C v s s y p y p y y y t A 4 4 1 1 1 1 > 1 : : : 3 A t 4 4 A A A A 4 < > > > 4 d.%XwXwXwXwXwXwXwXwXwXwXwXwXwXwXwXwXwXwXwXwXwXwXwXwXwXwXwXwXwXwXwXwXwXwXwXwXwXwXwXwXwXwXwXwXwXwXwXwXwXwX",
"wXwXwXwXwXwXwXwXwXwXwXwXwXwXwXwXwXwXwXwXwXwXwXwXwXwXwXwXwXwXwXwXwXwXwXwXwXwXwXwXwXwXwXwXwXwXwXwXwXwXwXwXwXwXwXwXwXwXwXwXwXwXwXwXwXwXwXwXwXwXwXwXwXwXwXwXwXwXwXwXwXwXwXwXwXwXwXwXwXwXwXwXwXwXwXwXwXwXwX4X@Xi._ -           & u b x d y e 3 3 > > > : + + + : : : 1 1 : : : e e : > : - + 1 p x y 2 r x _ =.s.w.*.| ] B b h d d b V  .$.-.| ] V B B C B B B b b v d s p p p p s d d s p t 4 t y y y y y p p y t 4 3 > > 4 d.$XwXwXwXwXwXwXwXwXwXwXwXwXwXwXwXwXwXwXwXwXwXwXwXwXwXwXwXwXwXwXwXwXwXwXwXwXwXwXwXwXwXwXwXwXwXwXwXwXwXwX",
"wXwXwXwXwXwXwXwXwXwXwXwXwXwXwXwXwXwXwXwXwXwXwXwXwXwXwXwXwXwXwXwXwXwXwXwXwXwXwXwXwXwXwXwXwXwXwXwXwXwXwXwXwXwXwXwXwXwXwXwXwXwXwXwXwXwXwXwXwXwXwXwXwXwXwXwXwXwXwXwXwXwXwXwXwXwXwXwXwXwXwXwXwXwXwXwXwXwXwXwXwX@Xr.>           & p b x d y e 4 2 ; - - - - + @ o o @ + - : - : : : : 1 > - @ - - - - - e x ] 9.(.(.w.*.| V b C C B V ] $.8.7.%.| | } } } } } } ] ] ' V B b l b b V V g.g.B v s d d d d d d d d a p t 3 > > 4 r.$XwXwXwXwXwXwXwXwXwXwXwXwXwXwXwXwXwXwXwXwXwXwXwXwXwXwXwXwXwXwXwXwXwXwXwXwXwXwXwXwXwXwXwXwXwXwXwXwXwXwX",
"wXwXwXwXwXwXwXwXwXwXwXwXwXwXwXwXwXwXwXwXwXwXwXwXwXwXwXwXwXwXwXwXwXwXwXwXwXwXwXwXwXwXwXwXwXwXwXwXwXwXwXwXwXwXwXwXwXwXwXwXwXwXwXwXwXwXwXwXwXwXwXwXwXwXwXwXwXwXwXwXwXwXwXwXwXwXwXwXwXwXwXwXwXwXwXwXwXwXwXwXwXwX+X*.b >       + y h d i y e 2 > + - : 1 : + o o o o @ + @ - - : : > 1 > - - - @ + + - < p M #.q.d.w.9.*.#.] ] ' ] | $.9.u.e.7.=.%.$.o.$.$.$.$.$.#.-. .} } ] ] } | | | $.} ] V V V V V V V B b b d s y t 4 p p.$XwXwXwXwXwXwXwXwXwXwXwXwXwXwXwXwXwXwXwXwXwXwXwXwXwXwXwXwXwXwXwXwXwXwXwXwXwXwXwXwXwXwXwXwXwXwXwXwXwXwX",
"wXwXwXwXwXwXwXwXwXwXwXwXwXwXwXwXwXwXwXwXwXwXwXwXwXwXwXwXwXwXwXwXwXwXwXwXwXwXwXwXwXwXwXwXwXwXwXwXwXwXwXwXwXwXwXwXwXwXwXwXwXwXwXwXwXwXwXwXwXwXwXwXwXwXwXwXwXwXwXwXwXwXwXwXwXwXwXwXwXwXwXwXwXwXwXwXwXwXwXwXwXwX4X$Xi.b       + 4 d a y r 2 ; - o - 4 a e +       o + - @ @ - + : e 4 1 > - - - + + - : e e x V | 9.w.w.0.<.$.| $.7.e.y.(.p.e.8.*.*.*.*.*.*.*.*.*.*.*.=.=.=.=.=.7.*.8.8.*.=.$.&.$.$.=.$.-.} U g.C b b v l C A.&XwXwXwXwXwXwXwXwXwXwXwXwXwXwXwXwXwXwXwXwXwXwXwXwXwXwXwXwXwXwXwXwXwXwXwXwXwXwXwXwXwXwXwXwXwXwXwXwXwXwX",
"wXwXwXwXwXwXwXwXwXwXwXwXwXwXwXwXwXwXwXwXwXwXwXwXwXwXwXwXwXwXwXwXwXwXwXwXwXwXwXwXwXwXwXwXwXwXwXwXwXwXwXwXwXwXwXwXwXwXwXwXwXwXwXwXwXwXwXwXwXwXwXwXwXwXwXwXwXwXwXwXwXwXwXwXwXwXwXwXwXwXwXwXwXwXwXwXwXwXwXwXwXwXwXwX+X{       + 3 y r r e ; % + $ , r c r ; o       @ + @ o @ - : : 3 3 > > : - - - - - - - 3 < b $.e.t.r.0.*.| =.0.r.a.(.H.e.7.7.*.*.<.*.*.*.7.*.8.8.8.2.8.9.q.q.0.0.q.q.8.8.8.8.8.8.8.=.| } g.V V V g.} o.'.5XwXwXwXwXwXwXwXwXwXwXwXwXwXwXwXwXwXwXwXwXwXwXwXwXwXwXwXwXwXwXwXwXwXwXwXwXwXwXwXwXwXwXwXwXwXwXwXwXwXwX",
"wXwXwXwXwXwXwXwXwXwXwXwXwXwXwXwXwXwXwXwXwXwXwXwXwXwXwXwXwXwXwXwXwXwXwXwXwXwXwXwXwXwXwXwXwXwXwXwXwXwXwXwXwXwXwXwXwXwXwXwXwXwXwXwXwXwXwXwXwXwXwXwXwXwXwXwXwXwXwXwXwXwXwXwXwXwXwXwXwXwXwXwXwXwXwXwXwXwXwXwXwXwXwXwX+X .      . > 7 r e 4 5 = 7 8 g S D f 7 1 $     @ o o o @ : @ : 3 e 3 > 1 1 1 1 1 > : : > > y M }  .| ] V M ]  .%.*.8.*.$.| | | | | } | | | | | | | -.-.#.-.-.#.o.$.o.#.#.#.#.-.-.| g.b v d s d d g.d.[.2X8XwXwXwXwXwXwXwXwXwXwXwXwXwXwXwXwXwXwXwXwXwXwXwXwXwXwXwXwXwXwXwXwXwXwXwXwXwXwXwXwXwXwXwXwXwXwXwXwXwXwX",
"wXwXwXwXwXwXwXwXwXwXwXwXwXwXwXwXwXwXwXwXwXwXwXwXwXwXwXwXwXwXwXwXwXwXwXwXwXwXwXwXwXwXwXwXwXwXwXwXwXwXwXwXwXwXwXwXwXwXwXwXwXwXwXwXwXwXwXwXwXwXwXwXwXwXwXwXwXwXwXwXwXwXwXwXwXwXwXwXwXwXwXwXwXwXwXwXwXwXwXwXwXwXwXwX+X .      . > 4 4 2 6 6 8 g H H G S D S f ,     o o o o @ @ @ : 1 4 e 3 e e e e e 1 > > > > 3 3 4 4 r e 4 4 p d b B g.V V m C C C C b C C C C C V V V V V V V g.V g.V V V V V V C b d A 4 3 4 < 1 ' '.wXwXwXwXwXwXwXwXwXwXwXwXwXwXwXwXwXwXwXwXwXwXwXwXwXwXwXwXwXwXwXwXwXwXwXwXwXwXwXwXwXwXwXwXwXwXwXwXwXwXwXwXwX",
"wXwXwXwXwXwXwXwXwXwXwXwXwXwXwXwXwXwXwXwXwXwXwXwXwXwXwXwXwXwXwXwXwXwXwXwXwXwXwXwXwXwXwXwXwXwXwXwXwXwXwXwXwXwXwXwXwXwXwXwXwXwXwXwXwXwXwXwXwXwXwXwXwXwXwXwXwXwXwXwXwXwXwXwXwXwXwXwXwXwXwXwXwXwXwXwXwXwXwXwXwXwXwXwX=Xa.V t O   ; > , 6 8 u S F ~ / ^ Q W K S w % .     @ @ @ @ @ : 3 4 e t y y y y e e e 3 4 1 > - + + + > > > 3 e y p a d d s s s p p p p p s s d s d d d d d d d d d d d d d d d p y 4 : > 1 1 > + g.|.wXwXwXwXwXwXwXwXwXwXwXwXwXwXwXwXwXwXwXwXwXwXwXwXwXwXwXwXwXwXwXwXwXwXwXwXwXwXwXwXwXwXwXwXwXwXwXwXwXwXwXwXwX",
"wXwXwXwXwXwXwXwXwXwXwXwXwXwXwXwXwXwXwXwXwXwXwXwXwXwXwXwXwXwXwXwXwXwXwXwXwXwXwXwXwXwXwXwXwXwXwXwXwXwXwXwXwXwXwXwXwXwXwXwXwXwXwXwXwXwXwXwXwXwXwXwXwXwXwXwXwXwXwXwXwXwXwXwXwXwXwXwXwXwXwXwXwXwXwXwXwXwXwXwXwXwXwXwX4X>X_.$.>   O ; , 5 q S H ~ j.n.b.b.:.>.W k 0 = +   @ @ @ @ @ : > 4 y d p p t t t t p p y y 4 > + + + - - > > > 4 A t t t A t t 4 4 1 4 4 4 4 A 4 4 4 4 A A A A t t t A t A 4 < 4 1 * + - 4 A 1 @ V [.wXwXwXwXwXwXwXwXwXwXwXwXwXwXwXwXwXwXwXwXwXwXwXwXwXwXwXwXwXwXwXwXwXwXwXwXwXwXwXwXwXwXwXwXwXwXwXwXwXwXwXwXwX",
"wXwXwXwXwXwXwXwXwXwXwXwXwXwXwXwXwXwXwXwXwXwXwXwXwXwXwXwXwXwXwXwXwXwXwXwXwXwXwXwXwXwXwXwXwXwXwXwXwXwXwXwXwXwXwXwXwXwXwXwXwXwXwXwXwXwXwXwXwXwXwXwXwXwXwXwXwXwXwXwXwXwXwXwXwXwXwXwXwXwXwXwXwXwXwXwXwXwXwXwXwXwXwXwXwXwXwX).i + + + & 7 g H / j.G.F.P.F.v.k.~ I w 6 $ o @ : : @ @ : > e s b d p y y y x b M b x t > + + + + + > > > > > 3 3 1 > > 3 > - - * * > > > > - - - * : > > > > > > > > : - + + o   + A s 4 X b [.wXwXwXwXwXwXwXwXwXwXwXwXwXwXwXwXwXwXwXwXwXwXwXwXwXwXwXwXwXwXwXwXwXwXwXwXwXwXwXwXwXwXwXwXwXwXwXwXwXwXwXwXwX",
"wXwXwXwXwXwXwXwXwXwXwXwXwXwXwXwXwXwXwXwXwXwXwXwXwXwXwXwXwXwXwXwXwXwXwXwXwXwXwXwXwXwXwXwXwXwXwXwXwXwXwXwXwXwXwXwXwXwXwXwXwXwXwXwXwXwXwXwXwXwXwXwXwXwXwXwXwXwXwXwXwXwXwXwXwXwXwXwXwXwXwXwXwXwXwXwXwXwXwXwXwXwXwXwXwXwXwX=X/.$.j = 8 S H ) b.n.b.x.x.l.Q W F w 8 5 ; + : : 1 : : : 4 y d b b d d d x M _ _ _ V x 1 + + + + + + + > > 4 4 4 4 4 4 < > * - - > > 1 > * - - - : > > > : : > > 1 > - - + @   o - A d 3 X b [.wXwXwXwXwXwXwXwXwXwXwXwXwXwXwXwXwXwXwXwXwXwXwXwXwXwXwXwXwXwXwXwXwXwXwXwXwXwXwXwXwXwXwXwXwXwXwXwXwXwXwXwXwX",
"wXwXwXwXwXwXwXwXwXwXwXwXwXwXwXwXwXwXwXwXwXwXwXwXwXwXwXwXwXwXwXwXwXwXwXwXwXwXwXwXwXwXwXwXwXwXwXwXwXwXwXwXwXwXwXwXwXwXwXwXwXwXwXwXwXwXwXwXwXwXwXwXwXwXwXwXwXwXwXwXwXwXwXwXwXwXwXwXwXwXwXwXwXwXwXwXwXwXwXwXwXwXwXwXwXwXwX6X>X'.,.q S H ~ j.B.b.h.~ R P k f q 5 = = = ; 4 4 4 > > 4 p x v M b b M V V ' ]  .| -.V 4 @ + + + + + > > 4 A t y t t t 4 2 + + > > 2 3 3 : + + - > > > * - @ : < 4 > : + + + @   - t d 4 o b [.wXwXwXwXwXwXwXwXwXwXwXwXwXwXwXwXwXwXwXwXwXwXwXwXwXwXwXwXwXwXwXwXwXwXwXwXwXwXwXwXwXwXwXwXwXwXwXwXwXwXwXwXwX",
"wXwXwXwXwXwXwXwXwXwXwXwXwXwXwXwXwXwXwXwXwXwXwXwXwXwXwXwXwXwXwXwXwXwXwXwXwXwXwXwXwXwXwXwXwXwXwXwXwXwXwXwXwXwXwXwXwXwXwXwXwXwXwXwXwXwXwXwXwXwXwXwXwXwXwXwXwXwXwXwXwXwXwXwXwXwXwXwXwXwXwXwXwXwXwXwXwXwXwXwXwXwXwXwXwXwXwXwXwX%Xy.D H ~ j.b.B.v.~ T k w 0 6 6 5 5 = < 4 4 4 4 < 3 4 a v b V M v b V  .| | -.$.*.] y @ o @ + + + > < 4 y s a s s y y 4 > + > 4 t A 4 > + + > 4 1 1 > - X : A t 3 + + + + +   - t s 3 o b [.wXwXwXwXwXwXwXwXwXwXwXwXwXwXwXwXwXwXwXwXwXwXwXwXwXwXwXwXwXwXwXwXwXwXwXwXwXwXwXwXwXwXwXwXwXwXwXwXwXwXwXwXwX",
"wXwXwXwXwXwXwXwXwXwXwXwXwXwXwXwXwXwXwXwXwXwXwXwXwXwXwXwXwXwXwXwXwXwXwXwXwXwXwXwXwXwXwXwXwXwXwXwXwXwXwXwXwXwXwXwXwXwXwXwXwXwXwXwXwXwXwXwXwXwXwXwXwXwXwXwXwXwXwXwXwXwXwXwXwXwXwXwXwXwXwXwXwXwXwXwXwXwXwXwXwXwXwXwXwXwXwXwXwX%XC.H ) / v.n.v.:.W D f 6 6 6 6 9 6 9 r e 4 , > > 2 4 p d M ] b y p V $.#.| #.*.q.$.a @ X @ + + > > 4 A s v v b b v d y > > 4 d d s y 3 + - 4 p y A < * + > t y 3 + + - - @ o - e d 3 o b [.wXwXwXwXwXwXwXwXwXwXwXwXwXwXwXwXwXwXwXwXwXwXwXwXwXwXwXwXwXwXwXwXwXwXwXwXwXwXwXwXwXwXwXwXwXwXwXwXwXwXwXwXwX",
"wXwXwXwXwXwXwXwXwXwXwXwXwXwXwXwXwXwXwXwXwXwXwXwXwXwXwXwXwXwXwXwXwXwXwXwXwXwXwXwXwXwXwXwXwXwXwXwXwXwXwXwXwXwXwXwXwXwXwXwXwXwXwXwXwXwXwXwXwXwXwXwXwXwXwXwXwXwXwXwXwXwXwXwXwXwXwXwXwXwXwXwXwXwXwXwXwXwXwXwXwXwXwXwXwXwXwXwXwX3XZ.H ) j.b.j.:.Q F g 0 = 5 6 y y s s y y 2 - + > 2 4 e a V ] b 4 4 V *.=.o.o.9.u.*.d @ @ X + - > < 4 y v B V V V b v p 4 > p b C b d A + > y b d p 4 1 - 3 p d 3 + @ : : +   + e s 4 o b [.wXwXwXwXwXwXwXwXwXwXwXwXwXwXwXwXwXwXwXwXwXwXwXwXwXwXwXwXwXwXwXwXwXwXwXwXwXwXwXwXwXwXwXwXwXwXwXwXwXwXwXwXwX",
"wXwXwXwXwXwXwXwXwXwXwXwXwXwXwXwXwXwXwXwXwXwXwXwXwXwXwXwXwXwXwXwXwXwXwXwXwXwXwXwXwXwXwXwXwXwXwXwXwXwXwXwXwXwXwXwXwXwXwXwXwXwXwXwXwXwXwXwXwXwXwXwXwXwXwXwXwXwXwXwXwXwXwXwXwXwXwXwXwXwXwXwXwXwXwXwXwXwXwXwXwXwXwXwXwXwXwXwXwX5XZ.R / j.v.:.) F S u 6 , 5 9 y y p y y r 3 @ O + > > 4 y v B b v b ] $.$.#.#.8.r.$.a @ @ @ + : > < e y d b C C b v s y 4 2 s B V B v A - > v g.C p A 4 4 t d Z 4 : - : > @ o - e s 3 . b [.wXwXwXwXwXwXwXwXwXwXwXwXwXwXwXwXwXwXwXwXwXwXwXwXwXwXwXwXwXwXwXwXwXwXwXwXwXwXwXwXwXwXwXwXwXwXwXwXwXwXwXwXwX",
"wXwXwXwXwXwXwXwXwXwXwXwXwXwXwXwXwXwXwXwXwXwXwXwXwXwXwXwXwXwXwXwXwXwXwXwXwXwXwXwXwXwXwXwXwXwXwXwXwXwXwXwXwXwXwXwXwXwXwXwXwXwXwXwXwXwXwXwXwXwXwXwXwXwXwXwXwXwXwXwXwXwXwXwXwXwXwXwXwXwXwXwXwXwXwXwXwXwXwXwXwXwXwXwXwXwXwXwXwX4X`./ :.x.j.) W S f 8 5 , 6 u p y p y y r > o   O O > < t y y b } #.| |  . .#.=.0.| p @ o o + > 3 4 e y a v v v v p y 4 > 2 a V V V b 9 : 3 C | g.d y t y d b v t > * > > @ o - t d 3 o b [.wXwXwXwXwXwXwXwXwXwXwXwXwXwXwXwXwXwXwXwXwXwXwXwXwXwXwXwXwXwXwXwXwXwXwXwXwXwXwXwXwXwXwXwXwXwXwXwXwXwXwXwXwX",
"wXwXwXwXwXwXwXwXwXwXwXwXwXwXwXwXwXwXwXwXwXwXwXwXwXwXwXwXwXwXwXwXwXwXwXwXwXwXwXwXwXwXwXwXwXwXwXwXwXwXwXwXwXwXwXwXwXwXwXwXwXwXwXwXwXwXwXwXwXwXwXwXwXwXwXwXwXwXwXwXwXwXwXwXwXwXwXwXwXwXwXwXwXwXwXwXwXwXwXwXwXwXwXwXwXwXwXwXwX5X.X>.:.v.j.) F S 8 5 5 , 6 y p y y y r e ; O o   o + 3 < 4 t b | =.| ] ] } #.%.*.} y @ o @ + > 3 4 4 y p s p p y A 4 1 > 2 p C V b b y > A C | V p y d v v v v y 1 > > > + @ : t d < o b [.wXwXwXwXwXwXwXwXwXwXwXwXwXwXwXwXwXwXwXwXwXwXwXwXwXwXwXwXwXwXwXwXwXwXwXwXwXwXwXwXwXwXwXwXwXwXwXwXwXwXwXwXwX",
"wXwXwXwXwXwXwXwXwXwXwXwXwXwXwXwXwXwXwXwXwXwXwXwXwXwXwXwXwXwXwXwXwXwXwXwXwXwXwXwXwXwXwXwXwXwXwXwXwXwXwXwXwXwXwXwXwXwXwXwXwXwXwXwXwXwXwXwXwXwXwXwXwXwXwXwXwXwXwXwXwXwXwXwXwXwXwXwXwXwXwXwXwXwXwXwXwXwXwXwXwXwXwXwXwXwXwXwXwX5XZ.R ) :.( ) H S 8 5 , 7 9 y y y t A e e 2 ; + . o . + > 4 y d b V _ ] { } | %.7.} p X o @ + : > 3 4 A A A 4 4 4 > > * - * 4 d a p y A 3 t b ] v 4 2 p v b Z s A > : * + + @ : t s < o b [.wXwXwXwXwXwXwXwXwXwXwXwXwXwXwXwXwXwXwXwXwXwXwXwXwXwXwXwXwXwXwXwXwXwXwXwXwXwXwXwXwXwXwXwXwXwXwXwXwXwXwXwXwX",
"wXwXwXwXwXwXwXwXwXwXwXwXwXwXwXwXwXwXwXwXwXwXwXwXwXwXwXwXwXwXwXwXwXwXwXwXwXwXwXwXwXwXwXwXwXwXwXwXwXwXwXwXwXwXwXwXwXwXwXwXwXwXwXwXwXwXwXwXwXwXwXwXwXwXwXwXwXwXwXwXwXwXwXwXwXwXwXwXwXwXwXwXwXwXwXwXwXwXwXwXwXwXwXwXwXwXwXwXwX5XC.K W / / ) F S 6 , 6 9 y y y 4 4 4 t y 4 < > @ o . . + 1 p y 7 y b ' ] } +.%.*. .y @ @ @ + > > > 4 2 2 > > > - @ @ @ + + > < < 3 3 4 t p d b p > * y b b s t < > * + + + @ > t d 3 o b [.wXwXwXwXwXwXwXwXwXwXwXwXwXwXwXwXwXwXwXwXwXwXwXwXwXwXwXwXwXwXwXwXwXwXwXwXwXwXwXwXwXwXwXwXwXwXwXwXwXwXwXwXwX",
"wXwXwXwXwXwXwXwXwXwXwXwXwXwXwXwXwXwXwXwXwXwXwXwXwXwXwXwXwXwXwXwXwXwXwXwXwXwXwXwXwXwXwXwXwXwXwXwXwXwXwXwXwXwXwXwXwXwXwXwXwXwXwXwXwXwXwXwXwXwXwXwXwXwXwXwXwXwXwXwXwXwXwXwXwXwXwXwXwXwXwXwXwXwXwXwXwXwXwXwXwXwXwXwXwXwXwX8X2X$Xy.E E / Q P F S 0 6 7 9 t 4 4 4 4 A p a p 4 > * + X . @ = 4 4 1 4 h V ] ] | %.7.} y o @ + + + - * > > > * + + @ o o X X + + > + - + > > < A y 2 @ @ 3 y 9 4 > > + @ + + - + > y d 3 o b [.wXwXwXwXwXwXwXwXwXwXwXwXwXwXwXwXwXwXwXwXwXwXwXwXwXwXwXwXwXwXwXwXwXwXwXwXwXwXwXwXwXwXwXwXwXwXwXwXwXwXwXwXwX",
"wXwXwXwXwXwXwXwXwXwXwXwXwXwXwXwXwXwXwXwXwXwXwXwXwXwXwXwXwXwXwXwXwXwXwXwXwXwXwXwXwXwXwXwXwXwXwXwXwXwXwXwXwXwXwXwXwXwXwXwXwXwXwXwXwXwXwXwXwXwXwXwXwXwXwXwXwXwXwXwXwXwXwXwXwXwXwXwXwXwXwXwXwXwXwXwXwXwXwXwXwXwXwXwXwXwXwX>X'.H.t.;.T F F S F k 0 9 y t 4 > > 4 4 y a b d u y < = % $ # # $ & & 5 i m ] ]  .%.*.} 9   o @ + @ o @ @ @ @ o o o o         o o o o o   o @ @ + + @     + - + @ @ @ o o + + + + > t d 3 o b }.wXwXwXwXwXwXwXwXwXwXwXwXwXwXwXwXwXwXwXwXwXwXwXwXwXwXwXwXwXwXwXwXwXwXwXwXwXwXwXwXwXwXwXwXwXwXwXwXwXwXwXwXwX",
"wXwXwXwXwXwXwXwXwXwXwXwXwXwXwXwXwXwXwXwXwXwXwXwXwXwXwXwXwXwXwXwXwXwXwXwXwXwXwXwXwXwXwXwXwXwXwXwXwXwXwXwXwXwXwXwXwXwXwXwXwXwXwXwXwXwXwXwXwXwXwXwXwXwXwXwXwXwXwXwXwXwXwXwXwXwXwXwXwXwXwXwXwXwXwXwXwXwXwXwXwXwXwXwXwXwX4X@XD.>.,.X.T S S F S j i p A 4 1 > : 3 t s b b b d i y 4 , & $ . o $ $ , 0 b m U  .$.*.] 4   o + @ o o   o                                                               o @ + + + 3 t d 3 o v (.wXwXwXwXwXwXwXwXwXwXwXwXwXwXwXwXwXwXwXwXwXwXwXwXwXwXwXwXwXwXwXwXwXwXwXwXwXwXwXwXwXwXwXwXwXwXwXwXwXwXwXwXwX",
"wXwXwXwXwXwXwXwXwXwXwXwXwXwXwXwXwXwXwXwXwXwXwXwXwXwXwXwXwXwXwXwXwXwXwXwXwXwXwXwXwXwXwXwXwXwXwXwXwXwXwXwXwXwXwXwXwXwXwXwXwXwXwXwXwXwXwXwXwXwXwXwXwXwXwXwXwXwXwXwXwXwXwXwXwXwXwXwXwXwXwXwXwXwXwXwXwXwXwXwXwXwX7X>X>X>X<X.XB.( ;.E K f k G K n d y 4 > > + : 4 y v b V b b b a i 0 6 5 = & & & = 5 7 j L Y X.X.V 4 . X @ + @ X o X o o                                                             + - + > 3 y d 3 o < | a.(./././././.S.{.>XwXwXwXwXwXwXwXwXwXwXwXwXwXwXwXwXwXwXwXwXwXwXwXwXwXwXwXwXwXwXwXwXwXwXwXwXwXwXwXwXwXwXwX",
"wXwXwXwXwXwXwXwXwXwXwXwXwXwXwXwXwXwXwXwXwXwXwXwXwXwXwXwXwXwXwXwXwXwXwXwXwXwXwXwXwXwXwXwXwXwXwXwXwXwXwXwXwXwXwXwXwXwXwXwXwXwXwXwXwXwXwXwXwXwXwXwXwXwXwXwXwXwXwXwXwXwXwXwXwXwXwXwXwXwXwXwXwXwXwXwXwXwXwXwXwXwX=X.XT.T.T.P.B.( E D k f l K [ V d t < > - @ > 4 d b V V V V V b b z z u 6 5 = & % & % 0 J [ Y L j 6 . @ + + + + + @ . o                                                           o + > > > 3 y d 3 @   > 3 4 < 4 < 4 4 3 b {.wXwXwXwXwXwXwXwXwXwXwXwXwXwXwXwXwXwXwXwXwXwXwXwXwXwXwXwXwXwXwXwXwXwXwXwXwXwXwXwXwXwXwX",
"wXwXwXwXwXwXwXwXwXwXwXwXwXwXwXwXwXwXwXwXwXwXwXwXwXwXwXwXwXwXwXwXwXwXwXwXwXwXwXwXwXwXwXwXwXwXwXwXwXwXwXwXwXwXwXwXwXwXwXwXwXwXwXwXwXwXwXwXwXwXwXwXwXwXwXwXwXwXwXwXwXwXwXwXwXwXwXwXwXwXwXwXwXwXwXwXwXwXwX9X0X4X:XY.U.R.R.F.N.>.Y z k 0 l m ] V a t 1 > - > 1 p b V V g.] ] U V V m n j f 0 7 6 6 , = 9 j z n j 8 = $ . X @ . X @ @ o                                                             o + - + : 3 t d 3 o                     > *.{.2X6XwXwXwXwXwXwXwXwXwXwXwXwXwXwXwXwXwXwXwXwXwXwXwXwXwXwXwXwXwXwXwXwXwXwXwXwXwXwXwXwX",
"wXwXwXwXwXwXwXwXwXwXwXwXwXwXwXwXwXwXwXwXwXwXwXwXwXwXwXwXwXwXwXwXwXwXwXwXwXwXwXwXwXwXwXwXwXwXwXwXwXwXwXwXwXwXwXwXwXwXwXwXwXwXwXwXwXwXwXwXwXwXwXwXwXwXwXwXwXwXwXwXwXwXwXwXwXwXwXwXwXwXwXwXwXwXwXwXwXwXwX0X7X,X;X!.Q.Q.W.G.:.X.Y G l f l m ] b y 4 > > > 4 y d V g.] ] ] ] ] ] ] U m n z l l z j f 0 q q 0 7 5 = % # $   o . $ . .                                                                 o o o o > e p 3 o     o o o o         + a | (.2XwXwXwXwXwXwXwXwXwXwXwXwXwXwXwXwXwXwXwXwXwXwXwXwXwXwXwXwXwXwXwXwXwXwXwXwXwXwXwXwX",
"wXwXwXwXwXwXwXwXwXwXwXwXwXwXwXwXwXwXwXwXwXwXwXwXwXwXwXwXwXwXwXwXwXwXwXwXwXwXwXwXwXwXwXwXwXwXwXwXwXwXwXwXwXwXwXwXwXwXwXwXwXwXwXwXwXwXwXwXwXwXwXwXwXwXwXwXwXwXwXwXwXwXwXwXwXwXwXwXwXwXwXwXwXwXwXwXwXwXwX6X,X~.!.!.!.!.Q.M.! T L J l v v V V v t 3 > > 4 t d M ] { ] } }  .|  .| ] L V L m V U J z f f 7 5 & & & % $ $ .     # .                                                           .           o   + 4 y > X   o + + + o o             ] [.wXwXwXwXwXwXwXwXwXwXwXwXwXwXwXwXwXwXwXwXwXwXwXwXwXwXwXwXwXwXwXwXwXwXwXwXwXwXwXwX",
"wXwXwXwXwXwXwXwXwXwXwXwXwXwXwXwXwXwXwXwXwXwXwXwXwXwXwXwXwXwXwXwXwXwXwXwXwXwXwXwXwXwXwXwXwXwXwXwXwXwXwXwXwXwXwXwXwXwXwXwXwXwXwXwXwXwXwXwXwXwXwXwXwXwXwXwXwXwXwXwXwXwXwXwXwXwXwXwXwXwXwXwXwXwXwXwX0X7X2X1X7X,X:X~.!.!.Q.F.j.H D j d d v C V v y < < > 4 p x B ]  .| $.$.$.#.#.| | } ] U L L Y L L J n j f 0 8 6 7 6 , + X                                                           . .   . . . $ + . + $ % > 1 * @ o X X o o                 p *.{.>XwXwXwXwXwXwXwXwXwXwXwXwXwXwXwXwXwXwXwXwXwXwXwXwXwXwXwXwXwXwXwXwXwXwXwXwXwXwX",
"wXwXwXwXwXwXwXwXwXwXwXwXwXwXwXwXwXwXwXwXwXwXwXwXwXwXwXwXwXwXwXwXwXwXwXwXwXwXwXwXwXwXwXwXwXwXwXwXwXwXwXwXwXwXwXwXwXwXwXwXwXwXwXwXwXwXwXwXwXwXwXwXwXwXwXwXwXwXwXwXwXwXwXwXwXwXwXwXwXwXwXwXwXwXwXwX6X>X.X:X6X6X6X<X!.!.Q.F.j.H j y y d v b V v y 4 4 3 t d b V ] #.%.*.*.=.%.%.$.$...| ] ] U ] ]  . .] ] K J n l j d y > + o                                                       . & & . . # % & = = = 5 & + o . + + @ X o                   + > b _.wXwXwXwXwXwXwXwXwXwXwXwXwXwXwXwXwXwXwXwXwXwXwXwXwXwXwXwXwXwXwXwXwXwXwXwXwXwX",
"wXwXwXwXwXwXwXwXwXwXwXwXwXwXwXwXwXwXwXwXwXwXwXwXwXwXwXwXwXwXwXwXwXwXwXwXwXwXwXwXwXwXwXwXwXwXwXwXwXwXwXwXwXwXwXwXwXwXwXwXwXwXwXwXwXwXwXwXwXwXwXwXwXwXwXwXwXwXwXwXwXwXwXwXwXwXwXwXwXwXwXwXwXwX0X4X>X;XR.!.,X6X6X6X~.!.Q.V.j.F f < t d v b B v t 4 < 4 t d b V ] #.=.9.8.*.=.=.$.%.$...| {  .]  . .| | [ X.[ L L V b i 4 2 + .                                                     # & # # # # & & = 5 = = $ o   . + * @ o       o o @ @ o         > a.wXwXwXwXwXwXwXwXwXwXwXwXwXwXwXwXwXwXwXwXwXwXwXwXwXwXwXwXwXwXwXwXwXwXwXwXwXwX",
"wXwXwXwXwXwXwXwXwXwXwXwXwXwXwXwXwXwXwXwXwXwXwXwXwXwXwXwXwXwXwXwXwXwXwXwXwXwXwXwXwXwXwXwXwXwXwXwXwXwXwXwXwXwXwXwXwXwXwXwXwXwXwXwXwXwXwXwXwXwXwXwXwXwXwXwXwXwXwXwXwXwXwXwXwXwXwXwXwXwXwXwXwXwX7X>XOX!.Q.!.:X5X:X;X!.!.W.F.j.H q 4 y d x b M x e 4 4 t y s v V ] | =.8.9.8.*.8.*.=.=.=.$.+...} } | | | | |  . .] ] V b d y 1 ; + O o   o                                             $ # # # # # & = = & & $     + > > + o     @ : 1 < < 1 +       > a.wXwXwXwXwXwXwXwXwXwXwXwXwXwXwXwXwXwXwXwXwXwXwXwXwXwXwXwXwXwXwXwXwXwXwXwXwXwX",
"wXwXwXwXwXwXwXwXwXwXwXwXwXwXwXwXwXwXwXwXwXwXwXwXwXwXwXwXwXwXwXwXwXwXwXwXwXwXwXwXwXwXwXwXwXwXwXwXwXwXwXwXwXwXwXwXwXwXwXwXwXwXwXwXwXwXwXwXwXwXwXwXwXwXwXwXwXwXwXwXwXwXwXwXwXwXwXwXwXwXwXwXwXwX>X.XV.Q.!.!.!.~.!.!.!.!.I.n.j.H z 4 y s x b V d e 4 4 t y s d V } $.=.9.8.8.9.9.0.9.&.=.=.&.$.| | | | | | ..+.| | { ] V N x u 4 > ; + + X o o                                         # # # # # # # & & & $ # .   @ > , * o o + - < p s p y > o     3 a.wXwXwXwXwXwXwXwXwXwXwXwXwXwXwXwXwXwXwXwXwXwXwXwXwXwXwXwXwXwXwXwXwXwXwXwXwXwX",
"wXwXwXwXwXwXwXwXwXwXwXwXwXwXwXwXwXwXwXwXwXwXwXwXwXwXwXwXwXwXwXwXwXwXwXwXwXwXwXwXwXwXwXwXwXwXwXwXwXwXwXwXwXwXwXwXwXwXwXwXwXwXwXwXwXwXwXwXwXwXwXwXwXwXwXwXwXwXwXwXwXwXwXwXwXwX0X3X=X>X=X>X>X,X.XR.U.Q.!.!.!.!.!.!.!.!.K.n.j.H z y p d v b M d e < 4 e t s x V ] #.=.9.8.9.8.q.q.9.9.*.*.&.%.@.@.| | | | ..| $.| | ] ] ] V b a y 4 > > > > @ @ @ @ . @ o o                             . # # # . . # # # # .     X > 1 > > 1 4 A y p s a p 4 > +   > a.wXwXwXwXwXwXwXwXwXwXwXwXwXwXwXwXwXwXwXwXwXwXwXwXwXwXwXwXwXwXwXwXwXwXwXwXwXwX",
"wXwXwXwXwXwXwXwXwXwXwXwXwXwXwXwXwXwXwXwXwXwXwXwXwXwXwXwXwXwXwXwXwXwXwXwXwXwXwXwXwXwXwXwXwXwXwXwXwXwXwXwXwXwXwXwXwXwXwXwXwXwXwXwXwXwXwXwXwXwXwXwXwXwXwXwXwXwXwXwXwXwXwXwXwXwX4X|.C.y.s.C.C.C.P.U.Q.!.!.!.!.!.!.!.!.!.K.n.j.F k p a d b b V d e 4 3 < t y v V  .$.=.9.8.9.w.w.w.w.q.9.9.*.=.&.$.$.| | | @.#.+.$.| | |  .] V b b d p y 4 < 2 > > + + @ X o o o   o                       # # #                   o - 1 A y s v l d p p a p p A 1 o > S.wXwXwXwXwXwXwXwXwXwXwXwXwXwXwXwXwXwXwXwXwXwXwXwXwXwXwXwXwXwXwXwXwXwXwXwXwXwX",
"wXwXwXwXwXwXwXwXwXwXwXwXwXwXwXwXwXwXwXwXwXwXwXwXwXwXwXwXwXwXwXwXwXwXwXwXwXwXwXwXwXwXwXwXwXwXwXwXwXwXwXwXwXwXwXwXwXwXwXwXwXwXwXwXwXwXwXwXwXwXwXwXwXwXwXwXwXwXwXwXwXwXwXwX8X6X>X`.k.>.;./ j.k.B.R.!.!.!.!.!.!.!.!.!.Q.K.n.:.P z s d d v C C d A 1 < < e p d V  .$.=.9.9.9.q.w.w.w.q.q.8.8.7.=.&.$.-.-.-.-.#.o.#.#.o.o.-.} U ] g.V b d s t t A < 3 1 > - - - + + - @ @ o o               . #                     + ; e p x b M M b d d s s s s A - 2 0.}.&X$X-X4XwXwXwXwXwXwXwXwXwXwXwXwXwXwXwXwXwXwXwXwXwXwXwXwXwXwXwXwXwXwXwXwXwX",
"wXwXwXwXwXwXwXwXwXwXwXwXwXwXwXwXwXwXwXwXwXwXwXwXwXwXwXwXwXwXwXwXwXwXwXwXwXwXwXwXwXwXwXwXwXwXwXwXwXwXwXwXwXwXwXwXwXwXwXwXwXwXwXwXwXwXwXwXwXwXwXwXwXwXwXwXwXwXwXwXwXwXwXwX3X@X'.Z.n.c.) / b.P.P.U.!.!.!.!.!.!.!.!.!.Q.K.n.:.P z s d Z v b b s 3 > > > 4 p v V } $.=.*.2.9.0.q.w.w.8.q.q.8.8.7.&.=.$.$.o.-.o.$.$.$.#.#.-.-.| | } ] g.V b d s s s s y t A 4 < 4 3 > > : - + @ o                                 o > e p x V V _ _ V C l d s s s y A 4 V 2.i.w.p.$X4XwXwXwXwXwXwXwXwXwXwXwXwXwXwXwXwXwXwXwXwXwXwXwXwXwXwXwXwXwXwXwXwX",
"wXwXwXwXwXwXwXwXwXwXwXwXwXwXwXwXwXwXwXwXwXwXwXwXwXwXwXwXwXwXwXwXwXwXwXwXwXwXwXwXwXwXwXwXwXwXwXwXwXwXwXwXwXwXwXwXwXwXwXwXwXwXwXwXwXwXwXwXwXwXwXwXwXwXwXwXwXwXwXwXwXwXwXwX$Xy.y.n.n.k./ k.n.U.Y.I.W.!.!.!.!.!.!.!.!.Q.K.n.j.P z s s Z v b b y > : > > 4 y b V | $.%.&.*.9.8.9.q.q.q.q.q.q.9.7.8.7.*.$.o.-.#.$.=.#.$.#.#.o.o.$.$.#.| ] g.V b b b C b d s s s y 9 A 4 4 4 > > @ o                             o + < y b M ' ] ] ' _ V b v p s s s p y 4 : + - < s.&XwXwXwXwXwXwXwXwXwXwXwXwXwXwXwXwXwXwXwXwXwXwXwXwXwXwXwXwXwXwXwXwX",
"wXwXwXwXwXwXwXwXwXwXwXwXwXwXwXwXwXwXwXwXwXwXwXwXwXwXwXwXwXwXwXwXwXwXwXwXwXwXwXwXwXwXwXwXwXwXwXwXwXwXwXwXwXwXwXwXwXwXwXwXwXwXwXwXwXwXwXwXwXwXwXwXwXwXwXwXwXwXwXwXwX0X6X>X XZ.n.5.>.) / l.B.E.!.Q.!.Q.Q.!.!.!.!.!.!.Q.K.n.:.P z y d v b b v y > + - > 4 p v _ | #.-.-.$.=.*.9.9.9.q.8.9.q.9.9.2.9.f.*.=.$.&.*.=.#.#.#.#.#.o.$.$.#.#.-.} ] ] g.g.g.V C b b b v d y y y e 4 > > @ X                         o - 3 y x V _ ] ] ] _ _ V C l s s s s s s 4 > @ o + r.$XwXwXwXwXwXwXwXwXwXwXwXwXwXwXwXwXwXwXwXwXwXwXwXwXwXwXwXwXwXwXwXwX",
"wXwXwXwXwXwXwXwXwXwXwXwXwXwXwXwXwXwXwXwXwXwXwXwXwXwXwXwXwXwXwXwXwXwXwXwXwXwXwXwXwXwXwXwXwXwXwXwXwXwXwXwXwXwXwXwXwXwXwXwXwXwXwXwXwXwXwXwXwXwXwXwXwXwXwXwXwXwXwXwXwX6X,X.XR.U.B.~ Y / ) x.Y.Q.!.!.!.U.U.W.!.!.!.!.!.Q.K.n.j.P j t d b C v v t * @ + : < p b g.-.| ] ' | -.=.7.0.9.2.8.7.<.7.8.9.8.f.f.*.*.*.=.*.#.o.#.-.-.-.o.$.&.=.&.&.#.#.| | } } g.g.U g.V b d d p p y e < > ; @ .                   O - 2 y x b _ ] ] ] _ _ V V b v s p s a p s y 9 1 @ + d.&XwXwXwXwXwXwXwXwXwXwXwXwXwXwXwXwXwXwXwXwXwXwXwXwXwXwXwXwXwXwXwXwX",
"wXwXwXwXwXwXwXwXwXwXwXwXwXwXwXwXwXwXwXwXwXwXwXwXwXwXwXwXwXwXwXwXwXwXwXwXwXwXwXwXwXwXwXwXwXwXwXwXwXwXwXwXwXwXwXwXwXwXwXwXwXwXwXwXwXwXwXwXwXwXwXwXwXwXwXwXwXwXwXwXwX4X|.B.R.Q.B.~ J E ) x.P.Q.!.!.Q.U.I.U.W.!.!.!.!.Q.K.n.:.P f A p b b b d 4 : X + : 4 p b g.| ] V C ' | %.7.9.8.2.*.=.=.<.7.9.2.f.9.2.q.9.<.*.#.o.o.-.| -.-.#.=.=.=.*.*.$.o.#.#.| | | } } ' C v x d d p p y 4 2 + o                 @ + 3 e d b V _ _ ] _ _ B V B b d s s d a d s s p y > > i.$XwXwXwXwXwXwXwXwXwXwXwXwXwXwXwXwXwXwXwXwXwXwXwXwXwXwXwXwXwXwXwXwX",
"wXwXwXwXwXwXwXwXwXwXwXwXwXwXwXwXwXwXwXwXwXwXwXwXwXwXwXwXwXwXwXwXwXwXwXwXwXwXwXwXwXwXwXwXwXwXwXwXwXwXwXwXwXwXwXwXwXwXwXwXwXwXwXwXwXwXwXwXwXwXwXwXwXwXwXwXwXwXwXwXwX5XOXK.Y.U.B.~ L E h.b.Y.!.!.!.U.I.K.Y.I.W.!.!.!.Q.K.n.:.P z A p b C v d A : X + : < p v V ] g.v d g.| %.9.9.9.9.8.<.7.2.8.8.9.9.9.q.q.9.8.<.=.=.#.-.-.} -.-.o.$.$.&.$.$.$.&.$.$.-.| | } } g.V b x d d a y 4 > + o             X @ > 1 e y x b V _ _ V V M b b b v d d d d d d s s p y 4 t a.$XwXwXwXwXwXwXwXwXwXwXwXwXwXwXwXwXwXwXwXwXwXwXwXwXwXwXwXwXwXwXwXwX",
"wXwXwXwXwXwXwXwXwXwXwXwXwXwXwXwXwXwXwXwXwXwXwXwXwXwXwXwXwXwXwXwXwXwXwXwXwXwXwXwXwXwXwXwXwXwXwXwXwXwXwXwXwXwXwXwXwXwXwXwXwXwXwXwXwXwXwXwXwXwXwXwXwXwXwXwXwXwXwXwXwX5XOXP.Y.Y.M./ E ) k.n.P.Q.!.!.U.Y.M.Y.Y.U.W.!.!.!.Y.n.j.P j 4 s b b v d t : + : : < p b C g.b s p B #.=.8.9.9.2.8.9.9.8.9.2.8.9.q.q.8.q.9.9.<.*.=.| } | } } -.-.-.#.#.$.$.=.=.=.o.#.-.| } } ] V b x v d p 4 3 - o             + > < 4 y d b M V _ V M M b x x v d d d d l v d s s s p p v a.$XwXwXwXwXwXwXwXwXwXwXwXwXwXwXwXwXwXwXwXwXwXwXwXwXwXwXwXwXwXwXwXwX",
"wXwXwXwXwXwXwXwXwXwXwXwXwXwXwXwXwXwXwXwXwXwXwXwXwXwXwXwXwXwXwXwXwXwXwXwXwXwXwXwXwXwXwXwXwXwXwXwXwXwXwXwXwXwXwXwXwXwXwXwXwXwXwXwXwXwXwXwXwXwXwXwXwXwXwXwXwXwXwXwXwX5XOXI.K.M.c.~ X./ k.n.P.Q.!.!.W.I.M.B.Y.Y.Y.W.Q.U.K.n.:.P z A s b C l Z A > - - 1 A s v b V b s s V #.*.8.q.2.9.8.9.9.8.8.8.9.9.q.q.2.q.q.9.9.<.=.-.-.| | } -.| | | | | +.$.$.o.#.-.-.| | } } ] V b b b x p 4 > o o @ o X o + > > 4 y p d b b B V M b b v x d d d d x x v x p y y s s s b a.$XwXwXwXwXwXwXwXwXwXwXwXwXwXwXwXwXwXwXwXwXwXwXwXwXwXwXwXwXwXwXwXwX",
"wXwXwXwXwXwXwXwXwXwXwXwXwXwXwXwXwXwXwXwXwXwXwXwXwXwXwXwXwXwXwXwXwXwXwXwXwXwXwXwXwXwXwXwXwXwXwXwXwXwXwXwXwXwXwXwXwXwXwXwXwXwXwXwXwXwXwXwXwXwXwXwXwXwXwXwXwXwXwXwXwX5XOXI.G.c.1.O.E ) k.n.P.Q.!.!.!.U.M.n.v.K.Y.Y.U.U.K.n.j.P z A s b b b Z y 1 : > < t d v v b v d h V -.&.9.9.q.9.2.9.8.*.&.=.<.9.q.9.q.9.q.q.9.<.*.$.#.| | | } | |  .} } {  .| | | | | -.|  .} ] ] ] V B b v s 4 > > : + @ @ + > < 4 y s d d b M b b b x x d d d d d x v b d y 4 t p s s v H.$XwXwXwXwXwXwXwXwXwXwXwXwXwXwXwXwXwXwXwXwXwXwXwXwXwXwXwXwXwXwXwXwX",
"wXwXwXwXwXwXwXwXwXwXwXwXwXwXwXwXwXwXwXwXwXwXwXwXwXwXwXwXwXwXwXwXwXwXwXwXwXwXwXwXwXwXwXwXwXwXwXwXwXwXwXwXwXwXwXwXwXwXwXwXwXwXwXwXwXwXwXwXwXwXwXwXwXwXwXwXwXwXwXwXwX4XOX!.Z.3.O.[ E / k.B.P.E.!.!.!.U.M.n.b.n.K.K.K.K.K.v.:.W z t s v b v Z t 4 > 2 4 y d v v d Z v b g.} #.*.9.q.q.9.9.2.*.=.&.*.9.q.q.2.q.q.9.9.8.<.&.$.o.-.} |  .} { ] ] ] { ] } } | | -.| } } }  .} ] V V V b p 4 < 3 > > - > 4 y y p a i a v v b x x x d d i d d v b b b d t < t p p p d i.XXwXwXwXwXwXwXwXwXwXwXwXwXwXwXwXwXwXwXwXwXwXwXwXwXwXwXwXwXwXwXwXwX",
"wXwXwXwXwXwXwXwXwXwXwXwXwXwXwXwXwXwXwXwXwXwXwXwXwXwXwXwXwXwXwXwXwXwXwXwXwXwXwXwXwXwXwXwXwXwXwXwXwXwXwXwXwXwXwXwXwXwXwXwXwXwXwXwXwXwXwXwXwXwXwXwXwXwXwXwXwXwXwX7X>X<X;XW.V.5.,.X.X./ h.b.V.U.!.!.W.I.M.n.t.t.b.K.M.n.v.:.) P z y p d v v d 9 3 > < 4 y d v d d d v v b V ] $.8.8.9.q.9.8.8.*.&.*.*.f.9.q.q.q.q.q.8.7.*.&.#.-.-.| | | { { { ] ] ] } [ } }  . .} ] } } } } { ' V b d p y 4 < 4 3 4 p p p p d a d d x x x d d p p d d d b b B V b d y y p y < 4 ' w.+X3XwXwXwXwXwXwXwXwXwXwXwXwXwXwXwXwXwXwXwXwXwXwXwXwXwXwXwXwXwXwX",
"wXwXwXwXwXwXwXwXwXwXwXwXwXwXwXwXwXwXwXwXwXwXwXwXwXwXwXwXwXwXwXwXwXwXwXwXwXwXwXwXwXwXwXwXwXwXwXwXwXwXwXwXwXwXwXwXwXwXwXwXwXwXwXwXwXwXwXwXwXwXwXwXwXwXwXwXwXwXwX>X.XI.R.W.V.5.,.,.X./ ) l.n.P.R.!.W.Y.M.m.5.&.t.m.n.n.l.) / P z y s d p p p A 1 1 4 A y d v a p d d v Z d C | *.8.9.9.q.8.8.8.*.&.=.*.9.q.w.w.w.q.9.9.<.*.=.o.#.-.| | { { ] ] { ] ] ] ] ] ] ] ] ] ] ] }  .| } ' B b v a y t y y p d d d a a a d d x x d d d s d d x v b B V V B B v d s t - o > > { +XwXwXwXwXwXwXwXwXwXwXwXwXwXwXwXwXwXwXwXwXwXwXwXwXwXwXwXwXwXwX",
"wXwXwXwXwXwXwXwXwXwXwXwXwXwXwXwXwXwXwXwXwXwXwXwXwXwXwXwXwXwXwXwXwXwXwXwXwXwXwXwXwXwXwXwXwXwXwXwXwXwXwXwXwXwXwXwXwXwXwXwXwXwXwXwXwXwXwXwXwXwXwXwXwXwXwXwXwXwXwX*XL.Y.Y.Y.m.3.%.O.E / / l.B.P.R.!.U.Y.M.v.4.&.4.6.:.:.( / ~ P z y p p p y y 4 1 > 1 4 y p d s y p d d d p b } &.*.9.9.q.q.9.9.<.=.$.=.*.9.8.w.q.q.9.8.*.*.&.$.#.o.+. .{ { { { { ] ] } } ] } ] { ] ] ] ] } | ] ' V V b v s y p p s a d a p a d i d x d d p a s d d v b B V V _ _ V V b d y > @ o   x {.wXwXwXwXwXwXwXwXwXwXwXwXwXwXwXwXwXwXwXwXwXwXwXwXwXwXwXwXwXwX",
"wXwXwXwXwXwXwXwXwXwXwXwXwXwXwXwXwXwXwXwXwXwXwXwXwXwXwXwXwXwXwXwXwXwXwXwXwXwXwXwXwXwXwXwXwXwXwXwXwXwXwXwXwXwXwXwXwXwXwXwXwXwXwXwXwXwXwXwXwXwXwXwXwXwXwXwXwXwXwX4X;XQ.Y.F.N.<.O.X.Y Y W / v.P.Y.R.W.Y.M.N.;.&.&.O.~ ^ ) ~ I F w t t y p y A < > : 1 4 A p s p y y p s s s C ] #.=.*.<.8.9.q.9.8.*.=.$.*.*.8.q.8.8.9.<.=.=.&.#.$.$.@.| { { } } } }  .|  .|  .} ] ] ] ' ] ] ] ] ] V B v v d a s y y p y y p s a d d d x x d d a d x v b B V _ ' _ _ V V b d p < -   x {.wXwXwXwXwXwXwXwXwXwXwXwXwXwXwXwXwXwXwXwXwXwXwXwXwXwXwXwXwXwX",
"wXwXwXwXwXwXwXwXwXwXwXwXwXwXwXwXwXwXwXwXwXwXwXwXwXwXwXwXwXwXwXwXwXwXwXwXwXwXwXwXwXwXwXwXwXwXwXwXwXwXwXwXwXwXwXwXwXwXwXwXwXwXwXwXwXwXwXwXwXwXwXwXwXwXwXwXwXwX6X5X;XR.P.m.y.3.%.X.K F F Q l.n.P.R.U.Y.B.v.4.&.&.X.Y T P F F F w 9 y p y A 4 > : - > 2 A y p y 9 t y y s d C ] #.#.=.&.<.9.q.q.9.*.$.$.$.=.*.<.7.7.<.*.=.#.$.o.$.#.@.| ] ] } ] } } | | #.| +.| ] ] ] ' V V V V ' V B l v v x a y t t 4 y y p a a d d x d d d d x v b B V V _ ' ' ' ] ] V C b a 3 o d ).wXwXwXwXwXwXwXwXwXwXwXwXwXwXwXwXwXwXwXwXwXwXwXwXwXwXwXwXwXwX",
"wXwXwXwXwXwXwXwXwXwXwXwXwXwXwXwXwXwXwXwXwXwXwXwXwXwXwXwXwXwXwXwXwXwXwXwXwXwXwXwXwXwXwXwXwXwXwXwXwXwXwXwXwXwXwXwXwXwXwXwXwXwXwXwXwXwXwXwXwXwXwXwXwXwXwXwX8X6X2X<X!.I.G.C.y.3.%.T F F D R >.m.B.U.W.I.I.m.t.4.&.E Y T S F F S D g u u y 4 > > + > > 3 4 y y y t 9 9 t p d b g.} | $.$.=.9.9.0.9.8.*.=.$.=.=.=.=.=.*.&.=.o.$.o.#.#.| { ] _ _ _ _ ] { { } | | { ' _ V V V B B B V B b v b b b v p y t A t y y s d x v v v x d d d x b b V g.g.g.] ' ] ] ' V M d 4 @ 4 $.).=X4XwXwXwXwXwXwXwXwXwXwXwXwXwXwXwXwXwXwXwXwXwXwXwXwXwXwXwX",
"wXwXwXwXwXwXwXwXwXwXwXwXwXwXwXwXwXwXwXwXwXwXwXwXwXwXwXwXwXwXwXwXwXwXwXwXwXwXwXwXwXwXwXwXwXwXwXwXwXwXwXwXwXwXwXwXwXwXwXwXwXwXwXwXwXwXwXwXwXwXwXwXwXwXwXwX4X$XJ.L.Y.V.N.y.y.4.;.E F D l G E 5.B.R.!.W.I.V.M.5.,.X.Y G F F F F F S g u t < > : * > > 1 4 t y t t A t y p d b V g.] ] | $.<.9.9.9.9.7.=.%.$.$.$.%.%.$.=.#.$.o.$.o.} { ] ] _ V V V N ' ' { ] ] ] _ V B B B b b b b b v b M B B b s p t 4 A 4 y s x v b b b v x d d d b b V V ' V ' ] ] ] ] ' B b e @ o < d a.>XwXwXwXwXwXwXwXwXwXwXwXwXwXwXwXwXwXwXwXwXwXwXwXwXwXwXwX",
"wXwXwXwXwXwXwXwXwXwXwXwXwXwXwXwXwXwXwXwXwXwXwXwXwXwXwXwXwXwXwXwXwXwXwXwXwXwXwXwXwXwXwXwXwXwXwXwXwXwXwXwXwXwXwXwXwXwXwXwXwXwXwXwXwXwXwXwXwXwXwXwXwXwXwXwX3X.XK.F.B.n.C.y.5.>.! K D z i k Y ,.M.R.!.!.U.P.n.k.;.o.Y F F S F F F S w 0 4 > + + + + : > 3 A t t A A t t d Z b b C V V ] $.=.9.9.0.9.9.*.=.%.%.%.$.%.$.$.$.$.$.o.o.} { { ] _ V V N V _ ' ] { ] ] _ B V B B b b b b b v v b V V b x s y 4 4 A y s v b B V M b b v x v b B V ' ' g.' ] ] { ] ] V M p > o   o <.#XwXwXwXwXwXwXwXwXwXwXwXwXwXwXwXwXwXwXwXwXwXwXwXwXwXwXwX",
"wXwXwXwXwXwXwXwXwXwXwXwXwXwXwXwXwXwXwXwXwXwXwXwXwXwXwXwXwXwXwXwXwXwXwXwXwXwXwXwXwXwXwXwXwXwXwXwXwXwXwXwXwXwXwXwXwXwXwXwXwXwXwXwXwXwXwXwXwXwXwXwXwXwXwXwX3XOXR.I.M.n.n.l./ / H S f h s b Y ,.C.Y.W.U.I.P.n.N.4.O.Y F S S w g S S 0 7 > > + @ @ X + + > < 4 t A A t t p d v v v b M _ | =.8.9.9.9.9.9.2.=.=.=.=.=.&.=.$.#.$.o.o.-.|  .{ ] _ _ _ V ' ' ] ] { ' ' _ _ _ _ M M b b b v v b b B B b v y A A A y d b B V V V B M b M b b B V V ' g.' ] ] ] ] ] _ V d t > @ O 9.%XwXwXwXwXwXwXwXwXwXwXwXwXwXwXwXwXwXwXwXwXwXwXwXwXwXwXwX",
"wXwXwXwXwXwXwXwXwXwXwXwXwXwXwXwXwXwXwXwXwXwXwXwXwXwXwXwXwXwXwXwXwXwXwXwXwXwXwXwXwXwXwXwXwXwXwXwXwXwXwXwXwXwXwXwXwXwXwXwXwXwXwXwXwXwXwXwXwXwXwXwXwXwXwXwX4X<X!.U.M.m.m.z./ I F z u p p b ] %.c.G.I.I.W.P.M.n.5.O.X.G z w 9 q w w 0 < * - @ @ . o o o + > 2 4 4 A t t p d d d d v v V | %.*.9.9.9.9.0.2.7.9.8.8.2.7.=.=.o.$.#.o.$.#.|  .] ] ] ] ] ] ] ] ] ] ] ] ] ] ' ' V B b M b b v v b b B V b s t t t y d b B ' ' V _ V V V V B V V ' V g.] ] ] { { ] ' _ b d y : @ 9.%XwXwXwXwXwXwXwXwXwXwXwXwXwXwXwXwXwXwXwXwXwXwXwXwXwXwXwX",
"wXwXwXwXwXwXwXwXwXwXwXwXwXwXwXwXwXwXwXwXwXwXwXwXwXwXwXwXwXwXwXwXwXwXwXwXwXwXwXwXwXwXwXwXwXwXwXwXwXwXwXwXwXwXwXwXwXwXwXwXwXwXwXwXwXwXwXwXwXwXwXwXwXwXwXwX5XOXU.M.3.&.,.&.X.[ F l u p p v V ] 1.G.U.I.W.U.K.n.z.,.X.Y G j 9 0 w q 0 < * + O o o       @ + > 2 A A t y y s s s a d b V ] #.%.7.9.0.q.9.9.9.8.9.8.9.<.&.=.=.&.&.$.$.$.$.#.|  .{ { ] ] } } } } } |  .{ { ' _ _ _ _ V M b v b b M B b v d y t y s d v B V V _ V V V V V V V V g.g.g.' ] ' ] { ] _ V v p < > 0.$XwXwXwXwXwXwXwXwXwXwXwXwXwXwXwXwXwXwXwXwXwXwXwXwXwXwXwX",
"wXwXwXwXwXwXwXwXwXwXwXwXwXwXwXwXwXwXwXwXwXwXwXwXwXwXwXwXwXwXwXwXwXwXwXwXwXwXwXwXwXwXwXwXwXwXwXwXwXwXwXwXwXwXwXwXwXwXwXwXwXwXwXwXwXwXwXwXwXwXwXwXwXwXwXwX3X.XZ.7.] ] } |  . .U b s s a d c V &.C.P.I.W.U.K.M.N.4.;.X.T k 0 0 q w 0 , - + o           o o + > 4 A t t y y p p p v M V ] | +.=.9.9.9.q.9.7.7.9.9.8.<.*.*.*.*.*.=.#.$.$.$.$.+.| { ] }  .+.| +.| #.$.| { ' ' _ _ _ _ V b b v b b b b C b p 4 4 t y d b B V V V _ _ V g.V V V V V g.g.' ' ] ] ' ] V M v y A w.$XwXwXwXwXwXwXwXwXwXwXwXwXwXwXwXwXwXwXwXwXwXwXwXwXwXwXwX",
"wXwXwXwXwXwXwXwXwXwXwXwXwXwXwXwXwXwXwXwXwXwXwXwXwXwXwXwXwXwXwXwXwXwXwXwXwXwXwXwXwXwXwXwXwXwXwXwXwXwXwXwXwXwXwXwXwXwXwXwXwXwXwXwXwXwXwXwXwXwXwXwXwXwX7X4X*X`.t.=.] _ ]  .} ] V b s s d a a b X.5.K.U.W.I.I.K.n.5.>.;.T k 0 q q q 0 > - @               o @ > < 4 t t t 9 y y p d M V _ ] | $.&.9.9.9.8.2.9.2.7.9.9.f.9.9.9.8.=.=.$.$.$.$.#.| { ] } | #.#.#.$.$.$.+.{ { ] { { ] _ _ B B b v b b b B C a t 4 4 t s s x b B V V V _ V V V B C C C B V _ ' ' ' _ V M v s s p.$XwXwXwXwXwXwXwXwXwXwXwXwXwXwXwXwXwXwXwXwXwXwXwXwXwXwXwX",
"wXwXwXwXwXwXwXwXwXwXwXwXwXwXwXwXwXwXwXwXwXwXwXwXwXwXwXwXwXwXwXwXwXwXwXwXwXwXwXwXwXwXwXwXwXwXwXwXwXwXwXwXwXwXwXwXwXwXwXwXwXwXwXwXwXwXwXwXwXwXwXwXwXqX>XOXL.u.e.8.*.=.*.=.} V v d y y y y y a E 6.B.P.W.U.I.K.n.m.:.~ T S g q w 0 5 * + o                 o + 1 2 4 t t t y p a x b V _ ] | $.=.=.8.9.7.9.8.9.7.2.9.8.9.8.9.<.*.=.%.$.$.#.| | } } } | #.#.#.$.$.$.$.+.+.|  .} ] ' ' V V b b v v b b b d p t y y y t y s v b M B B V b b Z d d d d x b M B B V B b b a d i.#XwXwXwXwXwXwXwXwXwXwXwXwXwXwXwXwXwXwXwXwXwXwXwXwXwXwXwX",
"wXwXwXwXwXwXwXwXwXwXwXwXwXwXwXwXwXwXwXwXwXwXwXwXwXwXwXwXwXwXwXwXwXwXwXwXwXwXwXwXwXwXwXwXwXwXwXwXwXwXwXwXwXwXwXwXwXwXwXwXwXwXwXwXwXwXwXwXwXwXwXwXwX4X.Xk.>.,.8.q.w.w.w.9.} b s y A 4 A A 4 y K k.n.K.W.I.I.P.B.n.x.~ Y K w w q 9 = * +                   @ @ > > 4 4 4 t y s x b b V V ] { +.$.=.*.7.2.7.9.8.9.8.8.2.8.9.<.9.<.7.*.=.$.+.| | } ] } | #.#.#.$.$.%.=.$.$.#.-.| } ] ] ' V V b v x d d b d a s p y t > 3 t s a v b b b v d p t A A A y s d d b b b b v d v i.#XwXwXwXwXwXwXwXwXwXwXwXwXwXwXwXwXwXwXwXwXwXwXwXwXwXwXwX",
"wXwXwXwXwXwXwXwXwXwXwXwXwXwXwXwXwXwXwXwXwXwXwXwXwXwXwXwXwXwXwXwXwXwXwXwXwXwXwXwXwXwXwXwXwXwXwXwXwXwXwXwXwXwXwXwXwXwXwXwXwXwXwXwXwXwXwXwXwXwXwXwXwX6X X>.,.9.0.w.w.q.8.$.' Z p t 4 4 A A 4 7 G 6.n.K.I.I.I.P.B.b.b.~ Y T k w w 6 , * X o                 o @ + > 3 4 t t y d v b b B _ ] { | | $.$.*.*.9.9.9.9.9.9.8.2.9.9.8.9.8.*.%.$.+.| | | }  . .| | | #.#.$.$.$.$.| | } ] ] ] ] ' V b b v d d d d a s p y 4 3 3 t y p s a d Z d p p y A 4 4 3 4 e y p s d d d d d i.$XwXwXwXwXwXwXwXwXwXwXwXwXwXwXwXwXwXwXwXwXwXwXwXwXwXwXwX",
"wXwXwXwXwXwXwXwXwXwXwXwXwXwXwXwXwXwXwXwXwXwXwXwXwXwXwXwXwXwXwXwXwXwXwXwXwXwXwXwXwXwXwXwXwXwXwXwXwXwXwXwXwXwXwXwXwXwXwXwXwXwXwXwXwXwXwXwXwXwXwXwXwX6X|.<.9.u.i.w.q.=.#.] b d y t A A A 4 < 4 z E k.M.P.I.I.K.n.n.:.~ E T k 0 0 6 5 * + o                 o X + > > 4 t y s d b b M B V ] ] { } | -.$.*.8.8.9.q.9.9.9.2.8.8.9.8.9.*.%.$.$.$.#.|  . .} } } ] | | $.o.$.#.| } ] ] ] ] ' ' V V b v d d a a a p p y t 4 e t y y y y y y p y y y t 4 1 + : > > 4 4 y p s s d i.$XwXwXwXwXwXwXwXwXwXwXwXwXwXwXwXwXwXwXwXwXwXwXwXwXwXwXwX",
"wXwXwXwXwXwXwXwXwXwXwXwXwXwXwXwXwXwXwXwXwXwXwXwXwXwXwXwXwXwXwXwXwXwXwXwXwXwXwXwXwXwXwXwXwXwXwXwXwXwXwXwXwXwXwXwXwXwXwXwXwXwXwXwXwXwXwXwXwXwXwXwXwX3X[.9.e.D.H.e.*.#.' B Z y t t t t A 4 4 < f R j.b.P.I.I.V.b.N.>./ ^ T k w q 0 5 = > @ o         o     . @ @ > > 4 4 y s d b b b B V ' ' ' _ ] } -.&.7.9.9.9.q.q.9.9.8.2.9.*.<.=.=.$.o.$.o.-.-.| } { ] ] { | | | #.| } ] ] ' ] ' ] ' V V b v d d a a d s y y t t t t y t 4 e t t 9 t t y y 4 * @ @ X + - > < y y p i w.@XwXwXwXwXwXwXwXwXwXwXwXwXwXwXwXwXwXwXwXwXwXwXwXwXwXwXwX",
"wXwXwXwXwXwXwXwXwXwXwXwXwXwXwXwXwXwXwXwXwXwXwXwXwXwXwXwXwXwXwXwXwXwXwXwXwXwXwXwXwXwXwXwXwXwXwXwXwXwXwXwXwXwXwXwXwXwXwXwXwXwXwXwXwXwXwXwXwXwXwX7X-X].D.r.y.H.H.e.#.' B d s t t t t A t A 4 t j R / l.V.I.I.K.n.C.>.~ E F F S w 0 7 5 * + o             o o X @ + > 1 4 t p d b b v b b M M M V V U | $.*.9.9.q.9.q.9.8.9.9.8.*.=.=.%.$.o.$.$.$.-.| | } } ] ] { |  . .} { ] ] ] ] ] ' V V B b v v d d d d d s p y y y y y y 4 4 t A A A 4 2 < 2 > > @ o o + - > 4 4 y a | (.-X7XwXwXwXwXwXwXwXwXwXwXwXwXwXwXwXwXwXwXwXwXwXwXwXwXwX",
"wXwXwXwXwXwXwXwXwXwXwXwXwXwXwXwXwXwXwXwXwXwXwXwXwXwXwXwXwXwXwXwXwXwXwXwXwXwXwXwXwXwXwXwXwXwXwXwXwXwXwXwXwXwXwXwXwXwXwXwXwXwXwXwXwXwXwXwXwXwXwX>Xs.&.t.H.(._.H.2.] C d y t A A A t t A y A A l P ^ l.n.V.I.K.n.C.>.~ T S F F k w w 8 = % o         o o   o   @ + : > 1 4 y d v v x d x d x x x M V { #.*.7.9.0.q.0.9.8.2.8.<.=.&.$.$.o.$.o.$.$.o.#.#.| } { ] ] ] ] ] ] ] ] ] ] ] ] ] V B b v v v d b v x d d a s s p p y y t t t A 4 1 1 > 1 > 2 > +       @ - 3 4 y p b ] r.*XwXwXwXwXwXwXwXwXwXwXwXwXwXwXwXwXwXwXwXwXwXwXwXwXwX",
"wXwXwXwXwXwXwXwXwXwXwXwXwXwXwXwXwXwXwXwXwXwXwXwXwXwXwXwXwXwXwXwXwXwXwXwXwXwXwXwXwXwXwXwXwXwXwXwXwXwXwXwXwXwXwXwXwXwXwXwXwXwXwXwXwXwXwXwXwXwXwX=Xr.%.r.)._.'.S.*.' v p t A A 4 A A A 4 A 4 9 h z W l.n.n.V.V.n.6./ ~ T F F S f w 0 6 & + o             .   o . @ + : > < t s d d d d x x x x b b V ] #.=.7.2.9.q.q.8.8.8.*.*.=.$.$.$.$.o.o.-.-.-.| |  .} ] ' ' ' ' ' ' ' V ' ' ' V ' V b b v d d d d d d d d d a a s s s p y t t A 4 1 > > > 2 2 > +       o + > 3 < 4 p b ..$XwXwXwXwXwXwXwXwXwXwXwXwXwXwXwXwXwXwXwXwXwXwXwXwXwX",
"wXwXwXwXwXwXwXwXwXwXwXwXwXwXwXwXwXwXwXwXwXwXwXwXwXwXwXwXwXwXwXwXwXwXwXwXwXwXwXwXwXwXwXwXwXwXwXwXwXwXwXwXwXwXwXwXwXwXwXwXwXwXwXwXwXwXwXwXwXwXwX=Xs.0.y._._._.S.*.V d y r r e e e A 4 4 4 < 4 u k R ( v.n.n.n.n.:./ ~ F F S w w 0 5 % + @ o o               . o o @ + > 3 t t p p s s v b b b b V _ ] | $.=.2.9.9.9.9.9.*.=.$.%.$.$.$.$.#.+.| | | |  .{ ] ' V V V V V V V V V V V V B B B b b d a a a d a d d d d d d a p p y y y t 4 1 > 1 < 4 1 > +         o @ > > > t s | }.wXwXwXwXwXwXwXwXwXwXwXwXwXwXwXwXwXwXwXwXwXwXwXwXwX",
"wXwXwXwXwXwXwXwXwXwXwXwXwXwXwXwXwXwXwXwXwXwXwXwXwXwXwXwXwXwXwXwXwXwXwXwXwXwXwXwXwXwXwXwXwXwXwXwXwXwXwXwXwXwXwXwXwXwXwXwXwXwXwXwXwXwXwXwXwXwXwX>XS.r.(.`._._.S.*.V a p r r y e e 4 4 3 1 1 3 9 f U ~ b.n.n.n.v.:./ Q F F g q w 6 , & + % + .           o   o     o @ : 1 4 A 9 y s d b B B B V V _ { | $.&.*.*.9.*.*.9.=.%.$.+.$.o.#.$.+. .} }  .{ { ] ' ' V B M b V b B B b M B B B b b b v a a a s s s a d b v b d d p p p y y A < > > 1 4 < 2 > +           o @ @ % 1 4 ] ].wXwXwXwXwXwXwXwXwXwXwXwXwXwXwXwXwXwXwXwXwXwXwXwXwX",
"wXwXwXwXwXwXwXwXwXwXwXwXwXwXwXwXwXwXwXwXwXwXwXwXwXwXwXwXwXwXwXwXwXwXwXwXwXwXwXwXwXwXwXwXwXwXwXwXwXwXwXwXwXwXwXwXwXwXwXwXwXwXwXwXwXwXwXwXwXwXwX2X}.D.)._._.`.p.%.M x d y y p y e A 3 > > > > 4 y z ^ v.n.n.n.j./ / E F S f w 0 6 0 g w 8 6 = .             . o + + > > 1 < 4 A p a v B V V V V ' ' ] } +.$.%.=.=.=.=.=.%.$. .| |  .| | | } }  .| | | | { ] ' V M b V b C B B B B B b b b v d a a p p s p d d v v d d a p p p y y A 4 1 > 1 < 2 > : +             . o X + > V _.wXwXwXwXwXwXwXwXwXwXwXwXwXwXwXwXwXwXwXwXwXwXwXwXwX",
"wXwXwXwXwXwXwXwXwXwXwXwXwXwXwXwXwXwXwXwXwXwXwXwXwXwXwXwXwXwXwXwXwXwXwXwXwXwXwXwXwXwXwXwXwXwXwXwXwXwXwXwXwXwXwXwXwXwXwXwXwXwXwXwXwXwXwXwXwXwXwX2X}.`._._.`.s.0.$.N x d p d p p y t 3 > : + + > 3 h W b.n.n.x.( / ) K F S 0 0 6 0 F W W F g 6 #           .   o + > < 3 3 3 4 4 p x B V ' ] ] ' ] ] ] {  .| #.$.$.%.%.$.$.| } } {  . .} } } } | #.$.#.$.| } ] V M V b V b V b b B B B b b v d d a p p p p a d d d a a s p p p p t A 4 2 1 1 > 1 > - o                   o o v _.wXwXwXwXwXwXwXwXwXwXwXwXwXwXwXwXwXwXwXwXwXwXwXwXwX",
"wXwXwXwXwXwXwXwXwXwXwXwXwXwXwXwXwXwXwXwXwXwXwXwXwXwXwXwXwXwXwXwXwXwXwXwXwXwXwXwXwXwXwXwXwXwXwXwXwXwXwXwXwXwXwXwXwXwXwXwXwXwXwXwXwXwXwXwX9X7X2X-X|.`._._.(.r.8.| M b b x x M x d y 3 : + + + + > 9 T >.h.h./ / / E F F k 0 q k F ~ ( ) H D 0 $             o X + > 1 > > > 1 4 y d B V ] ] ] ] ] ' _ ' ] } | | #.| +.| +. .} { { } }  .| }  .+.#.$.$.| | } ] ' V V V V V B V B B B b C b b x a a p s a d a d d d d t s s p p y t 4 4 > > * - > + - o                       p _.wXwXwXwXwXwXwXwXwXwXwXwXwXwXwXwXwXwXwXwXwXwXwXwXwX",
"wXwXwXwXwXwXwXwXwXwXwXwXwXwXwXwXwXwXwXwXwXwXwXwXwXwXwXwXwXwXwXwXwXwXwXwXwXwXwXwXwXwXwXwXwXwXwXwXwXwXwXwXwXwXwXwXwXwXwXwXwXwXwXwXwXwXwXwX7X-X]._.'._._.`.p.9.$.] M M M V _ ] _ x y < : + + @ + + 4 D Q / / / ) E F F S F S F Q / j.v.j.~ F 0 &             o @ + + : + + - > > y d B V ] ' ] ' V V V V _ ] ] }  . .| |  .} ] { { } | | +.+.| $.$.| |  .{ ] ' ' ' ] ] ] ] ' V B B B C B V B b d d d d d d d d d s s s s s y p p t 4 1 : + @ @ . @ +                         y _.wXwXwXwXwXwXwXwXwXwXwXwXwXwXwXwXwXwXwXwXwXwXwXwXwX",
"wXwXwXwXwXwXwXwXwXwXwXwXwXwXwXwXwXwXwXwXwXwXwXwXwXwXwXwXwXwXwXwXwXwXwXwXwXwXwXwXwXwXwXwXwXwXwXwXwXwXwXwXwXwXwXwXwXwXwXwXwXwXwXwXwXwXwXwX4X].9.r.D._._._.r.*.] ` M V _ ] { +.] b s 4 * + @ @ X X > f F T ) ) I F F S k F H Q :.b.n.B.k.) F f & .           o @ + o @ @ @ @ + > 4 a b B ' ] ] ' V B B M B V ] ] ] ] { { ] { { } }  .| $.$.$.$.#.$.+. .] ' ' _ ' ] ] | | ] ] V B B B b V _ _ b d x v v v v d a p p s s p t p p y A < > + o       o o o                       p _.wXwXwXwXwXwXwXwXwXwXwXwXwXwXwXwXwXwXwXwXwXwXwXwXwX",
"wXwXwXwXwXwXwXwXwXwXwXwXwXwXwXwXwXwXwXwXwXwXwXwXwXwXwXwXwXwXwXwXwXwXwXwXwXwXwXwXwXwXwXwXwXwXwXwXwXwXwXwXwXwXwXwXwXwXwXwXwXwXwXwXwXwXwXwX3X].9.w.A.(.(.D.e.o.] V M V _ ] { | ] M d t > - + o o o * 0 S F P I F F F F F F Q / v.n.F.U.B.( I S q , +           @ @ + X o o o @ - 3 p d b V ' ] ' _ B b b b V V V ] ] ] ] ] { }  . .| +.$.| |  .| | } ] ] V B B V B _ _ ] _ B B b v v v b B B V B b v v v v b d d s s s p p p t A 4 > + @                                     y _.wXwXwXwXwXwXwXwXwXwXwXwXwXwXwXwXwXwXwXwXwXwXwXwXwX",
"wXwXwXwXwXwXwXwXwXwXwXwXwXwXwXwXwXwXwXwXwXwXwXwXwXwXwXwXwXwXwXwXwXwXwXwXwXwXwXwXwXwXwXwXwXwXwXwXwXwXwXwXwXwXwXwXwXwXwXwXwXwXwXwXwXwXwXwX4X{.0.9.w.r.r.w.8.+.' _ M V ] { ] ] ' b d y < > + @ o o + = 0 k F F F F F F G R ( j.b.K.U.E.P.k./ R S q , .       o . @ + + X     o X > t s v M V ' ' V B b b v M B _ _ ' ' ' ] ] { | #.#.$.$.| } ] ] } ] ' ' V b b b b b b b b b x d a d s d v b V ] _ b v v b b v d d s s p p t A A > % @ o                                     y _.wXwXwXwXwXwXwXwXwXwXwXwXwXwXwXwXwXwXwXwXwXwXwXwXwX",
"wXwXwXwXwXwXwXwXwXwXwXwXwXwXwXwXwXwXwXwXwXwXwXwXwXwXwXwXwXwXwXwXwXwXwXwXwXwXwXwXwXwXwXwXwXwXwXwXwXwXwXwXwXwXwXwXwXwXwXwXwXwXwXwXwXwXwXwX4X].9.9.q.q.q.w.*.| ' V M V _ ] ] _ V V b p 4 > - @ o o X * = 0 k F F F F F R Q / v.M.I.R.!.R.M.( Q F S 6 O         o X + + +   o X X > 4 y a b V V ' V M b b v b B B V ' V ' ] ] ]  .$.$.#.#.} ] ' ] ] ] ] ' V B B b M b b b b b v d d d a d d v V ] V b d d d d d s s y s p s t A 4 : @ o                                       y ).wXwXwXwXwXwXwXwXwXwXwXwXwXwXwXwXwXwXwXwXwXwXwXwXwX",
"wXwXwXwXwXwXwXwXwXwXwXwXwXwXwXwXwXwXwXwXwXwXwXwXwXwXwXwXwXwXwXwXwXwXwXwXwXwXwXwXwXwXwXwXwXwXwXwXwXwXwXwXwXwXwXwXwXwXwXwXwXwXwXwXwXwXwXwX5X{.=.&.*.2.9.0.=.| ' _ M V V _ V V V B b a 4 > * @ @ X X + * 5 w F F F W Q ~ / / x.M.P.R.!.R.M.( Q F g 6 +           X + - + @ @ + + * > 4 p x b B V b b v v v b B V V _ ' ] ] ] } | | $.|  .] ' V ' ] ] } } { ] ' ] ' ] ] ' V V B b v d d d d d x b x a s p y t t 4 t t A t t A 4 3 - o                                         y _.wXwXwXwXwXwXwXwXwXwXwXwXwXwXwXwXwXwXwXwXwXwXwXwXwX",
"wXwXwXwXwXwXwXwXwXwXwXwXwXwXwXwXwXwXwXwXwXwXwXwXwXwXwXwXwXwXwXwXwXwXwXwXwXwXwXwXwXwXwXwXwXwXwXwXwXwXwXwXwXwXwXwXwXwXwXwXwXwXwXwXwXwXwXwX4X{.&.$.| $.=.8.$.| ' V M M V V V V b V B d y 4 > + @ @   o   & 0 k F W / / / / / l.M.I.R.!.U.M./ Q F S 6 .         o X - > - - + - + - > 3 t a d b b b v v v v b B B V _ ] ] } } } | $.| | { ' V V V ] { | +.#.#.#.#.+.#.#.| { ] V V b b v d a p y y y y y 4 > > > > 3 4 A 4 4 3 4 > + o                                         y _.wXwXwXwXwXwXwXwXwXwXwXwXwXwXwXwXwXwXwXwXwXwXwXwXwX",
"wXwXwXwXwXwXwXwXwXwXwXwXwXwXwXwXwXwXwXwXwXwXwXwXwXwXwXwXwXwXwXwXwXwXwXwXwXwXwXwXwXwXwXwXwXwXwXwXwXwXwXwXwXwXwXwXwXwXwXwXwXwXwXwXwXwXwXwX5X].=.$.| | o.%.$. .] _ V V V V V M M b b a t 4 > : + @     X * , 0 S W ) ( x./ / x.M.I.U.!.U.n.>./ ) R q +           o - > > : * - - - > 3 e y s d x x d x x v b B B _ ' ] { }  . .| $.#. .] ' V V ' ] } | #.#.#.#.#.#.#.#.+.} ] _ B b b x d a p y y t A 4 > > + + + * > > > > : : + X                                           y _.wXwXwXwXwXwXwXwXwXwXwXwXwXwXwXwXwXwXwXwXwXwXwXwXwX",
"wXwXwXwXwXwXwXwXwXwXwXwXwXwXwXwXwXwXwXwXwXwXwXwXwXwXwXwXwXwXwXwXwXwXwXwXwXwXwXwXwXwXwXwXwXwXwXwXwXwXwXwXwXwXwXwXwXwXwXwXwXwXwXwXwXwXwXwX4X{.=.#. .}  .|  .} ] ' V M M V V V V b v s t < > > + @ X o   X $ , w F ) z.M.z./ x.M.K.Y.R.V.n.( / / R w + .         o + : > > > : - > > > < t y y p s d d x v b b B ' ] ] ] } | -.$.$.| } ] ] ' ] ] ] } | #.#.#.#.#.#.#.+.+. .] V V M v x d s y p y e < > : + o o o X @ @ @ @ @ o o                                             y _.wXwXwXwXwXwXwXwXwXwXwXwXwXwXwXwXwXwXwXwXwXwXwXwXwX",
"wXwXwXwXwXwXwXwXwXwXwXwXwXwXwXwXwXwXwXwXwXwXwXwXwXwXwXwXwXwXwXwXwXwXwXwXwXwXwXwXwXwXwXwXwXwXwXwXwXwXwXwXwXwXwXwXwXwXwXwXwXwXwXwXwXwX8XwX-XH.=.| ] ' ] ] ] } ] ' V V M M V V M b a y t 4 < > : @ o X .     % 0 S / k.M.k./ x.n.M.Y.Y.B.b.( ) / W f = O         o - : > > > * - - : > > 4 4 t y s s d x x b M V ' { { } | #.$.$.#.|  .] ' ] ] ] ] } | #.#.| #.#.+.| | } ] ] V B b b x d d s p p e 1 - + @           o                                                       y _.wXwXwXwXwXwXwXwXwXwXwXwXwXwXwXwXwXwXwXwXwXwXwXwXwX",
"wXwXwXwXwXwXwXwXwXwXwXwXwXwXwXwXwXwXwXwXwXwXwXwXwXwXwXwXwXwXwXwXwXwXwXwXwXwXwXwXwXwXwXwXwXwXwXwXwXwXwXwXwXwXwXwXwXwXwXwXwXwXwXwXwXwX6X$X/.0.#.} V B V ' ] ] } ' V V V M V V b d s y t 4 4 3 > + X X   o   % 5 f P / j.( / x.n.B.U.U.B.n.( / ) R S 8 , .       o + - > > : + + + + + > 3 4 y y s x x x v b B B ' ]  .| | #.$.#.|  .{ ' ] ' ] ] ] ] } }  .} } } } { ' ] V V V B M b v x d a s y y 2 > + o                                                                   y ).wXwXwXwXwXwXwXwXwXwXwXwXwXwXwXwXwXwXwXwXwXwXwXwXwX",
"wXwXwXwXwXwXwXwXwXwXwXwXwXwXwXwXwXwXwXwXwXwXwXwXwXwXwXwXwXwXwXwXwXwXwXwXwXwXwXwXwXwXwXwXwXwXwXwXwXwXwXwXwXwXwXwXwXwXwXwXwXwXwXwXwXwX*Xr.| +.| ] b b b M V ] ] ' V V V V V V b a t t t 4 4 < > : @ @ o     X = 6 w I ) / / x.n.n.V.I.B.b.l./ / / P k 6 #         X - - * : +     o o - > < y p d v v v v b V V ] ] | #.$.$.$.| } ] ] ' ' ' ] ] ] ] ] ] ] ] ] ] ] _ V B M B B M b b x x x x a p t < > + o                                                                   y _.wXwXwXwXwXwXwXwXwXwXwXwXwXwXwXwXwXwXwXwXwXwXwXwXwX",
"wXwXwXwXwXwXwXwXwXwXwXwXwXwXwXwXwXwXwXwXwXwXwXwXwXwXwXwXwXwXwXwXwXwXwXwXwXwXwXwXwXwXwXwXwXwXwXwXwXwXwXwXwXwXwXwXwXwXwXwXwXwXwXwXwXwX-X&.V ] ] B x d x v b V ' _ V V _ V V V b a t t t e t 4 3 > - + o o X X % , q S I / / ( v.n.M.M.M.n.( / / / P F q &         X + - : : + X o     + - 3 t p h b v b v b B V ' ]  .| $.#.#. .} ] ' _ ' ] ] ] ] ] ] ] ] ] ] ] ] ' _ V V V V V V b b v b v d s y 4 1 + o                                                                   y _.wXwXwXwXwXwXwXwXwXwXwXwXwXwXwXwXwXwXwXwXwXwXwXwXwX",
"wXwXwXwXwXwXwXwXwXwXwXwXwXwXwXwXwXwXwXwXwXwXwXwXwXwXwXwXwXwXwXwXwXwXwXwXwXwXwXwXwXwXwXwXwXwXwXwXwXwXwXwXwXwXwXwXwXwXwXwXwXwXwXwXwXwX+X..V V b b s y p p d b M V V _ ] ] V V b s y t t t t t 4 < > + + o o o @ % 5 q S I ) / ( l.b.n.M.x.( / / / P S q &         X + - > > + X o     X + > A p d b b b b B B V ' ]  .$.#.|  .] ] ' _ B ' ] ] ] ] ] ] ] ] ] }  .| { ' _ _ _ _ _ _ V b b b b x d p y < > o                                                                   y _.wXwXwXwXwXwXwXwXwXwXwXwXwXwXwXwXwXwXwXwXwXwXwXwXwX",
"wXwXwXwXwXwXwXwXwXwXwXwXwXwXwXwXwXwXwXwXwXwXwXwXwXwXwXwXwXwXwXwXwXwXwXwXwXwXwXwXwXwXwXwXwXwXwXwXwXwXwXwXwXwXwXwXwXwXwXwXwXwXwXwXwXwX$X3.] V x a y y e e p a b b B _ ] } ' V b d y y y t y y t 4 2 * + @ o o o X * 5 w S I / / / ( l.k.( / / / / P F w = X       o X + : : : @ X o   o + > 4 p d b M B B B V V V ]  .| |  .] ] ] ' _ V V V ] ' ] ' ] ] ] ] } | $.| { ] ] { ] ] ] _ V V V V b b d y 4 > o                                                                   y _.wXwXwXwXwXwXwXwXwXwXwXwXwXwXwXwXwXwXwXwXwXwXwXwXwX",
"wXwXwXwXwXwXwXwXwXwXwXwXwXwXwXwXwXwXwXwXwXwXwXwXwXwXwXwXwXwXwXwXwXwXwXwXwXwXwXwXwXwXwXwXwXwXwXwXwXwXwXwXwXwXwXwXwXwXwXwXwXwXwXwXwXwX7X$X/.$.a p p y 4 3 4 p d b V ' | +.{ _ b d s s p p s a p t 4 > - + X X X X * = 6 k F I / / / / ) / / / / / P S q & .         o + * : : - @   o o X - 1 A p v b b b b V V V ' ' } } ' ' V g.V V V V V V V _ ' }  .|  .| $.$.+.| | +.| | | | } { { ] ] V B b s y > @                                                                   y _.wXwXwXwXwXwXwXwXwXwXwXwXwXwXwXwXwXwXwXwXwXwXwXwXwX",
"wXwXwXwXwXwXwXwXwXwXwXwXwXwXwXwXwXwXwXwXwXwXwXwXwXwXwXwXwXwXwXwXwXwXwXwXwXwXwXwXwXwXwXwXwXwXwXwXwXwXwXwXwXwXwXwXwXwXwXwXwXwXwXwXwXwXwXwX@Xe.s p p t 3 - > y d b V { +.%.| ' B b d d d d x v a y A 4 > - + X X X + + , 0 S F Q / / / / / / / / / P F q 5 . o         + - > > * + X       X > 4 y d v b B m b b V V ' ' ' V V V V V B B B B B B B g.} #.#.#.#.$.$.=.$.=.$.=.=.$.$.$.$.@.| | { _ V d p < +                                                                   y ).wXwXwXwXwXwXwXwXwXwXwXwXwXwXwXwXwXwXwXwXwXwXwXwXwX",
"wXwXwXwXwXwXwXwXwXwXwXwXwXwXwXwXwXwXwXwXwXwXwXwXwXwXwXwXwXwXwXwXwXwXwXwXwXwXwXwXwXwXwXwXwXwXwXwXwXwXwXwXwXwXwXwXwXwXwXwXwXwXwXwXwXwXwXwX$Xi.a d d p 4 > 4 p x M _ | $.%.| _ M v x v v v b v p y 4 1 1 > - + + + + + * 5 w S P ) / / / / / ) / W F F q = & .         o - : > > - + o o   X - > A p d b B b B V V V V V V V B V V V B B B b b M B V } | | -.-.$.$.=.=.=.=.=.=.&.=.=.=.$.$.@.|  ._ b a < + X                                                                 y _.wXwXwXwXwXwXwXwXwXwXwXwXwXwXwXwXwXwXwXwXwXwXwXwXwX",
"wXwXwXwXwXwXwXwXwXwXwXwXwXwXwXwXwXwXwXwXwXwXwXwXwXwXwXwXwXwXwXwXwXwXwXwXwXwXwXwXwXwXwXwXwXwXwXwXwXwXwXwXwXwXwXwXwXwXwXwXwXwXwXwXwXwXwXwX%Xy.b b v d t 3 y d M ` { | $.$.] M b b b b b b b d y 4 1 1 > > > * - - + * * , 6 q S F I / / / / Q H F F w 6 5 & .         o X - > 1 > - X     o X - > 4 p d b b B b C B B b b b B B B B B B b b b b B V ] } | | -.-.-.#.$.=.$.=.=.=.=.=.=.=.$.$.| | ] M d y > + o                                                               p _.wXwXwXwXwXwXwXwXwXwXwXwXwXwXwXwXwXwXwXwXwXwXwXwXwX",
"wXwXwXwXwXwXwXwXwXwXwXwXwXwXwXwXwXwXwXwXwXwXwXwXwXwXwXwXwXwXwXwXwXwXwXwXwXwXwXwXwXwXwXwXwXwXwXwXwXwXwXwXwXwXwXwXwXwXwXwXwXwXwXwXwXwXwXwX%Xp.m V M v p e d b _ { | $.$.+.' b x b B B V B b d y 3 > 1 > > > > > > - + > = , 6 q S F I Q Q W F F F w 6 5 5 = $         o o + > 1 > * +     o X + - > A a b b b b V b b v b b B B C b M B b v v b b V g.] }  .| | | | $.$.$.$.=.=.=.%.$.=.$.$.#.| ] B d y > * @ o o                                                           y _.wXwXwXwXwXwXwXwXwXwXwXwXwXwXwXwXwXwXwXwXwXwXwXwXwX",
"wXwXwXwXwXwXwXwXwXwXwXwXwXwXwXwXwXwXwXwXwXwXwXwXwXwXwXwXwXwXwXwXwXwXwXwXwXwXwXwXwXwXwXwXwXwXwXwXwXwXwXwXwXwXwXwXwXwXwXwXwXwXwXwXwXwXwXwX%XA.b b v d d d v V { | $.$.| { M a a v b M b b a p t 3 > 2 1 4 3 3 3 > > > % ; = = 5 q S S F F F F S w q 0 5 5 , .             + - > > 1 > + o     o + - 1 y a d b b b b v v v b B b C M M b b b b M M V V ] ' ' ' ' V g.V ]  .| +.$.$.#.$.#.| } ] ' M a t 3 > @ o                                                               y _.wXwXwXwXwXwXwXwXwXwXwXwXwXwXwXwXwXwXwXwXwXwXwXwXwX",
"wXwXwXwXwXwXwXwXwXwXwXwXwXwXwXwXwXwXwXwXwXwXwXwXwXwXwXwXwXwXwXwXwXwXwXwXwXwXwXwXwXwXwXwXwXwXwXwXwXwXwXwXwXwXwXwXwXwXwXwXwXwXwXwXwXwXwXwX%Xy.b d d d v b V { | $.%.+.] V d y p x B M M b s 4 < < < 4 4 4 4 4 < 3 > > - + @ + * = 0 w w S k w 0 0 9 6 6 5 , * X           o - > 1 4 1 - X o     X + > < t p d d d v v v b b B B C b b v b b M b M B g.' V B b v d d b b V ] ] | #.#.| } ] V B v y 4 > + + o                                                                 p _.wXwXwXwXwXwXwXwXwXwXwXwXwXwXwXwXwXwXwXwXwXwXwXwXwX",
"wXwXwXwXwXwXwXwXwXwXwXwXwXwXwXwXwXwXwXwXwXwXwXwXwXwXwXwXwXwXwXwXwXwXwXwXwXwXwXwXwXwXwXwXwXwXwXwXwXwXwXwXwXwXwXwXwXwXwXwXwXwXwXwXwXwXwXwX%Xr.h s y d v V ' } +.#.$.| ' M d t y d b b b v s y y y y y y y y y y e < > + + . X X & = 5 0 0 q 0 9 9 6 6 6 0 6 = X X           X - > 1 1 * + X o o X @ : > 4 y p d d d d d v b b B B B v v v b b M b B B B v d s y t A y p b V _ ]  .} } ] V b d y 4 > + + @                                                                   y _.wXwXwXwXwXwXwXwXwXwXwXwXwXwXwXwXwXwXwXwXwXwXwXwXwX",
"wXwXwXwXwXwXwXwXwXwXwXwXwXwXwXwXwXwXwXwXwXwXwXwXwXwXwXwXwXwXwXwXwXwXwXwXwXwXwXwXwXwXwXwXwXwXwXwXwXwXwXwXwXwXwXwXwXwXwXwXwXwXwXwXwXwXwXwX$Xd.p e e p b _ { } | | | ] B b s t y x v b v v d s s d v b C C m b v s t > + + X o . X $ = = 6 0 6 6 6 0 6 6 9 , = & $             @ * 1 3 > * - o   X o @ * > 4 y p a d d d x b M M B M b v v b b b v v v d p t 4 3 3 3 > e s b B ] ] ] ] V b d y < > - + @ @ o                                                                 y _.wXwXwXwXwXwXwXwXwXwXwXwXwXwXwXwXwXwXwXwXwXwXwXwXwX",
"wXwXwXwXwXwXwXwXwXwXwXwXwXwXwXwXwXwXwXwXwXwXwXwXwXwXwXwXwXwXwXwXwXwXwXwXwXwXwXwXwXwXwXwXwXwXwXwXwXwXwXwXwXwXwXwXwXwXwXwXwXwXwXwXwXwXwXwX@Xw.4 4 4 y b { }  . .{ ] V b d d y y d x x v v v v b M V g.] } } ] B v y < : @ o         o . % = 5 6 6 6 0 6 0 6 6 = & o           o + > 1 1 1 - X X     o + : 3 4 y p d d d x b b b B b v v v v v v v d p y 4 > : + + + + > t d b V V V V b d t 4 > : + + + @ . o                                                               y (.wXwXwXwXwXwXwXwXwXwXwXwXwXwXwXwXwXwXwXwXwXwXwXwXwX",
"wXwXwXwXwXwXwXwXwXwXwXwXwXwXwXwXwXwXwXwXwXwXwXwXwXwXwXwXwXwXwXwXwXwXwXwXwXwXwXwXwXwXwXwXwXwXwXwXwXwXwXwXwXwXwXwXwXwXwXwXwXwXwXwXwXwXwXwX%X0.3 3 4 p M { { ] ' V M b d d s s s d d d v b M V _ ] } | -.-.| } ' B d t 3 : X . o     o X * = 5 9 0 w S g g q 0 = & .             X : > 1 2 > + X X o o @ + > 4 t p a d d v b M b B b v Z d d d p y A 4 < > + @ @ @ + > 3 < 4 t s d s p t 4 3 > > > 3 > 3 > > > + + @ + > : @ @ o                             o   o           3 +.).=X6XwXwXwXwXwXwXwXwXwXwXwXwXwXwXwXwXwXwXwXwXwXwX",
"wXwXwXwXwXwXwXwXwXwXwXwXwXwXwXwXwXwXwXwXwXwXwXwXwXwXwXwXwXwXwXwXwXwXwXwXwXwXwXwXwXwXwXwXwXwXwXwXwXwXwXwXwXwXwXwXwXwXwXwXwXwXwXwXwXwXwXwX$X9.> > 4 s V { { _ B v p p p p s d d s p x b B V ]  .#.$.$.$.o.|  .] ' M s t > @ X   o X . + - , 5 9 q S I I F S w 6 & +             o + > 1 A 2 > + @ o o . @ > > 4 y a d x v b b M B b v d s y 9 4 2 > - + @ X o @ @ : 4 3 : + - > > > > : : - : > < 4 y y y A 4 4 4 4 < < < > + @ o                         o   o             @ < x i.=XwXwXwXwXwXwXwXwXwXwXwXwXwXwXwXwXwXwXwXwXwXwX",
"wXwXwXwXwXwXwXwXwXwXwXwXwXwXwXwXwXwXwXwXwXwXwXwXwXwXwXwXwXwXwXwXwXwXwXwXwXwXwXwXwXwXwXwXwXwXwXwXwXwXwXwXwXwXwXwXwXwXwXwXwXwXwXwXwXwXwXwX%X2.+ > y x V { _ M d y e e y y a x s y t d b V ] } +.$.=.$.-.| { ] U g.B d p 4 % @ o o o   X - * , 9 w S I I F S w 0 = % .             o + > 4 2 > * + o     X + * 3 A y d Z v b b b C b d a y t < > > @ o o     o o + 2 y y >   o X + @ @ + @ + > > t a v v v v d d d d d s s t 3 > > ; > > - ; - - - : + + + + - + - @ @ X o         $.+XwXwXwXwXwXwXwXwXwXwXwXwXwXwXwXwXwXwXwXwXwXwX",
"wXwXwXwXwXwXwXwXwXwXwXwXwXwXwXwXwXwXwXwXwXwXwXwXwXwXwXwXwXwXwXwXwXwXwXwXwXwXwXwXwXwXwXwXwXwXwXwXwXwXwXwXwXwXwXwXwXwXwXwXwXwXwXwXwXwXwXwX%X2.- < d b V _ b d y < 3 4 y d a a y e 4 s b V ] | | | } ' V B b b b b b b a t 1 > @ o o   o + * * = 6 q S F F k q 9 5 % X o o         o X > 2 < 2 > - o o   o + - > 3 A p Z b b V b b b d s y 3 > + @ o o   o X o o @ 9 V b 4 o   X + + > > > > < t s B ' ] ] ' ' ' V V B B b v d s d d x d d i p y y p y y y y t t t 4 2 > + @ X     $.+XwXwXwXwXwXwXwXwXwXwXwXwXwXwXwXwXwXwXwXwXwXwX",
"wXwXwXwXwXwXwXwXwXwXwXwXwXwXwXwXwXwXwXwXwXwXwXwXwXwXwXwXwXwXwXwXwXwXwXwXwXwXwXwXwXwXwXwXwXwXwXwXwXwXwXwXwXwXwXwXwXwXwXwXwXwXwXwXwXwXwXwX%X<.- 4 c V V V d 4 > ; - 3 p d s y e 3 3 y b V { |  .{ g.b d p y y y p d v v s 4 > - o o   X X X + * = 0 w g F k q 0 , = + @ X           o + > 2 4 2 > + X o   o X - > 1 t Z b C V b b v a p 4 > @ @         . @ + @ + d | ] y   o @ - > > 3 3 < t y b ] $.#.| | #.| | | } ] V V V V ' ] ] ' ] _ M M V B b b b v v v v d p 4 1 > + o o $.XXwXwXwXwXwXwXwXwXwXwXwXwXwXwXwXwXwXwXwXwXwXwX",
"wXwXwXwXwXwXwXwXwXwXwXwXwXwXwXwXwXwXwXwXwXwXwXwXwXwXwXwXwXwXwXwXwXwXwXwXwXwXwXwXwXwXwXwXwXwXwXwXwXwXwXwXwXwXwXwXwXwXwXwXwXwXwXwXwXwXwXwX%X2.> e b V b x p > + + - 4 a b x s y 4 4 s b V ] } { _ C d t 4 3 4 4 4 t y s y t < : + o o   X   X + * 6 0 w w k q 9 5 , + + @ o         o @ + * > > > - + X o o o X - : A p Z b B b b d p y 3 - o o       o @ > > + + v -.| p X o X + : > > < e s b V } $.| { ' ' _ V V _ V V B B B V V _ _ _ _ _ V V V V M M b b v v b a p y 4 > + @ V i.#X3XwXwXwXwXwXwXwXwXwXwXwXwXwXwXwXwXwXwXwXwX",
"wXwXwXwXwXwXwXwXwXwXwXwXwXwXwXwXwXwXwXwXwXwXwXwXwXwXwXwXwXwXwXwXwXwXwXwXwXwXwXwXwXwXwXwXwXwXwXwXwXwXwXwXwXwXwXwXwXwXwXwXwXwXwXwXwXwXwXwX@X0.> 9 b M c i 4 + o - 3 y x M b d s y t d M _ ] ] ' B v y 3 > > - - - > > 4 4 e 3 > + o   o   X X X - = 6 0 q w 0 6 5 , : : + o               @ + - > * - @ o o X X + + 1 t p d v b b v p 4 > @           o - 1 > : : v $.-.d + @ + + - - > < t b _ } | $.] V b x s d d v v v b b b b M B B B B V V V V B b B b v b b b d d s y A 2 * 4 v $.oXwXwXwXwXwXwXwXwXwXwXwXwXwXwXwXwXwXwXwXwX",
"wXwXwXwXwXwXwXwXwXwXwXwXwXwXwXwXwXwXwXwXwXwXwXwXwXwXwXwXwXwXwXwXwXwXwXwXwXwXwXwXwXwXwXwXwXwXwXwXwXwXwXwXwXwXwXwXwXwXwXwXwXwXwXwXwXwXwXwX=Xa.B V V M d 4 > o o - 4 s b V b b d s s v B ' ' ' B v p 4 > - - + + @ + > > 3 4 < > + X o o       o X * = 6 9 0 9 6 5 * > : % @ o             o @ @ + > - + @ X o X o @ : < t p Z b b l y > - o     o o X + > 9 4 3 > C =.#.l > - + + + - > e a B { | | | V b d d s d d v v b b M M b b b b M V V V V V V V b b b v b b v v d d p t > : o 4 H.wXwXwXwXwXwXwXwXwXwXwXwXwXwXwXwXwXwXwXwX",
"wXwXwXwXwXwXwXwXwXwXwXwXwXwXwXwXwXwXwXwXwXwXwXwXwXwXwXwXwXwXwXwXwXwXwXwXwXwXwXwXwXwXwXwXwXwXwXwXwXwXwXwXwXwXwXwXwXwXwXwXwXwXwXwXwXwXwXwX4X*X_.d.{ b y 3 - o + 3 t d V V B v x v b M V ' _ V b s A 1 - * + * : > > - * > > > + @ o o       o o X + * , < 9 6 6 = + + + > @ o               o o o + + + + + o o o @ + : 3 t s d v a 4 > + o     @ @ > > 4 y y t y V $.-.b 4 > > * > > t b V ] ] ] ] ' V b b ' } } { ] ] ' ' ' ' V V V V V V V V V V V V b v v d x d v v v v v s t < : y (.wXwXwXwXwXwXwXwXwXwXwXwXwXwXwXwXwXwXwXwX",
"wXwXwXwXwXwXwXwXwXwXwXwXwXwXwXwXwXwXwXwXwXwXwXwXwXwXwXwXwXwXwXwXwXwXwXwXwXwXwXwXwXwXwXwXwXwXwXwXwXwXwXwXwXwXwXwXwXwXwXwXwXwXwXwXwXwXwXwXwXwXwX].$.d 4 ; - + - 3 p x V ' B v b M B _ ' ' _ V v y 2 > + - > > 1 < > : + + - + + @ o   o         X + - > < < 6 5 = + @ + + + o                     o + + - + + o     o @ : 4 y y d p 4 + @     @ + > < t p s d d v g.#.| C y A 1 1 < < d ] | ] ] V V b b v _ $.9.8.*.=.$.#. .} ] ] ] ] ] ] ] ' V V B V V b v x d d d d v v b b d d y 3 a ).wXwXwXwXwXwXwXwXwXwXwXwXwXwXwXwXwXwXwXwX",
"wXwXwXwXwXwXwXwXwXwXwXwXwXwXwXwXwXwXwXwXwXwXwXwXwXwXwXwXwXwXwXwXwXwXwXwXwXwXwXwXwXwXwXwXwXwXwXwXwXwXwXwXwXwXwXwXwXwXwXwXwXwXwXwXwXwXwXwXwXwXwX|.o.p < + + + > t a b _ ] _ B V _ ] ] ] _ V b s < > 2 3 4 t y y p t < > - + + + + @ + o o     o   @ + * > > 1 , = * @ @ + + o                       o @ + + + X o o o X + 2 A A y A > @ o   o + : 3 4 y y s d v b ] $.| V s p y y y s b V { ' V V V V _ V ] #.*.=.=.$.| { ] ' ' ' _ V ' _ V V V V V B b b v Z d s d d x v b b x d p 4 b ).wXwXwXwXwXwXwXwXwXwXwXwXwXwXwXwXwXwXwXwX",
"wXwXwXwXwXwXwXwXwXwXwXwXwXwXwXwXwXwXwXwXwXwXwXwXwXwXwXwXwXwXwXwXwXwXwXwXwXwXwXwXwXwXwXwXwXwXwXwXwXwXwXwXwXwXwXwXwXwXwXwXwXwXwXwXwXwXwXwXwXwXwX[.| y > @ : > 4 p b V ] { ] ' ] ] { ] ] V B d t > > A s Z b b b b a y 4 3 > > > : - - - + X o o X X @ + > > > > > - + + @ o o X                       o o + - + X o   X + > 4 4 4 < > X o o . : > 4 t y s s d v B ] %.o.V d d d v b b M M b b v B ]  . . .} } { { { ] _ B M M b b b b b b B B B B B b b v Z Z d d a d d v b b b x d p B _.wXwXwXwXwXwXwXwXwXwXwXwXwXwXwXwXwXwXwXwX",
"wXwXwXwXwXwXwXwXwXwXwXwXwXwXwXwXwXwXwXwXwXwXwXwXwXwXwXwXwXwXwXwXwXwXwXwXwXwXwXwXwXwXwXwXwXwXwXwXwXwXwXwXwXwXwXwXwXwXwXwXwXwXwXwXwXwXwXwXwXwXwX[.} < * @ : > t d M ' { |  .} | +.+. .] V v y 4 : > p C V ' ' V B b s t 4 > > > > 1 1 > : - X X   o o + + * > > > > + + X o o @                         o + - - + o @ X + > 1 2 < > +   o X % 2 9 y y y s s d b _ } $.| V v b b C V _ B v d d d M } $.| | ] _ V V V B b b b b b b b b b b b b b B b b b v v v d d a d x v x b b v x d B (.$XwXwXwXwXwXwXwXwXwXwXwXwXwXwXwXwXwXwXwX",
"wXwXwXwXwXwXwXwXwXwXwXwXwXwXwXwXwXwXwXwXwXwXwXwXwXwXwXwXwXwXwXwXwXwXwXwXwXwXwXwXwXwXwXwXwXwXwXwXwXwXwXwXwXwXwXwXwXwXwXwXwXwXwXwXwXwXwXwXwXwXwX[.{ < > @ > 3 t x V ]  .$.$.| #.#.#.] V b a 4 4 < 9 v g.g.V B b v a p y t 4 4 4 e A y y 4 > - - X o o X + - - > > : > + @ o o o                           @ + - * + + X @ + - > > + X o % = 7 g D m b d d d b '  .} ] ] C d d b b b B b v v b V _ ] } ] V V V b M V V V _ V _ V ' ' ' ' _ V B B B B b b v v b b v b v x b b b b b x d b 7./.@X8XwXwXwXwXwXwXwXwXwXwXwXwXwXwXwXwXwX",
"wXwXwXwXwXwXwXwXwXwXwXwXwXwXwXwXwXwXwXwXwXwXwXwXwXwXwXwXwXwXwXwXwXwXwXwXwXwXwXwXwXwXwXwXwXwXwXwXwXwXwXwXwXwXwXwXwXwXwXwXwXwXwXwXwXwXwXwXwXwXwX{.' > > + : 3 t v _ } +.$.%.$.%.$.$.] b d y > 4 s v V } ' B v d p y y t t A y y y d v Z y A > - X X o o   + + > > > > + + @ o o                           o @ - > > + o o X + + + . @ @ = 7 g I 1.O.m d b x B } $.} V b d s d v v v x v v b V | { ] V b x d x b b B ' { } |  .| #.| +.| { ' V B B B C b b b b C b b b b b b b b x x d d d b q.$XwXwXwXwXwXwXwXwXwXwXwXwXwXwXwXwXwX",
"wXwXwXwXwXwXwXwXwXwXwXwXwXwXwXwXwXwXwXwXwXwXwXwXwXwXwXwXwXwXwXwXwXwXwXwXwXwXwXwXwXwXwXwXwXwXwXwXwXwXwXwXwXwXwXwXwXwXwXwXwXwXwXwXwXwXwXwXwXwXwX[.] 3 > + > 4 s M ] +.%.=.=.=.=.$.| _ d p 4 < y v V ' ] V b d d s a s a d d d d v b V b v p A 1 * + X o o @ @ + * > - * - + @ o                           o X + > 2 > + @ + + + @ . + + 7 z T ^ 1.X.L l d v V | =.} b d d s a d v d d d x b ] | } _ V b d d d x b b V _ ' ' ' ' ' { ] ' V B b v b v v v v b v b b v v b v d d d s p t e 3 > @.+XwXwXwXwXwXwXwXwXwXwXwXwXwXwXwXwXwX",
"wXwXwXwXwXwXwXwXwXwXwXwXwXwXwXwXwXwXwXwXwXwXwXwXwXwXwXwXwXwXwXwXwXwXwXwXwXwXwXwXwXwXwXwXwXwXwXwXwXwXwXwXwXwXwXwXwXwXwXwXwXwXwXwXwXwXwXwXwXwXwX[.] > > > < y d _ +.$.%.*.*.2.=.$.{ M p t 4 4 a V ' V B B v v v b b b b b b V C V V g.V V C d A 1 > @ @ X @ @ + + + - - + - + @ + @ @ o                       + 1 4 < > > - - + + + + > f E >.;.o.U V v v v V | %. .B d d s d d v x d x x b ' +.} ' V b x d x d x v v v v v v v v v x x d p y y y y p y p p a a a a a a s p y e y 4 > : - @  .+XwXwXwXwXwXwXwXwXwXwXwXwXwXwXwXwXwX",
"wXwXwXwXwXwXwXwXwXwXwXwXwXwXwXwXwXwXwXwXwXwXwXwXwXwXwXwXwXwXwXwXwXwXwXwXwXwXwXwXwXwXwXwXwXwXwXwXwXwXwXwXwXwXwXwXwXwXwXwXwXwXwXwXwXwXwXwXwXwXwX{.] 1 3 > 4 d M { $.=.=.*.9.*.=. ._ x 4 4 4 4 v ] ] V v v b b B ' g.' ' ] ] } } } } ] { ] U b s A > * + @ X @ X + + * > > * - + + + + .                     o + 1 A 4 4 2 > > > + + > < D >.c.,. .V b v v v V | $.] b d a p a v v x d v b B ' | { _ B b x x d d d d d s y t t 4 e 4 4 < < 3 > > 3 3 4 4 A t 9 9 y y y y t 4 < 2 > : + o     ] {.wXwXwXwXwXwXwXwXwXwXwXwXwXwXwXwXwX",
"wXwXwXwXwXwXwXwXwXwXwXwXwXwXwXwXwXwXwXwXwXwXwXwXwXwXwXwXwXwXwXwXwXwXwXwXwXwXwXwXwXwXwXwXwXwXwXwXwXwXwXwXwXwXwXwXwXwXwXwXwXwXwXwXwXwXwXwXwXwXwX[.] 3 < 3 y b _ | %.*.8.9.*.&.| V d y 3 > 3 e d V ' B b B ' { | #.#.=.$.*.7.8.*.8.*.&.$... .V b d r 3 ; - + @ X @ + + + > : * + - + @                         o > > < 4 3 3 > > > 2 9 w F E ;. .m m b b b V _ ] { b s y y y s x b v b b V g.' ' V M b M M b d a p y 4 4 3 > > 2 > > > > > * - * : > > > > > 2 2 2 < > > > : * + + @         p *.{.>XwXwXwXwXwXwXwXwXwXwXwXwXwXwXwX",
"wXwXwXwXwXwXwXwXwXwXwXwXwXwXwXwXwXwXwXwXwXwXwXwXwXwXwXwXwXwXwXwXwXwXwXwXwXwXwXwXwXwXwXwXwXwXwXwXwXwXwXwXwXwXwXwXwXwXwXwXwXwXwXwXwXwXwXwXwXwXwX{.' 3 < 4 d V  .$.=.9.9.q.*.#.V d < > + - > 4 s b V B B ' | =.*.8.q.e.t.p.a.^.a.a.r.w.9.=.| ] V b d r 2 ; + @ O O @ @ + > > > > + + X o                         @ > > 4 < 3 > < 4 9 g I F J n b b b d b V { { V b s 4 3 4 4 p v B b b V ] } ' V b x x b V V b a y < 3 > - + + + + + + X + @ @ X + + + + + + + + + + + + @ @ o o             + 4 C _.wXwXwXwXwXwXwXwXwXwXwXwXwXwXwX",
"wXwXwXwXwXwXwXwXwXwXwXwXwXwXwXwXwXwXwXwXwXwXwXwXwXwXwXwXwXwXwXwXwXwXwXwXwXwXwXwXwXwXwXwXwXwXwXwXwXwXwXwXwXwXwXwXwXwXwXwXwXwXwXwXwXwXwXwXwXwXwX[.' < e t b ] #.$.*.9.0.8.#.' d 4 > + @ + 3 e s b V V ] | 7.8.q.w.w.w.y.A.D.D.S.A.w.w.q.=.@. .` V v i r 2 > @ O o @ @ + - : > > + + @ o                         o + > > < < < t y j G P F l d v v b b C g. .] b s t < > 4 t d B V V V ' ] ] B b v x b B V n d 7 4 > : + @ X X @ @ X X X o X X X + X X o   X X   o @ o                           + ,.].3X9XwXwXwXwXwXwXwXwXwXwXwXwX",
"wXwXwXwXwXwXwXwXwXwXwXwXwXwXwXwXwXwXwXwXwXwXwXwXwXwXwXwXwXwXwXwXwXwXwXwXwXwXwXwXwXwXwXwXwXwXwXwXwXwXwXwXwXwXwXwXwXwXwXwXwXwXwXwXwXwXwXwXwXwXwX[._ 3 t s B ] +.%.7.9.=.$.' d y > + @ @ + 3 y d b ' | %.9.8.w.w.w.w.d.w.w.t.r.w.w.q.q.*.$.| ] V V b d p 4 > > @ O o o + + + + > - + X                         o X - - - > 4 y a j z z z z l v v v b V ] g.V b a y t 4 4 y s b ' ] } } ] V B b v b V _ V V x 0 5 = & + @ o   o . X o X # $ . $ . . X X X         o                     o   o o . = z 3.'.5XwXwXwXwXwXwXwXwXwXwXwXwX",
"wXwXwXwXwXwXwXwXwXwXwXwXwXwXwXwXwXwXwXwXwXwXwXwXwXwXwXwXwXwXwXwXwXwXwXwXwXwXwXwXwXwXwXwXwXwXwXwXwXwXwXwXwXwXwXwXwXwXwXwXwXwXwXwXwXwXwXwXwXwXwX[.] 4 s h V { #.=.7.*.$.} v 4 > + @ @ @ + 4 s v B ] =.q.w.w.w.d.w.w.d.w.d.e.q.8.*.*.*.=.+.{ _ _ M M b d e 3 > + O o o X X + + > + X                           o X - + @ * 4 p h D G z l v v d x x V ] | _ b s t 4 4 4 t s v V } #.| -.' B v b v m ] } L b u 5 & $ $ . X X X X . . $ & & & = = % $ X X   .         o         o   . . . @ + + % * = 5 8 ,.XXwXwXwXwXwXwXwXwXwXwXwXwX",
"wXwXwXwXwXwXwXwXwXwXwXwXwXwXwXwXwXwXwXwXwXwXwXwXwXwXwXwXwXwXwXwXwXwXwXwXwXwXwXwXwXwXwXwXwXwXwXwXwXwXwXwXwXwXwXwXwXwXwXwXwXwXwXwXwXwXwXwXwXwXwX>X).0.| V V } +.%.*.%.] C p > @ @ @ @ + > t x B ] $.=.q.w.w.q.9.9.8.9.8.9.9.9.=.%.$.$.+.| { _ _ M M v i y 2 > - @ X   o o @ + + + . o                         X > > + o @ 3 e y z D l v v b b b b b V V b a y y t t y p b V ' ] } { ] ' b v b V V _ _ b s 7 5 = & & & = 5 6 0 0 w w w k S w w w w 0 0 0 9 6 5 5 6 5 5 , 5 , 6 6 0 0 9 0 0 9 9 9 6 6 0 ;.XXwXwXwXwXwXwXwXwXwXwXwXwX",
"wXwXwXwXwXwXwXwXwXwXwXwXwXwXwXwXwXwXwXwXwXwXwXwXwXwXwXwXwXwXwXwXwXwXwXwXwXwXwXwXwXwXwXwXwXwXwXwXwXwXwXwXwXwXwXwXwXwXwXwXwXwXwXwXwXwXwXwXwXwXwX6X>X@Xs.V ]  .#.%.*.| B s < + @ @ @ + > < p b ' +.=.9.9.0.8.8.*.8.8.7.*.*.8.*.$.| +.+.+.{ ] _ _ M b x p e 2 > - + X o     X @ @ X o o                       o @ > > + o o : > 4 u d d d b b b b M b b i p y t y p s s v V } ] ' V V V B b b V } ] V b i 6 6 5 5 = = 5 6 w S I I I I I / h.Q I I I I I R T J z z l z z z k g g n J J J J J m z b k f f 1.|.wXwXwXwXwXwXwXwXwXwXwXwX",
"wXwXwXwXwXwXwXwXwXwXwXwXwXwXwXwXwXwXwXwXwXwXwXwXwXwXwXwXwXwXwXwXwXwXwXwXwXwXwXwXwXwXwXwXwXwXwXwXwXwXwXwXwXwXwXwXwXwXwXwXwXwXwXwXwXwXwXwXwXwXwXwXwX6X(.U ] } +.$.$.] d 4 > @ . o @ + > t x V } $.*.*.*.*.*.$.$.$.#.=.=.%.=.$.#. .{ { { ] ] _ _ M M x p e 3 > + + X   . X o X @ o                         o o + > 2 -   o @ + 3 9 p d d v b b b b b a y y 4 y p s d b B ] | ] B C b b b b C V } ] b a 9 5 5 8 w w 0 q k I W / h.k.k.k.l.v.k.k.k.z./ / / ^ ! ! ! ! ! ! ! R R W ! ! ! ! ! X.[ Y Y J J m %.].3X7XwXwXwXwXwXwXwXwXwXwX",
"wXwXwXwXwXwXwXwXwXwXwXwXwXwXwXwXwXwXwXwXwXwXwXwXwXwXwXwXwXwXwXwXwXwXwXwXwXwXwXwXwXwXwXwXwXwXwXwXwXwXwXwXwXwXwXwXwXwXwXwXwXwXwXwXwXwXwXwXwXwXwXwXwX4X(.U ] } | | } b t > + @ o     - 3 p b ] | %.=.=.$.#.| $.$.| #.=.=.$.$.#. .{ { { ] _ _ _ _ M b v p A 1 > + @ o   o   o o o                             @ + > 2 - o   o X > A y s x d d a d b d p y t y s d v B V V ' ' V b b b v C V V V V b i 9 9 5 0 S F F S I Q / l.k.v.M.n.M.n.n.n.n.n.n.l.l.l.l.l.l.l.l.x.l.l.l.x.l.l.5.>./ / / ;.O.O.Y Y Y $.y.|.1XqXwXwXwXwXwXwXwXwXwX",
"wXwXwXwXwXwXwXwXwXwXwXwXwXwXwXwXwXwXwXwXwXwXwXwXwXwXwXwXwXwXwXwXwXwXwXwXwXwXwXwXwXwXwXwXwXwXwXwXwXwXwXwXwXwXwXwXwXwXwXwXwXwXwXwXwXwXwXwXwXwXwXwXwX6X`.] '  .} ' V s > @ @ @ o   o : 4 d V | #.$.$.#.+.|  .] ] ] +.#.%.$.#.| { ] ] ] _ _ V _ _ M b l p 9 2 > + @ X     o   . .                               @ > 1 * o o     - 2 y p d s t e p x s t e t y d v B V ' ' V B M b v v v b V ' B b a 6 5 5 0 k Q Q ) ) ) l.v.B.P.P.P.P.P.P.P.P.P.P.P.P.K.P.P.B.n.n.n.n.n.n.n.n.n.n.M.v.v.v.c.t.3.&.O...| ..o.9.|.6XwXwXwXwXwXwXwXwXwX",
"wXwXwXwXwXwXwXwXwXwXwXwXwXwXwXwXwXwXwXwXwXwXwXwXwXwXwXwXwXwXwXwXwXwXwXwXwXwXwXwXwXwXwXwXwXwXwXwXwXwXwXwXwXwXwXwXwXwXwXwXwXwXwXwXwXwXwXwXwXwXwXwXwX6X(.U ' ] ' C d t > @ o o @ o @ < p b _ } | +.+.| }  .| | ..$.$.=.=.$.#.| ] ] _ _ _ _ V _ _ M b b s y 4 > + @ X o       o o                               X % > - + o o   X > 4 e y y e e p d x d d x b B B V V V V b b b B V C C V V V b s 0 9 0 w k F ) ( ( k.b.b.B.I.Y.P.Y.I.U.R.Q.R.U.U.U.I.I.I.I.P.B.M.M.M.M.M.M.M.M.M.n.b.n.n.n.C.t.4.,.,.$.%.,.<.}.6XwXwXwXwXwXwXwXwXwX",
"wXwXwXwXwXwXwXwXwXwXwXwXwXwXwXwXwXwXwXwXwXwXwXwXwXwXwXwXwXwXwXwXwXwXwXwXwXwXwXwXwXwXwXwXwXwXwXwXwXwXwXwXwXwXwXwXwXwXwXwXwXwXwXwXwXwXwXwXwXwXwXwXwX6X(.] V ' V d t > + @ o o + - 3 p M _ ] {  .} } ] {  .| $.=.=.*.*.7.%.#. .{ ] _ _ M _ V M M M b d s y A 2 > + o     o o   o                               o @ - - + o     o + : > e 4 4 4 y d b b B _ ] { ' _ V b b b b V ] ] ] g.V V C a 6 6 0 q k F Q / b.b.b.B.B.P.I.Y.Y.Y.U.Q.!.!.Q.Q.!.Q.U.I.I.I.I.I.I.I.I.I.I.I.I.P.K.B.B.n.n.n.b.n.C.C.t.1.3.3.3.|.6XwXwXwXwXwXwXwXwXwX",
"wXwXwXwXwXwXwXwXwXwXwXwXwXwXwXwXwXwXwXwXwXwXwXwXwXwXwXwXwXwXwXwXwXwXwXwXwXwXwXwXwXwXwXwXwXwXwXwXwXwXwXwXwXwXwXwXwXwXwXwXwXwXwXwXwXwXwXwXwXwXwXwXwX>XH.U B V b y > * @ X @ @ > 1 y x V ] ] ] { ] }  .| $.=.9.9.0.0.9.9.*.$.| } ] _ M _ M V V V V b d d p y < > + X         . o                                 o + - + + - + X + + > 4 e 4 e p x b _ ] } +.| { _ B b v v b V | | } U V C l q 6 0 w k H I Q z.b.b.b.K.U.I.I.I.I.U.Q.!.!.!.Q.!.!.!.Q.U.I.I.I.I.I.I.I.I.I.I.I.I.I.I.Y.B.n.n.n.n.n.b.C.C.y.t.A.}.2XwXwXwXwXwXwXwXwXwX",
"wXwXwXwXwXwXwXwXwXwXwXwXwXwXwXwXwXwXwXwXwXwXwXwXwXwXwXwXwXwXwXwXwXwXwXwXwXwXwXwXwXwXwXwXwXwXwXwXwXwXwXwXwXwXwXwXwXwXwXwXwXwXwXwXwXwXwXwXwXwXwXwXwX$XD.V b b a 4 : + @ @ @ + > y d b V ' ] ] ] | $.7.0.w.r.y.r.w.w.q.q.*.%.| } V _ _ M _ V V V M M b d s y 4 1 > @   . o .                                     o X @ - : < A < * > 4 y t e t p d B ] | }  .] _ M b v b M B ' { { ] V b d u q k S F P Q j.k.b.n.B.K.P.I.I.I.I.U.Q.!.!.!.!.!.!.!.!.!.Q.W.U.I.I.I.I.I.I.I.I.I.I.I.I.I.I.B.n.n.n.n.n.n.m.C.y.y.J.|.-X7XwXwXwXwXwXwXwX",
"wXwXwXwXwXwXwXwXwXwXwXwXwXwXwXwXwXwXwXwXwXwXwXwXwXwXwXwXwXwXwXwXwXwXwXwXwXwXwXwXwXwXwXwXwXwXwXwXwXwXwXwXwXwXwXwXwXwXwXwXwXwXwXwXwXwXwXwXwXwXwXwXwX$XH.m d d p < @ @ @ @ + > 4 a b N V V V _ { +.*.r.H.`.(.H.(.y.r.d.w.8.*.#.{ V V M V M V V V V b v d a p A 4 > + X o o o                   o   o o               X + 1 y v p 4 3 t s p y y s x B { | | ] ' b b v v b B ' ] ] ' g.C h 9 9 g F F Q Q h.v.M.K.K.P.I.I.I.I.Y.U.Q.!.!.!.!.!.!.!.!.!.!.!.!.Q.U.I.I.I.I.I.I.I.I.I.I.I.I.I.I.V.n.n.n.n.n.n.m.N.m.:.6.D.>XwXwXwXwXwXwXwX",
"wXwXwXwXwXwXwXwXwXwXwXwXwXwXwXwXwXwXwXwXwXwXwXwXwXwXwXwXwXwXwXwXwXwXwXwXwXwXwXwXwXwXwXwXwXwXwXwXwXwXwXwXwXwXwXwXwXwXwXwXwXwXwXwXwXwXwXwXwXwXwXwXwX$XD.n d a t > @ @ @ @ + > A d M M V V V V ] $.9.y.`.`._._._.A.r.w.w.9.*.$.{ V _ M _ V V V V V b b d a p y 4 > + o o o o o o                   o                 o + 1 p b p 4 < y d s p y d x B { #. .] _ b x x x b B ] ] ] ' V n i 0 6 k F F ) / j.n.n.P.I.I.I.I.I.Y.Y.R.!.!.!.!.!.!.!.!.!.!.!.!.!.!.U.I.I.I.I.I.I.I.I.I.I.I.I.I.I.V.b.n.n.n.n.n.n.n.b./ ) C.=XwXwXwXwXwXwXwX"
};
