/* XPM */
static char * result[] = {
"280 56 92 1",
"! c #000000",
"# c #FFFFFF",
"$ c #FEFEFE",
"% c #FCFCFC",
"& c #FBFBFB",
"' c #FAFAFA",
"( c #F6F6F6",
") c #F4F4F4",
"* c #F3F3F3",
"+ c #F2F2F2",
", c #EEEEEE",
"- c #ECECEC",
". c #E9E9E9",
"/ c #E6E6E6",
"0 c #E5E5E5",
"1 c #E1E1E1",
"2 c #DCDCDC",
"3 c #DBDBDB",
"4 c #D8D8D8",
"5 c #D7D7D7",
"6 c #D2D2D2",
"7 c #CECECE",
"8 c #CACACA",
"9 c #C8C8C8",
": c #C7C7C7",
"; c #C5C5C5",
"< c #C3C3C3",
"= c #BDBDBD",
"> c #B7B7B7",
"? c #B5B5B5",
"@ c #B4B4B4",
"A c #AFAFAF",
"B c #ABABAB",
"C c #A5A5A5",
"D c #A0A0A0",
"E c #9C9C9C",
"F c #9A9A9A",
"G c #959595",
"H c #919191",
"I c #8C8C8C",
"J c #898989",
"K c #878787",
"L c #828282",
"M c #7B7B7B",
"N c #757575",
"O c #707070",
"P c #6F6F6F",
"Q c #6C6C6C",
"R c #696969",
"S c #676767",
"T c #636363",
"U c #5F5F5F",
"V c #5E5E5E",
"W c #5D5D5D",
"X c #5C5C5C",
"Y c #5A5A5A",
"Z c #585858",
"[ c #575757",
"] c #565656",
"^ c #555555",
"_ c #545454",
"` c #515151",
"a c #4E4E4E",
"b c #4D4D4D",
"c c #4B4B4B",
"d c #474747",
"e c #444444",
"f c #424242",
"g c #3F3F3F",
"h c #3C3C3C",
"i c #383838",
"j c #363636",
"k c #313131",
"l c #303030",
"m c #2F2F2F",
"n c #2E2E2E",
"o c #2D2D2D",
"p c #2C2C2C",
"q c #2B2B2B",
"r c #2A2A2A",
"s c #292929",
"t c #262626",
"u c #252525",
"v c #242424",
"w c #232323",
"x c #222222",
"y c #212121",
"z c #202020",
"{ c #1E1E1E",
"| c #161616",
"} c #141414",
"~ c #010101",
"!!!!!!!!!!!!!!!!!!!!!!!!!!!!!!!!!!!!!!!!!!!!!!!!!!!!!!!!!!!!!!!!!!!!!!!!!!!!!!!!!!!!!!!!!!!!!!!!!!!!!!!!!!!!!!!!!!!!!!!!!!!!!!!!!!!!!!!!!!!!!!!!!!!!!!!!!!!!!!!!!!!!!!!!!!!!!!!!!!!!!!!!!!!!!!!!!!!!!!!!!!!!!!!!!!!!!!!!!!!!!!!!!!!!!!!!!!!!!!!!!!!!!!!!!!!!!!!!!!!!!!!!!!!!!!!!!!!!!!!!",
"!!!}||||||||||||||||||||||||||||||||||||||||||||||||||||||||||||||||||||||||||||||||||||||||||||||||||||||||||||||||||||||||||||||||||||||||||||||||||||||||||||||||||||||||||||||||||||||||||||||||||||||||||||||||||||||||||||||||||||||||||||||||||||||||||||||||||||||||||||||}!!!!!",
"!!!p[]]]]]]][[[[[[[[[[[[[[[[[[[[[[[[[[[[[[[[[[[[[[[[[[[[[[[[[[[[[[[[[[[[[[[[[[[[[[[[[[[[[[[[[[[[[[[[[[[[[[[[[[[[[[[[[[[[[[[[[[[[[[[[[[[[[[[[[[[[[[[[[[[[[[[[[[[[[[[[[[[[[[[[[[[[[[[[[[[[[[[[[[[[[[[[[[[[[[[[[[[[[[[[[[[[[[[[[[[[[[[[[[[[[[[[[[[[[[[[[[[[[[[[[[[[[[[[[[[[[[[[[[[[[[e!!!!!",
"!}pf[^^^^^^^^^^^^^^^^^^^^^^^^^^^^^^^^^^^^^^^^^^^^^^^^^^^^^^^^^^^^^^^^^^^^^^^^^^^^^^^^^^^^^^^^^^^^^^^^^^^^^^^^^^^^^^^^^^^^^^^^^^^^^^^^^^^^^^^^^^^^^^^^^^^^^^^^^^^^^^^^^^^^^^^^^^^^^^^^^^^^^^^^^^^^^^^^^^^^^^^^^^^^^^^^^^^^^^^^^^^^^^^^^^^^^^^^^^^^^^^^^^^^^^^^^^^^^^^^^^^^^^^^^^^^^cp{!!!",
"!|Z]^]^[[[[[[[[[[[[[[[[[[[[[[[[[[[[[[[[[[[[[[[[[[[[[[[[[[[[[[[[[[[[[[[[[[[[[[[[[[[[[[[[[[[[[[[[[[[[[[[[[[[[[[[[[[[[[[[[[[[[[[[[[[[[[[[[[[[[[[[[[[[[[[[[[[[[[[[[[[[[[[[[[[[[[[[[[[[[[[[[[[[[[[[[[[[[[[[[[[[[[[[[[[[[[[[[[[[[[[[[[[[[[[[[[[[[[[[[[[[[[[[[[[[[[[[[[[[[[[[[[[[[[[[[[[^^]q!!!",
"!|[^^]]rppppppppppppppppppppppppppppppppppppppppppppppppppppppppppppppppppppppppppppppppppppppppppppppppppppppppppppppppppppppppppppppppppppppppppppppppppppppppppppppppppppppppppppppppppppppppppppppppppppppppppppppppppppppppppppppppppppppppppppppppppppppppppppppppppppppppo]^]ce|!",
"!|[^^]_zyyyyyyyyyyyyyyyyyyyyyyyyyyyyyyyyyyyyyyyyyyyyyyyyyyyyyyyyyyyyyyyyyyyyyyyyyyyyyyyyyyyyyyyyyyyyyyyyyyyyyyyyyyyyyyyyyyyyyyyyyyyyyyyyyyyyyyyyyyyyyyyyyyyyyyyyyyyyyyyyyyyyyyyyyyyyyyyyyyyyyyyyyyyyyyyyyyyyyyyyyyyyyyyyyyyyyyyyyyyyyyyyyyyyyyyyyyyyyyyyyyyyyyyyyyyyyyyyyyyyyyyyy__]]Y|!",
"!|[^[pyzyyyyyyyyyyyyyyyyyyyyyyyyyyyyyyyyyyyyyyyyyyyyyyyyyyyyyyyyyyyyyyyyyyyyyyyyyyyyyyyyyyyyyyyyyyyyyyyyyyyyyyyyyyyyyyyyyyyyyyyyyyyyyyyyyyyyyyyyyyyyyyyyyyyyyyyyyyyyyyyyyyyyyyyyyyyyyyyyyyyyyyyyyyyyyyyyyyyyyyyyyyyyyyyyyyyyyyyyyyyyyyyyyyyyyyyyyyyyyyyyyyyyyyyyyyyyyyyyyyyyyyyyxzp]^Z|!",
"!|[^]nxxyyyyyyyyyyyyyyyyyyyyyyyyyyyyyyyyyyyyyyyyyyyyyyyyyyyyyyyyyyyyyyyyyyyyyyyyyyyyyyyyyyyyyyyyyyyyyyyyyyyyyyyyyyyyyyyyyyyyyyyyyyyyyyyyyyyyyyyyyyyyyyyyyyyyyyyyyyyyyyyyyyyyyyyyyyyyyyyyyyyyyyyyyyyyyyyyyyyyyyyyyyyyyyyyyyyyyyyyyyyyyyyyyyyyyyyyyyyyyyyyyyyyyyyyyyyyyyyyyyyyyyyyxxo]^Z|!",
"!|[^]nxxyzzzzzzzzzzzzzzzzzzzzzzzzzzzzzzzzzzzzzzzzzzzzzzzzzzzzzzzzzzzzzzzzzzzzzzzzzzzzzzzzzzzzzzzzzzzzzzzzzzzzzzzzzzzzzzzzzzzzzzzzzzzzzzzzzzzzzzzzzzzzzzzzzzzzzzzzzzzzzzzzzzzzzzzzzzzzzzzzzzzzzzzzzzzzzzzzzzzzzzzzzzzzzzzzzzzzzzzzzzzzzzzzzzzzzzzzzzzzzzzzyyyyyyyyyyyyyyyyyyyyyyyxxo]^Z|!",
"!|[^]nxxyzzzzzzzzzzzzzzzzzzzzzzzzzzzzzzzzzzzzzzzzzzzzzzzzzzzzzzzzzzzzzzzzzzzzzzzzzzzzzzzzzzzzzzzzzzzzzzzzzzzzzzzzzzzzzzzzzzzzzzzzzzzzzzzzzzzzzzzzzzzzzzzzzzzzzzzzzzzzzzzzzzzzzzzzzzzzzzzzzzzzzzzzzzzzzzzzzzzzzzzzzzzzzzzzzzzzzzzzzzzzzzzzzzzzzzzzzzzzzzzzyyyyyyyyyyyyyyyyyyyyyyyxxo]^Z|!",
"!|[^]nxxyzzzzzzzzzzzzzzzzzzzzzzzzzzzzzzzzzzzzzzzzzzzzzzzzzzzzzzzzzzzzzzzzzzzzzzzzzzzzzzzzzzzzzzzzzzzzzzzzzzzzzzzzzzzzzzzzzzzzzzzzzzzzzzzzzzzzzzzzzzzzzzzzzzzzzzzzzzzzzzzzzzzzzzzzzzzzzzzzzzzzzzzzzzzzzzzzzzzzzzzzzzzzzzzzzzzzzzzzzzzzzzzzzzzzzzzzzzzzzzzzyyyyyyyyyyyyyyyyyyyyyyyxxo]^Z|!",
"!|[^]nxyyzzzzzzzzzzzzzzzzzzzzzzzzzzzzzzzzzzzzzzzzzzzzzzzzzzzzzzzzzzzzzzzzzzzzzzzzzzzzzzzzzzzzzzzzzzzzzzzzzzzzzzzzzzzzzzzzzzzzzzzzzzzzzzzzzzzzzzzzzzzzzzzzzzzzzzzzzzzzzzzzzzzzzzzzzzzzzzzzzzzzzzzzzzzzzzzzzzzzzzzzzzzzzzzzzzzzzzzzzzzzzzzzzzzzzzzzzzzzzzzzzyyyyyyyyyyyyyyyyyyyyyyyyo]^Z|!",
"!|[^]nyyyzzzzzzzzzzzzzzzzzzzzzzzzzzzzzzzzzzzzzzzzzzzzzzzzzzzzzzzzzzzzzzzzzzzzzzzzzzzzzzzzzzzzzzzzzzzzzzzzzzzzzzzzzzzzzzzzzzzzzzzzzzzzzzzzzzzzzzzzzzzzzzzzzzzzzzzzzzzzzzzzzzzzzzzzzzzzzzzzzzzzzzzzzzzzzzzzzzzzzzzzzzzzzzzzzzzzzzzzzzzzzzzzzzzzzzzzzzzzzzzzzyyyyyyyyyyyyyyyyyyyyyyyyo]^Z|!",
"!|[^]nyyyzzzzzzzzzzzzzzzzzzzzzzzzzzzzzzzzzzzzzzzzzzzzzzzzzzzzzzzzzzzzzzzzzzzzzzzzzzzzzzzzzzzzzzzzzzzzzzzzzzzzzzzzzzzzzzzzzzzzzzzzzzzzzzzzzzzzzzzzzzzzzzzzzzzzzzzzzzzzzzzzzzzzzzzzzzzzzzzzzzzzzzzzzzzzzzzzzzzzzzzzzzzzzzzzzzzzzzzzzzzzzzzzzzzzzzzzzzzzzzzzzyyyyyyyyyyyyyyyyyyyyyyyyo]^Z|!",
"!|[^]nyyyzzzzzzzzzzzzzzzzzzzzzzzzzzzzzzzzzzzzzzzzzzzzzzzzzzzzzzzzzzzzzzzzzzzzzzzzzzzzzzzzzzzzzzzzzzzzzzzzzzzzzzzzzzzzzzzzzzzzzzzzzzzzzzzzzzzzzzzzzzzzzzzzzzzzzzzzzzzzzzzzzzzzzzzzzzzzzzzzzzzzzzzzzzzzzzzzzzzzzzzzzzzzzzzzzzzzzzzzzzzzzzzzzzzzzzzzzzzzzzzzzyyyyyyyyyyyyyyyyyyyyyyyyo]^Z|!",
"!|[^]nyyyzzzzzzzzzzzzzzzzzzzzzzzzzzzzzzzzzzzzzzzzzzzzzzzzzzzzzzzzzzzzzzzzzzzzzzzzzzzzzzzzzzzzzzzzzzzzzzzzzzzzzzzzzzzzzzzzzzzzzzzzzzzzzzzzzzzzzzzzzzzzzzzzzzzzzzzzzzzzzzzzzzzzzzzzzzzzzzzzzzzzzzzzzzzzzzzzzzzzzzzzzzzzzzzzzzzzzzzzzzzzzzzzzzzzzzzzzzzzzzzzzyyyyyyyyyyyyyyyyyyyyyyyyo]^Z|!",
"!|[^]nyyyzzzzzzzzzzzzzzzzzzzzzzzzzzzzzzzzzzzzzzzzzzzzzzzzzzzzzzzzzzzzzzzzzzzzzzzzzzzzzzzzzzzzzzzzzzzzzzzzzzzzzzzzzzzzzzzzzzzzzzzzzzzzzzzzzzzzzzzzzzzzzzzzzzzzzzzzzzzzzzzzzzzzzzzzzzzzzzzzzzzzzzzzzzzzzzzzzzzzzzzzzzzzzzzzzzzzzzzzzzzzzzzzzzzzzzzzzzzzzzzzzyyyyyyyyyyyyyyyyyyyyyyyyo]^Z|!",
"!|[^]nyyyzzzzzzzzzzzzzzzzzzzzzzzzzzzzzzzzzzzzzzzzzzzzzzzzzzzzzzzzzzzzzzzzzzzzzzzzzzzzzzzzzzzzzzzzzzzzzzzzzzzzzzzzzzzzzzzzzzzzzzzzzzzzzzzzzzzzzzzzzzzzzzzzzzzzzzzzzzzzzzzzzzzzzzzzzzzzzzzzzzzzzzzzzzzzzzzzzzzzzzzzzzzzzzzzzzzzzzzzzzzzzzzzzzzzzzzzzzzzzzzzzyyyyyyyyyyyyyyyyyyyyyyyyo]^Z|!",
"!|[^]nyyyzzzzzzzzzzzzzzzzzzzzzzzzzzzzzzzzzzzzzzzzzzzzzzzzzzzzzzzzzzzzzzzzzzzzzzzzzzzzzzzzzzzzzzzzzzzzzzzzzzzzzzzzzzzzzzzzzzzzzzzzzzzzzzzzzzzzzzzzzzzzzzzzzzzzzzzzzzzzzzzzzzzzzzzzzzzzzzzzzzzzzzzzzzzzzzzzzzzzzzzzzzzzzzzzzzzzzzzzzzzzzzzzzzzzzzzzzzzzzzzzzyyyyyyyyyyyyyyyyyyyyyyyyo]^Z|!",
"!|[^]nyyyzzzzzzzzzzzzzzzzzzzzzzzzzzzzzzzzzzzzzzzzzzzzzzzzzzzzzzzzzzzzzzzzzzzzzzzzzzzzzzzzzzzzzzzzzzzzzzzzzzzzzzzzzzzzzzzzzzzzzzzzzzzzzzzzzzzzzzzzzzzzzzzzzzzzzzzzzzzzzzzzzzzzzzzzzzzzzzzzzzzzzzzzzzzzzzzzzzzzzzzzzzzzzzzzzzzzzzzzzzzzzzzzzzzzzzzzzzzzzzzzzyyyyyyyyyyyyyyyyyyyyyyyyo]^Z|!",
"!|[^]nyyyzzzzzzzzzzzzzzzzzzzzzzzzzzzzzzzzzzzzzzzzzzzzzzzeZZZZZckzzzzgZZZZZdmzzzzziZZZZZZZZZezzzzlTKNczzzzzziRKNfzzzzzzzzxZZZZZZZZZZxzzzzzzeZZZZZZZZZZfzzzzs`MLYozzzzzzzzzzzzzztaNKYmzzzzzeZZZZZckzzzzgZZZZZZZZZgzuZZZezzzzrZZZZazzzzzzzzzzzzzzzzzzzzzzzzzzyyyyyyyyyyyyyyyyyyyyyyyyo]^Z|!",
"!|[^]nyyyzzzzzzzzzzzzzzzzzzzzzzzzzzzzzzzzzzzzzzzzzzzzzzzS@##58.#-NzzUB##399.6Tzzz`D%#19995#AzzzQ'1E=$8nzzzL%4F<#=vzzzzzzwH1#'9999(#ozzzzzz@#698#$996#AzzzM(,>C1$GwzzzzzzzzzzzO)*>D3#FvzzzS@##58.#-NzzVC##39992#FzrH/#(jzzzjH-#:Mzzzzzzzzzzzzzzzzzzzzzzzzzzyyyyyyyyyyyyyyyyyyyyyyyyo]^Z|!",
"!|[^]nyyyzzzzzzzzzzzzzzzzzzzzzzzzzzzzzzzzzzzzzzzzzzzzzzzzz2#Xzzb-#Wzzz8#Qzzt;$[zzzzA#Jzzzx<>zzc$=vzzL#LzzT#CyzzE#Rzzzzzzzz`#0zzzzS#kzzzzzz=>zzt#'zzz=@zzF#BvzzzO#<xzzzzzzzzzI#AuzzzR$:uzzzz2#Xzzb.#Vzzz:#Qzzzt5EzzzT##=zzzzzO'szzzzzzzzzzzzzzzzzzzzzzzzzzzyyyyyyyyyyyyyyyyyyyyyyyyo]^Z|!",
"!|[^]nyyyzzzzzzzzzzzzzzzzzzzzzzzzzzzzzzzzzzzzzzzzzzzzzzzzz9#XzzzK#@zzz@#PzzzT#<zzzzF#JzzzzN=zzH#Szzzi'ZzzB#czzz`+ezzzzzzzzg#0zzzzz'izzzzzz<Ozzs#'zzzM>z^#1wzzzzzB#Kzzzzzzzza#.tzzzzzC#Izzzz;#XzzzK#@zzz@#PzzzzHCzzzb#,#PzzzzW+zzzzzzzzzzzzzzzzzzzzzzzzzzzzyyyyyyyyyyyyyyyyyyyyyyyyo]^Z|!",
"!|[^]nyyyzzzzzzzzzzzzzzzzzzzzzzzzzzzzzzzzzzzzzzzzzzzzzzzzz9#XzzzT#2zzz@#Pzzzb#-zzzzF#JzzzzkdzzF#Nzzzzzzzz?#Xzzzzzzzzzzzzzzg#0zzzzz`tzzzzzzdkzzs#'zzzkdz@#Izzzzzz^#/xzzzzzzzB#Gzzzzzzc#,wzzz;#XzzzT#2zzz@#Pzzzzifzzzb#Q#,kzzzV*zzzzzzzzzzzzzzzzzzzzzzzzzzzzyyyyyyyyyyyyyyyyyyyyyyyyo]^Z|!",
"!|[^]nyyyzzzzzzzzzzzzzzzzzzzzzzzzzzzzzzzzzzzzzzzzzzzzzzzzz9#XzzzT#4zzz@#Pzzz[#6zzzzE#JzzzzzzzzQ#6szzzzzzzK#=wzzzzzzzzzzzzzg#/zzzzzzzzzzzzzzzzzr#&zzzzzz,#_zzzzzzw&#fzzzzzzz1#Xzzzzzzz)#czzz;#XzzzT#3zzz?#Ozzzzzzzzzb#w=#AzzzV*zzzzzzzzzzzzzzzzzzzzzzzzzzzzyyyyyyyyyyyyyyyyyyyyyyyyo]^Z|!",
"!|[^]nyyyzzzzzzzzzzzzzzzzzzzzzzzzzzzzzzzzzzzzzzzzzzzzzzzzz9#WzzzI#Dzzz?#PzzzD#OzzzzE#Jzzzzzzzzt5#,Hrzzzzzm/#0Lvzzzzzzzzzzzg#/zzzzzzzzzzzzzzzzzr#&zzzzzl##izzzzzzz1#Szzzzzzs##gzzzzzzz4#Pzzz:#WzzzI#Dzzz?#Ozzzzzzzzzb#wj+#TzzV*zzzzzzzzzzzzzzzzzzzzzzzzzzzzyyyyyyyyyyyyyyyyyyyyyyyyo]^Z|!",
"!|[^]nyyyzzzzzzzzzzzzzzzzzzzzzzzzzzzzzzzzzzzzzzzzzzzzzzzzz9#Xzzl,*izzz@#HZUA(IzzzzzE######Tzzzzl:##(Fuzzzzh5##,Iyzzzzzzzzzg######=zzzzzzzzzzzzr#&zzzzzg##pzzzzzzz5#Nzzzzzzj##jzzzzzzz7#Lzzz;#Xzzl,*izzz?######dzzzzb#wzN#-rzV*zzzzzzzzzzzzzzzzzzzzzzzzzzzzyyyyyyyyyyyyyyyyyyyyyyyyo]^Z|!",
"!|[^]nyyyzzzzzzzzzzzzzzzzzzzzzzzzzzzzzzzzzzzzzzzzzzzzzzzzz9#AHB(9ezzzz@#39&#YzzzzzzE#JzzzzzzzzzzySB%#7ozzzzvO>##=tzzzzzzzzg#/zzzzzzzzzzzzzzzzzr#&zzzzzi##kzzzzzzz3#Ozzzzzzk##izzzzzzz6#Mzzz;#AHB(9ezzzz?#Ozzzzzzzzzb#wzz<#CzV*zzzzzzzzzzzzzzzzzzzzzzzzzzzzyyyyyyyyyyyyyyyyyyyyyyyyo]^Z|!",
"!|[^]nyyyzzzzzzzzzzzzzzzzzzzzzzzzzzzzzzzzzzzzzzzzzzzzzzzzz9#AIShzzzzzz>#PzF#6wzzzzzE#Jzzzzzzzzzzzzzd3#>zzzzzzz[.#Fzzzzzzzzg#/zzzzzzzzzzzzzzzzzr#&zzzzzu$#gzzzzzzz.#Zzzzzzzx(#dzzzzzzz1#Uzzz;#AIShzzzzzz?#Ozzzzzzzzzb#wzzi)#]V*zzzzzzzzzzzzzzzzzzzzzzzzzzzzyyyyyyyyyyyyyyyyyyyyyyyyo]^Z|!",
"!|[^]nyyyzzzzzzzzzzzzzzzzzzzzzzzzzzzzzzzzzzzzzzzzzzzzzzzzz9#Wzzzzzzzzz>#Pzs.#KzzzzzE#Jzzzzzzzzzzzzzzi&%tzzzzzzza#.zzzzzzzzg#/zzzzzzzzzzzzzzzzzr#&zzzzzz6#Vzzzzzzr#$rzzzzzzz7#Szzzzzzv'#kzzz:#Vzzzzzzzzz?#Ozzzzzzzzzb#wzzzM#1S+zzzzzzzzzzzzzzzzzzzzzzzzzzzzyyyyyyyyyyyyyyyyyyyyyyyyo]^Z|!",
"!|[^]nyyyzzzzzzzzzzzzzzzzzzzzzzzzzzzzzzzzzzzzzzzzzzzzzzzzz9#Wzzzzzzzzz>#PzzQ#'hzzzzE#JzzzzzQbzSBzzzzz4#kzMFzzzzz)(zzzzzzzzg#/zzzzzgMzzzzzzzzzzr#&zzzzzzI#DzzzzzzR#=zzzzzzzzL#CzzzzzzU#<zzzz:#Vzzzzzzzzz?#PzzzzzMgzzb#wzzzy8#6+zzzzzzzzzzzzzzzzzzzzzzzzzzzzyyyyyyyyyyyyyyyyyyyyyyyyo]^Z|!",
"!|[^]nyyyzzzzzzzzzzzzzzzzzzzzzzzzzzzzzzzzzzzzzzzzzzzzzzzzz9#Wzzzzzzzzz?#Pzzz;#9zzzzF#Jzzzzz3Oz:,tzzzw,,xz14zzzzk#6zzzzzzzzg#0zzzzzM7zzzzzzzzzzs#&zzzzzzl)+kzzzzy8#bzzzzzzzzr,(jzzzzz<#_zzzz:#Wzzzzzzzzz@#Qzzzzx)Zzzb#wzzzzg'#+zzzzzzzzzzzzzzzzzzzzzzzzzzzzyyyyyyyyyyyyyyyyyyyyyyyyo]^Z|!",
"!|[^]nyyyzzzzzzzzzzzzzzzzzzzzzzzzzzzzzzzzzzzzzzzzzzzzzzzzt/#Lzzzzzzzzw3#Gzzzg)#Gwzz;#JzzzzQ#RzH#FyzpA#KzzB#Lzzj<#QzzzzzzzzS#0zzzzk2<zzzzzzzzzz`##gzzzzzzS&6czzjB#JzzzzzzzzzzW(5bzzkC#Hzzzzt/#Lzzzzzzzzw4#QzzzzL#`zzN#dzzzzzK#+zzzzzzzzzzzzzzzzzzzzzzzzzzzzyyyyyyyyyyyyyyyyyyyyyyyyo]^Z|!",
"!|[^]nyyyzzzzzzzzzzzzzzzzzzzzzzzzzzzzzzzzzzzzzzzzzzzzzzzH$###.LzzzzzL%###,czzd,#4Q'#########UztB'16&,Lzzzm>&46%0Qzzzzzzzu1#########=zzzzzzzzi2####5ozzzzzd7####1Yzzzzzzzzzzzze8####/TzzzzH%###.LzzzzzL%#########dl/###7zzzzw6+zzzzzzzzzzzzzzzzzzzzzzzzzzzzyyyyyyyyyyyyyyyyyyyyyyyyo]^Z|!",
"!|[^]nyyyzzzzzzzzzzzzzzzzzzzzzzzzzzzzzzzzzzzzzzzzzzzzzzzzzzzzzzzzzzzzzzzzzzzzzzzzzzzzzzzzzzzzzzzr]ZcyzzzzzzmZZdzzzzzzzzzzzzzzzzzzzzzzzzzzzzzzzzzzzzzzzzzzzzdZZ`yzzzzzzzzzzzzzzzeZZ`xzzzzzzzzzzzzzzzzzzzzzzzzzzzzzzzzzzzzzzzzzzzzzzzzzzzzzzzzzzzzzzzzzzzzzzyyyyyyyyyyyyyyyyyyyyyyyyo]^Z|!",
"!|[^]nyyyzzzzzzzzzzzzzzzzzzzzzzzzzzzzzzzzzzzzzzzzzzzzzzzzzzzzzzzzzzzzzzzzzzzzzzzzzzzzzzzzzzzzzzzzzzzzzzzzzzzzzzzzzzzzzzzzzzzzzzzzzzzzzzzzzzzzzzzzzzzzzzzzzzzzzzzzzzzzzzzzzzzzzzzzzzzzzzzzzzzzzzzzzzzzzzzzzzzzzzzzzzzzzzzzzzzzzzzzzzzzzzzzzzzzzzzzzzzzzzzzzyyyyyyyyyyyyyyyyyyyyyyyyo]^Z|!",
"!|[^]nyyyzzzzzzzzzzzzzzzzzzzzzzzzzzzzzzzzzzzzzzzzzzzzzzzzzzzzzzzzzzzzzzzzzzzzzzzzzzzzzzzzzzzzzzzzzzzzzzzzzzzzzzzzzzzzzzzzzzzzzzzzzzzzzzzzzzzzzzzzzzzzzzzzzzzzzzzzzzzzzzzzzzzzzzzzzzzzzzzzzzzzzzzzzzzzzzzzzzzzzzzzzzzzzzzzzzzzzzzzzzzzzzzzzzzzzzzzzzzzzzzzzyyyyyyyyyyyyyyyyyyyyyyyyo]^Z|!",
"!|[^]nyyyzzzzzzzzzzzzzzzzzzzzzzzzzzzzzzzzzzzzzzzzzzzzzzzzzzzzzzzzzzzzzzzzzzzzzzzzzzzzzzzzzzzzzzzzzzzzzzzzzzzzzzzzzzzzzzzzzzzzzzzzzzzzzzzzzzzzzzzzzzzzzzzzzzzzzzzzzzzzzzzzzzzzzzzzzzzzzzzzzzzzzzzzzzzzzzzzzzzzzzzzzzzzzzzzzzzzzzzzzzzzzzzzzzzzzzzzzzzzzzzzzyyyyyyyyyyyyyyyyyyyyyyyyo]^Z|!",
"!|[^]nyyyzzzzzzzzzzzzzzzzzzzzzzzzzzzzzzzzzzzzzzzzzzzzzzzzzzzzzzzzzzzzzzzzzzzzzzzzzzzzzzzzzzzzzzzzzzzzzzzzzzzzzzzzzzzzzzzzzzzzzzzzzzzzzzzzzzzzzzzzzzzzzzzzzzzzzzzzzzzzzzzzzzzzzzzzzzzzzzzzzzzzzzzzzzzzzzzzzzzzzzzzzzzzzzzzzzzzzzzzzzzzzzzzzzzzzzzzzzzzzzzzzyyyyyyyyyyyyyyyyyyyyyyyyo]^Z|!",
"!|[^]nyyyzzzzzzzzzzzzzzzzzzzzzzzzzzzzzzzzzzzzzzzzzzzzzzzzzzzzzzzzzzzzzzzzzzzzzzzzzzzzzzzzzzzzzzzzzzzzzzzzzzzzzzzzzzzzzzzzzzzzzzzzzzzzzzzzzzzzzzzzzzzzzzzzzzzzzzzzzzzzzzzzzzzzzzzzzzzzzzzzzzzzzzzzzzzzzzzzzzzzzzzzzzzzzzzzzzzzzzzzzzzzzzzzzzzzzzzzzzzzzzzzzyyyyyyyyyyyyyyyyyyyyyyyyo]^Z|!",
"!|[^]nyyyzzzzzzzzzzzzzzzzzzzzzzzzzzzzzzzzzzzzzzzzzzzzzzzzzzzzzzzzzzzzzzzzzzzzzzzzzzzzzzzzzzzzzzzzzzzzzzzzzzzzzzzzzzzzzzzzzzzzzzzzzzzzzzzzzzzzzzzzzzzzzzzzzzzzzzzzzzzzzzzzzzzzzzzzzzzzzzzzzzzzzzzzzzzzzzzzzzzzzzzzzzzzzzzzzzzzzzzzzzzzzzzzzzzzzzzzzzzzzzzzzyyyyyyyyyyyyyyyyyyyyyyyyo]^Z|!",
"!|[^]nyyyzzzzzzzzzzzzzzzzzzzzzzzzzzzzzzzzzzzzzzzzzzzzzzzzzzzzzzzzzzzzzzzzzzzzzzzzzzzzzzzzzzzzzzzzzzzzzzzzzzzzzzzzzzzzzzzzzzzzzzzzzzzzzzzzzzzzzzzzzzzzzzzzzzzzzzzzzzzzzzzzzzzzzzzzzzzzzzzzzzzzzzzzzzzzzzzzzzzzzzzzzzzzzzzzzzzzzzzzzzzzzzzzzzzzzzzzzzzzzzzzzyyyyyyyyyyyyyyyyyyyyyyyyo]^Z|!",
"!|[^]nyyyzzzzzzzzzzzzzzzzzzzzzzzzzzzzzzzzzzzzzzzzzzzzzzzzzzzzzzzzzzzzzzzzzzzzzzzzzzzzzzzzzzzzzzzzzzzzzzzzzzzzzzzzzzzzzzzzzzzzzzzzzzzzzzzzzzzzzzzzzzzzzzzzzzzzzzzzzzzzzzzzzzzzzzzzzzzzzzzzzzzzzzzzzzzzzzzzzzzzzzzzzzzzzzzzzzzzzzzzzzzzzzzzzzzzzzzzzzzzzzzzzyyyyyyyyyyyyyyyyyyyyyyyyo]^Z|!",
"!|[^]nyyyyyyyyyyyyyyyyyyyyyyyyyyyzzzzzzzzzzzzzzzzzzzzzzzzzzzzzzzzzzzzzzzzzzzzzzzzzzzzzzzzzzzzzzzzzzzzzzzzzzzzzzzzzzzzzzzzzzzzzzzzzzzzzzzzzzzzzzzzzzzzzzzzzzzzzzzzzzzzzzzzzzzzzzzzzzzzzzzzzzzzzzzzzzzzzzzzzzzzzzzzzzzzzzzzzzzzzzzzzzzzzzzzzzzzzzzzzzzzzzzzzyyyyyyyyyyyyyyyyyyyyyyyyo]^Z|!",
"!|[^]nyyyyyyyyyyyyyyyyyyyyyyyyyyyyyyyyyyyyyyyyyyyyyyyxxyyyzzzyyyyyyyyyxxyxxyyyxxyyyyxxxxxxyyyyyyyyyxxyxxxxyyyyyyyyyyyxxxxxxyyyzzzyyyyyzzzyzzyyyxxyyyyzzyyyyyyyyyyyyyyyyyyyyyyyyyyyyyyyyyyyyyyyyyyyyyyyyyyyyyyyyyyyyyyyyyyyyyyyyyyyyyyyyyyyyyyyyyyyyyyyyyyyyyyyyyyyyyyyyyyyyyyyyyyyo]^Z|!",
"!|[^]nyyyyyyyyyyyyyyyyyyyyyyyyyyyyyyyyyyyyyyyyyyyyyyyxxxxxyyyyyyyyyyyyxxxxxxxxxxxxxxxxxxxxxxxyyyyyyxxxxxxxxxxxxxyyyyyxxxxxxxxxyyyyyyyyyyyyyyyyyxxxxxxyyyyyyyyyyyyyyyyyyyyyyyyyyyyyyyyyyyyyyyyyyyyyyyyyyyyyyyyyyyyyyyyyyyyyyyyyyyyyyyyyyyyyyyyyyyyyyyyyyyyyyyyyyyyyyyyyyyyyyyyyyyyyo]^Z|!",
"!|[^]rzyyyyyyyyyyyyyyyyyyyyyyyyyyyyyyyyyyyyyyyyyyyyyyxxxxxxxxxxxxxxxxxxxxxxxxxxxxxxxxxxxxxxxxyyyyyyxxxxxxxxxxxxxyyyyyxxxxxxxxxxxxxxxxxxxxxxxxxxxxxxxxxxxxxxyyyyyyyyyyyyyyyyyyyyyyyyyyyyyyyyyyyyyyyyyyyyyyyyyyyyyyyyyyyyyyyyyyyyyyyyyyyyyyyyyyyyyyyyyyyyyyyyyyyyyyyyyyyyyyyyyyyyyxyo]^Z|!",
"!}[__^_yyyyyyyyyyyyyyyyyyyyyyyyyyyyyyyyyyyyyyyyyyyyyyxxxxxxxxxxxxxxxxxxxxxxxxxxxxxxxxxxxxxxxxyyyyyyyxxxxxxxxxxxxyyyyyxxxxxxxxxxxxxxxxxxxxxxxxxxxxxxxxxxxxxxyyyyyyyyyyyyyyyyyyyyyyyyyyyyyyyyyyyyyyyyyyyyyyyyyyyyyyyyyyyyyyyyyyyyyyyyyyyyyyyyyyyyyyyyyyyyyyyyyyyyyyyyyyyyyyyyyyyyyy`]^^Z|!",
"!}ec^^_qqqqqpoooooooooooooooooooooooooooooooooooooooooooooooooooooooooooooooooooooooooooooooooooooooooooooooooooooooooooooooooooooooooooooooooooooooooooooooooooooooooooooooooooooooooooooooooooooooooooooooooooooooooooooooooooooooooooooooooooooooooooooooooooooooooooooooooooq_^^^Z|!",
"!!!p^^^]^^^^][[[[[[[[[[[[[[[[[[[[[[[[[[[[[[[[[[[[[[[[[[[[[[[[[[[[[[[[[[[[[[[[[[[[[[[[[[[[[[[[[[[[[[[[[[[[[[[[[[[[[[[[[[[[[[[[[[[[[[[[[[[[[[[[[[[[[[[[[[[[[[[[[[[[[[[[[[[[[[[[[[[[[[[[[[[[[[[[[[[[[[[[[[[[[[[[[[[[[[[[[[[[[[[[[[[[[[[[[[[[[[[[[[[[[[[[[[[[[[[[[[[[[[[[[[[[[[[[[[[[]]_]Y|!",
"!!!{qc^^_____^^^^^^^^^^^^^^^^^^^^^^^^^^^^^^^^^^^^^^^^^^^^^^^^^^^^^^^^^^^^^^^^^^^^^^^^^^^^^^^^^^^^^^^^^^^^^^^^^^^^^^^^^^^^^^^^^^^^^^^^^^^^^^^^^^^^^^^^^^^^^^^^^^^^^^^^^^^^^^^^^^^^^^^^^^^^^^^^^^^^^^^^^^^^^^^^^^^^^^^^^^^^^^^^^^^^^^^^^^^^^^^^^^^^^^^^^^^^^^^^^^^^^^^^^^^^^^^^^^^]]]]fq}!",
"!!!!!dZZ[]]][[[[[[[[[[[[[[[[[[[[[[[[[[[[[[[[[[[[[[[[[[[[[[[[[[[[[[[[[[[[[[[[[[[[[[[[[[[[[[[[[[[[[[[[[[[[[[[[[[[[[[[[[[[[[[[[[[[[[[[[[[[[[[[[[[[[[[[[[[[[[[[[[[[[[[[[[[[[[[[[[[[[[[[[[[[[[[[[[[[[[[[[[[[[[[[[[[[[[[[[[[[[[[[[[[[[[[[[[[[[[[[[[[[[[[[[[[[[[[[[[[[[[[[[[[[[[[[[[[[[ZZZYq!!!",
"!!!!!|||}}}}}||||||||||||||||||||||||||||||||||||||||||||||||||||||||||||||||||||||||||||||||||||||||||||||||||||||||||||||||||||||||||||||||||||||||||||||||||||||||||||||||||||||||||||||||||||||||||||||||||||||||||||||||||||||||||||||||||||||||||||||||||||||||||||||||||||||}}!!!",
"!!!!!!!!!!!!!!!!!!!!!!!!!!!!!!!!!!!!!!!!!!!!!!!!!!!!!!!!!!!!!!!!!!!!!!!!!!!!!!!!!!!!!!!!!!!!!!!!!!!!!!!!!!!!!!!!!!!!!!!!!!!!!!!!!!!!!!!!!!!!!!!!!!!!!!!!!!!!!!!!!!!!!!!!!!!!!!!!!!!!!!!!!!!!!!!!!!!!!!!!!!!!!!!!!!!!!!!!!!!!!!!!!!!!!!!!!!!!!!!!!!!!!!!!!!!!!!!!!!!!!!!!!!!!!!!!!!!!!!!!"
};