/* XPM */
static char * result[] = {
"64 64 92 1",
"! c #000000",
"# c #858585",
"$ c #7A7A7A",
"% c #A4693F",
"& c #6C6C6C",
"' c #9D623B",
"( c #626262",
") c #935B38",
"* c #8C5734",
"+ c #885431",
", c #7E502D",
"- c #774D2A",
". c #575757",
"/ c #704626",
"0 c #654223",
"1 c #5E3F1F",
"2 c #494949",
"3 c #3F3F3F",
"4 c #50381C",
"5 c #493418",
"6 c #3F3115",
"7 c #313131",
"8 c #382A15",
"9 c #312611",
": c #262626",
"; c #231C0A",
"< c #1C1C1C",
"= c #000000",
"> c #000000",
"? c #000000",
"@ c #000000",
"A c #000000",
"B c #000000",
"C c #000000",
"D c #000000",
"E c #000000",
"F c #000000",
"G c #000000",
"H c #000000",
"I c #000000",
"J c #000000",
"K c #000000",
"L c #000000",
"M c #000000",
"N c #000000",
"O c #000000",
"P c #000000",
"Q c #000000",
"R c #000000",
"S c #000000",
"T c #000000",
"U c #000000",
"V c #000000",
"W c #000000",
"X c #000000",
"Y c #000000",
"Z c #000000",
"[ c #000000",
"] c #000000",
"^ c #000000",
"_ c #000000",
"` c #000000",
"a c #000000",
"b c #000000",
"c c #000000",
"d c #000000",
"e c #000000",
"f c #000000",
"g c #000000",
"h c #000000",
"i c #000000",
"j c #000000",
"k c #000000",
"l c #000000",
"m c #000000",
"n c #000000",
"o c #000000",
"p c #000000",
"q c #000000",
"r c #000000",
"s c #000000",
"t c #000000",
"u c #000000",
"v c #000000",
"w c #000000",
"x c #000000",
"y c #000000",
"z c #000000",
"{ c #000000",
"| c #000000",
"} c #000000",
"~ c #000000",
"!!!!!!!!!!!!!!!!!!!!!!!!!!!!!!!!!!!!!!!!!!!!!!!!!!!!!!!!!!!!!!!!",
"!!!!!!!!!!!!!!!!!!!!!!!!!!!!!!!!!!!!!!!!!!!!!!!!!!!!!!!!!!!!!!!!",
"!!!!!!!!!!!!!!!!!!!!!!!!!!!!!!!!!!!!!!!!!!!!!!!!!!!!!!!!!!!!!!!!",
"!!!!!!!!!!!!!!!!!!!!!!!!!!!!!!!!!!!!!!!!!!!!!!!!!!!!!!!!!!!!!!!!",
"!!!!!!!!!!!!!!!!!!!!!!!!!!!!!!!!!!!!!!!!!!!!!!!!!!!!!!!!!!!!!!!!",
"!!!!!!!!!!!!!!!!!!!!!!!!!!!!!!!!!!!!!!!!!!!!!!!!!!!!!!!!!!!!!!!!",
"!!!!!!!!!!!!!!!!!!!!!!!!!!!!!!!!!!!!!!!!!!!!!!!!!!!!!!!!!!!!!!!!",
"!!!!!!!!!!!!!!!!!!!!!!!!!!!!!!!!!!!!!!!!!!!!!!!!!!!!!!!!!!!!!!!!",
"!!!!!!!!!!!!!!!!!!!!!!!!!!!!!!!!!!!!!!!!!!!!!!!!!!!!!!!!!!!!!!!!",
"!!!!!!!!!!!!!!!!!!!!!!!!!!!!!!!!!!!!!!!!!!!!!!!!!!!!!!!!!!!!!!!!",
"!!!!!!!!!!!!!!!!!!!!!!!!!!!!!!!!!!!!!!!!!!!!!!!!!!!!!!!!!!!!!!!!",
"!!!!!!!!!!!!!!!!!!!!!!!!!!!!!!!!!!!!!!!!!!!!!!!!!!!!!!!!!!!!!!!!",
"!!!!!!!!!!!!!!!!!!!!!!!!!!!!!!!!!!!!!!!!!!!!!!!!!!!!!!!!!!!!!!!!",
"!!!!!!!!!!!!!!!!!!!!!!!!!!!!!!!!!!!!!!!!!!!!!!!!!!!!!!!!!!!!!!!!",
"!!!!!!!!!!!!!!!!!!!!!!!!!!!!!!!!!!!!!!!!!!!!!!!!!!!!!!!!!!!!!!!!",
"!!!!!!!!!!!!!!!!!!!!!!!!!!!!!!!!!!!!!!!!!!!!!!!!!!!!!!!!!!!!!!!!",
"!!!!!!!!!!!!!!!!!!!!!!!!!!!!!!!!!!!!!!!!!!!!!!!!!!!!!!!!!!!!!!!!",
"!!!!!!!!!!!!!!!!!!!!!!!!!!!!!!!!!!!!!!!!!!!!!!!!!!!!!!!!!!!!!!!!",
"!!!!!!!!!!!!!!!!!!!!!!!!!!!!!!!!!!!!!!!!!!!!!!!!!!!!!!!!!!!!!!!!",
"!!!!!!!!!!!!!!!!!!!!!!!!!!!!!!!!!!!!!!!!!!!!!!!!!!!!!!!!!!!!!!!!",
"!!!!!!!!!!!!!!!!!!!!!!!!!!!!!!!!!!!!!!!!!!!!!!!!!!!!!!!!!!!!!!!!",
"!!!!!!!!!!!!!!!!!!!!!!!!!!!!!!!!!!!!!!!!!!!!!!!!!!!!!!!!!!!!!!!!",
"!!!!!!!!!!!!!!!!!!!!!!!!!!!!!!!!!!!!!!!!!!!!!!!!!!!!!!!!!!!!!!!!",
"!!!!!!!!!!!!!!!!!!!!!!!!!!!!!!!!!!!!!!!!!!!!!!!!!!!!!!!!!!!!!!!!",
"!!!!!!!!!!!!!!!!!!!!!!!!!!!!!!!!!!!!!!!!!!!!!!!!!!!!!!!!!!!!!!!!",
"!!!!!!!!!!!!!!!!!!!!!!!!!!!!!!!!!!!!!!!!!!!!!!!!!!!!!!!!!!!!!!!!",
"!!!!!!!!!!!!!!!!!!!!!!!!!!!!!!!!!!!!!!!!!!!!!!!!!!!!!!!!!!!!!!!!",
"!!!!!!!!!!!!!!!!!!!!!!!!!!!!!!!!!!!!!!!!!!!!!!!!!!!!!!!!!!!!!!!!",
"!!!!!!!!!!!!!!!!!!!!!!!!!!!!!!!!!!!!!!!!!!!!!!!!!!!!!!!!!!!!!!!!",
"!!!!!!!!!!!!!!!!!!!!!!!!!!!!!!!!!!!!!!!!!!!!!!!!!!!!!!!!!!!!!!!!",
"!!!!!!!!!!!!!!!!!!!!!!!!!!!!!!!!!!!!!!!!!!!!!!!!!!!!!!!!!!!!!!!!",
"!!!!!!!!!!!!!!!!!!!!!!!(((((((((&&&&&&$$$$!!!!!!!!!!!!!!!!!!!!!!",
"!!!!!!!!!!!!!!!!!!!!!&(22222222222.....((($&!!!!!!!!!!!!!!!!!!!!",
"!!!!!!!!!!!!!!!!!!!!&$27<<<<:::::::7733332(2(!!!!!!!!!!!!!!!!!!!",
"!!!!!!!!!!!!!!!!!!!!&&$##$$&&&&&((((....22377!!!!!!!!!!!!!!!!!!!",
"!!!!!!!!!!!!!!!!!!!++&&$$&&(((....222333777766!!!!!!!!!!!!!!!!!!",
"!!!!!!!!!!!!!!!!!!!-*,++-///000011144466666646!!!!!!!!!!!!!!!!!!",
"!!!!!!!!!!!!!!!!!!+-**'%+%''*,))*+,01/005016646!!!!!!!!!!!!!!!!!",
"!!!!!!!!!!!!!!!!!!-*-'%*)%'',-))*+,01//01401646!!!!!!!!!!!!!!!!!",
"!!!!!!!!!!!!!!!!!!-*-'%+%''',,))*+,/4///0501643!!!!!!!!!!!!!!!!!",
"!!!!!!!!!!!!!!!!!2.&$(%+%''),))*+,-/4///0533337!!!!!!!!!!!!!!!!!",
"!!!!!!!!!!!!!!!!!2(&&$$#$&&&&(((((.....222277776!!!!!!!!!!!!!!!!",
"!!!!!!!!!!!!!!!!!2&&&&&$((((....2222223333777776!!!!!!!!!!!!!!!!",
"!!!!!!!!!!!!!!!!!-02.(&&((((....2222223333377746!!!!!!!!!!!!!!!!",
"!!!!!!!!!!!!!!!!!-*-'**4+,-/60001111;46666544646!!!!!!!!!!!!!!!!",
"!!!!!!!!!!!!!!!!!-*-'%%*%''',)*++,-/4///01544646!!!!!!!!!!!!!!!!",
"!!!!!!!!!!!!!!!!!-*-'%%*%''',)*++,-/4///01544646!!!!!!!!!!!!!!!!",
"!!!!!!!!!!!!!!!!!-*-'%%*%'''-)*++,-/4///01544646!!!!!!!!!!!!!!!!",
"!!!!!!!!!!!!!!!!!-*-'%%*%'''-)*++,-/4///01544646!!!!!!!!!!!!!!!!",
"!!!!!!!!!!!!!!!!!-*-'%%*%'''-)*++,-/4///01544646!!!!!!!!!!!!!!!!",
"!!!!!!!!!!!!!!!!!-*-'%%*%'''-)*++,-/4///01544646!!!!!!!!!!!!!!!!",
"!!!!!!!!!!!!!!!!!&*-'%%+%'''/)*++,-/4///01544633!!!!!!!!!!!!!!!!",
"!!!!!!!!!!!!!!!!!($$$&%+%'''/)*++,-/4///01533337!!!!!!!!!!!!!!!!",
"!!!!!!!!!!!!!!!!!.&&&$#$&&&&&(((((.....22223777!!!!!!!!!!!!!!!!!",
"!!!!!!!!!!!!!!!!!2.(&&$&((((....2222223333377778!!!!!!!!!!!!!!!!",
"!!!!!!!!!!!!!!!!!!02...(((((....2222223333388854!!!!!!!!!!!!!!!!",
"!!!!!!!!!!!!!!!!!!--//////1191144444;44448846464!!!!!!!!!!!!!!!!",
"!!!!!!!!!!!!!!!!!!-*-)%+%))+0+,,,,-/4//01644646!!!!!!!!!!!!!!!!!",
"!!!!!!!!!!!!!!!!!!!-**'-)))+0-,,,,-14//01644646!!!!!!!!!!!!!!!!!",
"!!!!!!!!!!!!!!!!!!!(*-**-))+0/,,,-/44//0464646!!!!!!!!!!!!!!!!!!",
"!!!!!!!!!!!!!!!!!!!($#$*-+++/0----/41/01646667!!!!!!!!!!!!!!!!!!",
"!!!!!!!!!!!!!!!!!!!!&&&$$$$&&&((...22233377:<!!!!!!!!!!!!!!!!!!!",
"!!!!!!!!!!!!!!!!!!!!!&(&&(((....2222333777::!!!!!!!!!!!!!!!!!!!!",
"!!!!!!!!!!!!!!!!!!!!!!!22222333337777:::::!!!!!!!!!!!!!!!!!!!!!!"
};