/* XPM */
static char * result[] = {
"64 64 92 1",
"! c #000000",
"# c #4040FC",
"$ c #545454",
"% c #383838",
"& c #2C2C2C",
"' c #202020",
"( c #010101",
") c #0000E0",
"* c #0000D4",
"+ c #0000C8",
", c #0000BC",
"- c #0000B0",
". c #0000A4",
"/ c #000098",
"0 c #000088",
"1 c #00007C",
"2 c #000070",
"3 c #000064",
"4 c #000058",
"5 c #00004C",
"6 c #000040",
"7 c #010101",
"8 c #010101",
"9 c #010101",
": c #010101",
"; c #010101",
"< c #010101",
"= c #010101",
"> c #010101",
"? c #010101",
"@ c #010101",
"A c #010101",
"B c #010101",
"C c #010101",
"D c #010101",
"E c #010101",
"F c #010101",
"G c #010101",
"H c #010101",
"I c #010101",
"J c #010101",
"K c #010101",
"L c #010101",
"M c #010101",
"N c #010101",
"O c #010101",
"P c #010101",
"Q c #010101",
"R c #010101",
"S c #010101",
"T c #010101",
"U c #010101",
"V c #010101",
"W c #010101",
"X c #010101",
"Y c #010101",
"Z c #010101",
"[ c #010101",
"] c #010101",
"^ c #010101",
"_ c #010101",
"` c #010101",
"a c #010101",
"b c #010101",
"c c #010101",
"d c #010101",
"e c #010101",
"f c #010101",
"g c #010101",
"h c #010101",
"i c #010101",
"j c #010101",
"k c #010101",
"l c #010101",
"m c #010101",
"n c #010101",
"o c #010101",
"p c #010101",
"q c #010101",
"r c #010101",
"s c #010101",
"t c #010101",
"u c #010101",
"v c #010101",
"w c #010101",
"x c #010101",
"y c #010101",
"z c #010101",
"{ c #010101",
"| c #010101",
"} c #010101",
"~ c #010101",
"%211111111111111111112%%0000000000000000000000000000%%211111112&",
"'.....................'',,,,,,,,,,,,,,,,,,,,,,,,,,,,''---------'",
"(...0.1../1//1//1.1224(',.,-1.,/22/0..020.,.0/.,,./2('-,./.--/1(",
"(./10///11./.3//121123(',,.///2/42441..3223224200232('--..1/..4(",
"(.0.2++/111/0013412443('((((((((((((((((((((((((((((('-.-,,-.11(",
"(.01.++3111.///0221446('...................'''''''''''-,.-.1134(",
"(.//--.../...//2234323('.,,,-.//,//-//-,,..('....//3''-//.10033(",
"(../.--./13../00133466('.-,)+-.,.///--.../.('.//0/13('-//.20003(",
"(./1/..0/1/22000211346('.-+,+/-..,//.1.1/.1('.///113('-,./..006(",
"(.000.111..24332311146('.---///-..../031113('../1144(',11/../46(",
"(/10.002/..22343331146('.,---//-,,..3301134('../1.14(',1,.1//46(",
"(/0/11.031413431646636('.,..----,--.332.336('.10/144(',,1133116(",
"(/1/130013131362266636('.-../,//.--.//11443('.000223(',12313116(",
"(//1112344313236626346('.-)+00//01110/01336('..00223(',11244446(",
"(/1/332313666666666666('.,++000..1001021346('.1/.444('((((((((((",
"((((((((((((((((((((((('.,../00...00/331346('.../.43('''''''''''",
".,-.-.....-....(---..//(.-/.0/....1//114466('/././23('....(,,,,,",
",-./.,-.0..1./1(--/,,1,(....,./...032166346('//12124('.-01(,,.-,",
",-//0..01//11//(-,,-/11(.-/.,.0100311266366('//44436('.--1(,.---",
"-./--//111/1111(-,--//3(.-...0.113224443346('/143446('.014(,,,--",
".0/-,-11//1/411(-,/1//3(...////134334334666('/134466('.434(,,---",
"..0/-*1/1133211(-/,1113((((((((((((((((((((('(((((((((((((',,../",
"-010/./11/32144(-//3114('''''''''''''''''''''''''--------'',..//",
"-.0/1/1//121314(-,/0343('--------------------/.''-+-+.../(',-///",
"--/0-////112444(.,10034('-,-.,,,-,.-.,-1.,,,1.4('-+-++./0(',,///",
"-.010--31/00243(.132243('-,.-+)),*).,..,,....14('-++++.01(',-,..",
"./10.--./100243(/144443('--.,**),)**-1.11.11.44('--.+.0.3(',,,..",
"-/-//.-.3122244((((((((('-,,--++..**..1112.1144('-+....03(',,,--",
".00../..3243466('''''''''--,---...,...100114443('-++..012(',..,-",
"./0.../12343344('----..''-..,-00.,-1..100022244('-++//..4(',..--",
"/0/0..133444363('--0./0('-,-,-00...1...20042226('--+///.4(',,//1",
"/00100133211366('-../0/('-,,.---/.111..24343226('--.0-..3(',00//",
"/0./21123211346('-./023('-,.1.--..1213222466466('--+0--/3(',0011",
"/./001334552346('--0-04('-..,1../12113322366336('-.+.0//4(',,111",
"1//011114554436('---223('-1,1..1123111334433356('-+../423(',..//",
"100121114434444('---.44('-.,1..2334111344445556('-+./1/24(',../0",
"103213114346434('-//403('-.1..14444333346666666('-+.1//13(',/..1",
"1/1313243664666('-//-43('((((((((((((((((((((((('.-.13113(',/001",
"10/021244463646('--0-04('''''''''''''''''''''''''.--.1436(',,001",
"1/0132126666666('--0043('......................''.-.,.136(',//10",
"(((((((((((((((('--1144('.,,,,,,-......./01,/.1('.+..,046('(((((",
"'''''4422000123''.-1114('-,++,..--+,//../1010/1('....0046('0/00(",
"'/.-,,,,,,,,,,,''..0113('-,+++----,,1111...//13('.+.12446('//11(",
"'.,,,,,-.-,...,('../433('-,,,,**---111111/112/3('.-023426('/122(",
"'.,--**-,,,/.,,('./0444('-,,-,***1./11222011113('..232446('/214(",
"',,,-**,//.,,/-('((((((('.-,-,,**,../1223341113('01144436('0124(",
"',.-.---///,.00('''''''''..-+//,.,....113313455('((((((((('0243(",
"',,-/0--.//.,,.(',,-../''..++///-...11/02334466('''''''''''''''(",
"',,/.,-0.---1..(',1,0/0('.,,,-//,,,.11113334466('----,,,,,,,,,,(",
"',,,,.0,0-11.0.(',.--/1('.-..---,,,,.1024333245('--..----.0,..1(",
"',.,/..,-/151..(',,1.12('.,.../.,,,,...44443223('-.-**---/.../1(",
"',-//,),.0.11..(',-..1.('.,,..,00,,,...24434555('-,,*++--00./13(",
"',.,.)#)//./010(',-.1.2('..,//1110...1113344466('-/,/++--..1114(",
"',-,-,),.1..553(',.--13('..,.0011101044//224566('-,-///..111143(",
"',.,---00012553(',,-/03('./,,/,11011014//022343('--.///.1231443(",
"'.,--.11/.//133(',-.001('.,/.,.012200441//12446('--/.//.1232144(",
"',.,-00-1../214(',.,111('.,.../0..2242441113446('--,-0--/13//46(",
"',.,./0130../23(',,.333('...//10...232245553666(',,-0.---/1//16(",
"'-.000.3530//22(',-.124('.-.//,.1..442234664666(',-.0..--/11116(",
"'-.2303.11/4344('-.3334('.-,1,,.433344555665466(',-.,..10221146(",
"'..003043432323('-.0233('..-,.1/433344662236564(',,,/.112112363(",
"'./111112222111''.01111''.././11111123441111442'',..1/.11111221(",
"%00011111111111%%001111%%.+00000111111111111111%%,0011111111111'",
"$$$$$$$$$$$$$$$$$$$$$$$$$$$$$$$$$$$$$$$$$$$$$$$$$$$$$$$$$$$$$$$%"
};