/* XPM */
static char * result[] = {
"64 64 92 1",
"! c #000000",
"# c #BEC3BF",
"$ c #BDBDAF",
"% c #B4B6AF",
"& c #AEB4B0",
"' c #A7A18B",
"( c #9E977B",
") c #999183",
"* c #868B80",
"+ c #878078",
", c #77746B",
"- c #67635E",
". c #495254",
"/ c #5B402F",
"0 c #4D352B",
"1 c #3C2C24",
"2 c #342C28",
"3 c #1E0707",
"4 c #000000",
"5 c #000000",
"6 c #000000",
"7 c #000000",
"8 c #000000",
"9 c #000000",
": c #000000",
"; c #000000",
"< c #000000",
"= c #000000",
"> c #000000",
"? c #000000",
"@ c #000000",
"A c #000000",
"B c #000000",
"C c #000000",
"D c #000000",
"E c #000000",
"F c #000000",
"G c #000000",
"H c #000000",
"I c #000000",
"J c #000000",
"K c #000000",
"L c #000000",
"M c #000000",
"N c #000000",
"O c #000000",
"P c #000000",
"Q c #000000",
"R c #000000",
"S c #000000",
"T c #000000",
"U c #000000",
"V c #000000",
"W c #000000",
"X c #000000",
"Y c #000000",
"Z c #000000",
"[ c #000000",
"] c #000000",
"^ c #000000",
"_ c #000000",
"` c #000000",
"a c #000000",
"b c #000000",
"c c #000000",
"d c #000000",
"e c #000000",
"f c #000000",
"g c #000000",
"h c #000000",
"i c #000000",
"j c #000000",
"k c #000000",
"l c #000000",
"m c #000000",
"n c #000000",
"o c #000000",
"p c #000000",
"q c #000000",
"r c #000000",
"s c #000000",
"t c #000000",
"u c #000000",
"v c #000000",
"w c #000000",
"x c #000000",
"y c #000000",
"z c #000000",
"{ c #000000",
"| c #000000",
"} c #000000",
"~ c #000000",
"11111100//00/0/00000100//0/000011110100/////0/011111010///0/0000",
"(((((+,+0////000,''(+,-1/%#&''(((((((+,,,,+''''''''(+,-0/%#&''((",
"*+++**+,(('''((''*++,+,20$*++++(((*++++-++*++++('+++,+,20$*+++(*",
"+++**+++++*+++(**++++,+.0'++++****+++++++*+++*(++++++,+.1'+++(*+",
"+***+++-+++++(*++++++++20'+++''+*++++++++(++''+++++++++21'++'++*",
"**+++++-++++'+++++++++,21'+*(++*+*+++,+++(+(++++++++++,20'+*'+*+",
"++++++-++++*'+*+++++)-.20'+(*+*+**++,+++++(*++++++++)-.21'+(+++*",
"+++,+,++++(*+*+*++++--..1'(++++*+++,+,++((**+*+*++++--..0'(+++*+",
"+++-++++++(**+*++++)--.21,'+++++++,+,++++*+**+*++++)--.21,'+++++",
"++--++++++(*+**+++)-,-..1,+++++++++,++++*+**+**+++)-,-..0,++++++",
"+)-,+,++++*+++++,+-,+,-.0-+++++++)-,+++-+*++++++,+-,+,-.0-++++++",
")-,+,++++++++++,+,,+++-.1--+++++)-,+++++*++++++,+,,+++-.0.-+++++",
",+,++++++++++,+,+++++++20-,+++)--,+++++++++++,+,+++++++20-,+++)-",
"+++++++,+,++++++++++++,20,++++----,++++++,++++++++++++,20,++)---",
"++--,++-+,---+++++--++-20,--+,....--++,-+,---+++++--++-!0,-----,",
"....2.2!!2222.2......220/122222.2....222!!222.2......2!0/!222.2.",
"/0111101011110010011010///101101001011111101001011110////101010/",
"((+,-//0'*((***-.101''*'*%%'%''',---,,0//%''''-.--,,,---+++*((((",
"*+*+,2/%*++'*+*+*.1'**++++*++++('+-,,+20'*+++++-.,++++,-++++++(*",
"+++++.1'++'*+*+**.--'++++++++*(++++,+,2/'++(+++,-++++,+,+++++(*+",
"***+-20'+'++*+++++'%%+++++++''++++++,,20'+(+++++-+++++,+++++'++*",
"*+++-.1'+++++++++++++++-+++(+++++++,+,.1'(*++++,+-+++++,++++'+**",
"+*+-+.1-++++++,+++++++++++(*++++++++,-20%*+*++++,-+++++++++++++*",
"++,++.1.-,+,+,++++,+++++++*++++++++)--.1'+*++++++-+,++++++++++*+",
"+++++.1-.--+,+,+,,+,++++++*++*+*+++)-+.1(**+++++,,-+++++++++++++",
"++++,.1-,++---,-,+++++++++++***++++-,-.0++++++++,++,++++++++++++",
"+++,,.1,+++++,,+-+++++++++++**+++++--+.1-++++++,+++++++++-++++++",
"++---.1,+++++++,+,++)++++++**+*++++-+-.0-++'++++,+++)),-+--+++++",
"--,+,21-+,+++++++++),+++++*+*++,++-,+,.0'*++++++++++,+,+++,,+,+-",
"-++,,20-,+,+,+++++),+,,++,++++-++,-+,+20,+++++++++++++,+++,+,+,,",
"+-,+-21--,+,+,+++)--,,.++-,+--+++,-,,-20-,+---++++++,++++,+,,,--",
"...22101222...2.....2.22!22.2......22!1/02.2.......22!2!!2222.2.",
"111111001100101010000010111100000110101/////0/0111101011/0/00000",
"''(*++(+(((///0/00,''(+,-101#&%%(((((+,+'''*(((((((+,-1/00#$''''",
"((*++++-++*''((''''*++,+,21$*+++(*++**+,++++++)*+++*+,20/%*+++((",
"**+++++++**+++(****++++,+.0'+++(*++**++++++++)*+++*+++./0'+++***",
"*+++++++*+*++(*+*++++++++21'++'++***+++-++++)+++****+-200'++''++",
"+*+++,++++++'++*++++++++,21'+*'+*+*++++++++'))****+++-.01(+(++**",
"**++,++++++*'+*+++++++)-.21'+(+++*++++-+++',,,++*+*+-+.00((*+*++",
"+++,+,+++++*+*+*++++++--..1'(+++*++,+,++'),+,+,*+++,++.01'*+++**",
"++,+,++++++**+*++++++)--.21,'++++++-+++*,,+,+,++++++++.1,'*+++++",
"+++,+++++++*+**++,++)-,-..0,++++++--++*+++,++++++++++,.0'*++++++",
"+)-,+++-++++++++,,,+-,+,-.1-+++++)-,+,+++-+,++++++++,,.1'+++++++",
")-,++++++++++++,+,+,,+++-.0--++++-,+,+++,++++++++++---.0(+++++++",
"-,+++++++++++,,+,+,++++++21-,+++-+,++++++-,,+,+)---,+,21+,+++)--",
"--,++++++,+++++,++++++++,20,++)--++++++++,,+,+,-,-++,,21,+,++---",
"..--++,-+,---+++++++--++-20,----,+--,++-+,+,,,-+-+-,+-21-,++,...",
"2....222!!!222!22.!!2..221/0222.....2.22!2222.2.....221122.222..",
"01111101001101000010110100//00/0/000001000000000011110101/////0/",
"((((((+,-001#$$''',,-111%''''''',1,,---,,///000000010''',-2%'*((",
"(**+++*+,21%(((++('++-'%,,,+*++,.('++-,+-2/0#%'''''''+**+,++*+++",
"*++++*+++.0(+(+*(++++,,,+,+++++.$+++++++-20%++'*+**++++++++++++(",
"+++****+-21+(+''++++++++,,+++,'-(++++++)-2/'+'++*++++++++-++++'+",
"++***+++-.1(+(+++++++++,+,-++(-+*++++++-..0'+++++++++++++-+++*'+",
"+++*+*+-+.1+(*++++++++,+,-+++,+++*++++).-20-+++++++++++++++++(++",
"++*+++,++.1(*++++++++++)++-,++++++++++--,.0.-,+,++++,+++++++(+++",
"+++++++++.1(*++*+*+++++++,+-+++++++++,+++.1-.--+,+,,+,++++++'+++",
"++++++++,.0(++***+++++)+,,,-++++++++)++++.0-,++---,+++++++++++++",
"+++++++,,.1(++**++++++),-,,++++++++--,,+-.1,++++++-+++++++++++++",
"++++++---.0(+**+*+++++,-+++++++-+,--,+++-.1,+++++,+,++)+++++-+++",
"+))---,+,20(**+*+++++,-+-+++-*-++++++,++,21-+,+++++++),++++-,,+,",
",--,-++,,2/+*+*++,+++-+,+++++-+-++++,++++.1-,+,+++++),+,+++,,+,+",
"--+-+-,+-20,++++-+++,-,.2--,-+---++++++++21--,+,+++)--,,+++,+,,,",
"2......220/02.2..2.222!222!22.2....3..22!111222.2.....2.22!2222."
};