/* XPM */
static char * result[] = {
"64 64 92 1",
"! c #000000",
"# c #BEC3BF",
"$ c #BDBDAF",
"% c #B4B6AF",
"& c #ADB1AB",
"' c #A7A18B",
"( c #9E977B",
") c #979891",
"* c #999183",
"+ c #868B80",
", c #8D8672",
"- c #63A216",
". c #408B28",
"/ c #878078",
"0 c #7D7C6E",
"1 c #77746B",
"2 c #737164",
"3 c #726B63",
"4 c #6F6855",
"5 c #67635E",
"6 c #5A761F",
"7 c #58731F",
"8 c #56731E",
"9 c #536E1B",
": c #4B6C1F",
"; c #436927",
"< c #436726",
"= c #416726",
"> c #406324",
"? c #1C733C",
"@ c #646159",
"A c #5F5951",
"B c #5D594D",
"C c #585444",
"D c #58524E",
"E c #495254",
"F c #555149",
"G c #514E45",
"H c #494D46",
"I c #4A4643",
"J c #5B402F",
"K c #494540",
"L c #4D3B26",
"M c #4D352B",
"N c #4D3527",
"O c #3D6020",
"P c #365E1D",
"Q c #0B5633",
"R c #2D4F22",
"S c #2B4C20",
"T c #2A4C1F",
"U c #2D4827",
"V c #22491E",
"W c #25441A",
"X c #0A482B",
"Y c #00442C",
"Z c #41403C",
"[ c #3D3A31",
"] c #393734",
"^ c #39372C",
"_ c #1E3C21",
"` c #173A1B",
"a c #11381B",
"b c #153516",
"c c #00352C",
"d c #36322E",
"e c #412C23",
"f c #3C2C24",
"g c #342C28",
"h c #30312D",
"i c #302D2B",
"j c #282D2F",
"k c #123316",
"l c #0E3018",
"m c #34261F",
"n c #2B2A27",
"o c #33231A",
"p c #262422",
"q c #2B1F18",
"r c #2B1E18",
"s c #261F1B",
"t c #232322",
"u c #23201E",
"v c #191F1E",
"w c #221815",
"x c #201711",
"y c #1C1817",
"z c #181817",
"{ c #1C130F",
"| c #16110D",
"} c #131110",
"~ c #160A0A",
"MfMMJJMJMMMMfffffMfMJJJMJMMMMMMMMfMffffMMMMMfffffMfMffJMJMMMMMMM",
"(/155J'#&''(('''(/155J%#&''((1''(/155M'#&%%((((((/15fJM'#$'''1''",
"/1/1gM$+////('///1/1gM$+///(+'+//1/1gf$+///(++///+I1gMJ%+///('+/",
"//1/QQQI///++/////1/Ef'///(+/+////1/EM'///(+////H.?IEJ'B///+++//",
"///QQQcZI//*5///////QLL1///*5///////gf'//'//+*55]??ZgQQQI//*5///",
"///?QcYLQI/55//////???ci/*555//////1gM1//*55/51]Ic?LLcQQQI/55///",
"5//]yrc???1EE//55//.?cLp]]551//55//5gM155551//]QQLi]y|cQ?I1EE//5",
"EEggEo]Y...gEEEEELLYvx}LLLQyEttgEEggEJ5gggEEEj???cyyjw]yjgggEEEE",
"ffMfMMwQL.-rffQQLcQQQY???cLQQwfMMMMMMMfffffMw...Y{wMMMMMMMMfMMMf",
"'%'''']Lnpp]1???c[cQ?^.?cicL??jM'#$$'''11555Z-.QLLQB'''((((/155J",
"'+////IL[I]1Z.?c[hZnZZZZnhncL.Yw%(((//('//51/]}xc???H/++///+/1gM",
"'//(//IQQQIZIn}LCZZI1111ZZZ???cr(/(/+(///////5yrnc?.I/////+///EJ",
"5/1//IQQQcLLQQL{C+111111EE...YLrCH+/+/////1//1gf]LniI//*5551/1gf",
"51/1/1?QcnQc???{]11111155E-.QpQLQQI+//1//1////EwQQLZII/515//11gM",
"551/1/Zii???c?.rE51EEE1EE1j]n??c???I/5////////y???cQQLLQQI51/5gf",
"5gggEEEj...Y}}jJEtgtgggtgggg}?yoY...jEgE~EEggtj.?c???ccL??jEggEM",
"fffffMfM-.Q{orMMMMMMMfMffffMMMrr|L.-wMfMffJMJMMrr{.?c|{Y...oMMMM",
"/'((/15E5oB0&''((1''(/155M'#&%%CCQLQC/155JM'#$'''ZB[^iLpQ.-2'''/",
"/(111515tM$+///(+'+//1/1gf$+///C???c??/1gMJ%+///('+IiQQL}{BH1111",
"+1111151gf'///(+/+////1/EM'///(H.?cLH?//EJ''///+++/IIc???r(1111+",
"E1111111tM51///*5///////gf'//'/IHdpLQLI1gf/1///*5ILLQQc?.rE5111/",
"E1111115tM1//*555//////1gM1//*55Ip???cLLQQ1/1//5]Lc???inyM51111E",
"g11EE11EtM1555551//55//5gM155551I...Yn???cL1//1EQLQc?.I]gM5EE15g",
"ggggggttgJ5gggEgEttgEEggEJ5gggEEj-.Qvv.?c|LQQgg???cvvjggEJEttttt",
"MfMMMMMMMMfMMMfwfMfMMffMMfMffffffMwrrwowxrc???L.?crrrfffffMfMMff",
"#%''''((((/155YYY((((E(1EEE55EJ'%''''5//((ic?.Q^IB''((11EEE55EJ'",
"//'+/++///+/1gcQQQ1111/(1E551tM'+///////+/HiQLYYYI/11/(11E51EtJ%",
"1/1//////+///ExcQQ/1111111515tJ'//(///////I???cQQQZ+/1111111EtM1",
"/1////*5551/1gwLZ]1111511E515gM'+//////55]...Y{cQQ1+111115115tf5",
"1/1///515//11yQQLZ5151115E151tM1//////1YYY-.L}oZHZ+1151151111gf5",
"51/1///5/51/5???cYYY15115E55EtM51/555/QQQcLQpyM51111E11111111tf5",
"gggEgEEEEEEgy.?cQcQQQgggggtttgJEgEgEEEQQcLv}yEJEtgtggtg~ggtttgf5",
"fMMJJMJMMMMffw||{QcQQJMYQQQLMMQQQrffffrYLQ{wffffMfMffJMJMMMMMMMM",
"/155J($'''//'(Ci???cLQLc???^L???YYY5M'0c???C((((/15fJM'#$'''1''(",
"1/1gM'+1111/(1Z...Y}Q?ciY...[.?ccQQQwQQLY...H///+/1gMJ%+///('+//",
"/1/EM(1111++11Z-.Qny??ciiQ.-HiiiQcQQ???ciQ.-I//+///EJ''///+++///",
"///gME5111/E111ZZZZ}r.nIIIF]IIi???cy.?ci[iiHF5551/1gf/1///*5////",
"//1gM51111EE1111115tMZII*555//I.?cLy{LQQF]]I515//11gf1/1//55////",
"//5gM5EE15gg11EE11EtM1555551//5]iiL}rL???]1//5/51/5gf51//1EE//55",
"EggEJEtttttggggggttgJtgggEgEttgEj}QQLpc?.jEEEEEEEggEf5gEgggEEEEE",
"fffMfMMffMMfMffffffMfMMfJfJMffffr???c{rwwfffMfMMffMfMMMMMMMMfMMM",
"J'%''''5'1555115J'%''''5//((/155...YIB''1155511EJ'#%''''((((/155",
"M'+/////('/511/gM'+///////+/+/1y-.QYYY/('//51/5gJ%//'+/++///+/1g",
"J'//(///////1/1gJ'//(//////////YYYicQQQ///////5gM11/1//////+///E",
"f5/1////1//51/1EM'+//////5551/QQQcQQcQQ////1//1gf5/1////*5551/1g",
"M51/1/1///15/1/gM1//////115//1QQcc???I/1//1////Ef51/1///515//11g",
"f551/1/1//15115gM51/555/55/51/5yrQc?.I5////////gf551/1///5/51/5g",
"M5gggEEEEEEEggtEJ5gEgEEEgEEEEggjovLv}jjgE~EEggtEf5gggEgEEEEEEggE",
"ffMfMJJJMJMMMMMMMMfMffffMMMMMfffwwQLQQQoMJMMMMMMMMfMMJJMJMMMMfff",
"'(/151J'#&''((1''(/155M'#&%%((((C???c???C$'(((5''/15EEJ%#&''((''",
"//1/1gM$+///(+'+//1/1gf$+///(++/I.?cnY...H111/'+11515tM$+////('/",
"///1/Ef'///(+/+////1/EM'///(+////HiiiLQ.-Z11+++111151gM'////++//",
"/////gM51///*5///////gf'//'//+*555ZiLLQnpZ11/E1111111tM51///*5//",
"////1gM1//*555//////1gM1//*55/515QQQc???Z511EE1111115tM1////55//",
"55//5tM15555513/55//5gM155551//5???cpc?.]115pg11EE11EtM155/1EE//",
"EEEptEN5gggEgVvtgEEggEJ5gggEEYYY.?cYYYw}tgt9vggggggttgJ5gggggEEZ",
"meMmffqffMfMm9mMfMMMMMMMMfMMQQQcQ||cQQQMfMf9WfffMfMMfJmJMffffMOe",
";'2621FKD511K92&'''''((((/15XQc???>[cQX5DDF=Ke(@((0(E1@A/15ZEm;)",
";4<74'<AD=/Ds9R3<'+3+2//3@/1s9QY.P9d3(,7K@F7sO'@@8F1F1@;121Dvq;4",
"6`;6A3<73ASDsO`@A=/3<A7A2<ASaaQuaP=b3A3<S@A=sO0F@7F@F@F=F@F=sW6A",
"7`S7S3A7F<<@skTAF<`A74>TK=<X?XcuZdW`AFA7TF7=]W;@F=FTF8]>]>F>z96S",
"S;S<T<ATAS7`9O`TAT<A7`8TAAT.?lYYYFS`A<A`TA8SOmTF8=FF=9K9T`K9PW<`",
"<`<>S`AS<`7`9k>`=S=S7`T`KT<]}LcQQV`A`S<`9=`>WmV9=a9V`9a8V``9kb=`",
"aWa>kaPaVkWPaW`kOkVk>Vaa>VkgjL]cQVaVa>a>9kkPaWkkOkOk9kkOkOWPWW`k"
};