/* XPM */
static char * result[] = {
"64 64 92 1",
"! c #000000",
"# c #96987D",
"$ c #868854",
"% c #7E7C6B",
"& c #7F797F",
"' c #777766",
"( c #75746C",
") c #62665F",
"* c #686A46",
"+ c #5A6C54",
", c #65625C",
"- c #5F5C5E",
". c #495960",
"/ c #5A564B",
"0 c #595257",
"1 c #495254",
"2 c #624B3B",
"3 c #504C4D",
"4 c #4F4D50",
"5 c #3D502B",
"6 c #4D474A",
"7 c #4A4447",
"8 c #3B454A",
"9 c #334422",
": c #433D40",
"; c #41413C",
"< c #3F3D40",
"= c #253F22",
"> c #49383D",
"? c #4A362E",
"@ c #383733",
"A c #32302A",
"B c #342C28",
"C c #2D2B2B",
"D c #2A2E31",
"E c #2C2B2D",
"F c #2B2829",
"G c #273717",
"H c #222D18",
"I c #2A2729",
"J c #342522",
"K c #2A2024",
"L c #2C1D19",
"M c #262224",
"N c #1D2613",
"O c #152313",
"P c #161F0D",
"Q c #131B12",
"R c #181617",
"S c #0D130B",
"T c #0B0F0A",
"U c #000000",
"V c #000000",
"W c #000000",
"X c #000000",
"Y c #000000",
"Z c #000000",
"[ c #000000",
"] c #000000",
"^ c #000000",
"_ c #000000",
"` c #000000",
"a c #000000",
"b c #000000",
"c c #000000",
"d c #000000",
"e c #000000",
"f c #000000",
"g c #000000",
"h c #000000",
"i c #000000",
"j c #000000",
"k c #000000",
"l c #000000",
"m c #000000",
"n c #000000",
"o c #000000",
"p c #000000",
"q c #000000",
"r c #000000",
"s c #000000",
"t c #000000",
"u c #000000",
"v c #000000",
"w c #000000",
"x c #000000",
"y c #000000",
"z c #000000",
"{ c #000000",
"| c #000000",
"} c #000000",
"~ c #000000",
"GGGGGG99559959599999G9955959999GGGG9G9955555959GGGGG9G9555959999",
"/////6:64----444:((/6:=G5%#'&&///////6::::6,,&&,&,,/6:=95%#'&&//",
"3666336://(((//((366:6:Q9#36666///36666=6636666/,666:6:Q9#3666/3",
"66633666663666/336666:6I9,66663333666666636663/666666:6IG,666/36",
":6:6666666666:6:6666666Q9=:6660==:66666666666:6:6666666Q9=:6660=",
"6666666:6:666666666666:Q9:6666====:666666:666666666666:Q9:660===",
"66==:66=6:===66666==66=Q9:==6:IIII==66:=6:===66666==66=!9:=====:",
"IIIIQIQ!!QQQQIQIIIIIIQQ95GQQQQQIQIIIIQQQ!!QQQIQIIIIIIQ!95!QQQIQI",
"59GGGG9G9GGGG99G99GG9G9555G9GG9G99G9GGGGGG9G99G9GGGG95555G9G9G95",
"//6:=559(3//333=I<4<,,3,3%%,%,,,7===::955%,,,,=I==:::===6663////",
"3636:Q5%366,36363I<,33666636666/,6=::6Q9(366666=I:6666:=666666/3",
"66666IG,66,363633I==,666666663/6666:6:Q5,66/666:=6666:6:66666/36",
"==:6:QG=6:6666666660:6666636366:66=:6:I9,36666666666:6:666::6:6=",
"=66::Q9=:6:6:666660:6::66:6666=66:=6:6Q9:6666666666666:666:6:6::",
"6=:6=QG==:6:6:6660==::I66=:6==666:=::=Q9=:6===666666:6666:6:::==",
"IIIQQG9GQQQIIIQIIIIIQIQQ!QQIQRRRRRRQQ!G59QIQIIIIIIIQQ!Q!!QQQQIQI",
"GGGGGG99GG99G9G9G99999G9GGPPN>))))>NPNG55555959GGGG9G9GG59599999",
"((/366/6///---4-44:((/6:OP>))111111))>MF,,,3///////6:=G594##,,,,",
"//36666=663((//((((366:F>)111+$$$$+111)>F666660366636:Q9-%3666//",
"33666666633666/3333666F)111+$B!KK!B$+111)F666036663666I54(666333",
"=:66666666666::6:6:66F)11+>K!!!DK!!!K>+11)M:6:60===:6:QG6:6660==",
"==:666666:66666:6666F)11>!KK!!!8K!!!JK!>11)F:6:=:=66::QG:6:66===",
"II==66:=6:===666666F)11>!!KD!!!8K!!!2L!!>11)M:=6=6=:6=QG=:66:III",
"QIIIIQQQ!!!QQQ!QQI!)11>!!!8J!!!8K!!!?L!!!>11)RQIIIIIQQGGQQIQQQII",
"9GGGGG9G99GG9G999N>11>K!!!.K!!!.D!!!2J!!!K>11>N99GGGG9G9G5555595",
"//////6:=99<###(,@)11KK!!!.L!!!8D!!!2J!!!DK11)E4444<4(,,:=Q%&3//",
"/3366636:QG%///6F>11>KD!!!8K!!!.D!!!2J!!!8K>11>;,((,(6336:663666",
"366663666I9/6/63A)11!DJ!!!.J!!!.K!!!?L!!!.J!11)C633666666666666/",
"600===:6:Q9/3363F111!?D!!!8K!!!.D!!!2J!!!8L!111F666660:6666=::6:",
":==:=66::Q56363F>11B!?J!!!.D!!!.K!!!?L!!!2J!B11>F6660:6:666::6:6",
"==6=6=:6=Q9:666F111!!8D!!!.D!!!.K!!!?J!!!?L!!111F660==::666:6:::",
"QIIIIIIQQ959QIQR111!!8J!!!.D!!!8K!!!?D!!!2J!!111TIIIIIQIQQ!QQQQI",
"GGG9G9955555959P111!!8D!!!8K!!!.D!!!?J!!!2J!!111N999G9955959999G",
"/////6::::6,,&&@+11!!8D!!!.D!!!8K!!!8D!!!2J!!11+M((/6:=G5%#'&&//",
"//36666=6636666A>11B!.D!!!8L!!!.J!!!8J!!!?J!B11>;366:6:Q9#36666/",
"33666666636663/FF11)!8D!!!?D!!!.J!!!8D!!!?L!)11CC6666:6I9,666633",
"=:66666666666:6MF+11!DJ!!!?J!!!.J!!!8D!!!?L!11+MF666666Q9=:6660=",
"==:666666:666666F>11>DD!!!?J!!!8L!!!.D!!!?L>11>FF66666:Q9:6666==",
"II==66:=6:===666FF+1)KL!!!?L!!!2J!!!8D!!!2L)1+FF66==66=Q9:==6:II",
"QIIIIQQQ!!QQQIQIIR>11>K!!!8L!!!?L!!!.J!!!L>11>TRIIIIIQQ95GQQQQQI",
"99G9GGGGGG9G99G9GPP+1)>!!!8J!!!2J!!!2D!!!>)1+NNP99GG9G9555G9GG9G",
"7===::955%,,,,=I==MM+1)>!!DD!!!2J!!!?L!!>)1+CCC=I<4<,,3,3%%,%,,,",
",6=::6Q9(366666=I:FFF+1)>!KD!!!2J!!!2J!>)1+@CFC63I<,33666636666/",
"666:6:Q5,66/666:=66FFM+11)>K!!!?L!!!J>)11+@CFC633I==,666666663/6",
"66=:6:I9,36666666666MFM$+11))B!LL!B))11+$MFFF6666660:6666636366:",
"6:=6:6Q9:666666666666FMF>$+111))))111+$>MFMF:666660:6::66:6666=6",
"6:=::=Q9=:6===666666:6FFFM>$++1111++$>POOMF:6:6660==::I66=:6==66",
"IIIQQ!G59QIQIIIIIIIQQ!Q!!TTTT>$$$$>TTPNPTTQIIIQIIIIIQIQQ!QQIQIII",
"9GG9G9G55555959GGGG9G9GGHNHNNNNNPPPPPPNNPG99G9G9G99999G9GGGG9999",
"/////6:6,,,3///////6:=G594**@@@@;;ACFFA6///---4-44:((/6:=G9G#'%%",
"/366336:6666660366636:Q9-%366FAAAACF666=663((//((((366:6:QG#3666",
"3663366666666036663666I54(66633333666666633666/33336666:6I9,666/",
"=6:666666=::6:60===:6:QG6:6660===:66666666666::6:6:666666QG=:666",
"=66666666::6:6:=:=66::QG:6:66=====:666666:66666:66666666:Q9:660=",
":6==:66=6:6:::=6=6=:6=QG=:66:IIIII==66:=6:===6666666==66=Q9:====",
"IIIIQIQQ!QQQQIQIIIIIQQGGQQIQQQIIQIIIIQQQ!!!QQQ!QQI!!QIIQQG59QQQI",
"599999G9999999999GGGG9G9G55555959GGGGG9G99GG9G9999G9GG9G99559959",
":<77===::5554444444<4(,,:=Q%&3////////6:=99<###(,,77=<<<%(((,,,,",
"I/,66=:6=Q54#%((,((,(6336:663666/3366636:QG%///66/,66=,%7776366:",
"/6666666=Q9%66,3633666666666666/366663666I9/6/63/666677:6:66666I",
"66666:66:QG=6:66666660:6666=::6:600===:6:Q9/336366666:=6=666=3=6",
"6666:6666IG=:6:666660:6:666::6:6:==:=66::Q5636366:666=6:66666=6=",
"=66666666QG==:6:6660==::666:6:::==6=6=:6=Q9:6666=666:=:IQ==:=6==",
"IIISIIQQ!GGGQQQIQIIIIIQIQQ!QQQQIQIIIIIIQQ959QIQIIQIQQQ!QQQ!QQIQI"
};