/* XPM */
static char * result[] = {
"64 64 92 1",
"! c #000000",
"# c #AA5655",
"$ c #A54E44",
"% c #944643",
"& c #984637",
"' c #894443",
"( c #88403C",
") c #7F332D",
"* c #772D27",
"+ c #732C28",
", c #652826",
"- c #652422",
". c #5B402F",
"/ c #4D352B",
"0 c #3C2C24",
"1 c #5F2420",
"2 c #5A1F1C",
"3 c #4D2626",
"4 c #51221B",
"5 c #4E1818",
"6 c #431B17",
"7 c #3C1213",
"8 c #39130D",
"9 c #2A0909",
": c #1E0707",
"; c #000000",
"< c #000000",
"= c #000000",
"> c #000000",
"? c #000000",
"@ c #000000",
"A c #000000",
"B c #000000",
"C c #000000",
"D c #000000",
"E c #000000",
"F c #000000",
"G c #000000",
"H c #000000",
"I c #000000",
"J c #000000",
"K c #000000",
"L c #000000",
"M c #000000",
"N c #000000",
"O c #000000",
"P c #000000",
"Q c #000000",
"R c #000000",
"S c #000000",
"T c #000000",
"U c #000000",
"V c #000000",
"W c #000000",
"X c #000000",
"Y c #000000",
"Z c #000000",
"[ c #000000",
"] c #000000",
"^ c #000000",
"_ c #000000",
"` c #000000",
"a c #000000",
"b c #000000",
"c c #000000",
"d c #000000",
"e c #000000",
"f c #000000",
"g c #000000",
"h c #000000",
"i c #000000",
"j c #000000",
"k c #000000",
"l c #000000",
"m c #000000",
"n c #000000",
"o c #000000",
"p c #000000",
"q c #000000",
"r c #000000",
"s c #000000",
"t c #000000",
"u c #000000",
"v c #000000",
"w c #000000",
"x c #000000",
"y c #000000",
"z c #000000",
"{ c #000000",
"| c #000000",
"} c #000000",
"~ c #000000",
"000000//..//././////0//.././///0000/0//....././00000/0/..././///",
"*****-2-/....///2((*-250.&#'%%*******-2222-))%%)%))*-25/.&#'%%**",
",---,,-2**(((**((,--2-29/$,----***,----5--,----*)---2-29/$,---*,",
"---,,-----,---*,,----2-7/)----,,,,-------,---,*------2-70)---*,-",
"-,,,---5-----*,--------9/)---))-,--------*--))---------90)--)--,",
",,-----5----)---------290)-,*--,-,---2---*-*----------29/)-,)-,-",
"------5----,)-,-----+579/)-*,-,-,,--2-----*,--------+5790)-*---,",
"---2-2----*,-,-,----55770)*----,---2-2--**,,-,-,----5577/)*---,-",
"---5------*,,-,----+557901)-------2-2----,-,,-,----+557901)-----",
"--55------*,-,,---+5257701---------2-52-,-,,-,,---+52577/1------",
"-+52-2----,-----2-52-257/5-------+525!!)-,------2-52-257/5------",
"+52-2----------2-22---57055-----+52-777&,------2-22---57/75-----",
"2-2----------2-2-------9/52---+552---)&------2-2-------9/52---+5",
"-------2-2------------29/2----55552------2------------29/2--+555",
"--552--5-2555-----55--59/255-2777755--25-2555-----55--5!/2555552",
"7777979!!99997977777799/.099999797777999!!999797777779!/.!999797",
"./0000/0/0000//0//00/0/...0/00/0//0/000000/0//0/0000/....0/0/0/.",
"**-25../(,**,,,570/0-),),&&)&)))155522/..&))))5755222555---,****",
",-,-29.&,--),-,-,735),----,----*)-522-9/(,-----57-52--25------*,",
"-----70)--),-,-,,-)&---------,*----2-29.)--*---255!7)2-2-----*,-",
",,,-59/)-)--,---------------))------229/)-*-----577!&-2-----)--,",
",---570)---------------5---*-------2-270)*,----2-27)2--2----)-,,",
"-,-5-705------2--------27-*,--------259/&,-,----25-------------,",
"--2--70752-2-2----2---5!!),--------+5570)-,------5-2----------,-",
"-----709755-772-22-2--277),--,-,---+5-70*,,-----225-------------",
"----27052-27!!+52------)&---,,,----5257/--------2--2------------",
"---22707-227!7&-5-----------,,-----55-705------2---------5------",
"--555708979!7)-2-2--+------,,-,----5-57/5--)----2---++25-55-----",
"552-290986889$-----+2-----,-,--2--52-27/),----------2-2---22-2-5",
"5--229/9686869)---+2-22--2----5--25-2-9/2-------------2---2-2-22",
"-52-5908868647+--+55227--52-55---252259/52-555------2----2-22255",
"777990/04848889777779799!997977777799!0./979777777799!9!!9999797",
"000000//00//0/0/0/////0/0000/////00/0/0....././0000/0/00././////",
"((*,--*-***..././/2((*-250/0#'&&*****-2-))),*******-250.//#$))))",
"**,----5--,((**((((,--2-290$,---*,--,,-2------+,---,-29/.&,---**",
",,-------,,---*,,,,----2-7/)---*,--,,--------+,---,---7./(---,,,",
",-------,-,--*,-,--------90)--)--,,,---5----+---,,,,-59//(--))--",
"-,---2------)--,--------290)-,)-,-,--------)++,,,,---57/0*-*--,,",
",,--2------,)-,-------+5790)-*---,----5---)222--,-,-5-7//**,-,--",
"---2-2-----,-,-,------55770)*---,--2-2--)+2-2-2,---2--7/0(,---,,",
"--2-2------,,-,------+557901)------5---,22-2-2--------702(,-----",
"---2-------,-,,--2--+52577/1------55--,---2----------27/(,------",
"-+52---5--------222-52-25705-----+52-2---5-2--------2270(-------",
"+52------------2-2-22---57/55----52-2---2----------5557/*-------",
"52-----------22-2-2------9052---5-2------522-2-+5552-290-2---+55",
"552------2-----2--------29/2--+55--------22-2-2525--22902-2--555",
"7755--25-2555-------55--59/255552-552--5-2-2225-5-52-59052--2777",
"97777999!!!999!997!!977990./999777779799!99997977777990099799977",
"/00000/0//00/0////0/00/0//..//././////0//////////0000/0/0...../.",
"******-25//0#$$())115000&((())))201155522...///////0/())259&%,**",
"*,,---,-290&***--*)--5)&111-,--27*)--52-59./#&(()(()(-,,-2--,---",
",----,---7/*-*-,*----112-2-----7$-------59/&--),-,,------------*",
"---,,,,-590-*-))--------22---2)7*------+59.)-)--,--------5----)-",
"--,,,---570*-*---------2-25--*29,------577/)-------------5---,)-",
"---,-,-5-70-*,--------2-25---27$-,----+759/5-----------------*--",
"--,---2--70*,----------+--52--7)------5527/752-2----2-------*---",
"---------70*,--,-,-------2-5-27)-----2---705755-2-22-2------)---",
"--------27/*--,,,-----+-2225-79*----+----7/52--5552-------------",
"-------2270*--,,------+2522-7::,---5522-5702------5-------------",
"------5557/*-,,-,-----25---29::9-2552---5702-----2-2--+-----5---",
"-++5552-29/*,,-,-----25-5--7$,-7-----2--2905-2-------+2----522-2",
"25525--229.-,-,--2---5-2-77%,---72--2----7052-2-----+2-2---22-2-",
"55-5-52-59/2----5---252799*2----57-------90552-2---+5522---2-222",
"977777799/./9797797999!999!99797777:7799!00099979777779799!99997"
};