/* XPM */
static char * result[] = {
"64 64 92 1",
"! c #000000",
"# c #AA5655",
"$ c #A54E44",
"% c #944643",
"& c #984637",
"' c #894443",
"( c #88403C",
") c #7F332D",
"* c #5B402F",
"+ c #772D27",
", c #732C28",
"- c #652826",
". c #5D2A20",
"/ c #652422",
"0 c #5F2420",
"1 c #5A1F1C",
"2 c #4D352B",
"3 c #3C2C24",
"4 c #51221B",
"5 c #4E1818",
"6 c #3C1213",
"7 c #2A0909",
"8 c #1E0707",
"9 c #000000",
": c #000000",
"; c #000000",
"< c #000000",
"= c #000000",
"> c #000000",
"? c #000000",
"@ c #000000",
"A c #000000",
"B c #000000",
"C c #000000",
"D c #000000",
"E c #000000",
"F c #000000",
"G c #000000",
"H c #000000",
"I c #000000",
"J c #000000",
"K c #000000",
"L c #000000",
"M c #000000",
"N c #000000",
"O c #000000",
"P c #000000",
"Q c #000000",
"R c #000000",
"S c #000000",
"T c #000000",
"U c #000000",
"V c #000000",
"W c #000000",
"X c #000000",
"Y c #000000",
"Z c #000000",
"[ c #000000",
"] c #000000",
"^ c #000000",
"_ c #000000",
"` c #000000",
"a c #000000",
"b c #000000",
"c c #000000",
"d c #000000",
"e c #000000",
"f c #000000",
"g c #000000",
"h c #000000",
"i c #000000",
"j c #000000",
"k c #000000",
"l c #000000",
"m c #000000",
"n c #000000",
"o c #000000",
"p c #000000",
"q c #000000",
"r c #000000",
"s c #000000",
"t c #000000",
"u c #000000",
"v c #000000",
"w c #000000",
"x c #000000",
"y c #000000",
"z c #000000",
"{ c #000000",
"| c #000000",
"} c #000000",
"~ c #000000",
"2322**2*222233333232***2*22222222323333222223333323233*2*2222222",
"+/155*)#'%%++%))+/155*&#'%%++1((+/1552)#'&&++++++/153*2)#$)))1((",
"/1/172$-////+)///1/172$-///+-(-//1/173$-///+--///-/172*&-///+(-/",
"//1/62)////--/////1/63)///+-/-////1/62)///+-////-///6*)(///---//",
"////7251///,5///////7251///,5///////73)//)//-,5551/173/1///,5///",
"///1721////55//////1721//,555//////1721//,55/515//11731/1//55///",
"5//572155/166//55//5!21555551//55//572155551//5/51/57351//166//5",
"66776*5777776666667!6*!777676!!766776*57776666666677635767776666",
"33232233223233333323223*3*23333222222233333232233232222222232223",
")&))))5)0555115*+)++++611//15662)#$$())0055511**)#&(()(++++/155*",
"(-/////+)/511/72)-1111111-1-15!3&+++//+)//51/57*&//)-/--///-/172",
")//+///////1/17*+11/111111111172+/+/-+///////57211/1//////-///6*",
"5/1////1//51/162+-111111666515!2+--/-/////1//1735/1////,5551/173",
"51/1/1///15/1/7251111115561155!*/-/-//1//1////6351/1///515//1172",
"551/1/1//151157265166616616516!21////5////////73551/1///5/51/573",
"5777666666677!6*6!7!777!7777!!7*2767667686677!635777676666667762",
"33333232***2*22222222323333222223333323233*2*22222222322**2*2222",
"/)++/1565*)#'%%++1((+/1552)#'&&++++++/155*2)#$)))1((+/155*1$)))/",
"/+111515!2$-///+-(-//1/173$-///+--///-/172*&-///+(-//1/172)-1111",
"-111115173)///+-/-////1/62)///+-////-///6*)(///---////1/62+1111-",
"61111111!251///,5///////73)//)//-,5551/173/1///,5///////7265111/",
"61111115!21//,555//////1721//,55/515//11731/1//55//////172511116",
"71166116!21555551//55//572155551//5/51/57351//166//55//572566157",
"777777!!7*5777676!!766776*5777666666667763776777666666776*6!!!!!",
"23222222223222333232233223233333323223*3*23333222222233333232233",
"#&(()(++++/155*+1++++6+0666556*)&))))5//++/1552+$))(++00666556*)",
"//)-/--///-/172(-11111/+16551!2(-///////-/-/1731///11/+116516!*&",
"1/1//////-///6*+11/1111111515!*)//+//////////62/1/1-/11111116!21",
"/1////,5551/1736151111511651572)-//////5551/172/--1-111115115!35",
"1/1///515//117265151511156151!21//////115//117*1-1-1151151111735",
"51/1///5/51/57366515151156556!251/555/55/51/57251111611111111!35",
"7776766666677626!!!7777777!!!7*676766676666776*6!7!77!7877!!!735",
"322**2*222233333232***2*22222222323333222223333323233*2*22222222",
"/155*+$)))//)++/1566*&#'%%++1((+/1552)#'&&++++++/153*2)#$)))1((+",
"1/172)-1111/+111515!2$-///+-(-//1/173$-///+--///-/172*&-///+(-//",
"/1/62+1111--111115173)///+-/-////1/62)///+-////-///6*)(///---///",
"///7265111/61111111!251///,5///////73)//)//-,5551/173/1///,5////",
"//17251111661111115!21//,555//////1721//,55/515//11731/1//55////",
"//57256615771166116!21555551//55//572155551//5/51/57351//166//55",
"6776*6!!!!!777777!!7*!777676!!766776*577766666666776357677766666",
"333232233223233333323223*3*2333322222223333323223323222222223222",
"*)&))))5)0555115*)&))))5//++/1552)#$$())0055511.*)#&(()(++++/155",
"2(-/////+)/511/72(-///////-/-/173&+++//+)//51/57*&//)-/--///-/17",
"*)//+///////1/17*)//+//////////62+/+/-+///////57211/1//////-///6",
"35/1////1//51/162)-//////5551/172+--/-/////1//1735/1////,5551/17",
"251/1/1///15/1/721//////115//117*/-/-//1//1////6351/1///515//117",
"3551/1/1//151157251/555/55/51/5721////5////////73551/1///5/51/57",
"25777666666677!6*576766676666776*4767667686677!63577767666666776",
"33232***2*22222222323333222223333323233*2*22222222322**2*2222333",
")+/151*)#'%%++1((+/1552)#'&&++++++/155*2+$)+++5((/1566*&#'%%++%)",
"//1/172$-///+-(-//1/173$-///+--///-/172*1-111/(-11515!2$-////+)/",
"///1/63)///+-/-////1/62)///+-////-///6*+(111---11115172)////--//",
"/////7251///,5///////73)//)//-,5551/17315111/61111111!251///,5//",
"////1721//,555//////1721//,55/515//117351511661111115!21////55//",
"55//5!21555551//55//572155551//5/51/57365115771166116!2155/166//",
"6667!6*5777676!!766776*5777666666667763!!7!!!777777!!7*577777666",
"22223333323223323222222223222333232233223233333323223*3*23333222",
"$$())00555115*)#&(()(++++/155*)&))))5)0555115*+1++++611//15662)#",
"++//+)//51/57*&//)-/--///-/172(-/////+)/511/72(-1111111-1-15!3&+",
"+/-+///////57211/1//////-///6*)//+///////1/17*+11/111111111172+/",
"-/-/////1//1735/1////,5551/1735/1////1//51/162+-111111666515!2+-",
"/-//1//1////6351/1///515//117251/1/1///15/1/7251111115561155!*/-",
"///5////////73551/1///5/51/573551/1/1//151157265166616616516!21/",
"67667686677!6357776766666677625777666666677!6*7!7!777!7777!!7*57"
};