/* XPM */
static char * result[] = {
"64 64 92 1",
"! c #000000",
"# c #A8A8A8",
"$ c #989898",
"% c #8C8C8C",
"& c #7C7C7C",
"' c #707070",
"( c #646464",
") c #5C5C5C",
"* c #545454",
"+ c #80502C",
", c #744C28",
"- c #4C4C4C",
". c #6C4824",
"/ c #5C4020",
"0 c #484848",
"1 c #404040",
"2 c #543C1C",
"3 c #483818",
"4 c #383838",
"5 c #403018",
"6 c #343434",
"7 c #382C14",
"8 c #303030",
"9 c #2C2C2C",
": c #282828",
"; c #202020",
"< c #1C1C1C",
"= c #000000",
"> c #000000",
"? c #000000",
"@ c #000000",
"A c #000000",
"B c #000000",
"C c #000000",
"D c #000000",
"E c #000000",
"F c #000000",
"G c #000000",
"H c #000000",
"I c #000000",
"J c #000000",
"K c #000000",
"L c #000000",
"M c #000000",
"N c #000000",
"O c #000000",
"P c #000000",
"Q c #000000",
"R c #000000",
"S c #000000",
"T c #000000",
"U c #000000",
"V c #000000",
"W c #000000",
"X c #000000",
"Y c #000000",
"Z c #000000",
"[ c #000000",
"] c #000000",
"^ c #000000",
"_ c #000000",
"` c #000000",
"a c #000000",
"b c #000000",
"c c #000000",
"d c #000000",
"e c #000000",
"f c #000000",
"g c #000000",
"h c #000000",
"i c #000000",
"j c #000000",
"k c #000000",
"l c #000000",
"m c #000000",
"n c #000000",
"o c #000000",
"p c #000000",
"q c #000000",
"r c #000000",
"s c #000000",
"t c #000000",
"u c #000000",
"v c #000000",
"w c #000000",
"x c #000000",
"y c #000000",
"z c #000000",
"{ c #000000",
"| c #000000",
"} c #000000",
"~ c #000000",
"&&&32//,//////////////253////223*(&&''''99999990('*(**----*))('&",
"&''*32/,///////2//////253///233*(&&'&'&&0999990('*(*--**)(((((('",
"'''(*32.////////22////253/2230*((0////0((09990('*(*-*)((((((((((",
"*'&'(*3.////////22////353233*(&0//335353((000('*(((((()**-------",
"-*''&(3./////////////23533*(&&0/333353530&((('*())))))))))))))))",
"--*'''32/////2//////2553*(&&(//3333353557(%#'*(*----------------",
"---*'&*32//////////2550*(&&0/333333355377(#&*(*-----0-----------",
"----*'&*32///////2253*((&(//3333333355377($&(*------------------",
"----0*&(*32////2255*((&&0/233333353357377($(*----0---------0----",
"----00&&(*3222255*(&&&(//2333333353357577(%(*---0---------------",
"----00&'&(*55550*(&&(0/223333333333337571(%()-0---0-------------",
"----00''&&(*****(&&(//233323333337333777-'&()---0------00------0",
"----04''(***('$$%'(/22322333333337333777*'%(*----------00-0000--",
"---04(&(****0($%%(/322322333333337333777('&(*-------------0000--",
"--04(&'*****00'%&/23/3333333333337333771(&&(*-------------0000--",
"-04(&&(*****000(*/3/2333333333335733377-'&&(*-------------0000-0",
"04(&&'(*****1-*0(/3/3323333333335733577*&&&*------------------04",
"4((00('****-1**((/323333333333337733577(./(*--------0--------041",
"((0220((***11***'/22333333333333753575).//*(1--------------01411",
"(02/320&0*111***((2233333333333575775(.///3((10---------0146641(",
"02/3335('01*1***0&02333333333357777-(&33333''(111000001146414*((",
"2/333350&(0*1***0'(533333333337777-(&&&((((%%((1466666664114*(&0",
"/3333355('0*1***4(&03333333337771)(*******&%$$'(*4111111114*(&02",
"33323353(&(01**-4(&(53333333771*((*0141111*&$$%&(*41111144*(&02/",
"333333530&&(1*-04(&&075333577*(&(*011441111*&%%'&(*444444*(&(2/3",
"333333535(&'40004''&(77777771(&(*01114141141'&'**&(*4444*(&(0/33",
"322333735*'&(444'&&&&077771-)&**010014141140('(00*&(****(&(02333",
"3223337350&%'(('&*..*(00-))&&**011001411416*('*000*&&&%%&'023333",
"3332337350&'%''(..////((('&'**0111111611448*((00000(&%%&'(233333",
"3333357350&''''.//////2&&''**01110111611440('**0000*(''()*233222",
"333335535*'%'''(//////3&'&***1111111161146*'&&(((((((&')*)233222",
"333337555*&&(*(&&///233&&**0*1111111161148(*,,,,,,,,,3/,)(233222",
"333357350(&(*)*(&&2233(&**00*011111118116*'...///////3///&233333",
"33335750(((*)***(&&(**&(*010*011111148148*(././//////3//2(233233",
"3333750((&*)*****(&%&%&*0110*011111148148(*+/.//2////3//2(233333",
"333570(('(*)******(&%%%*1110*-1111116818('0+/.///////3//2(533333",
"33370((&&*)********(%$$*1110*-1111116840''.+/.///////3//2(053333",
"3350(('&(*)*********($$(1110*-011111886*&(.+/.///////2//2((05333",
"350(('&(*)**)*****0**(%'4110*-011111888(&*.+////////22//2(&(0533",
"50((&&'(***********0**%%*440*0-11111880''./+/.//////2///3(&&(055",
"0((%%&(*****)******1**(''844*1-1111188*&(./+.///////2///3(&&&(00",
"(($$%(******)******10**((08681-1111188*&*./+,//////2////3(994*((",
"(&$$'****))****)***01***(*088400111480('.//,+//////2////3(99994*",
"90%%(***)))********01****0*(*66011148*'&.//.+/////2/////3(9999;9",
"9;0&****)))******0*010***0((*86641148(&&2///,////////2//3(9999;9",
"9;0'****))*********010**04(%%*8661160'''(2//..//////////3(9999;9",
";0((*******)*****0*010*040&%%&*86448*&''&(2//./////22//23(999;99",
"0(((0**))********0*060040*&030&*8888'&(44((22/.////22/230(999;99",
"('''(0*))********0*06140*(02350&(**(&(4994('(2///////230((;;;;;;",
"&&''&(00*********0*1640*(02335350&&&(499994('(22////230('&&00000",
"&'&%%%(00*******00*160*(0233353530&&04999994(''*222330(******(&&",
"&*..*%%(04******00060*(02333353535&(4:999::94(&'*2300((******0(&",
"..//..*&(040***00040*(023333353535&499:99::994(&'*00(&***-***0(&",
"//////..*(040*00440(00233335353550(4999;:999994(&'((%(--****-0(&",
"/2//////.3(040040*(02/23333335550(499999;;9:9994(&'%%*--****-0(.",
"///////2/3//0440*(02/23333353555*4499999:;;:99994(&%(******-00(.",
"//22///2/3//200*(022/23333353550(499::999:;;:99994(&*******00*./",
"//22///2/3233**(0232/3333335350(0499:::99:;;;:99994(&*****0-0(./",
"//////232533*((02332/323333555*(4499::9:99;;;;:99994((***-00*.//",
"//////23353*&&&03332/333333550(49499999999:;;:;:99994(---0-0*.//",
"//////2355*&&&&*3332/33333350(049499999999:;;;:;:9999;(-0**0.///",
"//////355*&*1*&(0332/3333335*(49949999::999:;<::;:999;*(**-(.///",
"/////235*&*111*&*332/3333350(499949999::999:;<;9;;:99;*&--(.////",
"////255*&&11111*(3323333350*(9999499:999999:;<;9:;;:9;*&&((.////"
};