/* XPM */
static char * result[] = {
"64 64 92 1",
"! c #000000",
"# c #ADBBBC",
"$ c #809EA5",
"% c #45C700",
"& c #2DB200",
"' c #6D8084",
"( c #2F8000",
") c #5B6567",
"* c #625249",
"+ c #495254",
", c #435458",
"- c #49383D",
". c #353734",
"/ c #0F4C00",
"0 c #2F3738",
"1 c #342C28",
"2 c #3D241E",
"3 c #242423",
"4 c #202326",
"5 c #1A1A18",
"6 c #000000",
"7 c #000000",
"8 c #000000",
"9 c #000000",
": c #000000",
"; c #000000",
"< c #000000",
"= c #000000",
"> c #000000",
"? c #000000",
"@ c #000000",
"A c #000000",
"B c #000000",
"C c #000000",
"D c #000000",
"E c #000000",
"F c #000000",
"G c #000000",
"H c #000000",
"I c #000000",
"J c #000000",
"K c #000000",
"L c #000000",
"M c #000000",
"N c #000000",
"O c #000000",
"P c #000000",
"Q c #000000",
"R c #000000",
"S c #000000",
"T c #000000",
"U c #000000",
"V c #000000",
"W c #000000",
"X c #000000",
"Y c #000000",
"Z c #000000",
"[ c #000000",
"] c #000000",
"^ c #000000",
"_ c #000000",
"` c #000000",
"a c #000000",
"b c #000000",
"c c #000000",
"d c #000000",
"e c #000000",
"f c #000000",
"g c #000000",
"h c #000000",
"i c #000000",
"j c #000000",
"k c #000000",
"l c #000000",
"m c #000000",
"n c #000000",
"o c #000000",
"p c #000000",
"q c #000000",
"r c #000000",
"s c #000000",
"t c #000000",
"u c #000000",
"v c #000000",
"w c #000000",
"x c #000000",
"y c #000000",
"z c #000000",
"{ c #000000",
"| c #000000",
"} c #000000",
"~ c #000000",
"!!!!!!!!!!!!!!!!!!!!!!!!!!!!!!!!!!!!!!!!!!!!!!!!!!!!!!!!!!!!!!!!",
"))+)+++5!))))))))))))))))))))))))1)))+)+))))))))))+)+++5!)))))))",
"+++++++5!)++++++++++++++++++++)++1+++++++++++++++++++++5!)++++++",
"+++++++5!)++++++++++++++++++++'++-+++++++++++++++++++++5!)++++++",
"++-$)++5!)+-$)++++++++++++++++)++1+++++++++++++++-$)+++5!)-$)+++",
"++-))++5!)+-))++++++++++++++++'++-+++++++++++++++-))+++5!)-))-++",
"++--+++5!)+--+++++++++++++++++'++-+++++++++++++++--++++5!)---+++",
"+++++++5!)++++++++++++++++++++'++-+++++++++++++++++++++5!)+--+++",
")))))))15$))))))))))))))))))))$))+)))))))))))))))))))))15$)**)))",
"+++++++5!)++++++++++++++++++++'++-+++++++++++++++++++++5!)+--+++",
")))))))15$))))))))))))))))))))$))+)))))))))))))))))))))15$)**)))",
")))))))5!$))))))))))))))))))))$))+)))))))))))))))))))))5!$)**)))",
")))))))15$))))))))))))))))))))$))+)))))))))))))))))))))15$))*)))",
")))))))15$))))'#####$#$$$$$$$$))))'$$$$$'$'''''''))))))15$)*))))",
")))))))15$)))'#))))))))))))))))))))))))))))))))))))))))15$))*)))",
")))))))15$)))#)$))))))))))))))))))))))))))))))))$)+))))15$)*))))",
")))))))55')))#-))+---------+-+-+++++++)+)+)))))-))+))))55'))))))",
")))))))15$)))#))+55555555555555555555555555555.)))+))))15$))))))",
")))))))55')))#))-5$,000004044445454555555555555)))+))))55'))))))",
")))))))15$)))#))-5,0444444445454555555555555555'))+))))15$))))))",
")))))))55')))$))-504444445454555555555555555555'))+))))55'))))))",
")))))))15')))#))-50444545455555555555555555555!'))+))))15'))))))",
")))))))35')))$))-504454555555555555555555555555'))+))))35'))))))",
")))))))35')))$))-54454555555555555555555555555!'))+))))35'))))))",
")))))))33')))$))-50445555555555555555555555555!$))+))))33'))))))",
")))))))35')))$))-54455555555555555555555555555!'))+))))35'))))))",
")))))))53')))$))-54555555555555555555555555555!$))+))))53'))))))",
")))))))35')))$))+55455555555555555555555555555!$))+))))35'))))))",
")))))))55')))$))-54555555555555555555555555555!$))+))))55'))))))",
")))))))55')))'))+55455555555555555555555555555!$))+))))55'))))))",
")))))))51')))$))+54555555555555555555555555555!$))+))))51'))))))",
")))))))15')))'))+55555555555555555555555555555!$))-))))15'))))))",
")))))))51')))'))+54555555555555555555555555555!#))+))))51'))))))",
")))))))15')))'))+55555555555555555555555555555!$))-))))15'))))))",
")))))))51')))')))55&5%/&5%5/%5%(5&5/&(5/5%5555!#))-))))51'))))))",
")))))))11')))'))+55%5/&(5/5%(5%&5&5(5%5&/&5555!$))-))))11'))))))",
")))))))11')))')))55555555555555555555555555555!#))-))))15'))))))",
"$$$$)$)15')))')))55%5&/5%5/&5(5%5%555555555555!#))-))))55'))))))",
"!!!!!!!!!')))')))55/(%&5&5(&5%&/5&555555555555!#))-))))55!!!!!!!",
"!!!!!!!!!')))')))5555555555555555555555555555!!#))-))))5.!!!!!!!",
"35!535555')))'))).55555!5!!!!!!!!!!!!!!!!!!!!!.$))-))))555!53555",
".5!..35.5')))')))))')')''''''''''$'$$$$$$#####$)))-))))5.5!..35.",
".5!..33.3')))')$))))))))))))))))))))))))))))))))$)-))))5.5!..33.",
".5!..33.5'))))-))))))))))))))))))))))))))))))))-)-+))))5.5!..33.",
".35..33.3))))))++++++++++-+-+--------------------+)))))5.35..33.",
".5!..33.3')))))))))))))))))))))))))))))))))))))))))))))!.5!..33.",
".35..33.3')))))))))))))))))))))))))))))))))))))))))))))5.35..33.",
".3!..33.3$)))))))))))))))))))))))))))))))))))))))))))))!.3!..33.",
".35..33.3$$$$$$$$)$)$)$$$$$$$$$$$$$$$$$$$)$)$$$$$$)$)))!.35..33.",
".35..33.3!!!!!!!!!!!!!!!!!!!!!!!!!!!!!!!!!!!!!!!!!!!!!!!.35..33.",
".55..33.35!5355535!5355535!5355535!5355535!5355535!53555.55..33.",
".35..33..5!..35..5!..35..5!..35..5!..35..5!..35..5!..35..35..33.",
"35!.333..5!..33..5!..33..5!..33..5!..33..5!..33..5!..33.35!.333.",
".553.33..5!..33..5!..33..5!..33..5!..33..5!..33..5!..33..553.33.",
"35!.335.35!.335.35!.335.35!.335.35!.335.35!.335.35!.335.35!.335.",
"3!!335!33!!335!33!!335!33!!335!33!!335!33!!335!33!!335!33!!335!3",
"$$$$$$$$$'$$$$'$'$'$'$''''''$'$'$'$$$$$$$$$$$$$$$$$$$$$$$'$$$$'$",
"))))))))+))))))))))))))))+)))))))))))))+)+))))))+)+)))))+)))))))",
")+)))))+)))))))))))))))++)))))))))))))))+))))))))+)))))+))))))))",
"+))$+))))))$+))))))$+))+)))$+))))))$+))+)))$+)))+))$+))))))$+)))",
"))-++)))))-++)))))-++)+)+)-++)))))-++)))))-++))+))-++)))))-++))+",
"+)--))))))--))))))--)))+))--))))))--))))))--))++))--))))))--))+)",
"))))))))))))))))))))))+)))))))))))))+)))))))))+))))))))))))))+)+",
"-222222-2-2-------2-2-5-5-5555-5--------2-2--2-2-222222-2-2-----"
};