/* XPM */
static char * result[] = {
"64 64 92 1",
"! c #000000",
"# c #B7B69D",
"$ c #A7A18B",
"% c #A29C88",
"& c #A19B87",
"' c #9D9784",
"( c #928D7C",
") c #878078",
"* c #766E63",
"+ c #67635E",
", c #65605C",
"- c #625249",
". c #514A46",
"/ c #4E4440",
"0 c #493C38",
"1 c #4D3B36",
"2 c #4A3A36",
"3 c #49383D",
"4 c #473834",
"5 c #483734",
"6 c #463734",
"7 c #463633",
"8 c #463431",
"9 c #453330",
": c #44322F",
"; c #44322E",
"< c #44312E",
"= c #43302D",
"> c #422E2B",
"? c #412D2A",
"@ c #342C28",
"A c #060404",
"B c #010101",
"C c #010101",
"D c #010101",
"E c #010101",
"F c #010101",
"G c #010101",
"H c #010101",
"I c #010101",
"J c #010101",
"K c #010101",
"L c #010101",
"M c #010101",
"N c #010101",
"O c #010101",
"P c #010101",
"Q c #010101",
"R c #010101",
"S c #010101",
"T c #010101",
"U c #010101",
"V c #010101",
"W c #010101",
"X c #010101",
"Y c #010101",
"Z c #010101",
"[ c #010101",
"] c #010101",
"^ c #010101",
"_ c #010101",
"` c #010101",
"a c #010101",
"b c #010101",
"c c #010101",
"d c #010101",
"e c #010101",
"f c #010101",
"g c #010101",
"h c #010101",
"i c #010101",
"j c #010101",
"k c #010101",
"l c #010101",
"m c #010101",
"n c #010101",
"o c #010101",
"p c #010101",
"q c #010101",
"r c #010101",
"s c #010101",
"t c #010101",
"u c #010101",
"v c #010101",
"w c #010101",
"x c #010101",
"y c #010101",
"z c #010101",
"{ c #010101",
"| c #010101",
"} c #010101",
"~ c #010101",
"###$$$$$$)$$$$)$)$)$)$))))))$)$)$)$$$$$$$$$$$$$$$$$$$$$$$)$$$$)$",
"$+++++++++++++++++++++++++++++++++++++++++++++++++++++++++++++++",
"$++++++++++++++++++++++++++++++++++++++++++++++++++++++++++++++?",
")+.$?+++++++++++++++++++++++++++++++++++++++++++++++++++++.$?+++",
"$+.??+++++++++++++++++++++++++++++++++++++++++++++++++++++.??3+?",
")+..3+++++++++++++++++++++++++++++++++++++++++++++++++++++..33++",
")++33+++++++++++++++++++++++++++++++++++++++++++++++++++++-33++?",
")++3+++++++++++++++++++++++++++++++++++++++++++++++++++++++-3++?",
"++++++++@@????...?.?............?????.?..........?.?.???+++3-++?",
")+++++++@!!!!!!!!!!!!!!!!!!!!!!!!!!!!!!!!!!!!!!!!!!!!!!++++-3++?",
"++++++++?!!!!!!!!!!!!!!!!!!!!!!!!!!!!!!!!!!!!!!!!!!!!!!)+++--++?",
")+++++++?!!!!!!!!!!!!!!!!!!!!!!!!!!!!!!!!!!!!!!!!!!!!!!+++++-++?",
")+++++++.!!!!!!!!!!!!!!!!!!!!!!!!!!!!!!!!!!!!!!!!!!!!!!)+++-+++.",
")+++++++.!!!!!!!!!!!!!!!!!!!!!!!!!!!!!!!!!!!!!!!!!!!!!!)++++-++?",
")+++++++?!!!!!!!!!!!!!!!!!!!!!!!!!!!!!!!!!!!!!!!!!!!!!!)+++-+++.",
")+++++++.!!!!!!!!!!!!!!!!!!!!!!!!!!!!!!!!!!!!!!!!!!!!!!)++++-++.",
")+++++++.!!!!!!!!!!!!!!!!!!!!!!!!!!!!!!!!!!!!!!!!!!!!!!$+++++++.",
")+++++++.!!!!!!!!!!!!!!!!!!!!!!!!!!!!!!!!!!!!!!!!!!!!!!$++++-++?",
")+++++++.!!!!!!!!!!!!!!!!!!!!!!!!!!!!!!!!!!!!!!!!!!!!!!$+++++++.",
")+++++++.!!!!!!!!!!!!!!!!!!!!!!!!!!!!!!!!!!!!!!!!!!!!!!$+++++++?",
")+++++++.!!!!!!!!!!!!!!!!!!!!!!!!!!!!!!!!!!!!!!!!!!!!!!$+++++++?",
")+++++++.!!!!!!!!!!!!!!!!!!!!!!!!!!!!!!!!!!!!!!!!!!!!!!$+++++++?",
")+++++++.!!!!!!!!!!!!!!!!!!!!!!!!!!!!!!!!!!!!!!!!!!!!!!$+++++++?",
")+++++++?!!!!!!!!!!!!!!!!!!!!!!!!!!!!!!!!!!!!!!!!!!!!!!$+++++++?",
")+++++++.!!!!!!!!!!!!!!!!!!!!!!!!!!!!!!!!!!!!!!!!!!!!!!$+++++++?",
")+++++++?!!!!!!!!!!!!!!!!!!!!!!!!!!!!!!!!!!!!!!!!!!!!!!$+++++++?",
")+++++++?!!!!!!!!!!!!!!!!!!!!!!!!!!!!!!!!!!!!!!!!!!!!!!$+++++++?",
")+++++++?!!!!!!!!!!!!!!!!!!!!!!!!!!!!!!!!!!!!!!!!!!!!!!$+++++++.",
")+++++++?!!!!!!!!!!!!!!!!!!!!!!!!!!!!!!!!!!!!!!!!!!!!!!$+++++++?",
"++++++++?!!!!!!!!!!!!!!!!!!!!!!!!!!!!!!!!!!!!!!!!!!!!!!)+++++++.",
")+++++++?!!!!!!!!!!!!!!!!!!!!!!!!!!!!!!!!!!!!!!!!!!!!!!$+++++++?",
"++++++++.!!!!!!!!!!!!!!!!!!!!!!!!!!!!!!!!!!!!!!!!!!!!!!)+++++++.",
")+++++++?!!!!!!!!!!!!!!!!!!!!!!!!!!!!!!!!!!!!!!!!!!!!!!)+++++++.",
"++++++++.!!!!!!!!!!!!!!!!!!!!!!!!!!!!!!!!!!!!!!!!!!!!!!)+++++++.",
")+++++++?!!!!!!!!!!!!!!!!!!!!!!!!!!!!!!!!!!!!!!!!!!!!!!)+++++++.",
")+++++++.!!!!!!!!!!!!!!!!!!!!!!!!!!!!!!!!!!!!!!!!!!!!!!)+++++++.",
")+++++++.!!!!!!!!!!!!!!!!!!!!!!!!!!!!!!!!!!!!!!!!!!!!!!)+++++++.",
")+++++-+.!!!!!!!!!!!!!!!!!!!!!!!!!!!!!!!!!!!!!!!!!!!!!!)+++++++.",
")++++-+-.!!!!!!!!!!!!!!!!!!!!!!!!!!!!!!!!!!!!!!!!!!!!!!)+++++++.",
")+++-+--.!!!!!!!!!!!!!!!!!!!!!!!!!!!!!!!!!!!!!!!!!!!!!!)+++++++.",
"+++-+-++.!!!!!!!!!!!!!!!!!!!!!!!!!!!!!!!!!!!!!!!!!!!!!!)+++++++.",
")+++++++?!!!!!!!!!!!!!!!!!!!!!!!!!!!!!!!!!!!!!!!!!!!!!!)+++++++.",
"++++++++.!!!!!!!!!!!!!!!!!!!!!!!!!!!!!!!!!!!!!!!!!!!!!!)+++++++.",
"++++++++?!!!!!!!!!!!!!!!!!!!!!!!!!!!!!!!!!!!!!!!!!!!!!!)+++++++.",
"++++++++.!!!!!!!!!!!!!!!!!!!!!!!!!!!!!!!!!!!!!!!!!!!!!!)+++++++.",
"++++++++?!!!!!!!!!!!!!!!!!!!!!!!!!!!!!!!!!!!!!!!!!!!!!!)+++++++.",
"++++++++?!!!!!!!!!!!!!!!!!!!!!!!!!!!!!!!!!!!!!!!!!!!!!!)+++++++.",
")+++++++?!!!!!!!!!!!!!!!!!!!!!!!!!!!!!!!!!!!!!!!!!!!!!!)+++++++.",
"++++++++?!!!!!!!!!!!!!!!!!!!!!!!!!!!!!!!!!!!!!!!!!!!!!!)+++++++.",
")+++++++?!!!!!!!!!!!!!!!!!!!!!!!!!!!!!!!!!!!!!!!!!!!!!!$+++++++?",
")+++++++?!!!!!!!!!!!!!!!!!!!!!!!!!!!!!!!!!!!!!!!!!!!!!!)+++++++.",
")+++++++?!!!!!!!!!!!!!!!!!!!!!!!!!!!!!!!!!!!!!!!!!!!!!!$+++++++?",
")+++++++?!!!!!!!!!!!!!!!!!!!!!!!!!!!!!!!!!!!!!!!!!!!!!!)+++++++.",
")+++++++?!!!!!!!!!!!!!!!!!!!!!!!!!!!!!!!!!!!!!!!!!!!!!!$+++++++?",
")+++++++?!!!!!!!!!!!!!!!!!!!!!!!!!!!!!!!!!!!!!!!!!!!!!!$+++++++?",
")+++++++?!!!!!!!!!!!!!!!!!!!!!!!!!!!!!!!!!!!!!!!!!!!!!!$+++++++?",
")+++++++2!!!!!!!!!!!!!!!!!!!!!!!!!!!!!!!!!!!!!!!!!!!!!!$+++++++?",
")+++++++9!!!!!!!!!!!!!!!!!!!!!!!!!!!!!!!!!!!!!!!!!!!!!!(+++++++?",
"++++++++;!!!!!!!!!!!!!!!!!!!!!!!!!!!!!!!!!!!!!!!!!!!!!!%+++++++?",
")+.$?+++>!!!!!!!!!!!!!!!!!!!!!!!!!!!!!!!!!!!!!!!!!!!!!!'++.$?++?",
"++.??+++<!!!!!!!!!!!!!!!!!!!!!!!!!!!!!!!!!!!!!!!!!!!!!!&++.??++?",
")+..++++8!!!!!!!!!!!!!!!!!!!!!!!!!!!!!!!!!!!!!!!!!!!!!!*++..3++?",
"++++++++5!!!!!!!!!!!!!!!!!!!!!!!!!!!!!!!!!!!!!!!!!!!!!!1,++33++?",
"..40/:=:7!!!!!!!!!!!!!!!!!!!!!!!!!!!!!!!!!!!!!!!!!!!!!!?6??@@???"
};