/* XPM */
static char * result[] = {
"64 64 92 1",
"! c #000000",
"# c #C9DDE2",
"$ c #B1CED6",
"% c #B5C8C7",
"& c #ADBBBC",
"' c #94AFAE",
"( c #809EA5",
") c #889C9E",
"* c #6D8084",
"+ c #62797E",
", c #5B6567",
"- c #536265",
". c #495254",
"/ c #464D4F",
"0 c #383F40",
"1 c #49383D",
"2 c #382B2F",
"3 c #1A1A18",
"4 c #141413",
"5 c #000000",
"6 c #000000",
"7 c #000000",
"8 c #000000",
"9 c #000000",
": c #000000",
"; c #000000",
"< c #000000",
"= c #000000",
"> c #000000",
"? c #000000",
"@ c #000000",
"A c #000000",
"B c #000000",
"C c #000000",
"D c #000000",
"E c #000000",
"F c #000000",
"G c #000000",
"H c #000000",
"I c #000000",
"J c #000000",
"K c #000000",
"L c #000000",
"M c #000000",
"N c #000000",
"O c #000000",
"P c #000000",
"Q c #000000",
"R c #000000",
"S c #000000",
"T c #000000",
"U c #000000",
"V c #000000",
"W c #000000",
"X c #000000",
"Y c #000000",
"Z c #000000",
"[ c #000000",
"] c #000000",
"^ c #000000",
"_ c #000000",
"` c #000000",
"a c #000000",
"b c #000000",
"c c #000000",
"d c #000000",
"e c #000000",
"f c #000000",
"g c #000000",
"h c #000000",
"i c #000000",
"j c #000000",
"k c #000000",
"l c #000000",
"m c #000000",
"n c #000000",
"o c #000000",
"p c #000000",
"q c #000000",
"r c #000000",
"s c #000000",
"t c #000000",
"u c #000000",
"v c #000000",
"w c #000000",
"x c #000000",
"y c #000000",
"z c #000000",
"{ c #000000",
"| c #000000",
"} c #000000",
"~ c #000000",
"-4220002-4220002-4220002-4220002-422222020000002-422222020000002",
"+2+))+-2+2+))+-2+2+))+-2+2+))+-2+2+))))))))))+-2+2+))))))))))+-2",
"+2'$$'-2+2'$$'-2+2'$$'-2+2'$$'-2+2'$$$$$$$$$$'-2+2'$$$$$$$$$$'-2",
"+2'$$'-2+2'$$'-2+2'$$'-2+2'$$'-2+2'$$$$$$$$$$'-2+2'$$$$$$$$$$'-2",
"+0'$$'+2+0'$$'+2+0'$$'+2+0'$$'+2+0'$$$$$$$$$$'+2+0'$$$$$$$$$$'+2",
"+0'$$'+0+0'$$'+0+0'$$'+0+0'$$'+0+0'$$$$$$$$$$'+0+0'$$$$$$$$$$'+0",
"+0)'')+2+0)'')+2+0)'')+2+0)'')+2+0)'''''''''')+2+0)'''''''''')+2",
"+/--++)0+/--++)0+/--++)0+/--++)0+/----+-++++++)0+/----+-++++++)0",
"*311...1*311...1*311...1*311...1*31111111......1*31111111......1",
"(1(&&(*.(1(&&(*.(1(&&(*.(1(&&(*.(1(&&&&&&&&&&(*.(1(&&&&&&&&&&(*.",
"*1%##%*1*1%##%*1*1%##%*1*1%##%*1*1%##########%*1*1%##########%*1",
",1%##%*,,1%##%*,,1%##%*,,1%##%*,,1%##########%*,,1%##########%*,",
"(.%##%(.(.%##%(.(.%##%(.(.%##%(.(.%##########%(.(.%##########%(.",
"*.%##%(.*.%##%(.*.%##%(.*.%##%(.*.%##########%(.*.%##########%(.",
"*.&%%&(.*.&%%&(.*.&%%&(.*.&%%&(.*.&%%%%%%%%%%&(.*.&%%%%%%%%%%&(.",
"*,**((&.*,**((&.*,**((&.*,**((&.*,****(*((((((&.*,****(*((((((&.",
"*311....*311....*311....*311....*31111111.1.....*31111111.1.....",
"*1(&&(*.*1(&&(*.*1(&&(*.*1(&&(*.*1(&&&&&&&&&&(*.*1(&&&&&&&&&&(*.",
"*1%##%*.*1%##%*.*1%##%*.*1%##%*.*1%##########%*.*1%##########%*.",
"*1%##%*.*1%##%*.*1%##%*.*1%##%*.*1%##########%*.*1%##########%*.",
"*.%##%(.*.%##%(.*.%##%(.*.%##%(.*.%##########%(.*.%##########%(.",
"*.%##%(.*.%##%(.*.%##%(.*.%##%(.(.%##########%(.(.%##########%(.",
"*.&%%&(.*.&%%&(.*.&%%&(.*.&%%&(.*.&%%%%%%%%%%&(.*.&%%%%%%%%%%&(.",
"*,**((&.*,**((&.*,**((&.*,**((&.(,****(*((((((&.(,****(*((((((&.",
"*311....*311....*311....*311....(3111111.1......(3111111.1......",
"*1(&&(*.*1(&&(*.*1(&&(*.*1(&&(*.(1(&&&&&&&&&&(*.(1(&&&&&&&&&&(*.",
"*1%##%*1*1%##%*1*1%##%*1*1%##%*1(1%##########%*1(1%##########%*1",
"*1%##%*.*1%##%*.*1%##%*.*1%##%*.(1%##########%*.(1%##########%*.",
"*.%##%(1*.%##%(1*.%##%(1*.%##%(1(.%##########%(1(.%##########%(1",
"*.%##%(.*.%##%(.*.%##%(.*.%##%(.(.%##########%(.(.%##########%(.",
"*.&%%&(1*.&%%&(1*.&%%&(1*.&%%&(1(.&%%%%%%%%%%&(1(.&%%%%%%%%%%&(1",
"*,**((&1*,**((&1*,**((&1*,**((&1(,***(*(((((((&1(,***(*(((((((&1",
"*311...1*311...1*311...1*311...1(3111111.1.....1(3111111.1.....1",
"*1(&&(*1*1(&&(*1*1(&&(*1*1(&&(*1(1(&&&&&&&&&&(*1(1(&&&&&&&&&&(*1",
"*1%##%*1*1%##%*1*1%##%*1*1%##%*1(1%##########%*1(1%##########%*1",
"*1%##%*1*1%##%*1*1%##%*1*1%##%*1(1%##########%*1(1%##########%*1",
"*.%##%(1*.%##%(1*.%##%(1*.%##%(1(.%##########%(1(.%##########%(1",
"*.%##%(1*.%##%(1*.%##%(1*.%##%(1(.%##########%(1(.%##########%(1",
"*.&%%&(1*.&%%&(1*.&%%&(1*.&%%&(1(.&%%%%%%%%%%&(1(.&%%%%%%%%%%&(1",
"*,**((&1*,**((&1*,**((&1*,**((&1*,****(*((((((&1*,****(*((((((&1",
"*311...1*311...1*311...1*311...1(31111111......1(31111111......1",
"*1(&&(*1*1(&&(*1*1(&&(*1*1(&&(*1*1(&&&&&&&&&&(*1*1(&&&&&&&&&&(*1",
"(1%##%*1(1%##%*1(1%##%*1(1%##%*1(1%##########%*1(1%##########%*1",
"*1%##%*1*1%##%*1*1%##%*1*1%##%*1*1%##########%*1*1%##########%*1",
"(.%##%(1(.%##%(1(.%##%(1(.%##%(1(.%##########%(1(.%##########%(1",
"(.%##%(1(.%##%(1(.%##%(1(.%##%(1(.%##########%(1(.%##########%(1",
"(.&%%&(1(.&%%&(1(.&%%&(1(.&%%&(1(.&%%%%%%%%%%&(1(.&%%%%%%%%%%&(1",
"(,**((&1(,**((&1(,**((&1(,**((&1(,***(*(((((((&1(,***(*(((((((&1",
"(311...1(311...1(311...1(311...1(3111111.1.....1(3111111.1.....1",
"(1(&&(*1(1(&&(*1(1(&&(*1(1(&&(*1(1(&&&&&&&&&&(*1(1(&&&&&&&&&&(*1",
"(1%##%*.(1%##%*.(1%##%*.(1%##%*.(1%##########%*.(1%##########%*.",
"(1%##%*1(1%##%*1(1%##%*1(1%##%*1(1%##########%*1(1%##########%*1",
"(.%##%(1(.%##%(1(.%##%(1(.%##%(1(.%##########%(1(.%##########%(1",
"*.%##%(1*.%##%(1*.%##%(1*.%##%(1*.%##########%(1*.%##########%(1",
"(.&%%&(1(.&%%&(1(.&%%&(1(.&%%&(1(.&%%%%%%%%%%&(1(.&%%%%%%%%%%&(1",
",,**((&.,,**((&.,,**((&.,,**((&.*,***(*(((((((&.*,***(*(((((((&.",
"*311...1*311...1*311...1*311...1*311111.1......1*311111.1......1",
"*1(&&(*.*1(&&(*.*1(&&(*.*1(&&(*.*1(&&&&&&&&&&(*.*1(&&&&&&&&&&(*.",
"*1%##%*1*1%##%*1*1%##%*1*1%##%*1*1%##########%*1*1%##########%*1",
",1%##%*1,1%##%*1,1%##%*1,1%##%*1,1%##########%*1,1%##########%*1",
"*.%##%(1*.%##%(1*.%##%(1*.%##%(1*.%##########%(1*.%##########%(1",
",.%##%(1,.%##%(1,.%##%(1,.%##%(1,.%##########%(1,.%##########%(1",
"*.&%%&(1*.&%%&(1*.&%%&(1*.&%%&(1*.&%%%%%%%%%%&(1*.&%%%%%%%%%%&(1",
"*,**((&1*,**((&1*,**((&1*,**((&1*,****(*((((((&1*,****(*((((((&1"
};