/* XPM */
static char * result[] = {
"64 64 92 1",
"! c #000000",
"# c #D0D0D0",
"$ c #FCF400",
"% c #E4D800",
"& c #CCC400",
"' c #C0C0C0",
"( c #B4B4B4",
") c #A8A8A8",
"* c #989898",
"+ c #9C9C00",
", c #E88C58",
"- c #FC8820",
". c #FC7800",
"/ c #CC6000",
"0 c #B45400",
"1 c #8C8C8C",
"2 c #848400",
"3 c #A86840",
"4 c #7C7C7C",
"5 c #707070",
"6 c #646464",
"7 c #706C00",
"8 c #744C28",
"9 c #585400",
": c #545454",
"; c #484848",
"< c #543C1C",
"= c #404040",
"> c #383838",
"? c #303030",
"@ c #2C2C2C",
"A c #FC2020",
"B c #FC0000",
"C c #EC0000",
"D c #E00000",
"E c #D40000",
"F c #C80000",
"G c #BC0000",
"H c #B00000",
"I c #9C009C",
"J c #A40000",
"K c #980000",
"L c #880000",
"M c #840084",
"N c #7C0000",
"O c #700000",
"P c #6C0070",
"Q c #600064",
"R c #580058",
"S c #640000",
"T c #580000",
"U c #500050",
"V c #202020",
"W c #480048",
"X c #400040",
"Y c #4C0000",
"Z c #400000",
"[ c #010101",
"] c #010101",
"^ c #010101",
"_ c #010101",
"` c #010101",
"a c #010101",
"b c #010101",
"c c #010101",
"d c #010101",
"e c #010101",
"f c #010101",
"g c #010101",
"h c #010101",
"i c #010101",
"j c #010101",
"k c #010101",
"l c #010101",
"m c #010101",
"n c #010101",
"o c #010101",
"p c #010101",
"q c #010101",
"r c #010101",
"s c #010101",
"t c #010101",
"u c #010101",
"v c #010101",
"w c #010101",
"x c #010101",
"y c #010101",
"z c #010101",
"{ c #010101",
"| c #010101",
"} c #010101",
"~ c #010101",
">>>>>>>>>>>>>>>>>>>>>>>>>>>>>>>>>>>>>>>>>>>>>>>>>>>>>>>>>>>>>>>>",
":>:;;;;;:;;;;;;:;>;;;;;;;::::::;;;;;;;;;:::::::;;;;>>>;;::;;;;;>",
">CCEEEEEEEEEJ;;:CCEEEEEEEEEEEEEEEEEEJ;>:CCCCDDDDDDEEEEEFFFFGGGJ;",
";$FHHELJELFJS@;:CGLGLGLGNGKGKGNGNGFJO@;>EJFHFHHFOFNFHFLHJNFKFJ$@",
"%&2((((((((((((((((((((((((((((((((((((((((((((((((((((((((((&&7",
"3+955444444444444444444444444444444444444444444444444444445557,9",
";<J4444**************************************************4544T3@",
";GN*4AJZZ:OOOOOOOOOOOOOOOOOOOOOOOOOOOOOOOOOOOOOOOOJHBD4ZZZ4'5TZ@",
";GJ)4J'*5Z4)'#''(((((((((((((((((((((((((((((((('''''4Z45*A45TZ@",
";NS(*Z*'*41*))14)#'((((((((((((((((((((((((((((1P6'()))5)#J54ZZ@",
";;@#)Z*)'*44**:R5)##''((((((((((((((((((((((''16QU*))**)#4Z4*VV@",
":>>#(:5*('*441URRR4)#'''''((U5:UUUU0/.((((''16QRUU****)#'6:1)V@@",
"CEE(#Z4*)('*56;WUURR4)((((((UUUUU4U00/-(((16QRUUU;***)'')4Z*)TTE",
"HLL(#O*1*)(6R56;WWUURRR41(((5UUUUUU01((16QQRRUUU;55U6)')14Z)(TTH",
"LJL(#H)*1*6PQ;56;WWWWMRRR51((UUUUUU1(16QQRMUUUW;5:PQQ6)*41O)(TTK",
"OJJ((K(*11WQPQR;6;>WWPWRRRR((UUUUUU((RQQRUPWW>;6;UQQPP*141O)(TTN",
"JLL((L')*1WWQPQQR;:>XXWWWR:((UUUUUU((:WWWWWW>;;WURQPPP1411O)(TTN",
"OJS((O#()*;WWQPPQRWXXXXWW1((5UUUUUU5((1WWWXXXWWURQPPP:141*O((TTL",
"OHS((O#'(*6;WRQQPQRPXXXW1U5(UUUUUUUU(5W1WXXWRWWRQPPP:4411)O((TTO",
"ZYY((O##6U5::;RQQPRMUXXWUWU((UUUUUU((WWWWWWRPURQQP:46;;6*)O((ZTZ",
"@@@((O(#RUW;:::;QQPRMUUUWUW46UUUUUU64WWWWWWPRRQQ:146;XXW*)O((VV@",
"::;((O(#QRUWWX>;;:6RRRRWWWUUUUUUUUUUWWWWWWUUR:614:UWXXXW))O((V@@",
":CC''N'(QQUUWXXXWWRIRRRWWUUUUUUUUUUUWWWWWURRIRRRUUWXXXXR))O((TT@",
":CL##K#'RQRUWWXXXWWMRRRUUUUUUUUUUUUUUWWUURRRIRRRUWWXXXWR*)N((TZ@",
">CH''L'*5RQUUWXXWXWPRRUUUUUU::6556::UUURRRRRMRRUWWXXXXW5*)N((TZ@",
";GS((N(**5;RUWWWUWURPUUUUUUU6PIPPIP6UURRRRRMRRUWWWXXX;5**(L((TZ@",
";GH((O(UR;65566:;=?WURMRUUUU4IPPPPI4URURRMRRR::;=>=;:6;QP'K''TZ@",
":GO))O)UURRRRUWUWUWUWURMPUUU:PPPPPP:UURPMRRRRUWWWWXWWURQP#K##TZ@",
";FJ))S)UUURRRUUWUWUWUUUUUUUU4IPPPPI4URURURRRUWWWWWWWURRQQ'K''TZ@",
";JK**Y*UURURURUUUUUUUUUUUUUU:PI;PIP:UURURRRUUWWWWWWWUUQPQ'L''TZ@",
";;>))T)UUURURUUUUUU:UUUU:UUU4:P;PP:4URU:RUUU:WWWWWWWUUQQU(N((VV@",
":::))S)6UUUUUUUU;5UUUUU:UUUU:44::44:UUUR:UUWUW5;WWWUURQR6(O((V@@",
"GGG((O(*6UUUU;55UUUUUU5UUUUUUU:44:UUUURUU5UUWWWU55;UURR6*(O((TTG",
"JHJ((O(((****5UUUUUUU5UUUUUUUUUUUUUUUUUUUU5WUWWWWU5****())S))TTJ",
"JNL((O((**5UUUUUUUUU5UUUUUUUUUUUUUUUUUUUUUU5WUWUWURRR5****T**TTO",
"LNJ((O((UUUUUUUUUUU5UUUU5U5UUUUUUUUUU5U5UUUU5WUWURRRRRUU11Y11TTO",
"JLN((O((UUUUUUUUUU5UUUU6*5UUUUUUUUUUUU5*6UUUU5UUUURRRRUU**T**TTL",
"JLN((N((5UUUUUUUU5UUUUU*UUUUUUUUUUUUUUUU*UUUUU5UURRRRRU5**S**TTO",
"OOL((N((*UUUUUUU5UUUUU*UUUUUUUUUUUUUUUUUU*UUUUU5UURURUU*))S))TTO",
"ZZY((L(((5UUUUU5UUUUUUUUUUUUUUUUUUUUUUUUUUUUUUUU5UUURU5(((S((TTZ",
"@@@''L'''(5UUU5UUUUUU*UUUUUUUUUUUUUUUUUUUU*UUUUUU5UUU5((((O((VV@",
":;:##J###((****UUUUU*(IUUUUUU5UUUU5UUUUUUI(*UUUUU****(((((O((V@@",
">CE''K'''(((((**UUU*(((5UUUUUUUUUUUUUUUU5(((*UUU**((((((''L''TT@",
":EJ((K(((((((4004((((40UUUUUUUUUUUUUUUUUU04((((4004(('''''L''TZ@",
";EJ((L(((((((000000000088UU5(UUUUUU(5UU880000000000''''###K##TZ@",
";EL((L((((((((4680000884((((UUUUUUUU((((4880000864((('''''K''TZ@",
">EJ((N(((((((10000000000(((UUUUUUUUUU(((00000000001(((((''L''TZ@",
":EJ))O))))(((0881008(180(4UUUUUUUUUUUU4(081(8001880(((((((O((TZ@",
">FJ))O))))))(841(08((((4:UUUUUUUUUUUUUU:4((((80(148(((((((O((TZ@",
":JS((O(((((((((((08((4:UUUUUUUUUUUUUUUUUU:4((80(((((((((((O((ZZ@",
">;@((O*((((((((((10(UUUUUUUUU4UUUU4UUUUUUUUU(01((((((((((*O((VV@",
":>:((O4(((((((((((((4:UUUUU6(UUUUUU(6UUUUU:4(((((((((((((4O((V@@",
"EEE((4O4*(((((((((((((4:UU6(4UUUUUU4(6UU:4(((((((((((((*4O4((TTG",
"NJT4((4OOO4*((((((((((((((((UUUUUUUU((((((((((((((((*1OOO4*(4TTO",
"JNNT4(((*4OOOO4*((((((((((((6UUUUUU6((((((((((((*4OOOO1*(((4TTTY",
"JNTTT:4(((((*4OOO4*((((((((((6UUUU6((((((((((*4OOO4*(((((4:TTTOL",
"NKTTTTT:4((((((*4OOO4*((((((((6UU6((((((((*4OOO4*(((((4:TTTTTSOJ",
"SJNJSTSTTTT:4(((((*4OOO4*((((((66((((((*4OOO4*(((((4:TTTTTTOTJOJ",
"SJNNSKKSTTTTTT:4(((((*4OOOO4*((((((*4OOOO4*(((((4:TTTTTTTOJOTSJY",
"NKTJSSLSNNJTTTTTTZ:4(((((*4OOO4**4OOO4*(((((4:Z@@@TTTTJTJOJOJSJO",
"YYYYYYYYYYYYYYYYZZVV@:4(((((*4OOOO4*((((4:YYYZZV@@TZZYYYYYYYYYYY",
"@@@@@@@@@@@@@@@@@@@VVVVV@:4((((((((((4:VVVVV@VVV@@@@@@@@@VVVVV@@",
">:>:>>>;;;;;:>>>>@@@@@@@VVVVV:4((4:@VVVVV@@@@@@@@>>;;:;;;;=>=;;;",
":::::::::::::::::::;>>>@@VVVVVVVVVVVVVVVVV@>>>;;::::::::::::::::"
};