/* XPM */
static char * result[] = {
"300 300 92 1",
"! c #000000",
"# c #B7AAA6",
"$ c #DF9E77",
"% c #DE9D75",
"& c #DD9C74",
"' c #DD9A72",
"( c #D49974",
") c #D6966F",
"* c #D3956E",
"+ c #D1936C",
", c #CC906A",
"- c #BC8E72",
". c #C48A65",
"/ c #C38762",
"0 c #BC8561",
"1 c #B6805D",
"2 c #B17B58",
"3 c #A87856",
"4 c #A47453",
"5 c #9D6F4F",
"6 c #81746C",
"7 c #86664E",
"8 c #876042",
"9 c #825B3E",
": c #79563A",
"; c #605D5A",
"< c #555657",
"= c #714F34",
"> c #6B4C32",
"? c #584D48",
"@ c #62462D",
"A c #563D28",
"B c #4A4B4C",
"C c #464648",
"D c #414143",
"E c #413B39",
"F c #3A3A3B",
"G c #373838",
"H c #433122",
"I c #353435",
"J c #323132",
"K c #2F2F2F",
"L c #2D2D2D",
"M c #322924",
"N c #2B2A2A",
"O c #2A2A2A",
"P c #292727",
"Q c #272727",
"R c #252425",
"S c #29221F",
"T c #232222",
"U c #271D18",
"V c #231D1C",
"W c #222121",
"X c #211B1A",
"Y c #201F1F",
"Z c #1E1E1E",
"[ c #1E1D1D",
"] c #1D1C1C",
"^ c #1D1B1B",
"_ c #1B1B1B",
"` c #1A1A1C",
"a c #1C1919",
"b c #1A181A",
"c c #1D1716",
"d c #191819",
"e c #181718",
"f c #1E1512",
"g c #191515",
"h c #181516",
"i c #171414",
"j c #161516",
"k c #151415",
"l c #141314",
"m c #1A1210",
"n c #151212",
"o c #141213",
"p c #16100F",
"q c #170D0B",
"r c #111112",
"s c #100F10",
"t c #0F0E0F",
"u c #0F0C0C",
"v c #0D0C0C",
"w c #0C0B0B",
"x c #0B0908",
"y c #080605",
"z c #030302",
"{ c #010101",
"| c #010000",
"} c #000001",
"~ c #010101",
"!!!!!!!!!!!!!!!!!!!!!!!!!!!!!!!!!!!!!!!!!!!!!!!!!!!!!!!!!!!!!!!!!!!!!!!!!!!!!!!!!!!!!!!!!!!!!!!!!!!!!!!!!!!!!!!!!!!!!!!!!!!!!!!!!!!!!!!!!!!!!!!!!!!!!!!!!!!!!!!!!!!!!!!!!!!!!!!!!!!!!!!!!!!!!!!!!!!!!!!!!!!!!!!!!!!!!!!!!!!!!!!!!!!!!!!!!!!!!!!!!!!!!!!!!!!!!!!!!!!!!!!!!!!!!!!!!!!!!!!!!!!!!!!!!!!!!!!!!!!!",
"!!!!!!!!!!!!!!!!!!!!!!!!!!!!!!!!!!!!!!!!!!!!!!!!!!!!!!!!!!!!!!!!!!!!!!!!!!!!!!!!!!!!!!!!!!!!!!!!!!!!!!!!!!!!!!!!!!!!!!!!!!!!!!!!!!!!!!!!!!!!!!!!!!!!!!!!!!!!!!!!!!!!!!!!!!!!!!!!!!!!!!!!!!!!!!!!!!!!!!!!!!!!!!!!!!!!!!!!!!!!!!!!!!!!!!!!!!!!!!!!!!!!!!!!!!!!!!!!!!!!!!!!!!!!!!!!!!!!!!!!!!!!!!!!!!!!!!!!!!!!",
"!!!!!!!!!!!!!!!!!!!!!!!!!!!!!!!!!!!!!!!!!!!!!!!!!!!!!!!!!!!!!!!!!!!!!!!!!!!!!!!!!!!!!!!!!!!!!!!!!!!!!!!!!!!!!!!!!!!!!!!!!!!!!!!!!!!!!!!!!!!!!!!!!!!!!!!!!!!!!!!!!!!!!!!!!!!!!!!!!!!!!!!!!!!!!!!!!!!!!!!!!!!!!!!!!!!!!!!!!!!!!!!!!!!!!!!!!!!!!!!!!!!!!!!!!!!!!!!!!!!!!!!!!!!!!!!!!!!!!!!!!!!!!!!!!!!!!!!!!!!!",
"!!!!!!!!!!!!!!!!!!!!!!!!!!!!!!!!!!!!!!!!!!!!!!!!!!!!!!!!!!!!!!!!!!!!!!!!!!!!!!!!!!!!!!!!!!!!!!!!!!!!!!!!!!!!!!!!!!!!!!!!!!!!!!!!!!!!!!!!!!!!!!!!!!!!!!!!!!!!!!!!!!!!!!!!!!!!!!!!!!!!!!!!!!!!!!!!!!!!!!!!!!!!!!!!!!!!!!!!!!!!!!!!!!!!!!!!!!!!!!!!!!!!!!!!!!!!!!!!!!!!!!!!!!!!!!!!!!!!!!!!!!!!!!!!!!!!!!!!!!!!",
"!!!!!!!!!!!!!!!!!!!!!!!!!!!!!!!!!!!!!!!!!!!!!!!!!!!!!!!!!!!!!!!!!!!!!!!!!!!!!!!!!!!!!!!!!!!!!!!!!!!!!!!!!!!!!!!!!!!!!!!!!!!!!!!!!!!!!!!!!!!!!!!!!!!!!!!!!!!!!!!!!!!!!!!!!!!!!!!!!!!!!!!!!!!!!!!!!!!!!!!!!!!!!!!!!!!!!!!!!!!!!!!!!!!!!!!!!!!!!!!!!!!!!!!!!!!!!!!!!!!!!!!!!!!!!!!!!!!!!!!!!!!!!!!!!!!!!!!!!!!!",
"!!!!!!!!!!!!!!!!!!!!!!!!!!!!!!!!!!!!!!!!!!!!!!!!!!!!!!!!!!!!!!!!!!!!!!!!!!!!!!!!!!!!!!!!!!!!!!!!!!!!!!!!!!!!!!!!!!!!!!!!!!!!!!!!!!!!!!!!!!!!!!!!!!!!!!!!!!!!!!!!!!!!!!!!!!!!!!!!!!!!!!!!!!!!!!!!!!!!!!!!!!!!!!!!!!!!!!!!!!!!!!!!!!!!!!!!!!!!!!!!!!!!!!!!!!!!!!!!!!!!!!!!!!!!!!!!!!!!!!!!!!!!!!!!!!!!!!!!!!!!",
"!!!!!!!!!!!!!!!!!!!!!!!!!!!!!!!!!!!!!!!!!!!!!!!!!!!!!!!!!!!!!!!!!!!!!!!!!!!!!!!!!!!!!!!!!!!!!!!!!!!!!!!!!!!!!!!!!!!!!!!!!!!!!!!!!!!!!!!!!!!!!!!!!!!!!!!!!!!!!!!!!!!!!!!!!!!!!!!!!!!!!!!!!!!!!!!!!!!!!!!!!!!!!!!!!!!!!!!!!!!!!!!!!!!!!!!!!!!!!!!!!!!!!!!!!!!!!!!!!!!!!!!!!!!!!!!!!!!!!!!!!!!!!!!!!!!!!!!!!!!!",
"!!!!!!!!!!!!!!!!!!!!!!!!!!!!!!!!!!!!!!!!!!!!!!!!!!!!!!!!!!!!!!!!!!!!!!!!!!!!!!!!!!!!!!!!!!!!!!!!!!!!!!!!!!!!!!!!!!!!!!!!!!!!!!!!!!!!!!!!!!!!!!!!!!!!!!!!!!!!!!!!!!!!!!!!!!!!!!!!!!!!!!!!!!!!!!!!!!!!!!!!!!!!!!!!!!!!!!!!!!!!!!!!!!!!!!!!!!!!!!!!!!!!!!!!!!!!!!!!!!!!!!!!!!!!!!!!!!!!!!!!!!!!!!!!!!!!!!!!!!!!",
"!!!!!!!!!!!!!!!!!!!!!!!!!!!!!!!!!!!!!!!!!!!!!!!!!!!!!!!!!!!!!!!!!!!!!!!!!!!!!!!!!!!!!!!!!!!!!!!!!!!!!!!!!!!!!!!!!!!!!!!!!!!!!!!!!!!!!!!!!!!!!!!!!!!!!!!!!!!!!!!!!!!!!!!!!!!!!!!!!!!!!!!!!!!!!!!!!!!!!!!!!!!!!!!!!!!!!!!!!!!!!!!!!!!!!!!!!!!!!!!!!!!!!!!!!!!!!!!!!!!!!!!!!!!!!!!!!!!!!!!!!!!!!!!!!!!!!!!!!!!!",
"!!!!!!!!!!!!!!!!!!!!!!!!!!!!!!!!!!!!!!!!!!!!!!!!!!!!!!!!!!!!!!!!!!!!!!!!!!!!!!!!!!!!!!!!!!!!!!!!!!!!!!!!!!!!!!!!!!!!!!!!!!!!!!!!!!!!!!!!!!!!!!!!!!!!!!!!!!!!!!!!!!!!!!!!!!!!!!!!!!!!!!!!!!!!!!!!!!!!!!!!!!!!!!!!!!!!!!!!!!!!!!!!!!!!!!!!!!!!!!!!!!!!!!!!!!!!!!!!!!!!!!!!!!!!!!!!!!!!!!!!!!!!!!!!!!!!!!!!!!!!",
"!!!!!!!!!!!!!!!!!!!!!!!!!!!!!!!!!!!!!!!!!!!!!!!!!!!!!!!!!!!!!!!!!!!!!!!!!!!!!!!!!!!!!!!!!!!!!!!!!!!!!!!!!!!!!!!!!!!!!!!!!!!!!!!!!!!!!!!!!!!!!!!!!!!!!!!!!!!!!!!!!!!!!!!!!!!!!!!!!!!!!!!!!!!!!!!!!!!!!!!!!!!!!!!!!!!!!!!!!!!!!!!!!!!!!!!!!!!!!!!!!!!!!!!!!!!!!!!!!!!!!!!!!!!!!!!!!!!!!!!!!!!!!!!!!!!!!!!!!!!!",
"!!!!!!!!!!!!!!!!!!!!!!!!!!!!!!!!!!!!!!!!!!!!!!!!!!!!!!!!!!!!!!!!!!!!!!!!!!!!!!!!!!!!!!!!!!!!!!!!!!!!!!!!!!!!!!!!!!!!!!!!!!!!!!!!!!!!!!!!!!!!!!!!!!!!!!!!!!!!!!!!!!!!!!!!!!!!!!!!!!!!!!!!!!!!!!!!!!!!!!!!!!!!!!!!!!!!!!!!!!!!!!!!!!!!!!!!!!!!!!!!!!!!!!!!!!!!!!!!!!!!!!!!!!!!!!!!!!!!!!!!!!!!!!!!!!!!!!!!!!!!",
"!!!!!!!!!!!!!!!!!!!!!!!!!!!!!!!!!!!!!!!!!!!!!!!!!!!!!!!!!!!!!!!!!!!!!!!!!!!!!!!!!!!!!!!!!!!!!!!!!!!!!!!!!!!!!!!!!!!!!!!!!!!!!!!!!!!!!!!!!!!!!!!!!!!!!!!!!!!!!!!!!!!!!!!!!!!!!!!!!!!!!!!!!!!!!!!!!!!!!!!!!!!!!!!!!!!!!!!!!!!!!!!!!!!!!!!!!!!!!!!!!!!!!!!!!!!!!!!!!!!!!!!!!!!!!!!!!!!!!!!!!!!!!!!!!!!!!!!!!!!!",
"!!!!!!!!!!!!!!!!!!!!!!!!!!!!!!!!!!!!!!!!!!!!!!!!!!!!!!!!!!!!!!!!!!!!!!!!!!!!!!!!!!!!!!!!!!!!!!!!!!!!!!!!!!!!!!!!!!!!!!!!!!!!!!!!!!!!!!!!!!!!!!!!!!!!!!!!!!!!!!!!!!!!!!!!!!!!!!!!!!!!!!!!!!!!!!!!!!!!!!!!!!!!!!!!!!!!!!!!!!!!!!!!!!!!!!!!!!!!!!!!!!!!!!!!!!!!!!!!!!!!!!!!!!!!!!!!!!!!!!!!!!!!!!!!!!!!!!!!!!!!",
"!!!!!!!!!!!!!!!!!!!!!!!!!!!!!!!!!!!!!!!!!!!!!!!!!!!!!!!!!!!!!!!!!!!!!!!!!!!!!!!!!!!!!!!!!!!!!!!!!!!!!!!!!!!!!!!!!!!!!!!!!!!!!!!!!!!!!!!!!!!!!!!!!!!!!!!!!!!!!!!!!!!!!!!!!!!!!!!!!!!!!!!!!!!!!!!!!!!!!!!!!!!!!!!!!!!!!!!!!!!!!!!!!!!!!!!!!!!!!!!!!!!!!!!!!!!!!!!!!!!!!!!!!!!!!!!!!!!!!!!!!!!!!!!!!!!!!!!!!!!!",
"!!!!!!!!!!!!!!!!!!!!!!!!!!!!!!!!!!!!!!!!!!!!!!!!!!!!!!!!!!!!!!!!!!!!!!!!!!!!!!!!!!!!!!!!!!!!!!!!!!!!!!!!!!!!!!!!!!!!!!!!!!!!!!!!!!!!!!!!!!!!!!!!!!!!!!!!!!!!!!!!!!!!!!!!!!!!!!!!!!!!!!!!!!!!!!!!!!!!!!!!!!!!!!!!!!!!!!!!!!!!!!!!!!!!!!!!!!!!!!!!!!!!!!!!!!!!!!!!!!!!!!!!!!!!!!!!!!!!!!!!!!!!!!!!!!!!!!!!!!!!",
"!!!!!!!!!!!!!!!!!!!!!!!!!!!!!!!!!!!!!!!!!!!!!!!!!!!!!!!!!!!!!!!!!!!!!!!!!!!!!!!!!!!!!!!!!!!!!!!!!!!!!!!!!!!!!!!!!!!!!!!!!!!!!!!!!!!!!!!!!!!!!!!!!!!!!!!!!!!!!!!!!!!!!!!!!!!!!!!!!!!!!!!!!!!!!!!!!!!!!!!!!!!!!!!!!!!!!!!!!!!!!!!!!!!!!!!!!!!!!!!!!!!!!!!!!!!!!!!!!!!!!!!!!!!!!!!!!!!!!!!!!!!!!!!!!!!!!!!!!!!!",
"!!!!!!!!!!!!!!!!!!!!!!!!!!!!!!!!!!!!!!!!!!!!!!!!!!!!!!!!!!!!!!!!!!!!!!!!!!!!!!!!!!!!!!!!!!!!!!!!!!!!!!!!!!!!!!!!!!!!!!!!!!!!!!!!!!!!!!!!!!!!!!!!!!!!!!!!!!!!!!!!!!!!!!!!!!!!!!!!!!!!!!!!!!!!!!!!!!!!!!!!!!!!!!!!!!!!!!!!!!!!!!!!!!!!!!!!!!!!!!!!!!!!!!!!!!!!!!!!!!!!!!!!!!!!!!!!!!!!!!!!!!!!!!!!!!!!!!!!!!!!",
"!!!!!!!!!!!!!!!!!!!!!!!!!!!!!!!!!!!!!!!!!!!!!!!!!!!!!!!!!!!!!!!!!!!!!!!!!!!!!!!!!!!!!!!!!!!!!!!!!!!!!!!!!!!!!!!!!!!!!!!!!!!!!!!!!!!!!!!!!!!!!!!!!!!!!!!!!!!!!!!!!!!!!!!!!!!!!!!!!!!!!!!!!!!!!!!!!!!!!!!!!!!!!!!!!!!!!!!!!!!!!!!!!!!!!!!!!!!!!!!!!!!!!!!!!!!!!!!!!!!!!!!!!!!!!!!!!!!!!!!!!!!!!!!!!!!!!!!!!!!!",
"!!!!!!!!!!!!!!!!!!!!!!!!!!!!!!!!!!!!!!!!!!!!!!!!!!!!!!!!!!!!!!!!!!!!!!!!!!!!!!!!!!!!!!!!!!!!!!!!!!!!!!!!!!!!!!!!!!!!!!!!!!!!!!!!!!!!!!!!!!!!!!!!!!!!!!!!!!!!!!!!!!!!!!!!!!!!!!!!!!!!!!!!!!!!!!!!!!!!!!!!!!!!!!!!!!!!!!!!!!!!!!!!!!!!!!!!!!!!!!!!!!!!!!!!!!!!!!!!!!!!!!!!!!!!!!!!!!!!!!!!!!!!!!!!!!!!!!!!!!!!",
"!!!!!!!!!!!!!!!!!!!!!!!!!!!!!!!!!!!!!!!!!!!!!!!!!!!!!!!!!!!!!!!!!!!!!!!!!!!!!!!!!!!!!!!!!!!!!!!!!!!!!!!!!!!!!!!!!!!!!!!!!!!!!!!!!!!!!!!!!!!!!!!!!!!!!!!!!!!!!!!!!!!!!!!!!!!!!!!!!!!!!!!!!!!!!!!!!!!!!!!!!!!!!!!!!!!!!!!!!!!!!!!!!!!!!!!!!!!!!!!!!!!!!!!!!!!!!!!!!!!!!!!!!!!!!!!!!!!!!!!!!!!!!!!!!!!!!!!!!!!!",
"!!!!!!!!!!!!!!!!!!!!!!!!!!!!!!!!!!!!!!!!!!!!!!!!!!!!!!!!!!!!!!!!!!!!!!!!!!!!!!!!!!!!!!!!!!!!!!!!!!!!!!!!!!!!!!!!!!!!!!!!!!!!!!!!!!!!!!!!!!!!!!!!!!!!!!!!!!!!!!!!!!!!!!!!!!!!!!!!!!!!!!!!!!!!!!!!!!!!!!!!!!!!!!!!!!!!!!!!!!!!!!!!!!!!!!!!!!!!!!!!!!!!!!!!!!!!!!!!!!!!!!!!!!!!!!!!!!!!!!!!!!!!!!!!!!!!!!!!!!!!",
"!!!!!!!!!!!!!!!!!!!!!!!!!!!!!!!!!!!!!!!!!!!!!!!!!!!!!!!!!!!!!!!!!!!!!!!!!!!!!!!!!!!!!!!!!!!!!!!!!!!!!!!!!!!!!!!!!!!!!!!!!!!!!!!!!!!!!!!!!!!!!!!!!!!!!!!!!!!!!!!!!!!!!!!!!!!!!!!!!!!!!!!!!!!!!!!!!!!!!!!!!!!!!!!!!!!!!!!!!!!!!!!!!!!!!!!!!!!!!!!!!!!!!!!!!!!!!!!!!!!!!!!!!!!!!!!!!!!!!!!!!!!!!!!!!!!!!!!!!!!!",
"!!!!!!!!!!!!!!!!!!!!!!!!!!!!!!!!!!!!!!!!!!!!!!!!!!!!!!!!!!!!!!!!!!!!!!!!!!!!!!!!!!!!!!!!!!!!!!!!!!!!!!!!!!!!!!!!!!!!!!!!!!!!!!!!!!!!!!!!!!!!!!!!!!!!!!!!!!!!!!!!!!!!!!!!!!!!!!!!!!!!!!!!!!!!!!!!!!!!!!!!!!!!!!!!!!!!!!!!!!!!!!!!!!!!!!!!!!!!!!!!!!!!!!!!!!!!!!!!!!!!!!!!!!!!!!!!!!!!!!!!!!!!!!!!!!!!!!!!!!!!",
"!!!!!!!!!!!!!!!!!!!!!!!!!!!!!!!!!!!!!!!!!!!!!!!!!!!!!!!!!!!!!!!!!!!!!!!!!!!!!!!!!!!!!!!!!!!!!!!!!!!!!!!!!!!!!!!!!!!!!!!!!!!!!!!!!!!!!!!!!!!!!!!!!!!!!!!!!!!!!!!!!!!!!!!!!!!!!!!!!!!!!!!!!!!!!!!!!!!!!!!!!!!!!!!!!!!!!!!!!!!!!!!!!!!!!!!!!!!!!!!!!!!!!!!!!!!!!!!!!!!!!!!!!!!!!!!!!!!!!!!!!!!!!!!!!!!!!!!!!!!!",
"!!!!!!!!!!!!!!!!!!!!!!!!!!!!!!!!!!!!!!!!!!!!!!!!!!!!!!!!!!!!!!!!!!!!!!!!!!!!!!!!!!!!!!!!!!!!!!!!!!!!!!!!!!!!!!!!!!!!!!!!!!!!!!!!!!!!!!!!!!!!!!!!!!!!!!!!!!!!!!!!!!!!!!!!!!!!!!!!!!!!!!!!!!!!!!!!!!!!!!!!!!!!!!!!!!!!!!!!!!!!!!!!!!!!!!!!!!!!!!!!!!!!!!!!!!!!!!!!!!!!!!!!!!!!!!!!!!!!!!!!!!!!!!!!!!!!!!!!!!!!",
"!!!!!!!!!!!!!!!!!!!!!!!!!!!!!!!!!!!!!!!!!!!!!!!!!!!!!!!!!!!!!!!!!!!!!!!!!!!!!!!!!!!!!!!!!!!!!!!!!!!!!!!!!!!!!!!!!!!!!!!!!!!!!!!!!!!!!!!!!!!!!!!!!!!!!!!!!!!!!!!!!!!!!!!!!!!!!!!!!!!!!!!!!!!!!!!!!!!!!!!!!!!!!!!!!!!!!!!!!!!!!!!!!!!!!!!!!!!!!!!!!!!!!!!!!!!!!!!!!!!!!!!!!!!!!!!!!!!!!!!!!!!!!!!!!!!!!!!!!!!!",
"!!!!!!!!!!!!!!!!!!!!!!!!!!!!!!!!!!!!!!!!!!!!!!!!!!!!!!!!!!!!!!!!!!!!!!!!!!!!!!!!!!!!!!!!!!!!!!!!!!!!!!!!!!!!!!!!!!!!!!!!!!!!!!!!!!!!!!!!!!!!!!!!!!!!!!!!!!!!!!!!!!!!!!!!!!!!!!!!!!!!!!!!!!!!!!!!!!!!!!!!!!!!!!!!!!!!!!!!!!!!!!!!!!!!!!!!!!!!!!!!!!!!!!!!!!!!!!!!!!!!!!!!!!!!!!!!!!!!!!!!!!!!!!!!!!!!!!!!!!!!",
"!!!!!!!!!!!!!!!!!!!!!!!!!!!!!!!!!!!!!!!!!!!!!!!!!!!!!!!!!!!!!!!!!!!!!!!!!!!!!!!!!!!!!!!!!!!!!!!!!!!!!!!!!!!!!!!!!!!!!!!!!!!!!!!!!!!!!!!!!!!!!!!!!!!!!!!!!!!!!!!!!!!!!!!!!!!!!!!!!!!!!!!!!!!!!!!!!!!!!!!!!!!!!!!!!!!!!!!!!!!!!!!!!!!!!!!!!!!!!!!!!!!!!!!!!!!!!!!!!!!!!!!!!!!!!!!!!!!!!!!!!!!!!!!!!!!!!!!!!!!!",
"!!!!!!!!!!!!!!!!!!!!!!!!!!!!!!!!!!!!!!!!!!!!!!!!!!!!!!!!!!!!!!!!!!!!!!!!!!!!!!!!!!!!!!!!!!!!!!!!!!!!!!!!!!!!!!!!!!!!!!!!!!!!!!!!!!!!!!!!!!!!!!!!!!!!!!!!!!!!!!!!!!!!!!!!!!!!!!!!!!!!!!!!!!!!!!!!!!!!!!!!!!!!!!!!!!!!!!!!!!!!!!!!!!!!!!!!!!!!!!!!!!!!!!!!!!!!!!!!!!!!!!!!!!!!!!!!!!!!!!!!!!!!!!!!!!!!!!!!!!!!",
"!!!!!!!!!!!!!!!!!!!!!!!!!!!!!!!!!!!!!!!!!!!!!!!!!!!!!!!!!!!!!!!!!!!!!!!!!!!!!!!!!!!!!!!!!!!!!!!!!!!!!!!!!!!!!!!!!!!!!!!!!!!!!!!!!!!!!!!!!!!!!!!!!!!!!!!!!!!!!!!!!!!!!!!!!!!!!!!!!!!!!!!!!!!!!!!!!!!!!!!!!!!!!!!!!!!!!!!!!!!!!!!!!!!!!!!!!!!!!!!!!!!!!!!!!!!!!!!!!!!!!!!!!!!!!!!!!!!!!!!!!!!!!!!!!!!!!!!!!!!!",
"!!!!!!!!!!!!!!!!!!!!!!!!!!!!!!!!!!!!!!!!!!!!!!!!!!!!!!!!!!!!!!!!!!!!!!!!!!!!!!!!!!!!!!!!!!!!!!!!!!!!!!!!!!!!!!!!!!!!!!!!!!!!!!!!!!!!!!!!!!!!!!!!!!!!!!!!!!!!!!!!!!!!!!!!!!!!!!!!!!!!!!!!!!!!!!!!!!!!!!!!!!!!!!!!!!!!!!!!!!!!!!!!!!!!!!!!!!!!!!!!!!!!!!!!!!!!!!!!!!!!!!!!!!!!!!!!!!!!!!!!!!!!!!!!!!!!!!!!!!!!",
"!!!!!!!!!!!!!!!!!!!!!!!!!!!!!!!!!!!!!!!!!!!!!!!!!!!!!!!!!!!!!!!!!!!!!!!!!!!!!!!!!!!!!!!!!!!!!!!!!!!!!!!!!!!!!!!!!!!!!!!!!!!!!!!!!!!!!!!!!!!!!!!!!!!!!!!!!!!!!!!!!!!!!!!!!!!!!!!!!!!!!!!!!!!!!!!!!!!!!!!!!!!!!!!!!!!!!!!!!!!!!!!!!!!!!!!!!!!!!!!!!!!!!!!!!!!!!!!!!!!!!!!!!!!!!!!!!!!!!!!!!!!!!!!!!!!!!!!!!!!!",
"!!!!!!!!!!!!!!!!!!!!!!!!!!!!!!!!!!!!!!!!!!!!!!!!!!!!!!!!!!!!!!!!!!!!!!!!!!!!!!!!!!!!!!!!!!!!!!!!!!!!!!!!!!!!!!!!!!!!!!!!!!!!!!!!!!!!!!!!!!!!!!!!!!!!!!!!!!!!!!!!!!!!!!!!!!!!!!!!!!!!!!!!!!!!!!!!!!!!!!!!!!!!!!!!!!!!!!!!!!!!!!!!!!!!!!!!!!!!!!!!!!!!!!!!!!!!!!!!!!!!!!!!!!!!!!!!!!!!!!!!!!!!!!!!!!!!!!!!!!!!",
"!!!!!!!!!!!!!!!!!!!!!!!!!!!!!!!!!!!!!!!!!!!!!!!!!!!!!!!!!!!!!!!!!!!!!!!!!!!!!!!!!!!!!!!!!!!!!!!!!!!!!!!!!!!!!!!!!!!!!!!!!!!!!!!!!!!!!!!!!!!!!!!!!!!!!!!!!!!!!!!!!!!!!!!!!!!!!!!!!!!!!!!!!!!!!!!!!!!!!!!!!!!!!!!!!!!!!!!!!!!!!!!!!!!!!!!!!!!!!!!!!!!!!!!!!!!!!!!!!!!!!!!!!!!!!!!!!!!!!!!!!!!!!!!!!!!!!!!!!!!!",
"!!!!!!!!!!!!!!!!!!!!!!!!!!!!!!!!!!!!!!!!!!!!!!!!!!!!!!!!!!!!!!!!!!!!!!!!!!!!!!!!!!!!!!!!!!!!!!!!!!!!!!!!!!!!!!!!!!!!!!!!!!!!!!!!!!!!!!!!!!!!!!!!!!!!!!!!!!!!!!!!!!!!!!!!!!!!!!!!!!!!!!!!!!!!!!!!!!!!!!!!!!!!!!!!!!!!!!!!!!!!!!!!!!!!!!!!!!!!!!!!!!!!!!!!!!!!!!!!!!!!!!!!!!!!!!!!!!!!!!!!!!!!!!!!!!!!!!!!!!!!",
"!!!!!!!!!!!!!!!!!!!!!!!!!!!!!!!!!!!!!!!!!!!!!!!!!!!!!!!!!!!!!!!!!!!!!!!!!!!!!!!!!!!!!!!!!!!!!!!!!!!!!!!!!!!!!!!!!!!!!!!!!!!!!!!!!!!!!!!!!!!!!!!!!!!!!!!!!!!!!!!!!!!!!!!!!!!!!!!!!!!!!!!!!!!!!!!!!!!!!!!!!!!!!!!!!!!!!!!!!!!!!!!!!!!!!!!!!!!!!!!!!!!!!!!!!!!!!!!!!!!!!!!!!!!!!!!!!!!!!!!!!!!!!!!!!!!!!!!!!!!!",
"!!!!!!!!!!!!!!!!!!!!!!!!!!!!!!!!!!!!!!!!!!!!!!!!!!!!!!!!!!!!!!!!!!!!!!!!!!!!!!!!!!!!!!!!!!!!!!!!!!!!!!!!!!!!!!!!!!!!!!!!!!!!!!!!!!!!!!!!!!!!!!!!!!!!!!!!!!!!!!!!!!!!!!!!!!!!!!!!!!!!!!!!!!!!!!!!!!!!!!!!!!!!!!!!!!!!!!!!!!!!!!!!!!!!!!!!!!!!!!!!!!!!!!!!!!!!!!!!!!!!!!!!!!!!!!!!!!!!!!!!!!!!!!!!!!!!!!!!!!!!",
"!!!!!!!!!!!!!!!!!!!!!!!!!!!!!!!!!!!!!!!!!!!!!!!!!!!!!!!!!!!!!!!!!!!!!!!!!!!!!!!!!!!!!!!!!!!!!!!!!!!!!!!!!!!!!!!!!!!!!!!!!!!!!!!!!!!!!!!!!!!!!!!!!!!!!!!!!!!!!!!!!!!!!!!!!!!!!!!!!!!!!!!!!!!!!!!!!!!!!!!!!!!!!!!!!!!!!!!!!!!!!!!!!!!!!!!!!!!!!!!!!!!!!!!!!!!!!!!!!!!!!!!!!!!!!!!!!!!!!!!!!!!!!!!!!!!!!!!!!!!!",
"!!!!!!!!!!!!!!!!!!!!!!!!!!!!!!!!!!!!!!!!!!!!!!!!!!!!!!!!!!!!!!!!!!!!!!!!!!!!!!!!!!!!!!!!!!!!!!!!!!!!!!!!!!!!!!!!!!!!!!!!!!!!!!!!!!!!!!!!!!!!!!!!!!!!!!!!!!!!!!!!!!!!!!!!!!!!!!!!!!!!!!!!!!!!!!!!!!!!!!!!!!!!!!!!!!!!!!!!!!!!!!!!!!!!!!!!!!!!!!!!!!!!!!!!!!!!!!!!!!!!!!!!!!!!!!!!!!!!!!!!!!!!!!!!!!!!!!!!!!!!",
"!!!!!!!!!!!!!!!!!!!!!!!!!!!!!!!!!!!!!!!!!!!!!!!!!!!!!!!!!!!!!!!!!!!!!!!!!!!!!!!!!!!!!!!!!!!!!!!!!!!!!!!!!!!!!!!!!!!!!!!!!!!!!!!!!!!!!!!!!!!!!!!!!!!!!!!!!!!!!!!!!!!!!!!!!!!!!!!!!!!!!!!!!!!!!!!!!!!!!!!!!!!!!!!!!!!!!!!!!!!!!!!!!!!!!!!!!!!!!!!!!!!!!!!!!!!!!!!!!!!!!!!!!!!!!!!!!!!!!!!!!!!!!!!!!!!!!!!!!!!!",
"!!!!!!!!!!!!!!!!!!!!!!!!!!!!!!!!!!!!!!!!!!!!!!!!!!!!!!!!!!!!!!!!!!!!!!!!!!!!!!!!!!!!!!!!!!!!!!!!!!!!!!!!!!!!!!!!!!!!!!!!!!!!!!!!!!!!!!!!!!!!!!!!!!!!!!!!!!!!!!!!!!!!!!!!!!!!!!!!!!!!!!!!!!!!!!!!!!!!!!!!!!!!!!!!!!!!!!!!!!!!!!!!!!!!!!!!!!!!!!!!!!!!!!!!!!!!!!!!!!!!!!!!!!!!!!!!!!!!!!!!!!!!!!!!!!!!!!!!!!!!",
"!!!!!!!!!!!!!!!!!!!!!!!!!!!!!!!!!!!!!!!!!!!!!!!!!!!!!!!!!!!!!!!!!!!!!!!!!!!!!!!!!!!!!!!!!!!!!!!!!!!!!!!!!!!!!!!!!!!!!!!!!!!!!!!!!!!!!!!!!!!!!!!!!!!!!!!!!!!!!!!!!!!!!!!!!!!!!!!!!!!!!!!!!!!!!!!!!!!!!!!!!!!!!!!!!!!!!!!!!!!!!!!!!!!!!!!!!!!!!!!!!!!!!!!!!!!!!!!!!!!!!!!!!!!!!!!!!!!!!!!!!!!!!!!!!!!!!!!!!!!!",
"!!!!!!!!!!!!!!!!!!!!!!!!!!!!!!!!!!!!!!!!!!!!!!!!!!!!!!!!!!!!!!!!!!!!!!!!!!!!!!!!!!!!!!!!!!!!!!!!!!!!!!!!!!!!!!!!!!!!!!!!!!!!!!!!!!!!!!!!!!!!!!!!!!!!!!!!!!!!!!!!!!!!!!!!!!!!!!!!!!!!!!!!!!!!!!!!!!!!!!!!!!!!!!!!!!!!!!!!!!!!!!!!!!!!!!!!!!!!!!!!!!!!!!!!!!!!!!!!!!!!!!!!!!!!!!!!!!!!!!!!!!!!!!!!!!!!!!!!!!!!",
"!!!!!!!!!!!!!!!!!!!!!!!!!!!!!!!!!!!!!!!!!!!!!!!!!!!!!!!!!!!!!!!!!!!!!!!!!!!!!!!!!!!!!!!!!!!!!!!!!!!!!!!!!!!!!!!!!!!!!!!!!!!!!!!!!!!!!!!!!!!!!!!!!!!!!!!!!!!!!!!!!!!!!!!!!!!!!!!!!!!!!!!!!!!!!!!!!!!!!!!!!!!!!!!!!!!!!!!!!!!!!!!!!!!!!!!!!!!!!!!!!!!!!!!!!!!!!!!!!!!!!!!!!!!!!!!!!!!!!!!!!!!!!!!!!!!!!!!!!!!!",
"!!!!!!!!!!!!!!!!!!!!!!!!!!!!!!!!!!!!!!!!!!!!!!!!!!!!!!!!!!!!!!!!!!!!!!!!!!!!!!!!!!!!!!!!!!!!!!!!!!!!!!!!!!!!!!!!!!!!!!!!!!!!!!!!!!!!!!!!!!!!!!!!!!!!!!!!!!!!!!!!!!!!!!!!!!!!!!!!!!!!!!!!!!!!!!!!!!!!!!!!!!!!!!!!!!!!!!!!!!!!!!!!!!!!!!!!!!!!!!!!!!!!!!!!!!!!!!!!!!!!!!!!!!!!!!!!!!!!!!!!!!!!!!!!!!!!!!!!!!!!",
"!!!!!!!!!!!!!!!!!!!!!!!!!!!!!!!!!!!!!!!!!!!!!!!!!!!!!!!!!!!!!!!!!!!!!!!!!!!!!!!!!!!!!!!!!!!!!!!!!!!!!!!!!!!!!!!!!!!!!!!!!!!!!!!!!!!!!!!!!!!!!!!!!!!!!!!!!!!!!!!!!!!!!!!!!!!!!!!!!!!!!!!!!!!!!!!!!!!!!!!!!!!!!!!!!!!!!!!!!!!!!!!!!!!!!!!!!!!!!!!!!!!!!!!!!!!!!!!!!!!!!!!!!!!!!!!!!!!!!!!!!!!!!!!!!!!!!!!!!!!!",
"!!!!!!!!!!!!!!!!!!!!!!!!!!!!!!!!!!!!!!!!!!!!!!!!!!!!!!!!!!!!!!!!!!!!!!!!!!!!!!!!!!!!!!!!!!!!!!!!!!!!!!!!!!!!!!!!!!!!!!!!!!!!!!!!!!!!!!!!!!!!!!!!!!!!!!!!!!!!!!!!!!!!!!!!!!!!!!!!!!!!!!!!!!!!!!!!!!!!!!!!!!!!!!!!!!!!!!!!!!!!!!!!!!!!!!!!!!!!!!!!!!!!!!!!!!!!!!!!!!!!!!!!!!!!!!!!!!!!!!!!!!!!!!!!!!!!!!!!!!!!",
"!!!!!!!!!!!!!!!!!!!!!!!!!!!!!!!!!!!!!!!!!!!!!!!!!!!!!!!!!!!!!!!!!!!!!!!!!!!!!!!!!!!!!!!!!!!!!!!!!!!!!!!!!!!!!!!!!!!!!!!!!!!!!!!!!!!!!!!!!!!!!!!!!!!!!!!!!!!!!!!!!!!!!!!!!!!!!!!!!!!!!!!!!!!!!!!!!!!!!!!!!!!!!!!!!!!!!!!!!!!!!!!!!!!!!!!!!!!!!!!!!!!!!!!!!!!!!!!!!!!!!!!!!!!!!!!!!!!!!!!!!!!!!!!!!!!!!!!!!!!!",
"!!!!!!!!!!!!!!!!!!!!!!!!!!!!!!!!!!!!!!!!!!!!!!!!!!!!!!!!!!!!!!!!!!!!!!!!!!!!!!!!!!!!!!!!!!!!!!!!!!!!!!!!!!!!!!!!!!!!!!!!!!!!!!!!!!!!!!!!!!!!!!!!!!!!!!!!!!!!!!!!!!!!!!!!!!!!!!!!!!!!!!!!!!!!!!!!!!!!!!!!!!!!!!!!!!!!!!!!!!!!!!!!!!!!!!!!!!!!!!!!!!!!!!!!!!!!!!!!!!!!!!!!!!!!!!!!!!!!!!!!!!!!!!!!!!!!!!!!!!!!",
"!!!!!!!!!!!!!!!!!!!!!!!!!!!!!!!!!!!!!!!!!!!!!!!!!!!!!!!!!!!!!!!!!!!!!!!!!!!!!!!!!!!!!!!!!!!!!!!!!!!!!!!!!!!!!!!!!!!!!!!!!!!!!!!!!!!!!!!!!!!!!!!!!!!!!!!!!!!!!!!!!!!!!!!!!!!!!!!!!!!!!!!!!!!!!!!!!!!!!!!!!!!!!!!!!!!!!!!!!!!!!!!!!!!!!!!!!!!!!!!!!!!!!!!!!!!!!!!!!!!!!!!!!!!!!!!!!!!!!!!!!!!!!!!!!!!!!!!!!!!!",
"!!!!!!!!!!!!!!!!!!!!!!!!!!!!!!!!!!!!!!!!!!!!!!!!!!!!!!!!!!!!!!!!!!!!!!!!!!!!!!!!!!!!!!!!!!!!!!!!!!!!!!!!!!!!!!!!!!!!!!!!!!!!!!!!!!!!!!!!!!!!!!!!!!!!!!!!!!!!!!!!!!!!!!!!!!!!!!!!!!!!!!!!!!!!!!!!!!!!!!!!!!!!!!!!!!!!!!!!!!!!!!!!!!!!!!!!!!!!!!!!!!!!!!!!!!!!!!!!!!!!!!!!!!!!!!!!!!!!!!!!!!!!!!!!!!!!!!!!!!!!",
"!!!!!!!!!!!!!!!!!!!!!!!!!!!!!!!!!!!!!!!!!!!!!!!!!!!!!!!!!!!!!!!!!!!!!!!!!!!!!!!!!!!!!!!!!!!!!!!!!!!!!!!!!!!!!!!!!!!!!!!!!!!!!!!!!!!!!!!!!!!!!!!!!!!!!!!!!!!!!!!!!!!!!!!!!!!!!!!!!!!!!!!!!!!!!!!!!!!!!!!!!!!!!!!!!!!!!!!!!!!!!!!!!!!!!!!!!!!!!!!!!!!!!!!!!!!!!!!!!!!!!!!!!!!!!!!!!!!!!!!!!!!!!!!!!!!!!!!!!!!!",
"!!!!!!!!!!!!!!!!!!!!!!!!!!!!!!!!!!!!!!!!!!!!!!!!!!!!!!!!!!!!!!!!!!!!!!!!!!!!!!!!!!!!!!!!!!!!!!!!!!!!!!!!!!!!!!!!!!!!!!!!!!!!!!!!!!!!!!!!!!!!!!!!!!!!!!!!!!!!!!!!!!!!!!!!!!!!!!!!!!!!!!!!!!!!!!!!!!!!!!!!!!!!!!!!!!!!!!!!!!!!!!!!!!!!!!!!!!!!!!!!!!!!!!!!!!!!!!!!!!!!!!!!!!!!!!!!!!!!!!!!!!!!!!!!!!!!!!!!!!!!",
"!!!!!!!!!!!!!!!!!!!!!!!!!!!!!!!!!!!!!!!!!!!!!!!!!!!!!!!!!!!!!!!!!!!!!!!!!!!!!!!!!!!!!!!!!!!!!!!!!!!!!!!!!!!!!!!!!!!!!!!!!!!!!!!!!!!!!!!!!!!!!!!!!!!!!!!!!!!!!!!!!!!!!!!!!!!!!!!!!!!!!!!!!!!!!!!!!!!!!!!!!!!!!!!!!!!!!!!!!!!!!!!!!!!!!!!!!!!!!!!!!!!!!!!!!!!!!!!!!!!!!!!!!!!!!!!!!!!!!!!!!!!!!!!!!!!!!!!!!!!!",
"!!!!!!!!!!!!!!!!!!!!!!!!!!!!!!!!!!!!!!!!!!!!!!!!!!!!!!!!!!!!!!!!!!!!!!!!!!!!!!!!!!!!!!!!!!!!!!!!!!!!!!!!!!!!!!!!!!!!!!!!!!!!!!!!!!!!!!!!!!!!!!!!!!!!!!!!!!!!!!!!!!!!!!!!!!!!!!!!!!!!!!!!!!!!!!!!!!!!!!!!!!!!!!!!!!!!!!!!!!!!!!!!!!!!!!!!!!!!!!!!!!!!!!!!!!!!!!!!!!!!!!!!!!!!!!!!!!!!!!!!!!!!!!!!!!!!!!!!!!!!",
"!!!!!!!!!!!!!!!!!!!!!!!!!!!!!!!!!!!!!!!!!!!!!!!!!!!!!!!!!!!!!!!!!!!!!!!!!!!!!!!!!!!!!!!!!!!!!!!!!!!!!!!!!!!!!!!!!!!!!!!!!!!!!!!!!!!!!!!!!!!!!!!!!!!!!!!!!!!!!!!!!!!!!!!!!!!!!!!!!!!!!!!!!!!!!!!!!!!!!!!!!!!!!!!!!!!!!!!!!!!!!!!!!!!!!!!!!!!!!!!!!!!!!!!!!!!!!!!!!!!!!!!!!!!!!!!!!!!!!!!!!!!!!!!!!!!!!!!!!!!!",
"!!!!!!!!!!!!!!!!!!!!!!!!!!!!!!!!!!!!!!!!!!!!!!!!!!!!!!!!!!!!!!!!!!!!!!!!!!!!!!!!!!!!!!!!!!!!!!!!!!!!!!!!!!!!!!!!!!!!!!!!!!!!!!!!!!!!!!!!!!!!!!!!!!!!!!!!!!!!!!!!!!!!!!!!!!!!!!!!!!!!!!!!!!!!!!!!!!!!!!!!!!!!!!!!!!!!!!!!!!!!!!!!!!!!!!!!!!!!!!!!!!!!!!!!!!!!!!!!!!!!!!!!!!!!!!!!!!!!!!!!!!!!!!!!!!!!!!!!!!!!",
"!!!!!!!!!!!!!!!!!!!!!!!!!!!!!!!!!!!!!!!!!!!!!!!!!!!!!!!!!!!!!!!!!!!!!!!!!!!!!!!!!!!!!!!!!!!!!!!!!!!!!!!!!!!!!!!!!!!!!!!!!!!!!!!!!!!!!!!!!!!!!!!!!!!!!!!!!!!!!!!!!!!!!!!!!!!!!!!!!!!!!!!!!!!!!!!!!!!!!!!!!!!!!!!!!!!!!!!!!!!!!!!!!!!!!!!!!!!!!!!!!!!!!!!!!!!!!!!!!!!!!!!!!!!!!!!!!!!!!!!!!!!!!!!!!!!!!!!!!!!!",
"!!!!!!!!!!!!!!!!!!!!!!!!!!!!!!!!!!!!!!!!!!!!!!!!!!!!!!!!!!!!!!!!!!!!!!!!!!!!!!!!!!!!!!!!!!!!!!!!!!!!!!!!!!!!!!!!!!!!!!!!!!!!!!!!!!!!!!!!!!!!!!!!!!!!!!!!!!!!!!!!!!!!!!!!!!!!!!!!!!!!!!!!!!!!!!!!!!!!!!!!!!!!!!!!!!!!!!!!!!!!!!!!!!!!!!!!!!!!!!!!!!!!!!!!!!!!!!!!!!!!!!!!!!!!!!!!!!!!!!!!!!!!!!!!!!!!!!!!!!!!",
"!!!!!!!!!!!!!!!!!!!!!!!!!!!!!!!!!!!!!!!!!!!!!!!!!!!!!!!!!!!!!!!!!!!!!!!!!!!!!!!!!!!!!!!!!!!!!!!!!!!!!!!!!!!!!!!!!!!!!!!!!!!!!!!!!!!!!!!!!!!!!!!!!!!!!!!!!!!!!!!!!!!!!!!!!!!!!!!!!!!!!!!!!!!!!!!!!!!!!!!!!!!!!!!!!!!!!!!!!!!!!!!!!!!!!!!!!!!!!!!!!!!!!!!!!!!!!!!!!!!!!!!!!!!!!!!!!!!!!!!!!!!!!!!!!!!!!!!!!!!!",
"!!!!!!!!!!!!!!!!!!!!!!!!!!!!!!!!!!!!!!!!!!!!!!!!!!!!!!!!!!!!!!!!!!!!!!!!!!!!!!!!!!!!!!!!!!!!!!!!!!!!!!!!!!!!!!!!!!!!!!!!!!!!!!!!!!!!!!!!!!!!!!!!!!!!!!!!!!!!!!!!!!!!!!!!!!!!!!!!!!!!!!!!!!!!!!!!!!!!!!!!!!!!!!!!!!!!!!!!!!!!!!!!!!!!!!!!!!!!!!!!!!!!!!!!!!!!!!!!!!!!!!!!!!!!!!!!!!!!!!!!!!!!!!!!!!!!!!!!!!!!",
"!!!!!!!!!!!!!!!!!!!!!!!!!!!!!!!!!!!!!!!!!!!!!!!!!!!!!!!!!!!!!!!!!!!!!!!!!!!!!!!!!!!!!!!!!!!!!!!!!!!!!!!!!!!!!!!!!!!!!!!!!!!!!!!!!!!!!!!!!!!!!!!!!!!!!!!!!!!!!!!!!!!!!!!!!!!!!!!!!!!!!!!!!!!!!!!!!!!!!!!!!!!!!!!!!!!!!!!!!!!!!!!!!!!!!!!!!!!!!!!!!!!!!!!!!!!!!!!!!!!!!!!!!!!!!!!!!!!!!!!!!!!!!!!!!!!!!!!!!!!!",
"!!!!!!!!!!!!!!!!!!!!!!!!!!!!!!!!!!!!!!!!!!!!!!!!!!!!!!!!!!!!!!!!!!!!!!!!!!!!!!!!!!!!!!!!!!!!!!!!!!!!!!!!!!!!!!!!!!!!!!!!!!!!!!!!!!!!!!!!!!!!!!!!!!!!!!!!!!!!!!!!!!!!!!!!!!!!!!!!!!!!!!!!!!!!!!!!!!!!!!!!!!!!!!!!!!!!!!!!!!!!!!!!!!!!!!!!!!!!!!!!!!!!!!!!!!!!!!!!!!!!!!!!!!!!!!!!!!!!!!!!!!!!!!!!!!!!!!!!!!!!",
"!!!!!!!!!!!!!!!!!!!!!!!!!!!!!!!!!!!!!!!!!!!!!!!!!!!!!!!!!!!!!!!!!!!!!!!!!!!!!!!!!!!!!!!!!!!!!!!!!!!!!!!!!!!!!!!!!!!!!!!!!!!!!!!!!!!!!!!!!!!!!!!!!!!!!!!!!!!!!!!!!!!!!!!!!!!!!!!!!!!!!!!!!!!!!!!!!!!!!!!!!!!!!!!!!!!!!!!!!!!!!!!!!!!!!!!!!!!!!!!!!!!!!!!!!!!!!!!!!!!!!!!!!!!!!!!!!!!!!!!!!!!!!!!!!!!!!!!!!!!!",
"!!!!!!!!!!!!!!!!!!!!!!!!!!!!!!!!!!!!!!!!!!!!!!!!!!!!!!!!!!!!!!!!!!!!!!!!!!!!!!!!!!!!!!!!!!!!!!!!!!!!!!!!!!!!!!!!!!!!!!!!!!!!!!!!!!!!!!!!!!!!!!!!!!!!!!!!!!!!!!!!!!!!!!!!!!!!!!!!!!!!!!!!!!!!!!!!!!!!!!!!!!!!!!!!!!!!!!!!!!!!!!!!!!!!!!!!!!!!!!!!!!!!!!!!!!!!!!!!!!!!!!!!!!!!!!!!!!!!!!!!!!!!!!!!!!!!!!!!!!!!",
"!!!!!!!!!!!!!!!!!!!!!!!!!!!!!!!!!!!!!!!!!!!!!!!!!!!!!!!!!!!VVVVV!!!!!!!!!!!!!!!!!!!!!!!!!!!!!!!!!!!!!!!!!!!!!!!!!!!!!!!!!!!!!!!!!!!!!!!!!!!!!!!!!!!!!!!!!!!!!!!!!!!!!!!!!!!!!!!!!!!!!!!!!!!!!!!!!!!!!!!!!!!!!!!!!!!!!!!!!!!!!!!!!!!!!!!!!!!!!!!!!!!!!!!!!!!!!!!!!!!!!!!!!!!!!!!!!!!!!!!!!!!!!!!!!!!!!!!!!!!!",
"!!!!!!!!!!!!!!!!!!!!!!!!!!!!!!!!!!!!!!!!!!!!!!!!!!VVVVVVVVVVVVVVVVVV!!!!!!!!!!!!!!!!!!!!!!!!!!!!!!!!!!!!!!!!!!!!!!!!!!!!!!!!!!!!!!!!!!!!!!!!!!!!!!!!!!!!!!!!!!!!!!!!!!!!!!!!!!!!!!!!!!!!!!!!!!!!!!!!!!!!!!!!!!!!!!!!!!!!!!!!!!!!!!!!!!!!!!!!!!!!!!!!!!!!!!!!!!!!!!!!!!!!!!!!!!!!!!!!!!!!!!!!!!!!!!!!!!!!!!!!",
"!!!!!!!!!!!!!!!!!!!!!!!!!!!!!!!!!!!!!!!!!!!!VVVVVVVVVVVVVVVVVVVVVVVVVVV!!!!!!!!!!!!!!!!!!!!!!!!!!!!!!!!!!!!!!!!!!!!!!!!!!!!!!!!!!!!!!!!!!!!!!!!!!!!!!!!!!!!!!!!!!!!!!!!!!!!!!!!!!!!!!!!!!!!!!!!!!!!!!!!!!!!!!!!!!!!!!!!!!!!!!!!!!!!!!!!!!!!!!!!!!!!!!!!!!!!!!!!!!!!!!!!!!!!!!!!!!!!!!!!!!!!!!!!!!!!!!!!!!!!!",
"!!!!!!!!!!!!!!!!!!!!!!!!!!!!!!!!!!!!!!!!!!WWVVVVVVVVVVVVVVVVVVVVVVVVVVVVVVV!!!!!!!!!!!!!!!!!!!!!!!!!!!!!!!!!!!!!!!!!!!!!!!!!!!!!!!!!!!!!!!!!!!!!!!!!!!!!!!!!!!!!!!!!!!!!!!!!!!!!!!!!!!!!!!!!!!!!!!!!!!!!!!!!!!!!!!!!!!!!!!!!!!!!!!!!!!!!!!!!!!!!!!!!!!!!!!!!!!!!!!!!!!!!!!!!!!!!!!!!!!!!!!!!!!!!!!!!!!!!!!!!",
"!!!!!!!!!!!!!!!!!!!!!!!!!!!!!!!!!!!!!!!!VWWVVVVVVVVVVVVVVVVVVVVVVVVVVXXcXXXc!!!!!!!!!!!!!!!!!!!!!!!!!!!!!!!!!!!!!!!!!!!!!!!!!!!!!!!!!!!!!!!!!!!!!!!!!!!!!!!!!!!!!!!!!!!!!!!!!!!!!!!!!!!!!!!!!!!!!!!!!!!!!!!!!!!!!!!!!!!!!!!!!!!!!!!!!!!!!!!!!!!!!!!!!!!!!!!!!!!!!!!!!!!!!!!!!!!!!!!!!!!!!!!!!!!!!!!!!!!!!!!!",
"!!!!!!!!!!!!!!!!!!!!!!!!!!!!!!!!!!!!!!g^VYVVVVVVVVVVVVVVVVVVVVVVVVVVXXcccXXcc!!!!!!!!!!!!!!!!!!!!!!!!!!!!!!!!!!!!!!!!!!!!!!!!!!!!!!!!!!!!!!!!!!!!!!!!!!!!!!!!!!!!!!!!!!!!!!!!!!!!!!!!!!!!!!!!!!!!!!!!!!!!!!!!!!!!!!!!!!!!!!!!!!!!!!!!!!!!!!!!!!!!!!!!!!!!!!!!!!!!!!!!!!!!!!!!!!!!!!!!!!!!!!!!!!!!!!!!!!!!!!!",
"!!!!!!!!!!!!!!!!!!!!!!!!!!!!!!!!!!!!CDFJNRWVVVVVVVVVVVVVVVVVVVVVXXXXXXcccXccm!!!!!!!!!!!!!!!!!!!!!!!!!!!!!!!!!!!!!!!!!!!!!!!!!!!!!!!!!!!!!!!!!!!!!!!!!!!!!!!!!!!!!!!!!!!!!!!!!!!!!!!!!!!!!!!!!!!!!!!!!!!!!!!!!!!!!!!!!!!!!!!!!!!!!!!!!!!!!!!!!!!!!!!!!!!!!!!!!!!!!!!!!!!!!!!!!!!!!!!!!!!!!!!!!!!!!!!!!!!!!!!",
"!!!!!!!!!!!!!!!!!!!!!!!!!!!!!!!!!!!;;<BDJPTVVVVVVVVVVVVVVVVVVVXXXccccccccccgmm!!!!!!!!!!!!!!!!!!!!!!!!!!!!!!!!!!!!!!!!!!!!!!!!!!!!!!!!!!!!!!!!!!!!!!!!!!!!!!!!!!!!!!!!!!!!!!!!!!!!!!!!!!!!!!!!!!!!!!!!!!!!!!!!!!!!!!!!!!!!!!!!!!!!!!!!!!!!!!!!!!!!!!!!!!!!!!!!!!!!!!!!!!!!!!!!!!!!!!!!!!!!!!!!!!!!!!!!!!!!!!",
"!!!!!!!!!!!!!!!!!!!!!!!!!!!!!!!!!;6666;BFLRVVVVVVVVVVVVVVVVVVVVXXccccccccccgin!!!!!!!!!!!!!!!!!!!!!!!!!!!!!!!!!!!!!!!!!!!!!!!!!!!!!!!!!!!!!!!!!!!!!!!!!!!!!!!!!!!!!!!!!!!!!!!!!!!!!!!!!!!!!!!!!!!!!!!!!!!!!!!!!!!!!!!!!!!!!!!!!!!!!!!!!!!!!!!!!!!!!!!!!!!!!!!!!!!!!!!!!!!!!!!!!!!!!!!!!!!!!!!!!!!!!!!!!!!!!!",
"!!!!!!!!!!!!!!!!!!!!!!!!!!!!!!!!;66##66;DJPWVVVVVVVVVVVWWWWWTTWVXcffcccccccggnss!!!!!!!!!!!!!!!!!!!!!!!!!!!!!!!!!!!!!!!!!!!!!!!!!!!!!!!!!!!!!!!!!!!!!!!!!!!!!!!!!!!!!!!!!!!!!!!!!!!!!!!!!!!!!!!!!!!!!!!!!!!!!!!!!!!!!!!!!!!!!!!!!!!!!!!!!!!!!!!!!!!!!!!!!!!!!!!!!!!!!!!!!!!!!!!!!!!!!!!!!!!!!!!!!!!!!!!!!!!!",
"!!!!!!!!!!!!!!!!!!!!!!!!!!!!!!!C;6####6;BGLTTTTTTWWWWTTTTTTRRRRWVXffccccccccgnss!!!!!!!!!!!!!!!!!!!!!!!!!!!!!!!!!!!!!!!!!!!!!!!!!!!!!!!!!!!!!!!!!!!!!!!!!!!!!!!!!!!!!!!!!!!!!!!!!!!!!!!!!!!!!!!!!!!!!!!!!!!!!!!!!!!!!!!!!!!!!!!!!!!!!!!!!!!!!!!!!!!!!!!!!!!!!!!!!!!!!!!!!!!!!!!!!!!!!!!!!!!!!!!!!!!!!!!!!!!!",
"!!!!!!!!!!!!!!!!!!!!!!!!!!!!!QFC;66###66<DIPNNNNPQRRRRRQQPQQQQRTWXacfffcccccgnsst!!!!!!!!!!!!!!!!!!!!!!!!!!!!!!!!!!!!!!!!!!!!!!!!!!!!!!!!!!!!!!!!!!!!!!!!!!!!!!!!!!!!!!!!!!!!!!!!!!!!!!!!!!!!!!!!!!!!!!!!!!!!!!!!!!!!!!!!!!!!!!!!!!!!!!!!!!!!!!!!!!!!!!!!!!!!!!!!!!!!!!!!!!!!!!!!!!!!!!!!!!!!!!!!!!!!!!!!!!!",
"!!!!!!!!!!!!!!!!!!!!!!!!!!!!WPFC<666##66;CFLJIIJKNPQQPOONNNPQQQRRW^cgmmggccccirst!!!!!!!!!!!!!!!!!!!!!!!!!!!!!!!!!!!!!!!!!!!!!!!!!!!!!!!!!!!!!!!!!!!!!!!!!!!!!!!!!!!!!!!!!!!!!!!!!!!!!!!!!!!!!!!!!!!!!!!!!!!!!!!!!!!!!!!!!!!!!!!!!!!!!!!!!!!!!!!!!!!!!!!!!!!!!!!!!!!!!!!!!!!!!!!!!!!!!!!!!!!!!!!!!!!!!!!!!!!",
"!!!!!!!!!!!!!!!!!!!!!!!!!!![YRKFC<;;6666;<CFFFGIKNPQRRRQRRTYZ]```deinpnnniiginrstt!!!!!!!!!!!!!!!!!!!!!!!!!!!!!!!!!!!!!!!!!!!!!!!!!!!!!!!!!!!!!!!!!!!!!!!!!!!!!!!!!!!!!!!!!!!!!!!!!!!!!!!!!!!!!!!!!!!!!!!!!!!!!!!!!!!!!!!!!!!!!!!!!!!!!!!!!!!!!!!!!!!!!!!!!!!!!!!!!!!!!!!!!!!!!!!!!!!!!!!!!!!!!!!!!!!!!!!!!!",
"!!!!!!!!!!!!!!!!!!!!!!!!!!X[YWQLJGDB<;666;<CDDFIJNPRTTWWYY`jlrssrrlrrtttsrooorsttv!!!!!!!!!!!!!!!!!!!!!!!!!!!!!!!!!!!!!!!!!!!!!!!!!!!!!!!!!!!!!!!!!!!!!!!!!!!!!!!!!!!!!!!!!!!!!!!!!!!!!!!!!!!!!!!!!!!!!!!!!!!!!!!!!!!!!!!!!!!!!!!!!!!!!!!!!!!!!!!!!!!!!!!!!!!!!!!!!!!!!!!!!!!!!!!!!!!!!!!!!!!!!!!!!!!!!!!!!!",
"!!!!!!!!!!!!!!!!!!!!!!!!!!^[YWTRQQLFC;6666<BDGJLPSVV^^^bbdjrstttttsstttttsssrrrssss!!!!!!!!!!!!!!!!!!!!!!!!!!!!!!!!!!!!!!!!!!!!!!!!!!!!!!!!!!!!!!!!!!!!!!!!!!!!!!!!!!!!!!!!!!!!!!!!!!!!!!!!!!!!!!!!!!!!!!!!!!!!!!!!!!!!!!!!!!!!!!!!!!!!!!!!!!!!!!!!!!!!!!!!!!!!!!!!!!!!!!!!!!!!!!!!!!!!!!!!!!!!!!!!!!!!!!!!!",
"!!!!!!!!!!!!!!!!!!!!!!!!!^^[YWWTWYQJD<6666;BFPSVccfginooorrrrsttttttttttttttsrolkko!!!!!!!!!!!!!!!!!!!!!!!!!!!!!!!!!!!!!!!!!!!!!!!!!!!!!!!!!!!!!!!!!!!!!!!!!!!!!!!!!!!!!!!!!!!!!!!!!!!!!!!!!!!!!!!!!!!!!!!!!!!!!!!!!!!!!!!!!!!!!!!!!!!!!!!!!!!!!!!!!!!!!!!!!!!!!!!!!!!!!!!!!!!!!!!!!!!!!!!!!!!!!!!!!!!!!!!!!",
"!!!!!!!!!!!!!!!!!!!!!!!!X^^[YWYYZ]TKF<6666;DKXmqqqqqquuutsrooorsstuuuttssssssoiebdkr!!!!!!!!!!!!!!!!!!!!!!!!!!!!!!!!!!!!!!!!!!!!!!!!!!!!!!!!!!!!!!!!!!!!!!!!!!!!!!!!!!!!!!!!!!!!!!!!!!!!!!!!!!!!!!!!!!!!!!!!!!!!!!!!!!!!!!!!!!!!!!!!!!!!!!!!!!!!!!!!!!!!!!!!!!!!!!!!!!!!!!!!!!!!!!!!!!!!!!!!!!!!!!!!!!!!!!!!",
"!!!!!!!!!!!!!!!!!!!!!!!VYYYYWWYYYYQID<666;CJSmqqqqqqpproljhddeehinnrssrolkjkiga[Y[hr!!!!!!!!!!!!!!!!!!!!!!!!!!!!!!!!!!!!!!!!!!!!!!!!!!!!!!!!!!!!!!!!!!!!!!!!!!!!!!!!!!!!!!!!!!!!!!!!!!!!!!!!!!!!!!!!!!!!!!!!!!!!!!!!!!!!!!!!!!!!!!!!!!!!!!!!!!!!!!!!!!!!!!!!!!!!!!!!!!!!!!!!!!!!!!!!!!!!!!!!!!!!!!!!!!!!!!!!",
"!!!!!!!!!!!!!!!!!!!!!!XVYWWTTWYVWRNGC<;;<BJVfqqqqqqqpnihb][[VV[^acginojed_^^aXXWQWdrs!!!!!!!!!!!!!!!!!!!!!!!!!!!!!!!!!!!!!!!!!!!!!!!!!!!!!!!!!!!!!!!!!!!!!!!!!!!!!!!!!!!!!!!!!!!!!!!!!!!!!!!!!!!!!!!!!!!!!!!!!!!!!!!!!!!!!!!!!!!!!!!!!!!!!!!!!!!!!!!!!!!!!!!!!!!!!!!!!!!!!!!!!!!!!!!!!!!!!!!!!!!!!!!!!!!!!!!",
"!!!!!!!!!!!!!!!!!!!!!WTWTTRRTTWWTRNJFDBCDJSmpqfXSSTYYYWRRQQRRRTTWY[^^a^[YTTTWYVTPR[dj!!!!!!!!!!!!!!!!!!!!!!!!!!!!!!!!!!!!!!!!!!!!!!!!!!!!!!!!!!!!!!!!!!!!!!!!!!!!!!!!!!!!!!!!!!!!!!!!!!!!!!!!!!!!!!!!!!!!!!!!!!!!!!!!!!!!!!!!!!!!!!!!!!!!!!!!!!!!!!!!!!!!!!!!!!!!!!!!!!!!!!!!!!!!!!!!!!!!!!!!!!!!!!!!!!!!!!!",
"!!!!!!!!!!!!!!!!!!!!!RRRRRQQRTTTRRPNLKKNSXpxqmVKGIIJLLKJJJKLNOOPPQRRTWTRQOOOPRWSPRTY`k!!!!!!!!!!!!!!!!!!!!!!!!!!!!!!!!!!!!!!!!!!!!!!!!!!!!!!!!!!!!!!!!!!!!!!!!!!!!!!!!!!!!!!!!!!!!!!!!!!!!!!!!!!!!!!!!!!!!!!!!!!!!!!!!!!!!!!!!!!!!!!!!!!!!!!!!!!!!!!!!!!!!!!!!!!!!!!!!!!!!!!!!!!!!!!!!!!!!!!!!!!!!!!!!!!!!!!",
"!!!!!!!!!!!!!!!!!!!!!QPPQPPPQRRRRRRRSSVXfmppVLFB<BBCDFFFFGIKLLLNOOOPQQQQOLLLLPRRPQQRZjk!!!!!!!!!!!!!!!!!!!!!!!!!!!!!!!!!!!!!!!!!!!!!!!!!!!!!!!!!!!!!!!!!!!!!!!!!!!!!!!!!!!!!!!!!!!!!!!!!!!!!!!!!!!!!!!!!!!!!!!!!!!!!!!!!!!!!!!!!!!!!!!!!!!!!!!!!!!!!!!!!!!!!!!!!!!!!!!!!!!!!!!!!!!!!!!!!!!!!!!!!!!!!!!!!!!!!",
"!!!!!!!!!!!!!!!!!!!!WPOOONNNPPPPQRTVXcfmpmXPE<;;6;;;<BBCDGIKLLLLOOOONNOOOLLKLNPPPPOQYdh!!!!!!!!!!!!!!!!!!!!!!!!!!!!!!!!!!!!!!!!!!!!!!!!!!!!!!!!!!!!!!!!!!!!!!!!!!!!!!!!!!!!!!!!!!!!!!!!!!!!!!!!!!!!!!!!!!!!!!!!!!!!!!!!!!!!!!!!!!!!!!!!!!!!!!!!!!!!!!!!!!!!!!!!!!!!!!!!!!!!!!!!!!!!!!!!!!!!!!!!!!!!!!!!!!!!!",
"!!!!!!!!!!!!!!!!!!!!WRPNLLLLNNPPPRWXcmqqqfPG<6666666;;<BCFIKKLLLLKKKJJKKKKKJKLNNNNNNWbe!!!!!!!!!!!!!!!!!!!!!!!!!!!!!!!!!!!!!!!!!!!!!!!!!!!!!!!!!!!!!!!!!!!!!!!!!!!!!!!!!!!!!!!!!!!!!!!!!!!!!!!!!!!!!!!!!!!!!!!!!!!!!!!!!!!!!!!!!!!!!!!!!!!!!!!!!!!!!!!!!!!!!!!!!!!!!!!!!!!!!!!!!!!!!!!!!!!!!!!!!!!!!!!!!!!!!",
"!!!!!!!!!!!!!!!!!!!!VTROLLLLNNNNNPSXcfmmmXPG<666##6666;<BCFIJKKJIEEEEEEEGIIGIJLLNNLNWeho!!!!!!!!!!!!!!!!!!!!!!!!!!!!!!!!!!!!!!!!!!!!!!!!!!!!!!!!!!!!!!!!!!!!!!!!!!!!!!!!!!!!!!!!!!!!!!!!!!!!!!!!!!!!!!!!!!!!!!!!!!!!!!!!!!!!!!!!!!!!!!!!!!!!!!!!!!!!!!!!!!!!!!!!!!!!!!!!!!!!!!!!!!!!!!!!!!!!!!!!!!!!!!!!!!!!",
"!!!!!!!!!!!!!!!!!!!XVWTPLLKLNNNLNNSVcffcXSNG<66#####666;<BDGIKJEEA@@?@AEEEEEEIKKLLLNWekon!!!!!55554322!!!!!!!!!!!!!!!!!!!!!!!!!!!!!!!!!!!!!!!!!!!!!!!!!!!!!!!!!!!!!!!!!!!!!!!!!!!!!!!!!!!!!!!!!!!!!!!!!!!!!!!!!!!!!!!!!!!!!!!!!!!!!!!!!!!!!!!!!!!!!!!!!!!!!!!!!!!!!!!!!!!!!!!!!!!!!!!!!!!!!!!!!!!!!!!!!!!!!!",
"!!!!!!!!!!!!!!!!!!!gaYROLLLLLLLKNPSVcccXVSLG<;6#####666;;<CFGIE@=:9988899::=>?EEEIIKScVMH=!4334432211////0!!!!!!!!!!!!!!!!!!!!!!!!!!!!!!!!!!!!!!!!!!!!!!!!!!!!!!!!!!!!!!!!!!!!!!!!!!!!!!!!!!!!!!!!!!!!!!!!!!!!!!!!!!!!!!!!!!!!!!!!!!!!!!!!!!!!!!!!!!!!!!!!!!!!!!!!!!!!!!!!!!!!!!!!!!!!!!!!!!!!!!!!!!!!!!!!!!",
"!!!!!!!!!!!!!!!!!!!rhYROLLLLLKKJLPSXcXXVWPKG<;6#####666;;<CFEE@:7543322233558:>@AEEHMcMA>84322222210/..,,.//!!!!!!!!!!!!!!!!!!!!!!!!!!!!!!!!!!!!!!!!!!!!!!!!!!!!!!!!!!!!!!!!!!!!!!!!!!!!!!!!!!!!!!!!!!!!!!!!!!!!!!!!!!!!!!!!!!!!!!!!!!!!!!!!!!!!!!!!!!!!!!!!!!!!!!!!!!!!!!!!!!!!!!!!!!!!!!!!!!!!!!!!!!!!!!!!",
"!!!!!!!!!!!!!!!!!!!tkZQOLLKKKJKLPSVXcXVVWRNIC;66#####66;<BDEE@=8520/.,,,..023578:=>@HMA>9522222210//.,,++,./0!!!!!!!!!!!!!!!!!!!!!!!!!!!!!!!!!!!!!!!!!!!!!!!!!!!!!!!!!!!!!!!!!!!!!!!!!!!!!!!!!!!!!!!!!!!!!!!!!!!!!!!!!!!!!!!!!!!!!!!!!!!!!!!!!!!!!!!!!!!!!!!!!!!!!!!!!!!!!!!!!!!!!!!!!!!!!!!!!!!!!!!!!!!!!!!",
"!!!!!!!!!!!!!!!!!!!tlZQOLKJJJJLPSXcffXVVVVRNFB;66####66;<CDEA>:731,+))))))+,.0124578=@=954222110//.,,+))*+,//0!!!!!!!!!!!!!!!!!!!!!!!!!!!!!!!!!!!!!!!!!!!!!!!!!!!!!!!!!!!!!!!!!!!!!!!!!!!!!!!!!!!!!!!!!!!!!!!!!!!!!!!!!!!!!!!!!!!!!!!!!!!!!!!!!!!!!!!!!!!!!!!!!!!!!!!!!!!!!!!!!!!!!!!!!!!!!!!!!!!!!!!!!!!!!!",
"!!!!!!!!!!!!!!!!!!!vl[ROLKJIJJNSXfmffXVVXVVSKFB;66###66;BDEE@=852/+'%$$$$$$$&'),.0245975321110//,,++*))))+,.//11!!!!!!!!!!!!!!!!!!!!!!!!!!!!!!!!!!!!!!!!!!!!!!!!!!!!!!!!!!!!!!!!!!!!!!!!!!!!!!!!!!!!!!!!!!!!!!!!!!!!!!!!!!!!!!!!!!!!!!!!!!!!!!!!!!!!!!!!!!!!!!!!!!!!!!!!!!!!!!!!!!!!!!!!!!!!!!!!!!!!!!!!!!!!",
"!!!!!!!!!!!!!!!!!!!wr`TQNKJJKLRVcffcXXVVXXVVPKFB;6####66<DEHA=8541.,)%$$$$$$$&')+,/02321/..,,,++)))))))))++,.//11!!!!!!!!!!!!!!!!!!!!!!!!!!!!!!!!!!!!!!!!!!!!!!!!!!!!!!!!!!!!!!!!!!!!!!!!!!!!!!!!!!!!!!!!!!!!!!!!!!!!!!!!!!!!!!!!!!!!!!!!!!!!!!!!!!!!!!!!!!!!!!!!!!!!!!!!!!!!!!!!!!!!!!!!!!!!!!!!!!!!!!!!!!!",
"!!!!!!!!!!!!!!!!!!!wrbYROLKKLPVcfmfcVVVVXXXXVTNIC;6####6;CEHA=85531/+'%$$$$$$$$'')++++++)))'''%$$$$&')*****+,./0122!!!!!!!!!!!!!!!!!!!!!!!!!!!!!!!!!!!!!!!!!!!!!!!!!!!!!!!!!!!!!!!!!!!!!!!!!!!!!!!!!!!!!!!!!!!!!!!!!!!!!!!!!!!!!!!!!!!!!!!!!!!!!!!!!!!!!!!!!!!!!!!!!!!!!!!!!!!!!!!!!!!!!!!!!!!!!!!!!!!!!!!!!",
"!!!!!!!!!!!!!!!!!!!wse[TOONOQTXcffcXVVVVXXXXVTPJD;6####6;CEHA>985431.,)''%%%$$$%'')))))''''''&%$$$')+,,,,+))*+,//1122!!!!!!!!!!!!!!!!!!!!!!!!!!!!!!!!!!!!!!!!!!!!!!!!!!!!!!!!!!!!!!!!!!!!!!!!!!!!!!!!!!!!!!!!!!!!!!!!!!!!!!!!!!!!!!!!!!!!!!!!!!!!!!!!!!!!!!!!!!!!!!!!!!!!!!!!!!!!!!!!!!!!!!!!!!!!!!!!!!!!!!!",
"!!!!!!!!!!!!!!!!!!!!sj`TOQQTY[acccXXVVVVVXXXVTPKD;6####6;CEMH@=985421/,*)''&%$$%%''''''''''''&%$$$)+./00.,)'')+,//11222!!!!!!!!!!!!!!!!!!!!!!!!!!!!!!!!!!!!!!!!!!!!!!!!!!!!!!!!!!!!!!!!!!!!!!!!!!!!!!!!!!!!!!!!!!!!!!!!!!!!!!!!!!!!!!!!!!!!!!!!!!!!!!!!!!!!!!!!!!!!!!!!!!!!!!!!!!!!!!!!!!!!!!!!!!!!!!!!!!!!!",
"!!!!!!!!!!!!!!!!!!!!!kdYRTW[accccXXXVVWVVXXVVSPLF<66##66<DIMHA>:8854310.,+*))'''''))))''''''''&&''+.01110.)'%')*,//01222!!!!!!!!!!!!!!!!!!!!!!!!!!!!!!!!!!!!!!!!!!!!!!!!!!!!!!!!!!!!!!!!!!!!!!!!!!!!!!!!!!!!!!!!!!!!!!!!!!!!!!!!!!!!!!!!!!!!!!!!!!!!!!!!!!!!!!!!!!!!!!!!!!!!!!!!!!!!!!!!!!!!!!!!!!!!!!!!!!!!",
"!!!!!!!!!!!!!!!!!!!!!!lb[^degigcaXVVVVVVXXVVVWRNF<;6666;BILRMA@=:85543210/.,,+***++++++++++*))'')+.012321/+)%$%')+,/012222!!!!!!!!!!!!!!!!!!!!!!!!!!!!!!!!!!!!!!!!!!!!!!!!!!!!!!!!!!!!!!!!!!!!!!!!!!!!!!!!!!!!!!!!!!!!!!!!!!!!!!!!!!!!!!!!!!!!!!!!!!!!!!!!!!!!!!!!!!!!!!!!!!!!!!!!!!!!!!!!!!!!!!!!!!!!!!!!!!",
"!!!!!!!!!!!!!!!!!!!!!!!ljknnpngcXVVVXVXXXVVVVVRNGB;66;<CFLQRMHA@=98555422100/.,,,,,...,,,,,,++*+,.02344320,)%$$$')+,/0112222!!!!!!!!!!!!!!!!!!!!!!!!!!!!!!!!!!!!!!!!!!!!!!!!!!!!!!!!!!!!!!!!!!!!!!!!!!!!!!!!!!!!!!!!!!!!!!!!!!!!!!!!!!!!!!!!!!!!!!!!!!!!!!!!!!!!!!!!!!!!!!!!!!!!!!!!!!!!!!!!!!!!!!!!!!!!!!!!",
"!!!!!!!!!!!!!!!!!!!!!!!khinpppigcXXXVVVVVVVSWVRLGB<<<BFJLQQOKHA@>:988554322110/////////////.,../1345554320,+'''''')+,//011222!!!!!!!!!!!!!!!!!!!!!!!!!!!!!!!!!!!!!!!!!!!!!!!!!!!!!!!!!!!!!!!!!!!!!!!!!!!!!!!!!!!!!!!!!!!!!!!!!!!!!!!!!!!!!!!!!!!!!!!!!!!!!!!!!!!!!!!!!!!!!!!!!!!!!!!!!!!!!!!!!!!!!!!!!!!!!!!",
"!!!!!!!!!!!!!!!!!!!!!!!!gippppngccXXVVVVVVTSSVPKFCBCFLW_ZWOKJHHA@=:988555433222111111111000/./125588755320.,*))'&$&'),//0112222!!!!!!!!!!!!!!!!!!!!!!!!!!!!!!!!!!!!!!!!!!!!!!!!!!!!!!!!!!!!!!!!!!!!!!!!!!!!!!!!!!!!!!!!!!!!!!!!!!!!!!!!!!!!!!!!!!!!!!!!!!!!!!!!!!!!!!!!!!!!!!!!!!!!!!!!!!!!!!!!!!!!!!!!!!!!!",
"!!!!!!!!!!!!!!!!!!!!!!!!ggmmmmmmffcXXXVVVSSRTWPLIFDIOTb_QJGFFIHAA@=:98885544432222223334444323458999854321/.,++*)''')+,.//0112222!!!!!!!!!!!!!!!!!!!!!!!!!!!!!!!!!!!!!!!!!!!!!!!!!!!!!!!!!!!!!!!!!!!!!!!!!!!!!!!!!!!!!!!!!!!!!!!!!!!!!!!!!!!!!!!!!!!!!!!!!!!!!!!!!!!!!!!!!!!!!!!!!!!!!!!!!!!!!!!!!!!!!!!!!!!",
"!!!!!!!!!!!!!!!!!!!!!!!!!fffccfmmfffcXVVSSRRTTPNKKKQY`h[JCCCDFIHHA@=:998855544444444557888875889:=::8543210/..,,+))))))+,,//11222122458899!!!!!!!!!!!!!!!!!!!!!!!!!!!!!!!!!!!!!!!!!!!!!!!!!!!!!!!!!!!!!!!!!!!!!!!!!!!!!!!!!!!!!!!!!!!!!!!!!!!!!!!!!!!!!!!!!!!!!!!!!!!!!!!!!!!!!!!!!!!!!!!!!!!!!!!!!!!!!!!!!!",
"!!!!!!!!!!!!!!!!!!!!!!!!!fccccfmmmmffcXVSRRRRRRNNOQYe^WKD<<BCDGIHA@@==:9988555555555889:::::9:==>@=:85442210//.,,+++*))))+,//001112589=>@AAHS!!!!!!!!!!!!!!!!!!!!!!!!!!!!!!!!!!!!!!!!!!!!!!!!!!!!!!!!!!!!!!!!!!!!!!!!!!!!!!!!!!!!!!!!!!!!!!!!!!!!!!!!!!!!!!!!!!!!!!!!!!!!!!!!!!!!!!!!!!!!!!!!!!!!!!!!!!!!!!!",
"!!!!!!!!!!!!!!!!!!!!!!!!!!cccccfmmmmmfXVSSTTRRQONPQ[hRFB;;;<BDFGJHAA@==::998888888889:=>>@@>>>@@@>=:87544211//...,,,,+))))++,.//0248:@HHMSUUfmfUSUmq!!!!!!!!!!!!!!!!!!!!!!!!!!!!!!!!!!!!!!!!!!!!!!!!!!!!!!!!!!!!!!!!!!!!!!!!!!!!!!!!!!!!!!!!!!!!!!!!!!!!!!!!!!!!!!!!!!!!!!!!!!!!!!!!!!!!!!!!!!!!!!!!!!!!!!!!",
"!!!!!!!!!!!!!!!!!!!!!!!!!!XXXXccfmqqmfcXWTTTRRQOPPRXiLB;666;<BDGJJHA@@>==::::99:::::=>@@AAAAAAAA@>=:985553210//..//..,+)))))*+,/1259@HSUfmmmmmfUSUmq!!!!!!!!!!!!!!!!!!!!!!!!!!!!!!!!!!!!!!!!!!!!!!!!!!!!!!!!!!!!!!!!!!!!!!!!!!!!!!!!!!!!!!!!!!!!!!!!!!!!!!!!!!!!!!!!!!!!!!!!!!!!!!!!!!!!!!!!!!!!!!!!!!!!!!!!",
"!!!!!!!!!!!!!!!!!!!!!!!!!!!cXXXXfmqqqfcXVTRRPNLLNPTVaKC;66666<DGKKMHAA@@@>>>>==>>>>>@@@@AAAAAAAA@>=::887543210////./..,,+*)')),038:@HMUfffmmmmmfXmqu!!!!!!!!!!!!!!!!!!!!!!!!!!!!!!!!!!!!!!!!!!!!!!!!!!!!!!!!!!!!!!!!!!!!!!!!!!!!!!!!!!!!!!!!!!!!!!!!!!!!!!!!!!!!!!!!!!!!!!!!!!!!!!!!!!!!!!!!!!!!!!!!!!!!!!!!",
"!!!!!!!!!!!!!!!!!!!!!!!!!!!!cXXXfmqqqmcXVTRQLJJJLPVVSKD<66##6;DGLNNMHHAAAA@@@@@@AAAAA@AAAAAAAAAA@>=:::9875432100/..////.,+)''',15=AHUUffffffmppppuw!!!!!!!!!!!!!!!!!!!!!!!!!!!!!!!!!!!!!!!!!!!!!!!!!!!!!!!!!!!!!!!!!!!!!!!!!!!!!!!!!!!!!!!!!!!!!!!!!!!!!!!!!!!!!!!!!!!!!!!!!!!!!!!!!!!!!!!!!!!!!!!!!!!!!!!!!",
"!!!!!!!!!!!!!!!!!!!!!!!!!!!!XXXXcfmmmfcXVTRRPNNNPVXXVLEB;66#6;DGJLQPMHHAAAAAAAAAAAAAAAAAAAAAAAAA@>==:::8755432210///////.,,+,/48>HMUffcXXVacippsstuw!!!!!!!!!!!!!!!!!!!!!!!!!!!!!!!!!!!!!!!!!!!!!!!!!!!!!!!!!!!!!!!!!!!!!!!!!!!!!!!!!!!!!!!!!!!!!!!!!!!!!!!!!!!!!!!!!!!!!!!!!!!!!!!!!!!!!!!!!!!!!!!!!!!!!!!!",
"!!!!!!!!!!!!!!!!!!!!!!!!!!!!UUXXXcffffcXVWTRRRTTYcmfcPFC<;666<FFILRRSMMHHHHHHHHHHHHHAAAAAAAAAAAA@>>==::98775543211000/////./24:AMcpppgaVSSVairtttsrsvw!!!!!!!!!!!!!!!!!!!!!!!!!!!!!!!!!!!!!!!!!!!!!!!!!!!!!!!!!!!!!!!!!!!!!!!!!!!!!!!!!!!!!!!!!!!!!!!!!!!!!!!!!!!!!!!!!!!!!!!!!!!!!!!!!!!!!!!!!!!!!!!!!!!!!!",
"!!!!!!!!!!!!!!!!!!!!!!!!!!!!!MMMSSUUUUUVVWTRWYZ[^gmfcSIDDC;6;<CDFJOQPMMMMHHHHHHHHHHHHHHHHAAAHAAA@@@>>==:988755432211110001137:ASfuwsiaYTPPTZdlrstsrstvvw!!!!!!!!!!!!!!!!!!!!!!!!!!!!!!!!!!!!!!!!!!!!!!!!!!!!!!!!!!!!!!!!!!!!!!!!!!!!!!!!!!!!!!!!!!!!!!!!!!!!!!!!!!!!!!!!!!!!!!!!!!!!!!!!!!!!!!!!!!!!!!!!!!!!",
"!!!!!!!!!!!!!!!!!!!!!!!!!!!!@@AAHHHHHHMMSRPPRZZ[`bgccSJGGGB;;;<<BDJKLNSSMMHHHHHHHHHHHHHHHHHHHHHAAA@@@>>=::987754433322211258>HMfnnj^WRPPPPQRY_elsttttttvw!!!!!!!!!!!!!!!!!!!!!!!!!!!!!!!!!!!!!!!!!!!!!!!!!!!!!!!!!!!!!!!!!!!!!!!!!!!!!!!!!!!!!!!!!!!!!!!!!!!!!!!!!!!!!!!!!!!!!!!!!!!!!!!!!!!!!!!!!!!!!!!!!!!",
"!!!!!!!!!!!!!!!!!!!!!!!!!!!!99::>@A@@AAHMMNLRY[]``b^XSLJLND;;66;<CFIJLRVSMMMMHHHHHHHHHMSUSSSMMHHHAAAA@@>=::9877555544433258>HfmtodYPLKKLOQONQW]ertwvttttv!!!!!!!!!!!!!!!!!!!!!!!!!!!!!!!!!!!!!!!!!!!!!!!!!!!!!!!!!!!!!!!!!!!!!!!!!!!!!!!!!!!!!!!!!!!!!!!!!!!!!!!!!!!!!!!!!!!!!!!!!!!!!!!!!!!!!!!!!!!!!!!!!!!",
"!!!!!!!!!!!!!!!!!!!!!!!!!!!9855578999=>@AHEHMSY[````^TNLNPIC<;6;<CFIJKNPSMMSSMMMMMMMMMSUUUUUUUSMMHHHAA@@>=::98887755555558>HMggh]TNKJJJKLLKJLQWdlsvvvvvvvw!!!!!!!!!!!!!!!!!!!!!!!!!!!!!!!!!!!!!!!!!!!!!!!!!!!!!!!!!!!!!!!!!!!!!!!!!!!!!!!!!!!!!!!!!!!!!!!!!!!!!!!!!!!!!!!!!!!!!!!!!!!!!!!!!!!!!!!!!!!!!!!!!!",
"!!!!!!!!!!!!!!!!!!!!!!!!!!=85321234558:=>@@AHSV[````]YRPQQOLC;6;<BFIIJJLNMSSSSMMSSSSSSUffmmmmfccUUMHHHA@>>:::999988877578=HScndYPKIGGGIJKKIFIKR]krtvvwwwvv!!!!!!!!!!!!!!!!!!!!!!!!!!!!!!!!!!!!!!!!!!!!!!!!!!!!!!!!!!!!!!!!!!!!!!!!!!!!!!!!!!!!!!!!!!!!!!!!!!!!!!!!!!!!!!!!!!!!!!!!!!!!!!!!!!!!!!!!!!!!!!!!!!",
"!!!!!!!!!!!!!!!!!!!!!!!!!!=95444455789==>>>>AHMV^```]ZWTTTRQGB<<BDFGIIIJKLNRSPMSVUXXXVXcggmmmmmfffUUMHHA@@==:::::9888889=AMXcdYRLIFFDDFGIIGGIKOT_jrtvww!ww!!!!!!!!!!!!!!!!!!!!!!!!!!!!!!!!!!!!!!!!!!!!!!!!!!!!!!!!!!!!!!!!!!!!!!!!!!!!!!!!!!!!!!!!!!!!!!!!!!!!!!!!!!!!!!!!!!!!!!!!!!!!!!!!!!!!!!!!!!!!!!!!!!",
"!!!!!!!!!!!!!!!!!!!!!!!!!!=:857889:::=>@@>==@AHSX^``][XVVYTRLFDDDFFFGIIIJJLOQPPT[ahieaaacggmmmmmmmffUUHHA@>=::::::99888>AHUcXTRNJFDCBCCDFFGIJKLOT]lrvww!!!!!!!!!!!!!!!!!!!!!!!!!!!!!!!!!!!!!!!!!!!!!!!!!!!!!!!!!!!!!!!!!!!!!!!!!!!!!!!!!!!!!!!!!!!!!!!!!!!!!!!!!!!!!!!!!!!!!!!!!!!!!!!!!!!!!!!!!!!!!!!!!!!!!",
"!!!!!!!!!!!!!!!!!!!!!!!!!!=:989::>>>>@@@@@=:>AHSXaba^accXXYYROLJGFFFFGGFGIJLOQRYbkrslebaaccgmmmmppmmfUUHHA@>==:::::99::AHSXaWPNKGDCBBBBCDFGJJJKKOT_ksvv!!!!!!!!!!!!!!!!!!!!!!!!!!!!!!!!!!!!!!!!!!!!!!!!!!!!!!!!!!!!!!!!!!!!!!!!!!!!!!!!!!!!!!!!!!!!!!!!!!!!!!!!!!!!!!!!!!!!!!!!!!!!!!!!!!!!!!!!!!!!!!!!!!!!!",
"!!!!!!!!!!!!!!!!!!!!!!!!!!=::::=>@@@AAAAA@>:>AHSUcccacmmffcXXVRLIFDDFFFFFGJLORY`jrvwrhb]]^acggmmmmmmffUUMHA@>==::::::>@HSUXYRNKIFCBBBBBCDFGIIIIJKOR[jrv!!!!!!!w!!!!!!!!!!!!!!!!!!!!!!!!!!!!!!!!!!!!!!!!!!!!!!!!!!!!!!!!!!!!!!!!!!!!!!!!!!!!!!!!!!!!!!!!!!!!!!!!!!!!!!!!!!!!!!!!!!!!!!!!!!!!!!!!!!!!!!!!!!!!!",
"!!!!!!!!!!!!!!!!!!!!!!!!!!::==>@@@AAAAAAA@>=@AHMUUUXXcfmmffUXfXPIFDDDDDDFFILQW`elswxshb[[]]acccgccgnmmffUMHA@>=:::::=AHMcXWRPLIFDBBB<BBDDFGIGFGGIJKR]kt!!!!!!!vw!!!!!!!!!!!!!!!!!!!!!!!!!!!!!!!!!!!!!!!!!!!!!!!!!!!!!!!!!!!!!!!!!!!!!!!!!!!!!!!!!!!!!!!!!!!!!!!!!!!!!!!!!!!!!!!!!!!!!!!!!!!!!!!!!!!!!!!!!!!!",
"!!!!!!!!!!!!!!!!!!!!!!!!!!!===>@AAAHHHHAA@>=>@AAHAAAAAHHAAAAAHHMKIFDDDDDFILQZbostttsleb][[[]^aaaaacgmmmffUMHA@>=====@HMSXVTQNKGDDCCBBBBBCDFGFDDFIJKOQYjtv!!!!!www!!!!!!!!!!!!!!!!!!!!!!!!!!!!!!!!!!!!!!!!!!!!!!!!!!!!!!!!!!!!!!!!!!!!!!!!!!!!!!!!!!!!!!!!!!!!!!!!!!!!!!!!!!!!!!!!!!!!!!!!!!!!!!!!!!!!!!!!!!!",
"!!!!!!!!!!!!!!!!!!!!!!!!!!!!==>@AHHHHHHAA@>======:999::::999:>@HNJFDCCDDGJQZjswxxvrjeb`][YYY[[]]]^acipppmfUMHA@===>@AHUUVWROLJFCDDDDDB<BBCDFDCDFGIKKKQZksvw!!!!wvvw!!!!!!!!!!!!!!!!!!!!!!!!!!!!!!!!!!!!!!!!!!!!!!!!!!!!!!!!!!!!!!!!!!!!!!!!!!!!!!!!!!!!!!!!!!!!!!!!!!!!!!!!!!!!!!!!!!!!!!!!!!!!!!!!!!!!!!!!!",
"!!!!!!!!!!!!!!!!!!!!!!!!!!!!=>>@AAHHHAA@=:99999998577888755458:AMJJGFDFILRZjswyyxtj`bbb^]YYYYYZ[[^adinpppmfUHHA@@@AAHMUUVTQNKIFDDFFFDB<<<BCDDCDFIJKKJLR[_eeklstttvvw!!!!!!!!!!!!!!!!!!!!!!!!!!!!!!!!!!!!!!!!!!!!!!!!!!!!!!!!!!!!!!!!!!!!!!!!!!!!!!!!!!!!!!!!!!!!!!!!!!!!!!!!!!!!!!!!!!!!!!!!!!!!!!!!!!!!!!!!",
"!!!!!!!!!!!!!!!!!!!!!!!!!!!!!@>>@AAAA@=985555788854555754110125=HMNLIILQYdotxyzywrbZ`bbb^[YWWWYY[^ahinpppppfUHHAAAHHMUXVTROLJGGFFFFFFC<<<<BCDDFIJKLKJKOQQORTZ_jrvttvw!!!!!!!!!!!!!!!!!!!!!!!!!!!!!!!!!!!!!!!!!!!!!!!!!!!!!!!!!!!!!!!!!!!!!!!!!!!!!!!!!!!!!!!!!!!!!!!!!!!!!!!!!!!!!!!!!!!!!!!!!!!!!!!!!!!!!!!",
"!!!!!!!!!!!!!!!!!!!!!!!!!!!!!!>>@@A@@:9753223455542345431..,,.29AHSRNLR`ktwyyyzvl`WRYbdda]YYWWWY[^ahinpsuuupfUMHHHMUUccVTPNKIGGFFFFGFC<<;;<BCDFGJJKJJJKLKJKLQT[elrrttvw!!!!!!!!!!!!!!!!!!!!!!!!!!!!!!!!!!!!!!!!!!!!!!!!!!!!!!!!!!!!!!!!!!!!!!!!!!!!!!!!!!!!!!!!!!!!!!!!!!!!!!!!!!!!!!!!!!!!!!!!!!!!!!!!!!!!!",
"!!!!!!!!!!!!!!!!!!!!!!!!!!!!!!==@AA@@:854210011220/012210.,,,,08@HUVTR`rvxyyyxwjTOLNT`bbba^[YWTWY[aginppsssppffUffmmpmg[ROLJIFFFFFGFFC<<<;<<BCDFFFGIJJJJJJJIJNRTYdlrrlrsv!!!!!!!!!!!!!!!!!!!!!!!!!!!!!!!!!!!!!!!!!!!!!!!!!!!!!!!!!!!!!!!!!!!!!!!!!!!!!!!!!!!!!!!!!!!!!!!!!!!!!!!!!!!!!!!!!!!!!!!!!!!!!!!!!!!",
"!!!!!!!!!!!!!!!!!!!!!!!!!!!!!!!=@AA@@954310..,...,+,.....,,,+).5>HUfX^owyzzywtoTJGGJQ]`bbed^YWTTWZ^eippppssstvuuxzyyxtl]RNKIGFFDFFGFFCB<<<;;<BCCDDDFJJJJJKIFGJLLNWjljeejt!!!!!!!!!!!!!!!!!!!!!!!!!!!!!!!!!!!!!!!!!!!!!!!!!!!!!!!!!!!!!!!!!!!!!!!!!!!!!!!!!!!!!!!!!!!!!!!!!!!!!!!!!!!!!!!!!!!!!!!!!!!!!!!!!!!",
"!!!!!!!!!!!!!!!!!!!!!!!!!!!!!!=@AAAA>954200/.,,........,,,++*),5=Hfmfgswxywl`WQJDDDDJRW[`hkb[YTTTW[agnppprrssttuxyyyxtk[ROKJGFFDDFFDDBB<<<;;<<BBCCCDFIJJKKKJKLNNORY_eklrtv!!!!!!!!!!!!!!!!!!!!!!!!!!!!!!!!!!!!!!!!!!!!!!!!!!!!!!!!!!!!!!!!!!!!!!!!!!!!!!!!!!!!!!!!!!!!!!!!!!!!!!!!!!!!!!!!!!!!!!!!!!!!!!!!!!",
"!!!!!!!!!!!!!!!!!!!!!!!!!!!!!5=AAHAA>9531000/,,,./00/.,+++**)',5=HUqqquvwxoTLIFDBBBBFLQW`jre^ZWTRRW[agnpppnnrrstvxxyxtk]ROKJGFDDDDDCBB<<<<<;;;<<BBBCDFJKKLOQQOOOOQQTdrrttst!!!!!!!!!!!!!!!!!!!!!!!!!!!!!!!!!!!!!!!!!!!!!!!!!!!!!!!!!!!!!!!!!!!!!!!!!!!!!!!!!!!!!!!!!!!!!!!!!!!!!!!!!!!!!!!!!!!!!!!!!!!!!!!!!",
"!!!!!!!!!!!!!!!!!!!!!!!!!!!!!8>AAAA@=8520000.,,,.010/.,,,++))',4:AUqquutrkYJFDCB<<<BDILR]jrjd]YTRRTY]cgnppnnnorstwxyxtk]ROLJIGFDDDDCBB<<<<<;;;;<<<BBCFIKLOQTTRQQQQORYdjrrsttv!!!!!!!!!!!!!!!!!!!!!!!!!!!!!!!!!!!!!!!!!!!!!!!!!!!!!!!!!!!!!!!!!!!!!!!!!!!!!!!!!!!!!!!!!!!!!!!!!!!!!!!!!!!!!!!!!!!!!!!!!!!!!!!",
"!!!!!!!!!!!!!!!!!!!!!!!!!!!!!@@AA@>=:531000/.,,,.0100/..,,+)''+28@UfqxunaTKDBB<<<<<<CDIQZeokgaZWTRRTY^cipppnnorrstwxxsj]TQLKIGFFDCCCCB<<<<<;;;;;<<BBCDILOQTYYYTRQQQQQR[erttrlt!!!!!!!!!!!!!!!!!!!!!!!!!!!!!!!!!!!!!!!!!!!!!!!!!!!!!!!!!!!!!!!!!!!!!!!!!!!!!!!!!!!!!!!!!!!!!!!!!!!!!!!!!!!!!!!!!!!!!!!!!!!!!!",
"!!!!!!!!!!!!!!!!!!!!!!!!!!!!!HA@@>=:85100/..,,,,,/1000/...+)'',27@MfqxpaRKFC<<<<<<<<BCFOYdliia[YTRRRTZagnpppnorrssuxwsk_TQNKJIGGDCBCCB<<<<<;;;;;;<BBBDGJLQRTTWTQOLLLKLRYestlkrv!!!!!!!!!!!!!!!!!!!!!!!!!!!!!!!!!!!!!!!!!!!!!!!!!!!!!!!!!!!!!!!!!!!!!!!!!!!!!!!!!!!!!!!!!!!!!!!!!!!!!!!!!!!!!!!!!!!!!!!!!!!!!",
"!!!!!!!!!!!!!!!!!!!!!!!!!!!!!HA@>>=98410...,,,,,,./////...,))),28@MfqqXNJFCB<<<<<<<<<BFLW`klle[YWTRRTW[agmppprrrrrtvuso_WQNKJIIIFDCBBB<<<<<;;;;;;;<<BCDFGIJKLOOJGGFGJKKLTerstttv!!!!!!!!!!!!!!!!!!!!!!!!!!!!!!!!!!!!!!!!!!!!!!!!!!!!!!!!!!!!!!!!!!!!!!!!!!!!!!!!!!!!!!!!!!!!!!!!!!!!!!!!!!!!!!!!!!!!!!!!!!!!",
"!!!!!!!!!!!!!!!!!!!!!!!!!!!!!HA@>=:9740..,,+++++,,....///.,))*.38@UfqpRIDCB<<<<<BB<<<<DKR]hlrh]YYTRQRTWXcgmpprrrrrstttsdWQNKKJJJGDCBBB<<<<;;;;;;;;;<<BCDDDDFGJJFCCCDGJIFLYkvxvrtw!!!!!!!!!!!!!!!!!!!!!!!!!!!!!!!!!!!!!!!!!!!!!!!!!!!!!!!!!!!!!!!!!!!!!!!!!!!!!!!!!!!!!!!!!!!!!!!!!!!!!!!!!!!!!!!!!!!!!!!!!!!",
"!!!!!!!!!!!!!!!!!!!!!!!!!!!!!HA@>=:8741/.,,+++++,,,,..///.,)),05:AUmmcNFCBB<<<<<<<<<<<CIQZelsh^YWTTRRRTVXcmmpprrrrsstttk_YROLJJJGDCBBB<<<;;;;;;;;;;;<<BCCDDDDFGFFFFFFFFGKQYjsstvw!!!!!!!!!!!!!!!!!!!!!!!!!!!!!!!!!!!!!!!!!!!!!!!!!!!!!!!!!!!!!!!!!!!!!!!!!!!!!!!!!!!!!!!!!!!!!!!!!!!!!!!!!!!!!!!!!!!!!!!!!!!",
"!!!!!!!!!!!!!!!!!!!!!!!!!!!!!HA@>>:97420.,,,,++++,,,,./0/.+)+.28@HfmgYJDCB<BB<<<<<<<<<CGNWelsk^YWTTTRRRWVacgmpnrrssrsturk_YRNJJJGDCB<<<<<;;;;;;;;;;;;<<BBCCBCDFGIJKIDCDGJKQYervvvww!!!!!!!!!!!!!!!!!!!!!!!!!!!!!!!!!!!!!!!!!!!!!!!!!!!!!!!!!!!!!!!!!!!!!!!!!!!!!!!!!!!!!!!!!!!!!!!!!!!!!!!!!!!!!!!!!!!!!!!!!",
"!!!!!!!!!!!!!!!!!!!!!!!!!!!!!HA@>=:85420.,,,,+++++,,,....,+),15=HSmmaRJDCB<<<<<<<<<<<<CFLTbksh]WTRRRRPRTYXacgmnnrrrrstusoh_YQKKJGDCBB<<<<<;;;;;;;;;;;;<<BBBBCDDFIJKIDCDDFIKQWY]jtvvw!!!!!!!!!!!!!!!!!!!!!!!!!!!!!!!!!!!!!!!!!!!!!!!!!!!!!!!!!!!!!!!!!!!!!!!!!!!!!!!!!!!!!!!!!!!!!!!!!!!!!!!!!!!!!!!!!!!!!!!!",
"!!!!!!!!!!!!!!!!!!!!!!!!!!!!!HA>>=:854310..,,+++++,,..,,+)))/48@MUmmXQJFCB<<<<<<<<<<<<CFJR`hreZTRQQPPPPRTY^acggiorrsttutsnh]RNKIFCBBBBB<<<;;;;;;;;;;;;;<<BBBBCDDFGJIGFCBCFIKLKJRlvvwww!!!!!!!!!!!!!!!!!!!!!!!!!!!!!!!!!!!!!!!!!!!!!!!!!!!!!!!!!!!!!!!!!!!!!!!!!!!!!!!!!!!!!!!!!!!!!!!!!!!!!!!!!!!!!!!!!!!!!!",
"!!!!!!!!!!!!!!!!!!!!!!!!!!!!!HA>==:8543100/..,,,+++,.,+*)'+.28>HUfqfXQKFDBB<<<<<<<<<<BDFJQZdlbWRQOOPPPPQRTVXcccgilrrtttuurkdYQKIDBBBBBBB<<;;;;;;;;;;;;;;;<<BBBCDDFGIIGD<BDFGIFFKZkrsttw!!!!!!!!!!!!!!!!!!!!!!!!!!!!!!!!!!!!!!!!!!!!!!!!!!!!!!!!!!!!!!!!!!!!!!!!!!!!!!!!!!!!!!!!!!!!!!!!!!!!!!!!!!!!!!!!!!!!!",
"!!!!!!!!!!!!!!!!!!!!!!!!!!!!!HA>==:8542211100...,,++,+)'''/38>AMffqmcVNIFCBBB<<<<<<<BCDGJOT[d]WRQONNNPPPQTWVXcccghkrrtttupid]WNIDB<<<BBB<<;;;;;;;;;;;;;;;;<<BBBBDDGIIIDBCCDFFFFIKOT[esvv!!!!!!!!!!!!!!!!!!!!!!!!!!!!!!!!!!!!!!!!!!!!!!!!!!!!!!!!!!!!!!!!!!!!!!!!!!!!!!!!!!!!!!!!!!!!!!!!!!!!!!!!!!!!!!!!!!!!",
"!!!!!!!!!!!!!!!!!!!!!!!!!!!!!HA>=>:853223222100..,++*)&%')28>HUUmqqmmcRKGDCCBB<<<<<<CDFIKNQT[YTRQOLLNPPPPRTWXXaccchorsttusneb^QJD<;<<BBB<<<;;;;;;;;;;;;;;;;<<<<BCDFGIIFDDCCDDFGFDFINZrttv!!!!!!!!!!!!!!!!!!!!!!!!!!!!!!!!!!!!!!!!!!!!!!!!!!!!!!!!!!!!!!!!!!!!!!!!!!!!!!!!!!!!!!!!!!!!!!!!!!!!!!!!!!!!!!!!!!!",
"!!!!!!!!!!!!!!!!!!!!!!!!!!!!!H@>=>=9754344433210.,,++*)*.27=AMUfqmmfffSPKIFFDDDDDDDFFIJJLLOQTTRRQONLNNPPPPRTVXXaccgilrstutrlhdYQGB<<<BBB<<;;;;;;;;;;;;;;;;;;<<BBCDFGIIGFFFFGGIIIIIIJRkrtvww!!!!!!!!!!!!!!!!!!!!!!!!!!!!!!!!!!!!!!!!!!!!!!!!!!!!!!!!!!!!!!!!!!!!!!!!!!!!!!!!!!!!!!!!!!!!!!!!!!!!!!!!!!!!!!!!!",
"!!!!!!!!!!!!!!!!!!!!!!!!!!!!!!@>=>=:9855555544210.,,,++.38=AHUfmqmffffUSROLJJJJKLLOQONLLLLLOQQRRQQOLLNNPPPPTYXXaaacgilrtvutsojd^LDB<<BBBB<;;;;;;;;;;;;;;;;;;;<BCDDFGIIIJJJJLLKJKOLIGO_lvwtsv!!!!!!!!!!!!!!!!!!!!!!!!!!!!!!!!!!!!!!!!!!!!!!!!!!!!!!!!!!!!!!!!!!!!!!!!!!!!!!!!!!!!!!!!!!!!!!!!!!!!!!!!!!!!!!!!",
"!!!!!!!!!!!!!!!!!!!!!!!!!!!!!!@>>>==:88888888755432221125:>AHMUUUUUMMHHHHEEEEEINT[``WQKGGIJKKLOQQPNLLNNNPPPRTY[XXaacgjostvutrlhdRIDCBCCBB<<;;;;;;;;;;;;;;;;;;<BBCFGIJJJKKKKNOONQRQLKQ]lvxvtttv!!!!!!!!!!!!!!!!!!!!!!!!!!!!!!!!!!!!!!!!!!!!!!!!!!!!!!!!!!!!!!!!!!!!!!!!!!!!!!!!!!!!!!!!!!!!!!!!!!!!!!!!!!!!!!",
"!!!!!!!!!!!!!!!!!!!!!!!!!!!!!!!>>====:9::::::::9988888788:=>AAHHMHHA@>>===::??@HXnok]RGBBDGGGJLOOONNNNNNPPPPRTV^XXaaahjrstuusojbWOJIFFDCBB<;;<;;;;;;;;;;;;;;;<<BBFJKKKKKKKKLNQRTYYZ[ZZkwyxvskklsw!!!!!!!!!!!!!!!!!!!!!!!!!!!!!!!!!!!!!!!!!!!!!!!!!!!!!!!!!!!!!!!!!!!!!!!!!!!!!!!!!!!!!!!!!!!!!!!!!!!!!!!!!!!",
"!!!!!!!!!!!!!!!!!!!!!!!!!!!!!!!!>=======>>>@@@>>>>>>>=:::9::=>@AAA@>9885555578:AUppn[OD;;BDFFGJKLLNNNNNNPPPPPRWVXXXXXahkrstutrkb[WROKGFDCB<<<<;;;;<;;;;;;;;;;<<BBDJLLLLLLKKLNRYZ[dlre[kwyyxseeeks!!!!!!!!!!!!!!!!!!!!!!!!!!!!!!!!!!!!!!!!!!!!!!!!!!!!!!!!!!!!!!!!!!!!!!!!!!!!!!!!!!!!!!!!!!!!!!!!!!!!!!!!!!!",
"!!!!!!!!!!!!!!!!!!!!!!!!!!!!!!!!!======>>@@@@@@@@@@@@>:98755789:::9853211001345=HSfcLD;66<CCDFGJKLLNNNNNPPPPPPRWVXXXXaahlrttutoe^ZTQLIFFFDCB<<<<<<<<;;;;;;;;<<BBBDGJLONLNOOQRW]__ertrkrvxyywsljelrt!!!!!!!!!!!!!!!!!!!!!!!!!!!!!!!!!!!!!!!!!!!!!!!!!!!!!!!!!!!!!!!!!!!!!!!!!!!!!!!!!!!!!!!!!!!!!!!!!!!!!!!!!",
"!!!!!!!!!!!!!!!!!!!!!!!!!!!!!!!!!!====>>@@@@@@@@@@@@@>=97431234555420.,*'%'+,/17@HSVF<666;<BCDFGJKLNNNNNNPPPNPQTY[XXXX^ahlrtvurjb]WQLJFFIGFCB<<<<<<<<;;;;;;;<<BB<BDGKQOLOQRWZ]deelrttttsvxzyxtjdejr!!!!!!!!!!!!!!!!!!!!!!!!!!!!!!!!!!!!!!!!!!!!!!!!!!!!!!!!!!!!!!!!!!!!!!!!!!!!!!!!!!!!!!!!!!!!!!!!!!!!!!!!!",
"!!!!!!!!!!!!!!!!!!!!!!!!!!!!!!!!!!=>>>>>@@>>==:::::98777410/00122210/,+)'%'*,037:AMSC66#66<BBCDFIKKLNNNNNPPNNNPQTYVXXXXadhlstusrj`ZTQKIIIGFDCB<<<<<<<;;;;;;;;<<<<BCDGJKLORWY[]___deelsttvxxvrllkjerw!!!!!!!!!!!!!!!!!!!!!!!!!!!!!!!!!!!!!!!!!!!!!!!!!!!!!!!!!!!!!!!!!!!!!!!!!!!!!!!!!!!!!!!!!!!!!!!!!!!!!!!!",
"!!!!!!!!!!!!!!!!!!!!!!!!!!!!!!!!!>>>@@@@@@=::9875554223310.,,,,.//...,)&%%'),1558>HS<6##66<<BBDFGJKLNNPNNNNNLLNORWY[XXXaadjortture]YTPKJIIGFDB<<<<<<<<;;;;;;;;;<<<BBDFIKOTYZ]]][[YYYdrstvvtl_errkervw!!!!!!!!!!!!!!!!!!!!!!!!!!!!!!!!!!!!!!!!!!!!!!!!!!!!!!!!!!!!!!!!!!!!!!!!!!!!!!!!!!!!!!!!!!!!!!!!!!!!!!!",
"!!!!!!!!!!!!!!!!!!!!!!!!!!!!!!!!!>@@@@@@@@:987543210,.010,,**++,,,,,.,+''''),2557=HS<6###6;<BBCDFIKLOPPPPNNNLLLNQTWY[XXXXaehortvsld]YROKJIIGDBB<<<<<<<;;;;;;;;;<<<<BCFGJLQTWYYYYWTRRY_jrrrldY_lle_lvvv!!!!!!!!!!!!!!!!!!!!!!!!!!!!!!!!!!!!!!!!!!!!!!!!!!!!!!!!!!!!!!!!!!!!!!!!!!!!!!!!!!!!!!!!!!!!!!!!!!!!!!",
"!!!!!!!!!!!!!!!!!!!!!!!!!!!!!!!!!@@@@@AAA@955421/.,+)+..,+*)*+,,,,,,..,*****,2777=HS<6###6;<BBCDFIKOPQPPPPNNLLLLOQTWZ[XXXaachlsuusle[TQLJIIGDCBB<<<<<<<<<<;;;;;;<<<BDGIJJKNQTRRRRRQQQRYdeed]Y[ee]Yetvw!!!!!!!!!!!!!!!!!!!!!!!!!!!!!!!!!!!!!!!!!!!!!!!!!!!!!!!!!!!!!!!!!!!!!!!!!!!!!!!!!!!!!!!!!!!!!!!!!!!!!!",
"!!!!!!!!!!!!!!!!!!!!!!!!!!!!!!!!!@@@@@AAA>84320.+)''')*+*)))*,,,,,,../.,,,+*,2788>HS?6###66;BBBCFGKOQQQQPPNNLLLLNPRWYZ[XXXXaahotuusk`YROKIIGFCBBB<<<<<<<<<;;;;;;<<<BDGGIIGJKOOOOOOOONLQY][ZYYZ__YT_ltw!!!!!!!!!!!!!!!!!!!!!!!!!!!!!!!!!!!!!!!!!!!!!!!!!!!!!!!!!!!!!!!!!!!!!!!!!!!!!!!!!!!!!!!!!!!!!!!!!!!!!!",
"!!!!!!!!!!!!!!!!!!!!!!!!!!!!!!!!!@@@@@A@>:53220,)'&&'')))))*,,......//...,,*,258:@HMC;6###66<BBDDGJOQRRRQPPNLLLLNOQTWY[[XXX^^ahnstsle[TQKJJIFDDDCB<<<<<;<<;;;;;;;;;<BCDFFDFGIJKKKKLLLLQTTTRTY[__YTYYet!!!!!!!!!!!!!!!!!!!!!!!!!!!!!!!!!!!!!!!!!!!!!!!!!!!!!!!!!!!!!!!!!!!!!!!!!!!!!!!!!!!!!!!!!!!!!!!!!!!!!!",
"!!!!!!!!!!!!!!!!!!!!!!!!!!!!!!!!!@@@@@@>:85111.*&%$%'''''')+,.////000000.,,*,149@AHJDB6###66;<BDDFJOQRRRRRPNNLLLNNPRWYY[V[]][^cinssoj_WQLKJJIFFFDB<<<<;;;;;;;;;;;;;;<<BDDCCDDFIIIIJKKLOQQONR[___ZTQOYr!!!!!!!!!!!!!!!!!!!!!!!!!!!!!!!!!!!!!!!!!!!!!!!!!!!!!!!!!!!!!!!!!!!!!!!!!!!!!!!!!!!!!!!!!!!!!!!!!!!!!!",
"!!!!!!!!!!!!!!!!!!!!!!!!!!!!!!!!!@@@@@@=974111/+'%$%''''''*,,..//0000000.,+*,14:AHMKFC6####6;<CDDFILORRTTRQPNLLLNNPRWYYZV[^^]]acgnrrrh^WQNLKJIGGFDBB<<<;;;;;;;;;;;;;;<<BBBBBCDDDDDFGJOQQRRRQOLLLOQLJQetw!!!!!!!!!!!!!!!!!!!!!!!!!!!!!!!!!!!!!!!!!!!!!!!!!!!!!!!!!!!!!!!!!!!!!!!!!!!!!!!!!!!!!!!!!!!!!!!!!!!!",
"!!!!!!!!!!!!!!!!!!!!!!!!!!!!!!!!@@@@@@=:8542220,)&$%''&'''*,..../0100000.+))+14=HSMNIF;####66;BDDFIKOQRTTRRPNNLLLNPRWWYYZ[^^^]X^cgnsuoe]WQOLKKJGFFDBB<<<;;;;;<<<;;;;;;<<<<<<BBBBBBBDIQRRTYZNGFDFIKJGL[rv!!!!!!!!!!!!!!!!!!!!!!!!!!!!!!!!!!!!!!!!!!!!!!!!!!!!!!!!!!!!!!!!!!!!!!!!!!!!!!!!!!!!!!!!!!!!!!!!!!!!",
"!!!!!!!!!!!!!!!!!!!!!!!!!!!!!!!!A@@@@>:97531220,*'%&''''''*,.....011000/,))*,25>MUSRJF<66###6;<CDFGJLQRRRRQPNNLKLNPRTWYYY[^^^]]Xagnsuskd[WQONLKIGFFDBBBB<;;;;<<<<<<<<<<<<<<<<BBBBBBCFJJIKQTKFDDDGKIGKTet!!!!!!!!!!!!!!!!!!!!!!!!!!!!!!!!!!!!!!!!!!!!!!!!!!!!!!!!!!!!!!!!!!!!!!!!!!!!!!!!!!!!!!!!!!!!!!!!!!!!",
"!!!!!!!!!!!!!!!!!!!!!!!!!!!!!!!!A@@@@=:85531231.+)''&'''''*,,..,,/0100/.+'),048@MUXVKF<;6###66;BCDFGKOQQQQQPNNLLLLORTWWYY[^_^^][agnsusle`ZTRPNKJIGGDCBCBB<<<<<<<<<<B<<<B<<<<<BBCDCCBBCBBCGKIFFFIJLKJKQZr!!!!!!!!!!!!!!!!!!!!!!!!!!!!!!!!!!!!!!!!!!!!!!!!!!!!!!!!!!!!!!!!!!!!!!!!!!!!!!!!!!!!!!!!!!!!!!!!!!!!",
"!!!!!!!!!!!!!!!!!!!!!!!!!!!!!!!!AA@@@=985421231/,+)'''''''),,,,,,.0000.,*').15:AUffXLDB<6####66;BDDFILOPQPPONNLLLLOQRTWWYZ]__a^[agnpusoke_ZTQOLKJIIFDDDDBBB<<<<<<BBBBBBB<<<<<BBCDDCB<<;;<CFDDFIKLOLKLOTjw!!!!!!!!!!!!!!!!!!!!!!!!!!!!!!!!!!!!!!!!!!!!!!!!!!!!!!!!!!!!!!!!!!!!!!!!!!!!!!!!!!!!!!!!!!!!!!!!!!!",
"!!!!!!!!!!!!!!!!!!!!!!!!!!!!!!!!AA@@@:8754323320.,*)'''%'')*+,,++,//..+))*,039AHUfcVKFC<6#####66;BCFGKOOPPOONNNLLLNPQRWWWY[__aa^ahnrttsrleZRQQNKKKKIFFDDBBBBBBBBBCDDDDCCB<<<<<<<BBBBB<;;;<BB<CGKOQNKLQWdrw!!!!!!!!!!!!!!!!!!!!!!!!!!!!!!!!!!!!!!!!!!!!!!!!!!!!!!!!!!!!!!!!!!!!!!!!!!!!!!!!!!!!!!!!!!!!!!!!!!",
"!!!!!!!!!!!!!!!!!!!!!!!!!!!!!!!!A@@@>:8754433420.,+*)'%%%''))+++),..,+)%),.14=HSffXSKFC<6######6;<BDGKNOPONNNNNNLLLNPRTWWYZ]_da^dinrsuuusk[RRRQLKLOKJGFDCBBBCDDDDDFFFFDDB<;;;;;;;<BCB<;;;;;;;<FKOROLORY[dt!!!!!!!!!!!!!!!!!!!!!!!!!!!!!!!!!!!!!!!!!!!!!!!!!!!!!!!!!!!!!!!!!!!!!!!!!!!!!!!!!!!!!!!!!!!!!!!!!!",
"!!!!!!!!!!!!!!!!!!!!!!!!!!!!!!!!A@>>=985544444210/.,,+*)''''')))'*,+*)))+.148@SUffcVLGDB;6#####66;<CFJLOPPPPPPNNNLNNPRRTWYZ[^baahnrrrsuutodZTRQONOQLJIFDDDDDDFFDDDDDCBBB<<;;;;<<<<<B<<;;<<BB<CGLORQNOQT]jt!!!!!!!!!!!!!!!!!!!!!!!!!!!!!!!!!!!!!!!!!!!!!!!!!!!!!!!!!!!!!!!!!!!!!!!!!!!!!!!!!!!!!!!!!!!!!!!!!!",
"!!!!!!!!!!!!!!!!!!!!!!!!!!!!!!!!A>===975544444310000/..,)''%%''&%')'''*,..27=HUffffXPJFD<66#####6;<BDILNQQPPPPPONNNOPRRTWWYZ]_aairsrlruutsleZRQQQQQLJIGFFGGGGFFDDCBB<<<<<;;;;;<<<<<<<<<BCDGFFIKNQQQQQQR_rt!!!!!!!!!!!!!!!!!!!!!!!!!!!!!!!!!!!!!!!!!!!!!!!!!!!!!!!!!!!!!!!!!!!!!!!!!!!!!!!!!!!!!!!!!!!!!!!!!!",
"!!!!!!!!!!!!!!!!!!!!!!!!!!!!!!!!A>==:985555544321111000.,+*))))))+++)*,0125:AMffmffXSLIFB;6#####66;BDGKNPQRRRPPPPPPPQRTTWYYY]^adistrlrtuutro_WRRRRQOKJIIIJJJJIGFFDBBB<<<<B<<;<<BBBB<<<BDFGIJKLNOQQQQQQR[jrv!!!!!!!!!!!!!!!!!!!!!!!!!!!!!!!!!!!!!!!!!!!!!!!!!!!!!!!!!!!!!!!!!!!!!!!!!!!!!!!!!!!!!!!!!!!!!!!!!",
"!!!!!!!!!!!!!!!!!!!!!!!!!!!!!!!!!=:=::9855555543221111110////..//010//1258=AHUffmffcVPLIC;6######6;<CFIKNPRTTTRRRRRTTWYYVVVX^^acitusnstuuusrj_ZTRRRQONLLLLLLKJIGFFDDDDDDDFDB<BBDFFDDDDDFFFGJNOQQQOOQQQQTYet!!!!!!!!!!!!!!!!!!!!!!!!!!!!!!!!!!!!!!!!!!!!!!!!!!!!!!!!!!!!!!!!!!!!!!!!!!!!!!!!!!!!!!!!!!!!!!!!!",
"!!!!!!!!!!!!!!!!!!!!!!!!!!!!!!!!!=::=::8755555543333223222222222244433459>AMUffmmffcVSPLF<;6#####6;<BDGJKPTWWWTTTTWVVVVVVVVVXaccitutpssuuuusokbYRTTRQQQQQQQQOLKJGGFGJKKJJKGDBCDFIIIIIGIIIFFJQRRRQOOOQQQQQ_s!!!!!!!!!!!!!!!!!!!!!!!!!!!!!!!!!!!!!!!!!!!!!!!!!!!!!!!!!!!!!!!!!!!!!!!!!!!!!!!!!!!!!!!!!!!!!!!!!",
"!!!!!!!!!!!!!!!!!!!!!!!!!!!!!!!!!@>=:::9888887555555555555555555588889:=AHMUffmmmffXVWRNGB;66#####6;BDFGJNRTWWYYYWVVVVVVVVVVXccgnturinnsuuusroeZWWZWRRRRTWTRQNKKJJIIJKKKKKIFDFGFFGJKIFGIIGFKQRTTTTQOOQQQQ_tw!!!!!!!!!!!!!!!!!!!!!!!!!!!!!!!!!!!!!!!!!!!!!!!!!!!!!!!!!!!!!!!!!!!!!!!!!!!!!!!!!!!!!!!!!!!!!!!!",
"!!!!!!!!!!!!!!!!!!!!!!!!!!!!!!!!!!A>:::::::998888888888888888889::=>@@AHMUfmpmmmmfcXVVSPJDB<;6####6;<CDFGKPTWY[[XVVVVVVSSSSVXccgnuungiipuuutssj]Y[_[WTTW[_[YROLLLKKKKKKKKJJJJJJGFFJNIDFJJIGKRTTY[]TOOQQOQ_tvvw!!!!!!!!!!!!!!!!!!!!!!!!!!!!!!!!!!!!!!!!!!!!!!!!!!!!!!!!!!!!!!!!!!!!!!!!!!!!!!!!!!!!!!!!!!!!!!",
"!!!!!!!!!!!!!!!!!!!!!!!!!!!!!!!!!!!=:::::::::98888999999988899:=>>@@@@AHHMMSUUmmffcXXVVSNJFB;6####6;<BDDFIKNQRWWTSRPPPPPPPSSXcgisuupnnntvwuuttohb^][ZZYZ]_]YTQQQQQOOOOONLLKKJJJIGIKLIFGJJIGKTWWYYZTQRTWTT[eklt!!!!!!!!!!!!!!!!!!!!!!!!!!!!!!!!!!!!!!!!!!!!!!!!!!!!!!!!!!!!!!!!!!!!!!!!!!!!!!!!!!!!!!!!!!!!!!",
"!!!!!!!!!!!!!!!!!!!!!!!!!!!!!!!!!!!!9:======::99889999::9899:=>@@@@@@@AAAAAAHSffffcXXVVVSSNC;66####6;<CCDFFILPPRPNLKJJJKKLPSVcinsuuuptuwxxwuuutsobY[__^]^^[YYTTTTTTRRRRQQOLKKJJKKKLLIFIJJIGLTYYYWWTRY_ed_YTY_l!!!!!!!!!!!!!!!!!!!!!!!!!!!!!!!!!!!!!!!!!!!!!!!!!!!!!!!!!!!!!!!!!!!!!!!!!!!!!!!!!!!!!!!!!!!!!!",
"!!!!!!!!!!!!!!!!!!!!!!!!!!!!!!!!!!!!!:===:::9988888888889998:=>@@@@@>>@@@@@@AHffffccXXXXXXTD<;66###66;<BCCDDFFIKJIIIIIIJKNRVXgnsuwwuuuwxxyxxwwwwtk^_ed_^][[[ZYYYYYYYYWTTRQQNLKKLOOKJJIJKKJINTWWTTTTTYdjedYQRYdt!!!!!!!!!!!!!!!!!!!!!!!!!!!!!!!!!!!!!!!!!!!!!!!!!!!!!!!!!!!!!!!!!!!!!!!!!!!!!!!!!!!!!!!!!!!!!",
"!!!!!!!!!!!!!!!!!!!!!!!!!!!!!!!!!!!!8:==::9885555555555589889:==>>>>>>>>>==:>HXcffffccccccVGB<;6###666;<CBBB<<CDEEEEFIJNPW^gipsuwwxxxxxxyyyyyxxxwtrlje_][Y[^^[ZZYYYYYYYWWTRQQOOQROJGJLNNLKKOQRRRRRRRW[___YRRRYkw!!!!!!!!!!!!!!!!!!!!!!!!!!!!!!!!!!!!!!!!!!!!!!!!!!!!!!!!!!!!!!!!!!!!!!!!!!!!!!!!!!!!!!!!!!!!",
"!!!!!!!!!!!!!!!!!!!!!!!!!!!!!!!!!!!!8:=::985544333322212588888899::=::::::98:AUUffffffffccXJCB<6#####66;B<<;;;<BCDDDFILR[eostuuwxxxxxyyxyyyyyyyxxxxtlhd^[Y]aa^][YZZZYYYYYYYWTRQRTQJGKRQQOONOOQQRRRRRTZ[]]YTRRWes!!!!!!!!!!!!!!!!!!!!!!!!!!!!!!!!!!!!!!!!!!!!!!!!!!!!!!!!!!!!!!!!!!!!!!!!!!!!!!!!!!!!!!!!!!!!",
"!!!!!!!!!!!!!!!!!!!!!!!!!!!!!!!!!!!88898855543322110...0244333444557888:::989@MUfffffmffcXRJDCB;######66;;;666;CDFGJNR]dnstuuuwwwwwxxxxxxxxyyyyyyxxvsrlje_bbb__]][ZYZZZZZZZYYWTWYTQLQTRQONLNNOOQQTTW[de_[[[_elsv!!!!!!!!!!!!!!!!!!!!!!!!!!!!!!!!!!!!!!!!!!!!!!!!!!!!!!!!!!!!!!!!!!!!!!!!!!!!!!!!!!!!!!!!!!!!",
"!!!!!!!!!!!!!!!!!!!!!!!!!!!!!!!!!!!88885433332211/.,)))+.0/..,,..01234799:989@HMfmmfmmffXSNIFDD;#######66666#6;CFILR^ltwxxxxxxxxwwvwwwwwxxxwxyyyyyxwwtsrljhdd____]ZYZZZZZ[[[[[ZZZZYYYWRQONLLLLLOQTYZdlre[_er!!!!!!!!!!!!!!!!!!!!!!!!!!!!!!!!!!!!!!!!!!!!!!!!!!!!!!!!!!!!!!!!!!!!!!!!!!!!!!!!!!!!!!!!!!!!!!!!",
"!!!!!!!!!!!!!!!!!!!!!!!!!!!!!!!!!!!8875532332210/.+*''')+,+*)))*+,./013558889>AMUmfmmmfcVPKIFDD;6########66666BJLOWantwxxwwtsnonrrssrrrstttsuwwxxxwwvutsrokeddddd]ZYYYZZZ[[[[[[[Z[[[ZYTRQQOLLNOQTY[_kttrlrrv!!!!!!!!!!!!!!!!!!!!!!!!!!!!!!!!!!!!!!!!!!!!!!!!!!!!!!!!!!!!!!!!!!!!!!!!!!!!!!!!!!!!!!!!!!!!!!!!",
"!!!!!!!!!!!!!!!!!!!!!!!!!!!!!!!!!!8885542223210.,+))'&&&'''%%%%&')+,,,.035889>AHUffmmmfcVNIGFDD<66#######6;;;<G^^^hsuwxwwuslaZ[^aehheeehklkklrsttuvuutttttoheeeee_YYYYYZZ[[[[[[[[[[[ZYYTTRQOLORWYZ_ervxxxxw!!!!!!!!!!!!!!!!!!!!!!!!!!!!!!!!!!!!!!!!!!!!!!!!!!!!!!!!!!!!!!!!!!!!!!!!!!!!!!!!!!!!!!!!!!!!!!!!!",
"!!!!!!!!!!!!!!!!!!!!!!!!!!!!!!!!!!888543212211/,+))'''&%$$$$$$$$%)**)*+,03589=@HUffffmfcVNIGFDC<;66######6<BCFTsroswwussrnh^TPPRW[^^]]]_deddehinorssssstturkhddde_[YYYYZZ[[[[[[[[[[[[ZYYWTTRQT[deejkswxxxwvttv!!!!!!!!!!!!!!!!!!!!!!!!!!!!!!!!!!!!!!!!!!!!!!!!!!!!!!!!!!!!!!!!!!!!!!!!!!!!!!!!!!!!!!!!!!!!!!",
"!!!!!!!!!!!!!!!!!!!!!!!!!!!!!!!!!!888542212210.,*)')*)'$$$$$$$$'))++**+,/1358:>AMUUffffcVPKJGFDB;66666666<ILPWhuuuuush^^^[VTLIJKNRWYYYWYZ]]]__behhkkklorstsrkb]_ed_][ZYYZ[[[[[[[[[[[[[ZYYYY[_ertttslsvvttljedjv!!!vrr!!!!!!!!!!!!!!!!!!!!!!!!!!!!!!!!!!!!!!!!!!!!!!!!!!!!!!!!!!!!!!!!!!!!!!!!!!!!!!!!!!!!!!!",
"!!!!!!!!!!!!!!!!!!!!!!!!!!!!!!!!!!999532111110.+)''),+'$$$$$$$%'*+,+++++./1489>AHMUUffffXSPKJFDB<;6666;;<GaotwwwwwtrgYQQPPPNIFFGJORRTRRTWYYZZ[]^^adddhjlrtssl_[_eddb^[ZYYZ[[[[[[[[[[[][[]]_jrtwxxxvrrsslk_ZWTYl!!!teet!!!!!!!!!!!!!!!!!!!!!!!!!!!!!!!!!!!!!!!!!!!!!!!!!!!!!!!!!!!!!!!!!!!!!!!!!!!!!!!!!!!!!!",
"!!!!!!!!!!!!!!!!!!!!!!!!!!!!!!!!!!999542211110.,*))*,*'%$$$$$%')++,,,,,../1358=AHMUUffffXVSPLIDCB<<;<BDDFPerwwwulaZWQKIIJLNNLKKJLOQRRRRRTWYYZ[]]^aa__dejorrsoh___bdd_^[ZZYZ[[[[[[[[[_deejklllllrrrkeeeed_ZWRQR_rv!vkelt!!!!!!!!!!!!!!!!!!!!!!!!!!!!!!!!!!!!!!!!!!!!!!!!!!!!!!!!!!!!!!!!!!!!!!!!!!!!!!!!!!!!!",
"!!!!!!!!!!!!!!!!!!!!!!!!!!!!!!!!!!9:95422111110,+**+,*'&%$$$%%')++,,,,....0137:@HSUUfffffcXWPJFDCBCDIPTWY_ktxxur]PLJGDCDFIKNPSPNNOQQRRRRRTWYY[[]]]]]]adhklrrrlhb]_ded_^[ZYYZ[[[[[[Z[_jlstttrle_]]][[[ZZYYWTQNOT_s!!re__s!!!!!!!!!!!!!!!!!!!!!!!!!!!!!!!!!!!!!!!!!!!!!!!!!!!!!!!!!!!!!!!!!!!!!!!!!!!!!!!!!!!!",
"!!!!!!!!!!!!!!!!!!!!!!!!!!!!!!!!!!:=:8542211121.,,,,,+)'%$$$&')*++,,,..//.0137:@HUUffffffffVRLIGFFILQY^djkohaYTPJFFDDDDFIJLPPRPNOQQQRRRRRRTTWYYZ[]]]]^adhklorold[_deed_^YRRYZZ[[[[[[djllrrlj_]ZYZZZZZYYYYTROKKQW]ee_[YYk!!!!!!!!!!!!!!!!!!!!!!!!!!!!!!!!!!!!!!!!!!!!!!!!!!!!!!!!!!!!!!!!!!!!!!!!!!!!!!!!!!!!",
"!!!!!!!!!!!!!!!!!!!!!!!!!!!!!!!!!!>>>95532112320//..,+)''%%%')++*+,,...///02479@MUfmfcfffffXSPNNPRTYZ]blsss[KFEDCBBBCDFILNPPPNNNOQRRRRQRRRRRTTWYZ[]][]abejjloroe[_deeddbWPOTYZ[[]][[dkjjed_[YWWYY[ZZYYYYYTQLJJLQOLNQRRRev!!!!!!!!!!!!!!!!!!!!!!!!!!!!!!!!!!!!!!!!!!!!!!!!!!!!!!!!!!!!!!!!!!!!!!!!!!!!!!!!!!!",
"!!!!!!!!!!!!!!!!!!!!!!!!!!!!!!!!!!!@>:9854212331100/.,+*''&%'+,++,,..../0012479@MUfmffffmmfXVSRTY^beeehlnaYIB<;;<<<BCFILPPPPNNNNOQRRRQQQQQRRRRTWWZ[[[]^_dejjlrre]__deeddYQOQTWZ[]]]__ed_]ZYTRRTTYZZZYYYWTQKIFFILJGIJKKKWrv!!!!!!!!!!!!!!!!!!!!!!!!!!!!!!!!!!!!!!!!!!!!!!!!!!!!!!!!!!!!!!!!!!!!!!!!!!!!!!!!!!",
"!!!!!!!!!!!!!!!!!!!!!!!!!!!!!!!!!!!!>>>:95412333211000/.+)'&)+,,,,...///0124589@MffqmffmmmfXVVYY]_ehlrneYKD<6666;<BDIJNNPPNNLLNNOQQQQQQQQQQQQRRTTWZ[[]]^_dejlrrj____deee_YTQORY[]___]ZZYYWTRQQRTWYYYYYWRQJFDBBFJIIFDDDDKesvw!!!!!!!!!!!!!!!!!!!!!!!!!!!!!!!!!!!!!!!!!!!!!!!!!!!!!!!!!!!!!!!!!!!!!!!!!!!!!!!!",
"!!!!!!!!!!!!!!!!!!!!!!!!!!!!!!!!!!!!!AA@>952233332111110.+)''+,,,.//////1235589AMfmqmmmmmmfXVV^__bhinsiYKC;66#666;CINPRPPNNLLLNNOQQQQQQQPPQQQQRRRTYZ[]]]_behkllje_]]_eejeeZOKOTY]_ddZTTTRRRQQQQQRTTWWTRQKFC<;<CGGGDB<<<G[lrtw!!!!!!!!!!!!!!!!!!!!!!!!!!!!!!!!!!!!!!!!!!!!!!!!!!!!!!!!!!!!!!!!!!!!!!!!!!!!!!!",
"!!!!!!!!!!!!!!!!!!!!!!!!!!!!!!!!!!!!!!A@>:855444332222210.+&&))++,...../134588:AUfmqqmqqqqmfaaeehhhh[PID<66###66;<CGLNPPNNNNNNNNPQQQQQQQRRRRRTRRRTTYZ[]^__dejlolkd]]_eeeee[RLOORYZ[[YRRQQQQQQQQOLKLNKIFFFB<;;;<BCDDDCCDLkslltw!!!!!!!!!!!!!!!!!!!!!!!!!!!!!!!!!!!!!!!!!!!!!!!!!!!!!!!!!!!!!!!!!!!!!!!!!!!!!!",
"!!!!!!!!!!!!!!!!!!!!!!!!!!!!!!!!!!!!!!!@@>::85443343222210,&$%&')*+,,,./135589:AUmmqqqqqqqqpkkklooicND<;6#####66;<CFJKNNNNNOPPPPPQQQQQRRRTWWWWWTRRRTY[]_^^_dhkorre]]_eeeed]TQLKORWWWTRQONLLQRQQLIFGIFBBBB<;666;;<BDFGGGTvvleltv!!!!!!!!!!!!!!!!!!!!!!!!!!!!!!!!!!!!!!!!!!!!!!!!!!!!!!!!!!!!!!!!!!!!!!!!!!!!!",
"!!!!!!!!!!!!!!!!!!!!!!!!!!!!!!!!!!!!!!!!@>=:98555554223322/+)*+,./00001134578:@HUmqqqqqqqquprrooniYPFB;66#####66;BDFGJLLNNOPPPPOPRRRRRRRRRWYYVWWTRRTWY[___bejkorrjddddd___]ZWROQTTTTRQOLKJJLQQQNJFFFCB<<;;;;6;;;<<BFIIJZw!sllrtv!!!!!!!!!!!!!!!!!!!!!!!!!!!!!!!!!!!!!!!!!!!!!!!!!!!!!!!!!!!!!!!!!!!!!!!!!!!!",
"!!!!!!!!!!!!!!!!!!!!!!!!!!!!!!!!!!!!!!!!!!==988888553333331/..012344333445589@HMfqqqqqqqquwuutspncNFB;66#######6;DDDFIKNPPPPONNNQRWWWTTRPQTVVVYWTRRRTWZ]_bdhjkllllkjd__]]]]_`ZWWWWWTRQNKIGGJQQRQLJFDB<<;6;;;;;<<<;BFJJK]w!vtlertvvv!!!!!!!!!!!!!!!!!!!!!!!!!!!!!!!!!!!!!!!!!!!!!!!!!!!!!!!!!!!!!!!!!!!!!!!!!",
"!!!!!!!!!!!!!!!!!!!!!!!!!!!!!!!!!!!!!!!!!!!!:99:9985555555422235578875777789=AMUfqqqqqquxxxwutpngVIB<<66#######6;CDDFILNPQPOLLKKNRWWVTRPNNRVVVYWWWWWWY]_`dekllolllokd][[ZZ]djd][YYWTRQLJIFFILNONKIDB<<;;6;;<<BBB<<BFJKKZt!!!skrvw!!w!!!!!!!!!!!!!!!!!!!!!!!!!!!!!!!!!!!!!!!!!!!!!!!!!!!!!!!!!!!!!!!!!!!!!!!!",
"!!!!!!!!!!!!!!!!!!!!!!!!!!!!!!!!!!!!!!!!!!!!!!=>>>=:9999988555789:==::=>===>@HUfmqqqqqxxxxwuupgcXSGBBC<6#66#####6BCDFJOOPONLJIGFILPTVTQNIIPZZYYYY[``bddddejlrrrrrlke_[ZZYY[_edd`]ZYTRQNJIGFGIIIGFDB<;;;;;<BCDDDDDDFGIJJRet!!!v!!!!!!!!!!!!!!!!!!!!!!!!!!!!!!!!!!!!!!!!!!!!!!!!!!!!!!!!!!!!!!!!!!!!!!!!!!!!!!",
"!!!!!!!!!!!!!!!!!!!!!!!!!!!!!!!!!!!!!!!!!!!!!!!!!!!!AAA@>=:::9:=>@@@@@AAAAAAAMfmqqqqqxxyyxwupmcVSNFBDGD;6666####6;BDGKOOOLKJGFDCFINRVTQKGGN[ZYZZ[djllljjjjlrrrrsrljd_ZZYYYZ^deed`]YWTQNKIIGFFDDDCB<;;;;<<BDFGIIGIJJJIJJQ[r!!!!!!!!!!!!!!!!!!!!!!!!!!!!!!!!!!!!!!!!!!!!!!!!!!!!!!!!!!!!!!!!!!!!!!!!!!!!!!!!!!",
"!!!!!!!!!!!!!!!!!!!!!!!!!!!!!!!!!!!!!!!!!!!!!!!!!!!!!!!HAA@@@@@@AAA@@@@@@@@@@HMUmqqqxyyyywuppgaVRLIDFID<6666####66;BCFGGGGFFFDCBCFJPYWWROQYhjjejjlrrrrrlllrrsssttrlkeb]YYY[ekjdd`]ZYTROKIIGFDDCBB<<;;;<<<BDFGJIIJJLOQTYerw!!!!!!!!!!!!!!!!!!!!!!!!!!!!!!!!!!!!!!!!!!!!!!!!!!!!!!!!!!!!!!!!!!!!!!!!!!!!!!!!!!",
"!!!!!!!!!!!!!!!!!!!!!!!!!!!!!!!!!!!!!!!!!!!!!!!!!!!!!!!!!MHHHHHHHHA@>=====>>>@AMfqqqxyyyxuppmfXSPLKJJIFB<;66####666;<BCCCCDDDDB<BDGNYZ```dltttttttttttsrrrstttttttsrrk_YYY]jrjdb`_[YTROKJIGFDCB<<<;;<BB<<BCDGJJJJKOWblv!!!!!!!!!!!!!!!!!!!!!!!!!!!!!!!!!!!!!!!!!!!!!!!!!!!!!!!!!!!!!!!!!!!!!!!!!!!!!!!!!!!!!",
"!!!!!!!!!!!!!!!!!!!!!!!!!!!!!!!!!!!!!!!!!!!!!!!!!!!!!!!!!!!!UMMMMHHA@>:99888899@HUmxyzyxuuppmfcVPNNNKJGDB;666####666;;<<<<BCFIFDDILT`dejjjlrsstttssssrrrrrrrrstttttsroe_[Y]eokedd`]ZTRKGFFFFDCBB<<;;<BBBBCDFJLOQRW]js!!!!!!!!!!!!!!!!!!!!!!!!!!!!!!!!!!!!!!!!!!!!!!!!!!!!!!!!!!!!!!!!!!!!!!!!!!!!!!!!!!!!!!!",
"!!!!!!!!!!!!!!!!!!!!!!!!!!!!!!!!!!!!!!!!!!!!!!!!!!!!!!!!!!!!!!fffUMHA@:755432238=HUxyzxuppmmmffXSPPPNLIFC<;666####66666;;;<CJTQLQY`jllllkjjjkorrrroooolllllllrrrsssssrljd[[djjkjed`]TQIDCDFDDDCB<<;;;<BCDFGJLQZelsv!!!!!!vket!!!!!!!!!!!!!!!!!!!!!!!!!!!!!!!!!!!!!!!!!!!!!!!!!!!!!!!!!!!!!!!!!!!!!!!!!!!!!!!",
"!!!!!!!!!!!!!!!!!!!!!!!!!!!!!!!!!!!!!!!!!!!!!!!!!!!!!!!!!!!!!!!!!mfSHA=85530...25>SyyyxqpmmmmffcVSRPPNJFDB<;66#####66666;<BDOeb[blrrrroljhedehjkkjhhhhhhhhjjjklllrrrrrrrj_]_dekjeed`YQIDBCDDDDDCB<<<<<BDIJLQT]lv!!!!!!!vvlZYkw!!!!!!!!!!!!!!!!!!!!!!!!!!!!!!!!!!!!!!!!!!!!!!!!!!!!!!!!!!!!!!!!!!!!!!!!!!!!!!",
"!!!!!!!!!!!!!!!!!!!!!!!!!!!!!!!!!!!!!!!!!!!!!!!!!!!!!!!!!!!!!!!!!!!fUHA>:9530.+/2:MyyxupmmmmffcXXVWTPNJDBBB;66######66;;<CFNYkjejkllkjeeaaaaaabddbaaaaaaaaa__bdddejkorrrljd`]_deeeee]WLGDCBCDDDC<<<CDDFIKQYdltw!!!!!teWWYWTT_lv!!!!!!!!!!!!!!!!!!!!!!!!!!!!!!!!!!!!!!!!!!!!!!!!!!!!!!!!!!!!!!!!!!!!!!!!!!!!!",
"!!!!!!!!!!!!!!!!!!!!!!!!!!!!!!!!!!!!!!!!!!!!!!!!!!!!!!!!!!!!!!!!!!!!!fMHA>:52.),.7HyxqqmmmmffcaXXXVVRPIDBCD<66######66;<DIR`joorlkjhhb^^^]^^^^^^^][[[[]]]][[[[[[[^_ekrrsrrk_Z[[_ejjjd]RLGC<BDDDC<<BFIJKLQ[rw!!!!!!!tdQGIJLQRW[r!!!!!!!!!!!!!!!!!!!!!!!!!!!!!!!!!!!!!!!!!!!!!!!!!!!!!!!!!!!!!!!!!!!!!!!!!!!!!",
"!!!!!!!!!!!!!!!!!!!!!!!!!!!!!!!!!!!!!!!!!!!!!!!!!!!!!!!!!!!!!!!!!!!!!!UMHH@=95455=SyuqqmmmmfcaXXXXVTPNIDBBB;666#66666<DFKQ[ehjjjheedda^^^^^^^^^^^^^^^^^]]]][[[[[[]^aejlrrrk_[]_djkkkebWOJFDFGFFDCCFIKOT[erw!!!!vl_YWQJFIKNRTTT_s!!!!!!!!!!!!!!!!!!!!!!!!!!!!!!!!!!!!!!!!!!!!!!!!!!!!!!!!!!!!!!!!!!!!!!!!!!!!",
"!!!!!!!!!!!!!!!!!!!!!!!!!!!!!!!!!!!!!!!!!!!!!!!!!!!!!!!!!!!!!!!!!!!!!!!!XUMHA@:=>AUxqqqmmmmca^^[XVWTPLGDBB<;66666<<<<FQW]djjheddbaaaa^^^^^^^^^^^^^^^^^^^^^^^^^^]]]]]^bjlrrkd[__elllljeZRNKJJKIFFFIIJOYjt!!!!!!tjRJIIIGFGKOTYROT_l!!!!!!!!!!!f!!!!!!!!!!!!!!!!!!!!!!!!!!!!!!!!!!!!!!!!!!!!!!!!!!!!!!!!!!!!!!!",
"!!!!!!!!!!!!!!!!!!!!!!!!!!!!!!!!!!!!!!!!!!!!!!!!!!!!!!!!!!!!!!!!!!!!!!!!!cUSMHAHHMfuqqqmmmfc^^[[VVWTPNJFDB<;6666<DFDFO]behhhhdbaaaaa^^aa^^^aaaaaaaaaaaa^^^^^^^^]]][]^^djllkd^__dejllkj[ROLKLLJGGIKOR[kv!!!!vreZRKGGIIIIJKLQROKQTdt!!!!!!!!!!m!!!!!!!!!!!!!!!!!!!!!!!!!!!!!!!!!!!!!!!!!!!!!!!!!!!!!!!!!!!!!!!",
"!!!!!!!!!!!!!!!!!!!!!!!!!!!!!!!!!!!!!!!!!!!!!!!!!!!!!!!!!!!!!!!!!!!!!!!!!!^VVSSSVXmqqqqmmfca^[][VYWTRPNKIDB;;;;<DQTRT]eeddeeeedddddaaaaaaaaddeeeeeeeeddaaaaa^^^]]][[]]_djllhb^[[]dkrlk]ROLKLLKIIJLYlt!!!!!vdQKJIIIIJKKLKKKKKKJLQZlw!!!!!!!!!uU!!!!!!!!!!!!!!!!!!!!!!!!!!!!!!!!!!!!!!!!!!!!!!!!!!!!!!!!!!!!!!",
"!!!!!!!!!!!!!!!!!!!!!!!!!!!!!!!!!!!!!!!!!!!!!!!!!!!!!!!!!!!!!!!!!!!!!!!!!!!dejkorpqqqqqmmfc^[[[[YYWTTTRPLFB<;<BFOekhhhhgaaaddeeddeedaaaddehhhhhhhhhhhheedddbaa^^]][[[]^aeklje_][[_jrlk]ROLKLLLKLOTj!!!!!vrdQIFFFGJJKKNQLJJJJIIKOTdr!!!!!!!!!xmf!!!!!!!!!!!!!!!!!!!!!!!!!!!!!!!!!!!!!!!!!!!!!!!!!!!!!!!!!!!!!",
"!!!!!!!!!!!!!!!!!!!!!!!!!!!!!!!!!!!!!!!!!!!!!!!!!!!!!!!!!!!!!!!!!!!!!!!!!!!!_eknppqqqqqmmcXX[[ZYYYYYYYTPLGDCBCIQYejhgeddadddehedehhheeehhhhhhhhhhhejjkkjjjjjedba^^^]]]^^djkkjhed_dlrlk`TQOLLLOQYdrw!!!veTQLKIGIIJKKJJJKJJJJJJJLQTYdt!!!!!!!!!wu!!!!!!!!!!!!!!!!!!!!!!!!!!!!!!!!!!!!!!!!!!!!!!!!!!!!!!!!!!!!!",
"!!!!!!!!!!!!!!!!!!!!!!!!!!!!!!!!!!!!!!!!!!!!!!!!!!!!!!!!!!!!!!!!!!!!!!!!!!!!!dkpuqqqqqmmfcXXVVYYYYY[[^VPLIFFFJTjjjhedaaaddeehhedehhhhhhhhhhjjjjjjjejkklllllolje_^^^^^^]]ahjklookjjlrlk`YRQNLKQ[l!!!!!!kQGFFFIJKKKKKJIIGIIJKKKKNQRRWk!!!!!!!!!!!!!!!!!!!!!!!!!!!!!!!!!!!!!!!!!!!!!!!!!!!!!!!!!!!!!!!!!!!!!!!!",
"!!!!!!!!!!!!!!!!!!!!!!!!!!!!!!!!!!!!!!!!!!!!!!!!!!!!!!!!!!!!!!!!!!!!!!!!!!!!!!!puqqqqqmmfcXVVYYYYYYVYTRPNNLLLPYeejeeddddddeeehhhhhhhheb_^^]]]^^]]]__deejjkkllkjed_^]]^]]_ejkllljdddejkdZTRQRW_lv!!!!sdTLIGGGJJJJIGGIJJJJKKKJIGJNQTYansv!!!!!!!!!!!!!!!!!!!!!!!!!!!!!!!!!!!!!!!!!!!!!!!!!!!!!!!!!!!!!!!!!!!!!",
"!!!!!!!!!!!!!!!!!!!!!!!!!!!!!!!!!!!!!!!!!!!!!!!!!!!!!!!!!!!!!!!!!!!!!!!!!!!!!!!!uqqqqqmffXXVYWWYVVYVTPNNPRZZYY]`ejeedeeeeeddeghhhhhheb]ZWTTTTTTTTWWZZ__deejklllkeb][]]^^adhkllle_[[[dke]YTT_lt!!!!wt_QKJJJJJJJIGFDFIJKKLLKJIGFGKPTVVUaer!!!!!!!!!!!!!!!!!!!!!!!!!!!!!!!!!!!!!!!!!!!!!!!!!!!!!!!!!!!!!!!!!!!!",
"!!!!!!!!!!!!!!!!!!!!!!!!!!!!!!!!!!!!!!!!!!!!!!!!!!!!!!!!!!!!!!!!!!!!!!!!!!!!!!!!xqqqqqmfcXVVWWWYVXVVSNNQT[d`]]_dehheeegheeehhhhhebb^[ZYWTRRRRTTTTWWY[]_bddeeklllke^]]^^^abekrooj`___ele_[[]lv!!!!tk_TOKKJJJIIIGGFFGJKKKJIGGFFFILQVaXVajs!!!!!!!!!!!!!!!!!!!!!!!!!!!!!!!!!!!!!!!!!!!!!!!!!!!!!!!!!!!!!!!!!!!!",
"!!!!!!!!!!!!!!!!!!!!!!!!!!!!!!!!!!!!!!!!!!!!!!!!!!!!!!!!!!!!!!!!!!!!!!!!!!!!!!!!uqqqqmmfcXVVWWYY[XXVTNPYddea]]behgggeeeeghhiihhd_[WTRRRRRRRTTWWWYYZ[^__bbddeekllle__^^^^abhlrrrkedjkkljd`ekt!!!vreWOOQOKJJJIFFFGIKLNNLKFDCDDFIJNTaggaisw!!xuw!!!!!!!!!!!!!!!!!!!!!!!!!!!!!!!!!!!!!!!!!!!!!!!!!!!!!!!!!!!!!!!",
"!!!!!!!!!!!!!!!!!!!!!!!!!!!!!!!!!!!!!!!!!!!!!!!!!!!!!!!!!!!!!!!!!!!!!!!!!!!!!!!!uqqqqmmfcXVVWYY[XaXXWQRbokhb^^dhhggggeeghhiiheb^ZTRQOQQQRRTWWYZZ[[]^^_bbbbddejklljd__a^^^aelrstrjjoroljeeltw!!vre[QJKQQKIIIGFFGIKOOLKJIDBBCDGJLQYhsoisw!!!upu!!!!!!!!!!!!!!!!!!!!!!!!!!!!!!!!!!!!!!!!!!!!!!!!!!!!!!!!!!!!!!!",
"!!!!!!!!!!!!!!!!!!!!!!!!!!!!!!!!!!!!!!!!!!!!!!!!!!!!!!!!!!!!!!!!!!!!!!!!!!!!!!!!qqqqmmmfcXVYWV[Xaccc^[]hlkheddggggggegghikhd^ZYTRQQQQQRTWYYZ[]]]]]]]^^_bbdddeejkljed__^]^^dkstvtrorrolkjltwvtrlj_YRLLLKGDFFGIJKLKKIFDDDDDDFGIKOT_ovttw!!!xwuw!!!x!!!!!!!!!!!!!!!!!!!!!!!!!!!!!!!!!!!!!!!!!!!!!!!!!!!!!!!!!!!",
"!!!!!!!!!!!!!!!!!!!!!!!!!!!!!!!!!!!!!!!!!!!!!!!!!!!!!!!!!!!!!!!!!!!!!!!!!!!!!!!!!qqqmmmfcX[VYVXacfggiklllkhhhhggggceeghkoke^YRQOOOOQQRWY[]^^^aa^^]]]]^^_bddeeeejljedd_^]][_ksvwvssrrolllsxytjed_ZYTQNJGDCCDGKQQRLIDB<BBDGIJJKLRZjt!!!!!!xwxxx!!xu!!!!!!!!!!!!!!!!!!!!!!!!!!!!!!!!!!!!!!!!!!!!!!!!!!!!!!!!!!!",
"!!!!!!!!!!!!!!!!!!!!!!!!!!!!!!!!!!!!!!!!!!!!!!!!!!!!!!!!!!!!!!!!!!!!!!!!!!!!!!!!!qqqmmmfcX[[[]XcggiinlooolhhgggggcghihhhhbZTRQQOOQQTWY[]a_a^^^^^^]]]]]^^_dddddejljd____^][^eotwvssssrrrstvvl_]][YWTQOKIGFGIIIIIGFDDCBCDFIJKLRZdlsw!!!!!!xxx!!xxwu!!!!!!!!!!!!!!!!!!!!!!!!!!!!!!!!!!!!!!!!!!!!!!!!!!!!!!!!!!!",
"!!!!!!!!!!!!!!!!!!!!!!!!!!!!!!!!!!!!!!!!!!!!!!!!!!!!!!!!!!!!!!!!!!!!!!!!!!!!!!!!!qqqmmmfca^^]accgnnooooooliiiggggeginije_YROOOQQQRTY]aadeeaa^]]^^]]]]]]^_bdddddele______^[^djswvssstsstvvsk_YYYYYWTROKJKLLOJFDCBBBCCDFIIIJLQ_svw!!!!!!!!!!!!!xwuu!!!!!!!!!!!!!!!!!!!!!!!!!!!!!!!!!!!!!!!!!!!!!!!!!!!!!!!!!!!",
"!!!!!!!!!!!!!!!!!!!!!!!!!!!!!!!!!!!!!!!!!!!!!!!!!!!!!!!!!!!!!!!!!!!!!!!!!!!!!!!!!qqqmmmfca^aaccginorrooooliigggggginihe^YTQQQQRTWWY^adeggeda____^^^^^^^^_bb_``djle_^___^^]^_elttsstvvttvtld[YYYYTTQOONLOOONIDCBBBCDDFGJKLQT]r!!!!!!!!!!wupuuwxxuu!!!!!!!!!!!!!!!!!!!!!!!!!!!!!!!!!!!!!!!!!!!!!!!!!!!!!!!!!!!",
"!!!!!!!!!!!!!!!!!!!!!!!!!!!!!!!!!!!!!!!!!!!!!!!!!!!!!!!!!!!!!!!!!!!!!!!!!!!!!!!!!!qqmmmfcaaaccggilossrronnigggggiiiihb]WRRRRWYY[^^aagghggeeaa_____^^^aaaab___dejle_^__^^^^^__jlrrtvwwvtrkd[ZYYYTRQOKLQQQOLJFCBBBDFGGIIJNR[ktw!!!!!x!!!!ufUffqxxuq!!!!!!!!!!!!!!!!!!!!!!!!!!!!!!!!!!!!!!!!!!!!!!!!!!!!!!!!!!!",
"!!!!!!!!!!!!!!!!!!!!!!!!!!!!!!!!!!!!!!!!!!!!!!!!!!!!!!!!!!!!!!!!!!!!!!!!!!!!!!!!!!qqmmmcccccgggiklosssrnniiggghiinlke^YTQRTY[^aaccgggghgeeeedbbbb____aaabb___dejle_^__^]]^^]_ejlrtwxxwskd]YYYWTRQOLJLQROKJGDBBCDFJJJKKNT_lv!!!!!!xwx!wufUMUUfuwqm!!!!!!!!!!!!!!!!!!!!!!!!!!!!!!!!!!!!!!!!!!!!!!!!!!!!!!!!!!!",
"!!!!!!!!!!!!!!!!!!!!!!!!!!!!!!!!!!!!!!!!!!!!!!!!!!!!!!!!!!!!!!!!!!!!!!!!!!!!!!!!!!qqmmmccccggiiillossrnniiggiinoookhaZWTTY]^aaaeggggggeeeddddbaa_aaadddddb___ehkoh_^__^^]Z[]_elrsvxyxwre][YYWTQOLKKLLLJGFDDDCCDFGJKKOT]jsv!!!!!!!xwuumUSMHMMUffUU!!!!!!!!!!!!!!!!!!!!!!!!!!!!!!!!!!!!!!!!!!!!!!!!!!!!!!!!!!!",
"!!!!!!!!!!!!!!!!!!!!!!!!!!!!!!!!!!!!!!!!!!!!!!!!!!!!!!!!!!!!!!!!!!!!!!!!!!!!!!!!!!qqmmmccccgmnnonlosrnniiggiioororkd]WRW[^ehedeggiigggdddddddaa__aaaeeeedb_]_ejloh____^^[YY[`jrstvxyxvl_YZZYTQNKJIKQLIFCBBCCDDGJJJKOTev!!!!!!xx!!!xupUMHHHHHMUUMM!!!!!!!!!!!!!!!!!!!!!!!!!!!!!!!!!!!!!!!!!!!!!!!!!!!!!!!!!!!",
"!!!!!!!!!!!!!!!!!!!!!!!!!!!!!!!!!!!!!!!!!!!!!!!!!!!!!!!!!!!!!!!!!!!!!!!!!!!!!!!!!!qqqmmfcccgiinooooonnniiiiiooooole_]ZY[aaegeehiiiihgebbbbba___aaaaeeeeedbb`djllkha_bdaa^[[^djssttwxvsj]YWTRQQONLKKKIFDCBDDFFFIJLOR[jt!!!!!!!!xwumfUUMHHHHHHHHHHH!!!!!!!!!!!!!!!!!!!!!!!!!!!!!!!!!!!!!!!!!!!!!!!!!!!!!!!!!!!",
"!!!!!!!!!!!!!!!!!!!!!!!!!!!!!!!!!!!!!!!!!!!!!!!!!!!!!!!!!!!!!!!!!!!!!!!!!!!!!!!!!!uqqmmffccgiiooooonnnniiiiiooorlje^]^^aggccghiiiiihed_____^___aaegghhhhedddelokheaaegeaa^__dkssttttrldZWTRQNOQQQOJGDBBBCFIIIIJKQWds!!!!!!xw!!wwmUMHHHHHAAAAAAAAA!!!!!!!!!!!!!!!!!!!!!!!!!!!!!!!!!!!!!!!!!!!!!!!!!!!!!!!!!!!",
"!!!!!!!!!!!!!!!!!!!!!!!!!!!!!!!!!!!!!!!!!!!!!!!!!!!!!!!!!!!!!!!!!!!!!!!!!!!!!!!!!!xuqqmmmfggiiooooninnniiiiooorokeb^^acggggghiiniihhdd____^^__adegggghhheehhjookhdacgggaaabejosttsrlke_ZTRQONOQQLJGDCBBCDGJJJKOQYer!!!!!!!uuppmfUMHHAAAAAAAAA@@@@=!!!!!!!!!!!!!!!!!!!!!!!!!!!!!!!!!!!!!!!!!!!!!!!!!!!!!!!!!!",
"!!!!!!!!!!!!!!!!!!!!!!!!!!!!!!!!!!!!!!!!!!!!!!!!!!!!!!!!!!!!!!!!!!!!!!!!!!!!!!!!!!xxqqmmmmgiiiooooninnnninooorolj__aaegggggiinnnihged_____^a_adggghgeehhjjklookhddgggggaadejlrsvvtkd__[YTQOOQQQLIDCBBBCDIIJJKOYjrt!!!!!!!xumUUSMHHAA@@@@@@AAA@@>>=!!!!!!!!!!!!!!!!!!!!!!!!!!!!!!!!!!!!!!!!!!!!!!!!!!!!!!!!!!",
"!!!!!!!!!!!!!!!!!!!!!!!!!!!!!!!!!!!!!!!!!!!!!!!!!!!!!!!!!!!!!!!!!!!!!!!!!!!!!!!!!!!!uqqmmmmnloooonninnniinoorrole__agiihgginnnnnihedb______aadghihhgdehjkkloolhebeggiigeeehlssttvse[[]ZWRQNOQOLIDBB<BBDGKJJKOTjw!!!!!!!!!umfSHHHAAA@>>>>>>@AA@@>==:!!!!!!!!!!!!!!!!!!!!!!!!!!!!!!!!!!!!!!!!!!!!!!!!!!!!!!!!!",
"!!!!!!!!!!!!!!!!!!!!!!!!!!!!!!!!!!!!!!!!!!!!!!!!!!!!!!!!!!!!!!!!!!!!!!!!!!!!!!!!!!!!xuqqmmmnooooonnnnnniinrroolkebehiiiiiinnnnnihgedaa__aaadeghiihgedejloooonkheaegiiiihiklrsssssld[[[YTRQNOOKGDCBBBCDFIJKLR]ltx!!!!!!!wqfUSMHHAAA@@>>>>>@@@@@@>>>>=!!!!!!!!!!!!!!!!!!!!!!!!!!!!!!!!!!!!!!!!!!!!!!!!!!!!!!!!",
"!!!!!!!!!!!!!!!!!!!!!!!!!!!!!!!!!!!!!!!!!!!!!!!!!!!!!!!!!!!!!!!!!!!!!!!!!!!!!!!!!!!!xxqqqqpporrronnpnniiinsrookjhehnnnnnnnnnnnihgedaaaaaaaeehiiiihgeehkoorrolihdaeiinnnnoorttsrllj_Z[[YRQOONLGDBB<BCDIJJJLQ]t!!!!!!!!!!qfUMHHHAAA@>>===>@@@@@@@@@@>>!!!!!!!!!!!!!!!!!!!!!!!!!!!!!!!!!!!!!!!!!!!!!!!!!!!!!!!!",
"!!!!!!!!!!!!!!!!!!!!!!!!!!!!!!!!!!!!!!!!!!!!!!!!!!!!!!!!!!!!!!!!!!!!!!!!!!!!!!!!!!!!!!xqqqpprrroninpnniinorrolihhinnpnnnnnnnniihgeddddadeeghhiiihgdeejloooookhddcginnprrssssrljeed_ZYYTQOOLJIDBBBBDDGJKNQT]kv!!!!!!xupfUUMHHAAA@@>=:::::=>==>@@@@@>>>!!!!!!!!!!!!!!!!!!!!!!!!!!!!!!!!!!!!!!!!!!!!!!!!!!!!!!!",
"!!!!!!!!!!!!!!!!!!!!!!!!!!!!!!!!!!!!!!!!!!!!!!!!!!!!!!!!!!!!!!!!!!!!!!!!!!!!!!!!!!!!!!xqqppprrooninppmnnoosrolihinppppnnnnnniihgeeeeeddeggiiiihgedbejkoooookhbadgiinpsttuutrle____]ZYTRONLKIDCBBBDFIJKLRZhtuxx!!!!xumUSMHHAAA@@>=::99888::::=>@@@>>>@>!!!!!!!!!!!!!!!!!!!!!!!!!!!!!!!!!!!!!!!!!!!!!!!!!!!!!!",
"!!!!!!!!!!!!!!!!!!!!!!!!!!!!!!!!!!!!!!!!!!!!!!!!!!!!!!!!!!!!!!!!!!!!!!!!!!!!!!!!!!!!!!!uqppprroniimpmmnnrrrooliinpppppnnnnnniiheeeeeeeegghiiiggdabdhkooooolkhdaeginpsuuuuusle_[[]][YWRQOLKJFCBBBDFIKLNRYarx!xx!!xupfUMHHAA@@>>=:999887788899:=>@@@>>>>>!!!!!!!!!!!!!!!!!!!!!!!!!!!!!!!!!!!!!!!!!!!!!!!!!!!!!",
"!!!!!!!!!!!!!!!!!!!!!!!!!!!!!!!!!!!!!!!!!!!!!!!!!!!!!!!!!!!!!!!!!!!!!!!!!!!!!!!!!!!!!!!xupnnrooniimmmmnorrrolininppppppnnnnnihheehhhhhghhiiigdaa^bekooooookjheeginnpuuwwvtoe_]Z[][ZYTQQOLKIDBBCDFIJKQWXacpx!!!xupfUMHHA@>>>==:988877777557899:=>@@@>>>>@!!!!!!!!!!!!!!!!!!!!!!!!!!!!!!!!!!!!!!!!!!!!!!!!!!!!",
"!!!!!!!!!!!!!!!!!!!!!!!!!!!!!!!!!!!!!!!!!!!!!!!!!!!!!!!!!!!!!!!!!!!!!!!!!!!!!!!!!!!!!!!!wsnnrooniimmminrsrrliinnppppppppnnnnihhhhhhhhhhhhhhgda^^^ejoooooookjeggginpsuwwwtrj_ZZ[[][YTRQOOKIFC<BDGJKLPWammmux!!xupfUHHA@>=::::998755555555558998:=>@@>>>>@>!!!!!!!!!!!!!!!!!!!!!!!!!!!!!!!!!!!!!!!!!!!!!!!!!!!",
"!!!!!!!!!!!!!!!!!!!!!!!!!!!!!!!!!!!!!!!!!!!!!!!!!!!!!!!!!!!!!!!!!!!!!!!!!!!!!!!!!!!!!!!!!urrnniiimmmminosrrlignnpppppppppnnnniihhihhggggedaaa^_bhhoonooolkjhhhginptuwwutojd_]]___[YRQONKIDCCBDGJKORYagppuwxuqmfUMHAA>=::98888755443334455588889:=>@>>>>>>@!!!!!!!!!!!!!!!!!!!!!!!!!!!!!!!!!!!!!!!!!!!!!!!!!!",
"!!!!!!!!!!!!!!!!!!!!!!!!!!!!!!!!!!!!!!!!!!!!!!!!!!!!!!!!!!!!!!!!!!!!!!!!!!!!!!!!!!!!!!!!!wssnnigmmmmiinrsrrlhhnnppppppppppnnnniiiiihggeaaa]Y[]bhonnnnnookjjhhhinnsuwwwtoe_]]__d__[WRQOKJFB<BDGJKOR]gmppxyxxqfUSHHA@=:99888755554321112245888889::=>@@@>>>@@!!!!!!!!!!!!!!!!!!!!!!!!!!!!!!!!!!!!!!!!!!!!!!!!!",
"!!!!!!!!!!!!!!!!!!!!!!!!!!!!!!!!!!!!!!!!!!!!!!!!!!!!!!!!!!!!!!!!!!!!!!!!!!!!!!!!!!!!!!!!!!vsoiggmmmgggiosrrlhhinpppppppnnnniigggggca]][[ZZZ[^dhknoonnnolkehhhinpsuwwvtoed__deeje_YROLKIFDCBDIKQTY^gpuuuwxqffUMHHA@=:8888755543211000011245557889:=>>@@>>>@@!!!!!!!!!!!!!!!!!!!!!!!!!!!!!!!!!!!!!!!!!!!!!!!!!",
"!!!!!!!!!!!!!!!!!!!!!!!!!!!!!!!!!!!!!!!!!!!!!!!!!!!!!!!!!!!!!!!!!!!!!!!!!!!!!!!!!!!!!!!!!!xsniggmmmfggiosrrlkhinnppppppnniiggcaaa^[YTTTTTWY[bjooonoooolkjehhinpuuwxvsoe__dejllle[TOKJIFDDDFILR]eintxxxxupfUMHHHA>:9877555543210/.../000123445889::=>>>>>>>>@!!!!!!!!!!!!!!!!!!!!!!!!!!!!!!!!!!!!!!!!!!!!!!!!",
"!!!!!!!!!!!!!!!!!!!!!!!!!!!!!!!!!!!!!!!!!!!!!!!!!!!!!!!!!!!!!!!!!!!!!!!!!!!!!!!!!!!!!!!!!!!tniggmmgccghosrrrlkninppppnniigea^^[[YYWTRRRTWY[ahoonooooolkjhhhinptuxxwtojedekllrlldYQLJIFFDDGJOT]jrsuxyxxupfUHHHA@>:8775555443210..,,...000122355889::=>>>@>>>@@!!!!!!!!!!!!!!!!!!!!!!!!!!!!!!!!!!!!!!!!!!!!!!!",
"!!!!!!!!!!!!!!!!!!!!!!!!!!!!!!!!!!!!!!!!!!!!!!!!!!!!!!!!!!!!!!!!!!!!!!!!!!!!!!!!!!!!!!!!!!!uniimmmgccehlrssrollnnnnnnniiga^[YTTRRRRQQRTY^bhkooroooollkjhhinnpuuwxvtrkeklrvvtrkdZTOJGFDFFGJNWdinsuxxyxqmUUMHAA@=:8755543332100.,,,,,../0011223555889:==>@>>>@@!!!!!!!!!!!!!!!!!!!!!!!!!!!!!!!!!!!!!!!!!!!!!!!",
"!!!!!!!!!!!!!!!!!!!!!!!!!!!!!!!!!!!!!!!!!!!!!!!!!!!!!!!!!!!!!!!!!!!!!!!!!!!!!!!!!!!!!!!!!!!unnmmmigaaagkrrsrrolnnnnnniiga^[YTRQQQQQQRTY^hoosrrooollkkjhiiipsuwxxxusokjrtw!!tle[TQLIFFDFGJLR_stuuwxxxqmUSHHAA@=977554331110/...,+++,,./00011233455889:=>>>>>>@@!!!!!!!!!!!!!!!!!!!!!!!!!!!!!!!!!!!!!!!!!!!!!!",
"!!!!!!!!!!!!!!!!!!!!!!!!!!!!!!!!!!!!!!!!!!!!!!!!!!!!!!!!!!!!!!!!!!!!!!!!!!!!!!!!!!!!!!!!!!!unpmmmigeccgioorroloonnnniiheda]YYWTTTWYZ]_bhkorrrroolllkjhiinpsuwxwvtssstvw!!wtle]WQLJGFFFGIKOTeuwuwxxumfUSHHA@>:975544321100.....,,,,,...000011223455889::==>>>>>@!!!!!!!!!!!!!!!!!!!!!!!!!!!!!!!!!!!!!!!!!!!!!",
"!!!!!!!!!!!!!!!!!!!!!!!!!!!!!!!!!!!!!!!!!!!!!!!!!!!!!!!!!!!!!!!!!!!!!!!!!!!!!!!!!!!!!!!!!!!wppmmmigeeccgiloollooonlikhheb_^[[[[[[^bhkoorrrrrroolkllkhhinptuxxxwtrrsv!!!!!tld[WRLIGGFGIIJKQWixxxxxxmUUMHHA@>:85554321100...,,..........//0001112355588999=@>=>>@!!!!!!!!!!!!!!!!!!!!!!!!!!!!!!!!!!!!!!!!!!!!!",
"!!!!!!!!!!!!!!!!!!!!!!!!!!!!!!!!!!!!!!!!!!!!!!!!!!!!!!!!!!!!!!!!!!!!!!!!!!!!!!!!!!!!!!!!!!!usppppnihgccgiiollklllnlllkhhhhedddbbdejkooorrooooookjjhhhinpsuuvvvvvtvw!!!!!wsj]TQNKIGGGIJKOR[hs!!!xupUMHHA@>=:87554321100.,,+++,,,,,.........00001234558889:==>>>>>!!!!!!!!!!!!!!!!!!!!!!!!!!!!!!!!!!!!!!!!!!!!",
"!!!!!!!!!!!!!!!!!!!!!!!!!!!!!!!!!!!!!!!!!!!!!!!!!!!!!!!!!!!!!!!!!!!!!!!!!!!!!!!!!!!!!!!!!!!utpppppnniggggikiihikklloolllloooolllooooooooooolorokheehinptuwutsssv!!!!!!!!vreYQLJIIIGIJKQWbow!!!!wmfSHHA@=:875543321000.,,*))))*++,,....,,,,.000112335588999:>>==>@!!!!!!!!!!!!!!!!!!!!!!!!!!!!!!!!!!!!!!!!!!!",
"!!!!!!!!!!!!!!!!!!!!!!!!!!!!!!!!!!!!!!!!!!!!!!!!!!!!!!!!!!!!!!!!!!!!!!!!!!!!!!!!!!!!!!!!!!!utspppppnigggggihhhhhklloooooorrooooooooooooookjjklkjeeehinnsstsrstv!!!!!!!!!tl_WQKIIIIJJNQYdrw!!!xupUSHHA@=987554332100..,,*(''''))*+,,,,,,,,,../0001124558888:=>==>>@!!!!!!!!!!!!!!!!!!!!!!!!!!!!!!!!!!!!!!!!!!",
"!!!!!!!!!!!!!!!!!!!!!!!!!!!!!!!!!!!!!!!!!!!!!!!!!!!!!!!!!!!!!!!!!!!!!!!!!!!!!!!!!!!!!!!!!!!!uuuupppnniggggiigghhhkkoooooroooonlikllloookjeedeeeeehiinnnihekrt!!!!!!!!!!vre[TQKIIIIKOWbksux!!!qfUMHHA@=985554331100..,,*((&'''')*+,,,,,,,,,,.../000123557889:===>>>>!!!!!!!!!!!!!!!!!!!!!!!!!!!!!!!!!!!!!!!!!",
"!!!!!!!!!!!!!!!!!!!!!!!!!!!!!!!!!!!!!!!!!!!!!!!!!!!!!!!!!!!!!!!!!!!!!!!!!!!!!!!!!!!!!!!!!!!!uuuuupppnniggggggghehhkonoonnoooliihjjkklkkjeb`````bdhinolhd^Zerw!!!!!!!!!wtk]WROKIIIJOYesvx!!!xxmUMHHA@=98544433100...,,*(((&&&'')*+,,,+++++,,,,...000123457899:=>>=>>@!!!!!!!!!!!!!!!!!!!!!!!!!!!!!!!!!!!!!!!!",
"!!!!!!!!!!!!!!!!!!!!!!!!!!!!!!!!!!!!!!!!!!!!!!!!!!!!!!!!!!!!!!!!!!!!!!!!!!!!!!!!!!!!!!!!!!!!!wxwusssrniheedeeehhiknnnnnnnooonnijheeeeeedb`````bbehiiheb_derw!!!!!!!!!wsl_YQLJIGJKQYervx!!!xqfUMHAA@=98554432100...,,*((((&&&&')*++,,++++++,,,,,....0012458889:====>@!!!!!!!!!!!!!!!!!!!!!!!!!!!!!!!!!!!!!!!!",
"!!!!!!!!!!!!!!!!!!!!!!!!!!!!!!!!!!!!!!!!!!!!!!!!!!!!!!!!!!!!!!!!!!!!!!!!!!!!!!!!!!!!!!!!!!!!!!!xwuuuslhedbbbbehiinnnnnnnnooonnijeb```````````bddghheea]]erw!!!!!!!!!wsldZTNIFFGJQYesv!!!!!xfSHHAA@=9855543210....,,*(((((&&%&')*++,,+++++++,,,,,.....01245789:====>@@!!!!!!!!!!!!!!!!!!!!!!!!!!!!!!!!!!!!!!!",
"!!!!!!!!!!!!!!!!!!!!!!!!!!!!!!!!!!!!!!!!!!!!!!!!!!!!!!!!!!!!!!!!!!!!!!!!!!!!!!!!!!!!!!!!!!!!!!!xxwwwtoheb```bbdehhhhhiiikjjjhheed``````````bbbaa^^]^_beltw!!!!!!!!!!sle_ZTOJGIJOYerw!!!!xqfUHHAA>=97554332100...,,+(((((&&&&&'')**+++++++++++++,,,,...01245589::===>>@!!!!!!!!!!!!!!!!!!!!!!!!!!!!!!!!!!!!!!",
"!!!!!!!!!!!!!!!!!!!!!!!!!!!!!!!!!!!!!!!!!!!!!!!!!!!!!!!!!!!!!!!!!!!!!!!!!!!!!!!!!!!!!!!!!!!!!!!!!!xxtojd````````bbbbbbbbbbbbbb````````````bbbeaXYTTW[esw!!!!!!!!!!!tkd__ZTQKJLQYdrw!!!!!qfSHHA@>:9754433210/...,,*(((((&&&&&&&''))***+++++++***++,,,,,.01134588:==::>@@!!!!!!!!!!!!!!!!!!!!!!!!!!!!!!!!!!!!!",
"!!!!!!!!!!!!!!!!!!!!!!!!!!!!!!!!!!!!!!!!!!!!!!!!!!!!!!!!!!!!!!!!!!!!!!!!!!!!!!!!!!!!!!!!!!!!!!!!!!!!vrke````````````````````````````````bbddggaXVWTZ_lw!!!!!!!!!!!tle][[TQOLLR[erv!!!!xufUHHA@>:8554332110....,,+(((((&&&&&''''''')))**+++++**)**++++,,./0134589::::=>>!!!!!!!!!!!!!!!!!!!!!!!!!!!!!!!!!!!!!",
"!!!!!!!!!!!!!!!!!!!!!!!!!!!!!!!!!!!!!!!!!!!!!!!!!!!!!!!!!!!!!!!!!!!!!!!!!!!!!!!!!!!!!!!!!!!!!!!!!!!!wurjb````````````````````````````bbbbbeeggca^adkrv!!!!!!!!!!!tljd]YTOKKOR]ltw!!!!xqfUHHA@>:8544332100....,,+*((((&&&&&'''''''''')))*+++++*)))))**+,,./0135589::===>>!!!!!!!!!!!!!!!!!!!!!!!!!!!!!!!!!!!!",
"!!!!!!!!!!!!!!!!!!!!!!!!!!!!!!!!!!!!!!!!!!!!!!!!!!!!!!!!!!!!!!!!!!!!!!!!!!!!!!!!!!!!!!!!!!!!!!!!!!!!!!ule````````````````````````````beegggghhhhgosv!!!!!!!!!!!!tred_]TQKIJQ]lv!!!!!xufUHHA@@=854333210.....,,+*((((&&&&&'''')'''&&'''))*++++*))'''))**+,.00245889:====>>!!!!!!!!!!!!!!!!!!!!!!!!!!!!!!!!!!!",
"!!!!!!!!!!!!!!!!!!!!!!!!!!!!!!!!!!!!!!!!!!!!!!!!!!!!!!!!!!!!!!!!!!!!!!!!!!!!!!!!!!!!!!!!!!!!!!!!!!!!!!!!eb```````````````````````bbbbd!!!!!glrsrstv!!!!!!!!!!!!vrkd__]YTQOR]lt!!!!!xqfUHHA@>=955433210.....,,,*((((&&&&&&'''')''&''''''))*+++*))'''''))*+,.01245889:::=>>!!!!!!!!!!!!!!!!!!!!!!!!!!!!!!!!!!!",
"!!!!!!!!!!!!!!!!!!!!!!!!!!!!!!!!!!!!!!!!!!!!!!!!!!!!!!!!!!!!!!!!!!!!!!!!!!!!!!!!!!!!!!!!!!!!!!!!!!!!!!!!!!!b``````````````````bddh!!!!!!!!!!!wwww!!!!!!!!!!!!!!sjd_]]][YZ[dlv!!!!!xufUHHAA@=985333210.....,,,+((((&&&&&&&'''))''&''&%%&'))*+**))''''''))*+,.00145889::=>>=!!!!!!!!!!!!!!!!!!!!!!!!!!!!!!!!!!",
"!!!!!!!!!!!!!!!!!!!!!!!!!!!!!!!!!!!!!!!!!!!!!!!!!!!!!!!!!!!!!!!!!!!!!!!!!!!!!!!!!!!!!!!!!!!!!!!!!!!!!!!!!!!!!`````````````````!!!!!!!!!!!!!!!!ww!!!!!!!!!!!!!!vred______delt!!!!!xpfUHHA@@=985433210..,,..,,,*(((&&&&&&&&&'''''&&&&&%%%''))***))''''&''))*,,.01345889::===:!!!!!!!!!!!!!!!!!!!!!!!!!!!!!!!!!",
"!!!!!!!!!!!!!!!!!!!!!!!!!!!!!!!!!!!!!!!!!!!!!!!!!!!!!!!!!!!!!!!!!!!!!!!!!!!!!!!!!!!!!!!!!!!!!!!!!!!!!!!!!!!!!!!!!!!!!!!!!!!!!!!!!!!!!!!!!!!!!!!vw!!!!!!!!!!!!vsled___deekrtw!!!!xqUMHHA@>=985543210..,,,.,,,+(((&&&&&&%&&&&&&&&&&&&&%%%%'')**+*)''''&&&'')+,./01245889::=:::!!!!!!!!!!!!!!!!!!!!!!!!!!!!!!!!",
"!!!!!!!!!!!!!!!!!!!!!!!!!!!!!!!!!!!!!!!!!!!!!!!!!!!!!!!!!!!!!!!!!!!!!!!!!!!!!!!!!!!!!!!!!!!!!!!!!!!!!!!!!!!!!!!!!!!!!!!!!!!!!!!!!!!!!!!!!!!!!!!!w!!!!!!!!!!!!trjd__ddejkrtw!!!!xufSHHA@>=:87543210.,,,,,,,,,((((&&&&&%%%&&%%%%%&&&&%%%$$%'))*+*)''''&&&&'))+,.001355889::::9!!!!!!!!!!!!!!!!!!!!!!!!!!!!!!!!",
"!!!!!!!!!!!!!!!!!!!!!!!!!!!!!!!!!!!!!!!!!!!!!!!!!!!!!!!!!!!!!!!!!!!!!!!!!!!!!!!!!!!!!!!!!!!!!!!!!!!!!!!!!!!!!!!!!!!!!!!!!!!!!!!!!!!!!!!!!!!!!!!!!vtv!!!!!!!!wtrj___dejklsw!!!!!ufUMHAA@=:88554210..,,,,,,,,+(((&&&%%%%%%&&%$%%%&&&&%%%$$%&'))))'&%%&&&&&'')*+,./01345889:::98!!!!!!!!!!!!!!!!!!!!!!!!!!!!!!!",
"!!!!!!!!!!!!!!!!!!!!!!!!!!!!!!!!!!!!!!!!!!!!!!!!!!!!!!!!!!!!!!!!!!!!!!!!!!!!!!!!!!!!!!!!!!!!!!!!!!!!!!!!!!!!!!!!!!!!!!!!!!!!!!!!!!!!!!!!!!!!!!!!!slst!!!!!!!wtrj___ejllrt!!!!!!qUMHAA@=:88755310/..,,,,,,,,*((&&&%%%%%%%&%%$%%%&&&&%%%$$%&')))''%%$%&'&&''')*+,..01245889::877!!!!!!!!!!!!!!!!!!!!!!!!!!!!!!",
"!!!!!!!!!!!!!!!!!!!!!!!!!!!!!!!!!!!!!!!!!!!!!!!!!!!!!!!!!!!!!!!!!!!!!!!!!!!!!!!!!!!!!!!!!!!!!!!!!!!!!!!!!!!!!!!!!!!!!!!!!!!!!!!!!!!!!!!!!!!!!!!!!ogot!!!!!!!!vtld__dkrtv!!!!!xufSHHA@>:987755310...,,,,,,,+((&&''''&&&%&&&%%%%%&&&&%%%$$$%&'')''%%$%&&&&''')*+,,./013558899988!!!!!!!!!!!!!!!!!!!!!!!!!!!!!!",
"!!!!!!!!!!!!!!!!!!!!!!!!!!!!!!!!!!!!!!!!!!!!!!!!!!!!!!!!!!!!!!!!!!!!!!!!!!!!!!!!!!!!!!!!!!!!!!!!!!!!!!!!!!!!!!!!!!!!!!!!!!!!!!!!!!!!!!!!!!!!!!!!!!!ksw!!!!!!!!vrjd]dlt!!!!!!!umUHHAA@=9877554310/..,,++,,+)('''''''''&&&&%%%%%%&&&&%%%$$$$%&'''''%$$%%&&&&'))*+,,./1245588999888!!!!!!!!!!!!!!!!!!!!!!!!!!!!",
"!!!!!!!!!!!!!!!!!!!!!!!!!!!!!!!!!!!!!!!!!!!!!!!!!!!!!!!!!!!!!!!!!!!!!!!!!!!!!!!!!!!!!!!!!!!!!!!!!!!!!!!!!!!!!!!!!!!!!!!!!!!!!!!!!!!!!!!!!!!!!!!!!!!jrt!!!!!!!!wtljderv!!!!!!xfUMHAA@>:9777554210....,++,,*)('''''''''&&&&%%%%%%&&&&%%%$$$$%%'''''%$%%%&&&&''))*+,,.013455789:855!!!!!!!!!!!!!!!!!!!!!!!!!!!!",
"!!!!!!!!!!!!!!!!!!!!!!!!!!!!!!!!!!!!!!!!!!!!!!!!!!!!!!!!!!!!!!!!!!!!!!!!!!!!!!!!!!!!!!!!!!!!!!!!!!!!!!!!!!!!!!!!!!!!!!!!!!!!!!!!!!!!!!!!!!!!!!!!!!!!jrt!!!!!!!!vtrjlsv!!!!!xqUHHHAA@=98777543210/...,,++,*)'''')))'''&&&&%%%%%%&&%%%%%$$$$$$&''''%$%%%%%&&''')*++,./12355558:8555!!!!!!!!!!!!!!!!!!!!!!!!!!!",
"!!!!!!!!!!!!!!!!!!!!!!!!!!!!!!!!!!!!!!!!!!!!!!!!!!!!!!!!!!!!!!!!!!!!!!!!!!!!!!!!!!!!!!!!!!!!!!!!!!!!!!!!!!!!!!!!!!!!!!!!!!!!!!!!!!!!!!!!!!!!!!!!!!!!!elt!!!!!!!!vtrrtw!!!!xqfMHAAA@>:877755421100..,,++++*))))))))'''&&&&%%%%%%&&%%%%%$$$$$$%''''%$%%%&%&&&''))*+,,.01244458985555!!!!!!!!!!!!!!!!!!!!!!!!!!",
"!!!!!!!!!!!!!!!!!!!!!!!!!!!!!!!!!!!!!!!!!!!!!!!!!!!!!!!!!!!!!!!!!!!!!!!!!!!!!!!!!!!!!!!!!!!!!!!!!!!!!!!!!!!!!!!!!!!!!!!!!!!!!!!!!!!!!!!!!!!!!!!!!!!!!!bkv!!!!!!!!wttw!!!!!ufSHHAA@=:98777554211000.,,++++*))))))))''&&%%%%%%%&&%%%%%%%$$$$$%&'''&%%%''&%%&&&''))+,,./0123455888554!!!!!!!!!!!!!!!!!!!!!!!!!!",
"!!!!!!!!!!!!!!!!!!!!!!!!!!!!!!!!!!!!!!!!!!!!!!!!!!!!!!!!!!!!!!!!!!!!!!!!!!!!!!!!!!!!!!!!!!!!!!!!!!!!!!!!!!!!!!!!!!!!!!!!!!!!!!!!!!!!!!!!!!!!!!!!!!!!!!!]ow!!!!!!!!ww!!!!!!mSHHHA@>:987777553211000.,+++++**)))))))''&%%%%%%%&&&%%%%%%%$$$$%%&'&&%%%&''&%%%%&''')++,..01134555898543!!!!!!!!!!!!!!!!!!!!!!!!!",
"!!!!!!!!!!!!!!!!!!!!!!!!!!!!!!!!!!!!!!!!!!!!!!!!!!!!!!!!!!!!!!!!!!!!!!!!!!!!!!!!!!!!!!!!!!!!!!!!!!!!!!!!!!!!!!!!!!!!!!!!!!!!!!!!!!!!!!!!!!!!!!!!!!!!!!!!grw!!!!!!!!!!!!!xufHAHHA@>:987775553211100.,,,,,,++**))))))'&&%%%%%%&&&%%%%%%%$$$$$%%&&%%%%%''&&&%%%&'')*+,,.001234455885543!!!!!!!!!!!!!!!!!!!!!!!!",
"!!!!!!!!!!!!!!!!!!!!!!!!!!!!!!!!!!!!!!!!!!!!!!!!!!!!!!!!!!!!!!!!!!!!!!!!!!!!!!!!!!!!!!!!!!!!!!!!!!!!!!!!!!!!!!!!!!!!!!!!!!!!!!!!!!!!!!!!!!!!!!!!!!!!!!!!!cs!!!!!!!!!!!!!umUHAAHA@=:987775553211100/..,,,,,,+*))***)''&%%%%%%&&&%%%%&&%$$$$$$%%%%$$$%%&''&%%%&''))+,,./011233458875543!!!!!!!!!!!!!!!!!!!!!!!",
"!!!!!!!!!!!!!!!!!!!!!!!!!!!!!!!!!!!!!!!!!!!!!!!!!!!!!!!!!!!!!!!!!!!!!!!!!!!!!!!!!!!!!!!!!!!!!!!!!!!!!!!!!!!!!!!!!!!!!!!!!!!!!!!!!!!!!!!!!!!!!!!!!!!!!!!!!!pw!!!!!!!!!!!wfUHAAAAA>=:9877755532111000/....,,,+*))**))''&%%%%%%&&%%%%%%&%%$$$$$%%%$$$$%%%&&&%%%&&'')*+,,./011234555555432!!!!!!!!!!!!!!!!!!!!!!",
"!!!!!!!!!!!!!!!!!!!!!!!!!!!!!!!!!!!!!!!!!!!!!!!!!!!!!!!!!!!!!!!!!!!!!!!!!!!!!!!!!!!!!!!!!!!!!!!!!!!!!!!!!!!!!!!!!!!!!!!!!!!!!!!!!!!!!!!!!!!!!!!!!!!!!!!!!!pu!!!!!!!!!!upUHAAAAA@>=:987775554211111000/...,,+)))))))''&&%%%%%&&%$$$$%%%%%$$$$$$$$$$%%%%%%&&&%%&''))+,,../012234555555422!!!!!!!!!!!!!!!!!!!!!",
"!!!!!!!!!!!!!!!!!!!!!!!!!!!!!!!!!!!!!!!!!!!!!!!!!!!!!!!!!!!!!!!!!!!!!!!!!!!!!!!!!!!!!!!!!!!!!!!!!!!!!!!!!!!!!!!!!!!!!!!!!!!!!!!!!!!!!!!!!!!!!!!!!!!!!!!!!!!uw!!!!!!!!wmUHA@AAA@@>=:98777555432111111100..,+*)))))))''''&%%%%%&%$$$$$%%%%$$$$$$$$$%%%%%%%&&&%%%&'')*+,,..0012234444554221!!!!!!!!!!!!!!!!!!!!",
"!!!!!!!!!!!!!!!!!!!!!!!!!!!!!!!!!!!!!!!!!!!!!!!!!!!!!!!!!!!!!!!!!!!!!!!!!!!!!!!!!!!!!!!!!!!!!!!!!!!!!!!!!!!!!!!!!!!!!!!!!!!!!!!!!!!!!!!!!!!!!!!!!!!!!!!!!!!pu!!!!!!!!uUHAAAAHA@@==:97777755432111111100..,+*)))))))))'''&%%%%%%$$$$$$$$$$$$$$$$$$%%%%%%&&&&&&%%''))++,,./0112344444543211!!!!!!!!!!!!!!!!!!!",
"!!!!!!!!!!!!!!!!!!!!!!!!!!!!!!!!!!!!!!!!!!!!!!!!!!!!!!!!!!!!!!!!!!!!!!!!!!!!!!!!!!!!!!!!!!!!!!!!!!!!!!!!!!!!!!!!!!!!!!!!!!!!!!!!!!!!!!!!!!!!!!!!!!!!!!!!!!!!ux!!!!!!!qM@AAAHHA@>=::97777755432211122110..,+*)))))))**))''&&%%%%$$$$$$$$$$$$$$$$$$%&&%%&&&&&&&%%&&')*+,,..0011234444443211!!!!!!!!!!!!!!!!!!!",
"!!!!!!!!!!!!!!!!!!!!!!!!!!!!!!!!!!!!!!!!!!!!!!!!!!!!!!!!!!!!!!!!!!!!!!!!!!!!!!!!!!!!!!!!!!!!!!!!!!!!!!!!!!!!!!!!!!!!!!!!!!!!!!!!!!!!!!!!!!!!!!!!!!!!!!!!!!!!!w!!!!!!!qM@AAAHHA@>=::97777775533222122110/.,+*))))))***)))'''&%%%$$$$$$$$$$$$$$$$$$%&&&%&&&&&&&&&&&'))*+,../0011223444443211!!!!!!!!!!!!!!!!!!",
"!!!!!!!!!!!!!!!!!!!!!!!!!!!!!!!!!!!!!!!!!!!!!!!!!!!!!!!!!!!!!!!!!!!!!!!!!!!!!!!!!!!!!!!!!!!!!!!!!!!!!!!!!!!!!!!!!!!!!!!!!!!!!!!!!!!!!!!!!!!!!!!!!!!!!!!!!!!!!ux!!!!!!qM@@AAAAA@>=::98777775543222121110/.,+*)))))******))'''&%%$$$$$$$$$$$$$$$$$$%&&''%%&''&&''&&''))+,../00001133444432110!!!!!!!!!!!!!!!!!",
"!!!!!!!!!!!!!!!!!!!!!!!!!!!!!!!!!!!!!!!!!!!!!!!!!!!!!!!!!!!!!!!!!!!!!!!!!!!!!!!!!!!!!!!!!!!!!!!!!!!!!!!!!!!!!!!!!!!!!!!!!!!!!!!!!!!!!!!!!!!!!!!!!!!!!!!!!!!!!!w!!!!!!uM@@AAAAA@>=:::8777775544322221110/.,+*))))*******))'''%%$$$$$$$$$$$$$$$$$$$%&'''&%&''&&''''''))*,,./000001233444432100!!!!!!!!!!!!!!!!",
"!!!!!!!!!!!!!!!!!!!!!!!!!!!!!!!!!!!!!!!!!!!!!!!!!!!!!!!!!!!!!!!!!!!!!!!!!!!!!!!!!!!!!!!!!!!!!!!!!!!!!!!!!!!!!!!!!!!!!!!!!!!!!!!!!!!!!!!!!!!!!!!!!!!!!!!!!!!!!!ux!!!!!uMA@@AAAA@>=:::98777775543322221100.,++**********)))'''%$$$$$$$$$$$$$$$$$$$$%''''&&%%&''''''''))*+,./0011112234444432100!!!!!!!!!!!!!!!",
"!!!!!!!!!!!!!!!!!!!!!!!!!!!!!!!!!!!!!!!!!!!!!!!!!!!!!!!!!!!!!!!!!!!!!!!!!!!!!!!!!!!!!!!!!!!!!!!!!!!!!!!!!!!!!!!!!!!!!!!!!!!!!!!!!!!!!!!!!!!!!!!!!!!!!!!!!!!!!!!w!!!!!uMA@@@AA@@>===::8877775554332221110..,+*****++***)))''&%$$$$$$$$$$$$$$$$$$$$%&'''&&%%&''''')))))*+,../011112233444432110!!!!!!!!!!!!!!!",
"!!!!!!!!!!!!!!!!!!!!!!!!!!!!!!!!!!!!!!!!!!!!!!!!!!!!!!!!!!!!!!!!!!!!!!!!!!!!!!!!!!!!!!!!!!!!!!!!!!!!!!!!!!!!!!!!!!!!!!!!!!!!!!!!!!!!!!!!!!!!!!!!!!!!!!!!!!!!!!!!!x!!!qH@@@@@@@@>>==::9987777555433222110/.,,++*********))''&%$$$$$$$$$$$$$$$$$$$$%%&''&&%%&''''')))**++,../0111222223444432110!!!!!!!!!!!!!!",
"!!!!!!!!!!!!!!!!!!!!!!!!!!!!!!!!!!!!!!!!!!!!!!!!!!!!!!!!!!!!!!!!!!!!!!!!!!!!!!!!!!!!!!!!!!!!!!!!!!!!!!!!!!!!!!!!!!!!!!!!!!!!!!!!!!!!!!!!!!!!!!!!!!!!!!!!!!!!!!!!!!!!!mH@@@@@@@@@>>=:::9888777555433322110.,,,++********))'&%$$$$$$$$$$$$$$$$$$$$$$$%&'&&%%&'''')))*+++,,,./01122222223444432100!!!!!!!!!!!!!",
"!!!!!!!!!!!!!!!!!!!!!!!!!!!!!!!!!!!!!!!!!!!!!!!!!!!!!!!!!!!!!!!!!!!!!!!!!!!!!!!!!!!!!!!!!!!!!!!!!!!!!!!!!!!!!!!!!!!!!!!!!!!!!!!!!!!!!!!!!!!!!!!!!!!!!!!!!!!!!!!!!!!!!!H@@@@@@@@>>===:::998877555443332210/.,,,,+++***++**)'&%$$$$$$$$$$$%%&&&%%%%%$%'''&&%&'''')))++,,,,../011222222223444432100!!!!!!!!!!!!",
"!!!!!!!!!!!!!!!!!!!!!!!!!!!!!!!!!!!!!!!!!!!!!!!!!!!!!!!!!!!!!!!!!!!!!!!!!!!!!!!!!!!!!!!!!!!!!!!!!!!!!!!!!!!!!!!!!!!!!!!!!!!!!!!!!!!!!!!!!!!!!!!!!!!!!!!!!!!!!!!!!!!!!!!@@@@@@@>>====::::998875555444332110..,,,,,+++++,++)'&%$$$$$$$$$$$%&'''''''&%&''''&&&''''))*++,,,,../001222222222344433210!!!!!!!!!!!!",
"!!!!!!!!!!!!!!!!!!!!!!!!!!!!!!!!!!!!!!!!!!!!!!!!!!!!!!!!!!!!!!!!!!!!!!!!!!!!!!!!!!!!!!!!!!!!!!!!!!!!!!!!!!!!!!!!!!!!!!!!!!!!!!!!!!!!!!!!!!!!!!!!!!!!!!!!!!!!!!!!!!!!!!!!@@@@@@>>=====::::988775555544332110/..,,,,,+,,,,,*)'%$$$$$$$$$$%''))))''''&&'''''''''''))*+,,,,.../0011222222223344433110!!!!!!!!!!!",
"!!!!!!!!!!!!!!!!!!!!!!!!!!!!!!!!!!!!!!!!!!!!!!!!!!!!!!!!!!!!!!!!!!!!!!!!!!!!!!!!!!!!!!!!!!!!!!!!!!!!!!!!!!!!!!!!!!!!!!!!!!!!!!!!!!!!!!!!!!!!!!!!!!!!!!!!!!!!!!!!!!!!!!!!!@@@@@@>======:::99887755555543321100...,,,,,,,,,+)'%$$$$$$$$$$&'))***)))''&&&'''''''''))++,,,..../00111222222222344433210!!!!!!!!!!",
"!!!!!!!!!!!!!!!!!!!!!!!!!!!!!!!!!!!!!!!!!!!!!!!!!!!!!!!!!!!!!!!!!!!!!!!!!!!!!!!!!!!!!!!!!!!!!!!!!!!!!!!!!!!!!!!!!!!!!!!!!!!!!!!!!!!!!!!!!!!!!!!!!!!!!!!!!!!!!!!!!!!!!!!!!@@@@@@>>=====::::99887755555544322110/..,,,,,,,,,*'&$$$$$$$$$$&)*+++****)''&&''''''''))*+,,,....//000112222222222344433100!!!!!!!!!",
"!!!!!!!!!!!!!!!!!!!!!!!!!!!!!!!!!!!!!!!!!!!!!!!!!!!!!!!!!!!!!!!!!!!!!!!!!!!!!!!!!!!!!!!!!!!!!!!!!!!!!!!!!!!!!!!!!!!!!!!!!!!!!!!!!!!!!!!!!!!!!!!!!!!!!!!!!!!!!!!!!!!!!!!!!!@@@@@@>>====::::9988877755555543321100..,,,,,,,,+)'&%%%$$$$$%')**+******)''&''''''))))*+,,...///00001111222222222344432100!!!!!!!!",
"!!!!!!!!!!!!!!!!!!!!!!!!!!!!!!!!!!!!!!!!!!!!!!!!!!!!!!!!!!!!!!!!!!!!!!!!!!!!!!!!!!!!!!!!!!!!!!!!!!!!!!!!!!!!!!!!!!!!!!!!!!!!!!!!!!!!!!!!!!!!!!!!!!!!!!!!!!!!!!!!!!!!!!!!!!!@@@@@@>====::::99988877777555543322110.,,++++,+++)''&%%$$$%&')**+*))*+++)''''')))))))+,,.../00000000111112222111234443210.!!!!!!!",
"!!!!!!!!!!!!!!!!!!!!!!!!!!!!!!!!!!!!!!!!!!!!!!!!!!!!!!!!!!!!!!!!!!!!!!!!!!!!!!!!!!!!!!!!!!!!!!!!!!!!!!!!!!!!!!!!!!!!!!!!!!!!!!!!!!!!!!!!!!!!!!!!!!!!!!!!!!!!!!!!!!!!!!!!!!!@@@@@@>>===:::::9988888877755554332110/..,,,,,,,,+*))''&%%&'')**+))))**+)''''))*++**++,,..//000000000011112221111233433210!!!!!!!",
"!!!!!!!!!!!!!!!!!!!!!!!!!!!!!!!!!!!!!!!!!!!!!!!!!!!!!!!!!!!!!!!!!!!!!!!!!!!!!!!!!!!!!!!!!!!!!!!!!!!!!!!!!!!!!!!!!!!!!!!!!!!!!!!!!!!!!!!!!!!!!!!!!!!!!!!!!!!!!!!!!!!!!!!!!!!@@@@@@@>>==:::::999888888877555443211000/..,,,,,,,++*))''&'''))*+)''))*+*)''')*+,,+++,,.../000000000000011111111112334431100!!!!!",
"!!!!!!!!!!!!!!!!!!!!!!!!!!!!!!!!!!!!!!!!!!!!!!!!!!!!!!!!!!!!!!!!!!!!!!!!!!!!!!!!!!!!!!!!!!!!!!!!!!!!!!!!!!!!!!!!!!!!!!!!!!!!!!!!!!!!!!!!!!!!!!!!!!!!!!!!!!!!!!!!!!!!!!!!!!!@@@@@@@@>===::::9999988888777554432111000/..,,,..,,++*)''&'')))*+)''')*+*)''')*+,,,+,,,.../00000000/000001111111111234432100!!!!!"
};