/* XPM */
static char * result[] = {
"64 64 92 1",
"! c #000000",
"# c #A1A9A4",
"$ c #A0A9A3",
"% c #9DA59F",
"& c #9BA39D",
"' c #9F9F8C",
"( c #9E9F8B",
") c #9B9B86",
"* c #999983",
"+ c #908F7C",
", c #8F8E7B",
"- c #8B8976",
". c #898773",
"/ c #888672",
"0 c #807C6B",
"1 c #7F7B6A",
"2 c #7A7666",
"3 c #787363",
"4 c #777363",
"5 c #757065",
"6 c #746F64",
"7 c #706A60",
"8 c #6D685D",
"9 c #6D675D",
": c #4B4945",
"; c #4A4743",
"< c #000000",
"= c #000000",
"> c #000000",
"? c #000000",
"@ c #000000",
"A c #000000",
"B c #000000",
"C c #000000",
"D c #000000",
"E c #000000",
"F c #000000",
"G c #000000",
"H c #000000",
"I c #000000",
"J c #000000",
"K c #000000",
"L c #000000",
"M c #000000",
"N c #000000",
"O c #000000",
"P c #000000",
"Q c #000000",
"R c #000000",
"S c #000000",
"T c #000000",
"U c #000000",
"V c #000000",
"W c #000000",
"X c #000000",
"Y c #000000",
"Z c #000000",
"[ c #000000",
"] c #000000",
"^ c #000000",
"_ c #000000",
"` c #000000",
"a c #000000",
"b c #000000",
"c c #000000",
"d c #000000",
"e c #000000",
"f c #000000",
"g c #000000",
"h c #000000",
"i c #000000",
"j c #000000",
"k c #000000",
"l c #000000",
"m c #000000",
"n c #000000",
"o c #000000",
"p c #000000",
"q c #000000",
"r c #000000",
"s c #000000",
"t c #000000",
"u c #000000",
"v c #000000",
"w c #000000",
"x c #000000",
"y c #000000",
"z c #000000",
"{ c #000000",
"| c #000000",
"} c #000000",
"~ c #000000",
"&%%%(%*%))))())7#%%%)$)%**))))(7&%%%(%*%))))())7#%%%)$)%**))))(7",
"&--+---.-+-+--+0%..---+-------.4&--+---.-+-+--+0%..---+-------.4",
"%,-+/---+-+/---2%,-/-+-+/+---,+2%,-+/---+-+/---2%,-/-+-+/+---,+2",
")-+.--+/-+-----2)---+-+.+,-./--2)-+.--+/-+-----2)---+-+.+,-./--2",
"%-----+---/--+-2%+-.-----/--+-/2%-----+---/--+-2%+-.-----/--+-/2",
")--/,+---+-----9(----+/-+----+-7)--/,+---+-----9(----+/-+----+-7",
")-..+---+-,---+2),----+.----+-,3)-..+---+-,---+2),----+.----+-,3",
"*--+-,/+-+--/+-5)--.-+-----+---7*--+-,/+-+--/+-5)--.-+-----+---7",
")-,-+---.--,+-.2)---++,--/+.,--2)-,-+---.--,+-.2)---++,--/+.,--2",
")--,---,---+++-9*--+/+-----+---8)--,---,---+++-9*--+/+-----+---8",
"*-+/,---.---+--2)-,-++--.-+,-/+2*-+/,---.---+--2)-,-++--.-+,-/+2",
")+/+----/--+/+.7).-+-----+-,--.7)+/+----/--+/+.7).-+-----+-,--.7",
"'---------+,+,-7)--+--,/-+-----7'---------+,+,-7)--+--,/-+-----7",
")-/---.--+.++-/5)--------------5)-/---.--+.++-/5)--------------5",
")+.---/-+-/----6)+---.---.---,+7)+.---/-+-/----6)+---.---.---,+7",
"722201207272777:522422027090779:722201207272777:522422027090779:",
"&%%&)%)%))*))))8%$%&)#*$))')()'7&%%&)%)%))*))))8%$%&)#*$))')()'7",
"%-+-.-----/---+2%/--+----++----2%-+-.-----/---+2%/--+----++----2",
"%.-/.---.+---,-4%+/+--+---+++--2%.-/.---.+---,-4%+/+--+---+++--2",
"'-+-/+-/+---+--2)-+++---.--+-/-2'-+-/+-/+---+--2)-+++---.--+-/-2",
"&-,----+,--+--,2$+-+-+---.+--.-1&-,----+,--+--,2$+-+-+---.+--.-1",
")--/--+-+-,----7'-+/-----+./+--7)--/--+-+-,----7'-+/-----+./+--7",
"*-+-.+-+++--/--4).---,-/----+,-2*-+-.+-+++--/--4).---,-/----+,-2",
")---,-+,/--+-.+5)-------+--+---6)---,-+,/--+-.+5)-------+--+---6",
")--++/-++------2(--/----+-+-+/+2)--++/-++------2(--/----+-+-+/+2",
")+--+----,---+-7)-+--,-+.,-+++.7)+--+----,---+-7)-+--,-+.,-+++.7",
")/-+---,---,---2)-/+--+-+,+/+--2)/-+---,---,---2)-/+--+-+,+/+--2",
")-./+---/--.--+9)----/.+-+-+---6)-./+---/--.--+9)----/.+-+-+---6",
")----+-+--/+-,-7)-----/---.--/-7)----+-+--/+-,-7)-----/---.--/-7",
")-/-+-+--++-+--5*---,+-+-+--+-,7)-/-+-+--++-+--5*---,+-+-+--+-,7",
"),---/-----,---7)-+/-,--.,-----7),---/-----,---7)-+/-,--.,-----7",
"721202227282797;702222129272775:721202227282797;702222129272775:",
"&%%%(%*%))))())7#%%%)$)%**))))(7&%%%(%*%))))())7#%%%)$)%**))))(7",
"&--+---.-+-+--+0%..---+-------.4&--+---.-+-+--+0%..---+-------.4",
"%,-+/---+-+/---2%,-/-+-+/+---,+2%,-+/---+-+/---2%,-/-+-+/+---,+2",
")-+.--+/-+-----2)---+-+.+,-./--2)-+.--+/-+-----2)---+-+.+,-./--2",
"%-----+---/--+-2%+-.-----/--+-/2%-----+---/--+-2%+-.-----/--+-/2",
")--/,+---+-----9(----+/-+----+-7)--/,+---+-----9(----+/-+----+-7",
")-..+---+-,---+2),----+.----+-,3)-..+---+-,---+2),----+.----+-,3",
"*--+-,/+-+--/+-5)--.-+-----+---7*--+-,/+-+--/+-5)--.-+-----+---7",
")-,-+---.--,+-.2)---++,--/+.,--2)-,-+---.--,+-.2)---++,--/+.,--2",
")--,---,---+++-9*--+/+-----+---8)--,---,---+++-9*--+/+-----+---8",
"*-+/,---.---+--2)-,-++--.-+,-/+2*-+/,---.---+--2)-,-++--.-+,-/+2",
")+/+----/--+/+.7).-+-----+-,--.7)+/+----/--+/+.7).-+-----+-,--.7",
"'---------+,+,-7)--+--,/-+-----7'---------+,+,-7)--+--,/-+-----7",
")-/---.--+.++-/5)--------------5)-/---.--+.++-/5)--------------5",
")+.---/-+-/----6)+---.---.---,+7)+.---/-+-/----6)+---.---.---,+7",
"722201207272777:522422027090779:722201207272777:522422027090779:",
"&%%&)%)%))*))))8%$%&)#*$))')()'7&%%&)%)%))*))))8%$%&)#*$))')()'7",
"%-+-.-----/---+2%/--+----++----2%-+-.-----/---+2%/--+----++----2",
"%.-/.---.+---,-4%+/+--+---+++--2%.-/.---.+---,-4%+/+--+---+++--2",
"'-+-/+-/+---+--2)-+++---.--+-/-2'-+-/+-/+---+--2)-+++---.--+-/-2",
"&-,----+,--+--,2$+-+-+---.+--.-1&-,----+,--+--,2$+-+-+---.+--.-1",
")--/--+-+-,----7'-+/-----+./+--7)--/--+-+-,----7'-+/-----+./+--7",
"*-+-.+-+++--/--4).---,-/----+,-2*-+-.+-+++--/--4).---,-/----+,-2",
")---,-+,/--+-.+5)-------+--+---6)---,-+,/--+-.+5)-------+--+---6",
")--++/-++------2(--/----+-+-+/+2)--++/-++------2(--/----+-+-+/+2",
")+--+----,---+-7)-+--,-+.,-+++.7)+--+----,---+-7)-+--,-+.,-+++.7",
")/-+---,---,---2)-/+--+-+,+/+--2)/-+---,---,---2)-/+--+-+,+/+--2",
")-./+---/--.--+9)----/.+-+-+---6)-./+---/--.--+9)----/.+-+-+---6",
")----+-+--/+-,-7)-----/---.--/-7)----+-+--/+-,-7)-----/---.--/-7",
")-/-+-+--++-+--5*---,+-+-+--+-,7)-/-+-+--++-+--5*---,+-+-+--+-,7",
"),---/-----,---7)-+/-,--.,-----7),---/-----,---7)-+/-,--.,-----7",
"721202227282797;702222129272775:721202227282797;702222129272775:"
};