/* XPM */
static char * result[] = {
"64 64 92 1",
"! c #000000",
"# c #EFEFEF",
"$ c #DFDFDF",
"% c #D3D3D3",
"& c #C7C7C7",
"' c #B7B7B7",
"( c #ABABAB",
") c #9B9B9B",
"* c #8F8F8F",
"+ c #838383",
", c #7B7B7B",
"- c #737373",
". c #6B6B6B",
"/ c #676767",
"0 c #5F5F5F",
"1 c #575757",
"2 c #535353",
"3 c #4F4F4F",
"4 c #4B4B4B",
"5 c #474747",
"6 c #3F3F3F",
"7 c #3B3B3B",
"8 c #1F1F1F",
"9 c #000000",
": c #000000",
"; c #000000",
"< c #000000",
"= c #000000",
"> c #000000",
"? c #000000",
"@ c #000000",
"A c #000000",
"B c #000000",
"C c #000000",
"D c #000000",
"E c #000000",
"F c #000000",
"G c #000000",
"H c #000000",
"I c #000000",
"J c #000000",
"K c #000000",
"L c #000000",
"M c #000000",
"N c #000000",
"O c #000000",
"P c #000000",
"Q c #000000",
"R c #000000",
"S c #000000",
"T c #000000",
"U c #000000",
"V c #000000",
"W c #000000",
"X c #000000",
"Y c #000000",
"Z c #000000",
"[ c #000000",
"] c #000000",
"^ c #000000",
"_ c #000000",
"` c #000000",
"a c #000000",
"b c #000000",
"c c #000000",
"d c #000000",
"e c #000000",
"f c #000000",
"g c #000000",
"h c #000000",
"i c #000000",
"j c #000000",
"k c #000000",
"l c #000000",
"m c #000000",
"n c #000000",
"o c #000000",
"p c #000000",
"q c #000000",
"r c #000000",
"s c #000000",
"t c #000000",
"u c #000000",
"v c #000000",
"w c #000000",
"x c #000000",
"y c #000000",
"z c #000000",
"{ c #000000",
"| c #000000",
"} c #000000",
"~ c #000000",
"8787878787878787878787878787878787878787878787878787878787878787",
"12131313134%$$$%$%$$$%$%$$$87+('%&%%&%'&(+1855555555552313131313",
"21221222125$%&%'%%%&%%'%%&*87+&'*(+****+(3787.**+***,./555455545",
"**+***+*824$&&'%'&&'&&''%*087(%(*(*(+(*(+1787*%$$$%$''(*+***+***",
"%%%%'(*+815$%(()(*(((()((,287*'**+((((+*-3787+$$'&'%$$$%$%&%%%&%",
"(((()(,-825#')(((()(*(+((.2875(*((+*)*(.12787*%'(*(*(()**(*(+(*)",
"')))(*,.845#%(+(*(*)))**(*3875,*+(*((+(-77787+$'*(+)+**(+*)*()*)",
"'(+'+)01875#&*)*(()*,**(*018755*(()***(.77787*$((+),(),*(+((*,()",
")((*)-54884&'()(+(*)+)**(.288425,777777778877-$$*(++)-)*(**,((-*",
"**+*-255875(#()(******+(+1,8875777777787888555&&****)))+*(*((+(*",
"-.--3477884*%*(**,**(+(*(.17875788888887878425&(*(+(*+*-./00/0/0",
"21555888876-$(+),,,()*+,*./7875544-,*()(()-734'*.-/0/12225454554",
"888887878725$&***))+*(,*(*37876-((%$#%%%).2825*./024557777787878",
"878788787735(%*(+,*(*+)*+-37887('$%'+(*(+-7877777777777888888888",
"777777777744*&(+()+,*,*(*317876($'(***+**37878878878878667777777",
"247777778725-&+()*()(+(+(3-5884(#(*+(*(+(27875121185455455555556",
"))*)*)*))8815&')*+))-****.12884(#+*((+(**3787.($%152,))*)))*))))",
"%&%%&%'(-6815*'*(*,**+(*.*.4884(&((*+(*(+1787(%&(85,&%$$$%$$$%$%",
"()*(*((.-7825-)(+((+(-*.2-24884(&(*.--.212787%&(+84)%%''('''('''",
"(*)*(+*.-78525)*--.-22-3-258887)*-*.777777780$(**85)$(()(*(*)+))",
"(**(+((.178525/2121555788888888*-777888888880$((+84)%(*)+)*)-+*+",
"(*(*(+*-378525878788888888888877378888878878*$((*85*&+()(*(*)+))",
"*(-,**(.17873147888888883443445***((***,186/'$(+,84+&(+)*)+),,**",
"*++,*(+/5787+$$$%&((*074/,(('&&$$$%$$$&)/87,$&)(-85+'()*(+(*,,**",
"**((+**04787%&(*))(*)734,%#$$&''&'&'&'&.187*$()*.84.&+(**)*+(*(*",
")(+*(+-27787$)*)((*)(824)$&*(+()+()()*+/587*#(+(1845*-0122//.,*+",
"/0/0/2577787%(((+(*(0845)#()(*,((*+*(+(1587+#((*1828775555455212",
"245777888887$+(*((*,0845)#+(*)(+*,*(***3487*#+(*3817888888888775",
"888888878445$()+(*(,0875)#**(+*,*,*+*(*3487+#((+1817777777878888",
"5//.*)*+**58$(-)*(++/785*#(*+*,*,*(,*+(2587*#*((3815653231221777",
"/*'$%$%%&(-8$((+,*(+/785*$')*(*(-,*,*(+1787*%**(384($%'*01554552",
"/(%&&'(()(68#*)(,*().584,%&(+*-*,,(*(++3787*$(**284$+*'$$%$$$*72",
"/$'((+(*(+-8#)(*((+(.4873&$(()*(+(,,*(.1786*%*(*384$*+((+*(*++73",
"/%')+(*(+(-8#)+)(*(+/2881(#(()**,*,,(+-5784*%((+185$((+*((+(*075",
"/$(*(*((,(38$(((***(/3873*#'(*(+*)+(*(05876*%)*(384&(*((+*(*(075",
"/$((**))(+18$',),(()01884.%'(*,)+*)***07884*%*(3184&()(*(+*()175",
"/%'*((*(+(28&$+)(***018842'$(+(*(*(+*/27875,(,37776((*()*(*+(177",
"/$'()*(*(*38'$,(+**(.18873*'(*,/0254777787617777658-352121221277",
"/$(*((+(,(28)%),((+*.188725**01578888888875355321218888888888887",
"/%'*+)(*(+18,$()(+*(/3888357878888787887875215545554557777777777",
"/$'((+)(*(281#*)**(+/288755577777454634545512,,,,,,,,,,,,,,,,-73",
"/$(**(+(*.185#(*+,*(.18886/,,,,,,,,,,,,,***)('(&'&'&''&'&'&'&,73",
"/&'((*(*(3883#)*(**+/17887,&'&'&'&&'&'&'&'%$$###########%$%%*/84",
"/%'*(*((+1876#*(,)+(/37888,&&#####$$##$#####$$%%'''&'('&''&',183",
"/''(*(+**3875$((+(**017888,&&'&'&'&('&('&''(())**(*(+**(+(*(.177",
"4&+*(+-.-2875%+*(+(*.17888/'$'**+***(+((**)(((*,)+(()+(*(()*.287",
"5'(()*1228865'(+*(*+-278885&$'***(*)*)(+*)((+)*)**,+))*(+(*(.177",
"5,,,121228776))(+**./278888'$%((+***,*+(*)+(),+*(+*(*,-*,)**-287",
"5788812218764,/0//0/2278887(%%*+(*(+*(*,,))+(*(**(+*,**+(*-+.187",
"212578888776777777777778888*%'(**(+(,*+),)*),(+*,***+(*,**+,.187",
"545554578874778888888888887+).--.--.(*((+*,+**,**(+(**(+***).187",
"5,((((**/4427788788788787872577878781-.,*,,,,,,,,,,,,,,,,,,,/387",
"5(&%$%$$'((*.014777777777761557777778422121212122212122121222877",
"5(%((*'%$$$'((((((()**+,,.//315556577878787878787888888888888876",
"5($((('(*('$$$%$%$%$$$$&%&'(((((+4257777777778878787878787877754",
"5($(+(,,()*,(+(*(*((+(*(((&%$%%'+7534557778777777777777777776542",
"5(&(((*(***)(+*(,-*(,*+*(+(*(((,/8734(%$),4452225565556556553122",
"5(&(+(,,)(+(()+,(,*,)+(*(*(+(()/28755$(($$$%'224'$$%$$$%%&(),452",
"5(+/0/0/0//0/0//0/0/0//0/0/0/0/127875%'('('''01,$)((*(+()(*(%)82",
"5*/7777777777777777777777777777777884'('')0)+/5'(*(+(((+(*(+(281",
"57888888888888888888888888888888888837573/0//04$)))((*)())(**381",
"2477787887887887878878878878878878786317788888721222221321213182",
"2132555445447777777777777777777777777313277777732888888888888881",
"7777777777777777777777777777777777777777777777777777777777777777"
};