/* XPM */
static char * result[] = {
"128 128 92 1",
"! c #000000",
"# c #C6ABA7",
"$ c #AD9695",
"% c #AA8E8A",
"& c #9D8B8E",
"' c #9D8583",
"( c #9A7F7C",
") c #907F82",
"* c #937877",
"+ c #907371",
", c #887374",
"- c #817479",
". c #7E7072",
"/ c #7D6C6F",
"0 c #826866",
"1 c #7A6769",
"2 c #73676B",
"3 c #7A6160",
"4 c #716163",
"5 c #745C5C",
"6 c #6A6266",
"7 c #695C60",
"8 c #68585A",
"9 c #5F575C",
": c #6A5253",
"; c #625153",
"< c #5E5356",
"= c #5E4F50",
"> c #58525A",
"? c #565056",
"@ c #574E51",
"A c #614749",
"B c #584748",
"C c #544A4D",
"D c #544345",
"E c #4F4A4E",
"F c #4E464B",
"G c #4D4447",
"H c #4D4244",
"I c #474248",
"J c #4C3F42",
"K c #473E42",
"L c #493D3C",
"M c #443E43",
"N c #423C3F",
"O c #4C3737",
"P c #443739",
"Q c #40393D",
"R c #403637",
"S c #3C373C",
"T c #3B3538",
"U c #3A3437",
"V c #443131",
"W c #3D3031",
"X c #373135",
"Y c #3E2D2E",
"Z c #3D2729",
"[ c #36292B",
"] c #332F33",
"^ c #312D31",
"_ c #322B2D",
"` c #2E2B2E",
"a c #2F282B",
"b c #2A2829",
"c c #2E2627",
"d c #2F2122",
"e c #292426",
"f c #252325",
"g c #242022",
"h c #2A1D1E",
"i c #231E20",
"j c #1F1E1E",
"k c #1F1B1D",
"l c #22191B",
"m c #231415",
"n c #1B1919",
"o c #191717",
"p c #171516",
"q c #151213",
"r c #111010",
"s c #150D0E",
"t c #0D0C0C",
"u c #140809",
"v c #0A0A0A",
"w c #080808",
"x c #070707",
"y c #050505",
"z c #030303",
"{ c #020202",
"| c #020101",
"} c #010101",
"~ c #000000",
"!!!!!!!!!!!!!!!!!!!!!!!!!!!!!!!!!!!!!!!!!!!!!!!!!!!!!!!!!!!!!!!!!!!!!!!!!!!!!!!!!!!!!!!!!!!!!!!!!!!!!!!!!!!!!!!!!!!!!!!!!!!!!!!!",
"!!!!!!!!!!!!!!!!!!!!!!!!!!!!!!!!!!!!!!!!!!!!!!!!!!!!!!!!!!!!!!!!!!!!!!!!!!!!!!!!!!!!!!!!!!!!!!!!!!!!!!!!!!!!!!!!!!!!!!!!!!!!!!!!",
"!!!!!!!!!!!!!!!!!!!!!!!!!!!!!!!!!!!!!!!!!!!!!!!!!!!!!!!!!!!!!!!!!!!!!!!!!!!!!!!!!!!!!!!!!!!!!!!!!!!!!!!!!!!!!!!!!!!!!!!!!!!!!!!!",
"!!!!!!!!!!!!!!!!!!!!!!!!!!!!!!!!!!!!!!!!!!!!!!!!!!!!!!!!!!!!!!!!!!!!!!!!!!!!!!!!!!!!!!!!!!!!!!!!!!!!!!!!!!!!!!!!!!!!!!!!!!!!!!!!",
"!!!!!!!!!!!!!!!!!!!!!!!!!!!!!!!!!!!!!!!!!!!!!!!!!!!!!!!!!!!!!!!!!!!!!!!!!!!!!!!!!!!!!!!!!!!!!!!!!!!!!!!!!!!!!!!!!!!!!!!!!!!!!!!!",
"!!!!!!!!!!!!!!!!!!!!!!!!!!!!!!!!!!!!!!!!!!!!!!!!!!!!!!!!!!!!!!!!!!!!!!!!!!!!!!!!!!!!!!!!!!!!!!!!!!!!!!!!!!!!!!!!!!!!!!!!!!!!!!!!",
"!!!!!!!!!!!!!!!!!!!!!!!!!!!!!!!!!!!!!!!!!!!!!!!!!!!!!!!!!!!!!!!!!!!!!!!!!!!!!!!!!!!!!!!!!!!!!!!!!!!!!!!!!!!!!!!!!!!!!!!!!!!!!!!!",
"!!!!!!!!!!!!!!!!!!!!!!!!!!!!!!!!!!!!!!!!!!!!!!!!!!!!!!!!!!!!!!!!!!!!!!!!!!!!!!!!!!!!!!!!!!!!!!!!!!!!!!!!!!!!!!!!!!!!!!!!!!!!!!!!",
"!!!!!!!!!!!!!!!!!!!!!!!!!!!!!!!!!!!!!!!!!!!!!!!!!!!!!!!!!!!!!!!!!!!!!!!!!!!!!!!!!!!!!!!!!!!!!!!!!!!!!!!!!!!!!!!!!!!!!!!!!!!!!!!!",
"!!!!!!!!!!!!!!!!!!!!!!!!!!!!!!!!!!!!!!!!!!!!!!!!!!!!!!!!!!!!!!!!!!!!!!!!!!!!!!!!!!!!!!!!!!!!!!!!!!!!!!!!!!!!!!!!!!!!!!!!!!!!!!!!",
"!!!!!!!!!!!!!!!!!!!!!!!!!!!!!!!!!!!!!!!!!!!!!!!!!!!!!!!!!!!!!!!!!!!!!!!!!!!!!!!!!!!!!!!!!!!!!!!!!!!!!!!!!!!!!!!!!!!!!!!!!!!!!!!!",
"!!!!!!!!!!!!!!!!!!!!!!!!!!!!!!!!!!!!!!!!!!!!!!!!!!!!!!!!!!!!!!!!!!!!!!!!!!!!!!!!!!!!!!!!!!!!!!!!!!!!!!!!!!!!!!!!!!!!!!!!!!!!!!!!",
"!!!!!!!!!!!!!!!!!!!!!!!!!!!!!!!!!!!!!!!!!!!!!!!!!!!!!!!!!!!!!!!!!!!!!!!!!!!!!!!!!!!!!!!!!!!!!!!!!!!!!!!!!!!!!!!!!!!!!!!!!!!!!!!!",
"!!!!!!!!!!!!!!!!!!!!!!!!!!!!!!!!!!!!!!!!!!!!!!!!!!!!!!!!!!!!!!!!!!!!!!!!!!!!!!!!!!!!!!!!!!!!!!!!!!!!!!!!!!!!!!!!!!!!!!!!!!!!!!!!",
"!!!!!!!!!!!!!!!!!!!!!!!!!!!!!!!!!!!!!!!!!!!!!!!!!!!!!!!!!!!!!!!!!!!!!!!!!!!!!!!!!!!!!!!!!!!!!!!!!!!!!!!!!!!!!!!!!!!!!!!!!!!!!!!!",
"!!!!!!!!!!!!!!!!!!!!!!!!!!!!!!!!!!!!!!!!!!!!!!!!!!!!!!!!!!!!!!!!!!!!!!!!!!!!!!!!!!!!!!!!!!!!!!!!!!!!!!!!!!!!!!!!!!!!!!!!!!!!!!!!",
"!!!!!!!!!!!!!!!!!!!!!!!!!!!!!!!!!!!!!!!!!!!!!!!!!!!!!!!!!!!!!!!!!!!!!!!!!!!!!!!!!!!!!!!!!!!!!!!!!!!!!!!!!!!!!!!!!!!!!!!!!!!!!!!!",
"!!!!!!!!!!!!!!!!!!!!!!!!!!!!!!!!!!!!!!!!!!!!!!!!!!!!!!!!!!!!!!!!!!!!!!!!!!!!!!!!!!!!!!!!!!!!!!!!!!!!!!!!!!!!!!!!!!!!!!!!!!!!!!!!",
"!!!!!!!!!!!!!!!!!!!!!!!!!!!!!!!!!!!!!!!!!!!!!!!!!!!!!!!!!!!!!!!!!!!!!!!!!!!!!!!!!!!!!!!!!!!!!!!!!!!!!!!!!!!!!!!!!!!!!!!!!!!!!!!!",
"!!!!!!!!!!!!!!!!!!!!!!!!!!!!!!!!!!!!!!!!!!!!!!!!!!!!!!!!!!!!!!!!!!!!!!!!!!!!!!!!!!!!!!!!!!!!!!!!!!!!!!!!!!!!!!!!!!!!!!!!!!!!!!!!",
"!!!!!!!!!!!!!!!!!!!!!!!!!!!!!!!!!!!!!!!!!!!!!!!!!!!!!!!!!!!!!!!!!!!!!!!!!!!!!!!!!!!!!!!!!!!!!!!!!!!!!!!!!!!!!!!!!!!!!!!!!!!!!!!!",
"!!!!!!!!!!!!!!!!!!!!!!!!!!!!!!!!!!!!!!!!!!!!!!!!!!!!!!!!!!!!!!!!!!!!!!!!!!!!!!!!!!!!!!!!!!!!!!!!!!!!!!!!!!!!!!!!!!!!!!!!!!!!!!!!",
"!!!!!!!!!!!!!!!!!!!!!!!!!!!!!!!!!!!!!!!!!!!!!!!!!!!!!!!!!!!!!!!!!!!!!!!!!!!!!!!!!!!!!!!!!!!!!!!!!!!!!!!!!!!!!!!!!!!!!!!!!!!!!!!!",
"!!!!!!!!!!!!!!!!!!!!!!!!!!!!!!!!!!!!!!!!!!!!!!!!!!!!!!!!!!!!!!!!!!!!!!!!!!!!!!!!!!!!!!!!!!!!!!!!!!!!!!!!!!!!!!!!!!!!!!!!!!!!!!!!",
"!!!!!!!!!!!!!!!!!!!!!!!!!!!!!!!!!!!!!!!!!!!!!!!!!!!!!!!!!!!!!!!!!!!!!!!!!!!!!!!!!!!!!!!!!!!!!!!!!!!!!!!!!!!!!!!!!!!!!!!!!!!!!!!!",
"!!!!!!!!!!!!!!!!!!!!!!!!!!!!!!!!!!!!!!!!!!!!!!!!!!!!!!!!!!!!!!!!!!!!!!!!!!!!!!!!!!!!!!!!!!!!!!!!!!!!!!!!!!!!!!!!!!!!!!!!!!!!!!!!",
"!!!!!!!!!!!!!!!!!!!!!!!!!!!!!!!!!!!!!!!!!!!!!!!!!!!!!!!!!!!!!!!!!!!!!!!!!!!!!!!!!!!!!!!!!!!!!!!!!!!!!!!!!!!!!!!!!!!!!!!!!!!!!!!!",
"!!!!!!!!!!!!!!!!!!!!!!!!!!!!!!!!!!!!!!!!!!!!!!!!!!!!!!!!!!!!!!!!!!!!!!!!!!!!!!!!!!!!!!!!!!!!!!!!!!!!!!!!!!!!!!!!!!!!!!!!!!!!!!!!",
"!!!!!!!!!!!!!!!!!!!!!!!!!!!!!!!!!!!!!!!!!!!!!!!!!!!!!!!!!!!!!!!!!!!!!!!!!!!!!!!!!!!!!!!!!!!!!!!!!!!!!!!!!!!!!!!!!!!!!!!!!!!!!!!!",
"!!!!!!!!!!!!!!!!!!!!!!!!!!!!!!!!!!!!!!!!!!!!!!!!!!!!!!!!!!!!!!!!!!!!!!!!!!!!!!!!!!!!!!!!!!!!!!!!!!!!!!!!!!!!!!!!!!!!!!!!!!!!!!!!",
"!!!!!!!!!!!!!!!!!!!!!!!!!!!!!!!!!!!!!!!!!!!!!!!!!!!!!!!!!!!!!!!!!!!!!!!!!!!!!!!!!!!!!!!!!!!!!!!!!!!!!!!!!!!!!!!!!!!!!!!!!!!!!!!!",
"!!!!!!!!!!!!!!!!!!!!!!!!!!!!!!!!!!!!!!!!!!!!!!!!!!!!!!!!!!!!!!!!!!!!!!!!!!!!!!!!!!!!!!!!!!!!!!!!!!!!!!!!!!!!!!!!!!!!!!!!!!!!!!!!",
"!!!!!!!!!!!!!!!!!!!!!!!!!!!!!!!!!!!!!!!!!!!!!!!!!!!!!!!!!!!!!!!!!!!!!!!!!!!!!!!!!!!!!!!!!!!!!!!!!!!!!!!!!!!!!!!!!!!!!!!!!!!!!!!!",
"!!!!!!!!!!!!!!!!!!!!!!!!!!!!!!!!!!!!!!!!!!!!!!!!!!!!!!!!!!!!!!!!!!!!!!!!!!!!!!!!!!!!!!!!!!!!!!!!!!!!!!!!!!!!!!!!!!!!!!!!!!!!!!!!",
"!!!!!!!!!!!!!!!!!!!!!!!!!!!!!!!!!!!!!!!!!!!!!!!!!!!!!!!!!!!!!!!!!!!!!!!!!!!!!!!!!!!!!!!!!!!!!!!!!!!!!!!!!!!!!!!!!!!!!!!!!!!!!!!!",
"!!!!!!!!!!!!!!!!!!!!!!!!!!!!!!!!!!!!!!!!!!!!!!!!!!!!!!!!!!!!!!!!!!!!!!!!!!!!!!!!!!!!!!!!!!!!!!!!!!!!!!!!!!!!!!!!!!!!!!!!!!!!!!!!",
"!!!!!!!!!!!!!!!!!!!!!!!!!!!!!!!!!!!!!!!!!!!!!!!!!!!!!!!!!!!!!!!!!!!!!!!!!!!!!!!!!!!!!!!!!!!!!!!!!!!!!!!!!!!!!!!!!!!!!!!!!!!!!!!!",
"!!!!!!!!!!!!!!!!!!!!!!!!!!!!!!!!!!!!!!!!!!!!!!!!!!!!!!!!!!!!!!!!!!!!!!!!!!!!!!!!!!!!!!!!!!!!!!!!!!!!!!!!!!!!!!!!!!!!!!!!!!!!!!!!",
"!!!!!!!!!!!!!!!!!!!!!!!!!!!!!!!!!!!!!!!!!!!!!!!!!!!!!!!!!!!!!!!!!!!!!!!!!!!!!!!!!!!!!!!!!!!!!!!!!!!!!!!!!!!!!!!!!!!!!!!!!!!!!!!!",
"!!!!!!!!!!!!!!!!!!!!!!!!!!!!!!!!!!!!!!!!!!!!!!!!!!!!!!!!!!!!!!!!!!!!!!!!!!!!!!!!!!!!!!!!!!!!!!!!!!!!!!!!!!!!!!!!!!!!!!!!!!!!!!!!",
"!!!!!!!!!!!!!!!!!!!!!!!!!!!!!!!!!!!!!!!!!!!!!!!!!!!!!!!!!!!!!!!!!!!!!!!!!!!!!!!!!!!!!!!!!!!!!!!!!!!!!!!!!!!!!!!!!!!!!!!!!!!!!!!!",
"!!!!!!!!!!!!!!!!!!!!!!!!!!!!!!!!!!!!!!!!!!!!!!!!!!!!!!!!!!!!!!!!!!!!!!!!!!!!!!!!!!!!!!!!!!!!!!!!!!!!!!!!!!!!!!!!!!!!!!!!!!!!!!!!",
"!!!!!!!!!!!!!!!!!!!!!!!!!!!!!!!!!!!!!!!!!!!!!!!!!!!!!!!!!!!!!!!!!!!!!!!!!!!!!!!!!!!!!!!!!!!!!!!!!!!!!!!!!!!!!!!!!!!!!!!!!!!!!!!!",
"!!!!!!!!!!!!!!!!!!!!!!!!!!!!!!!!!!!!!!!!!!!!!!!!!!!!!!!!!!!!!!!!!!!!!!!!!!!!!!!!!!!!!!!!!!!!!!!!!!!!!!!!!!!!!!!!!!!!!!!!!!!!!!!!",
"!!!!!!!!!!!!!!!!!!!!!!!!!!!!!!!!!!!!!!!!!!!!!!!!!!!!!!!!!!!!!!!!!!!!!!!!!!!!!!!!!!!!!!!!!!!!!!!!!!!!!!!!!!!!!!!!!!!!!!!!!!!!!!!!",
"!!!!!!!!!!!!!!!!!!!!!!!!!!!!!!!!!!!!!!!!!!!!!!!!!!!!!!!!!!!!!!!!!!!!!!!!!!!!!!!!!!!!!!!!!!!!!!!!!!!!!!!!!!!!!!!!!!!!!!!!!!!!!!!!",
"!!!!!!!!!!!!!!!!!!!!!!!!!!!!!!!!!!!!!!!!!!!!!!!!!!!!!!!!!!!!!!!!!!!!!!!!!!!!!!!!!!!!!!!!!!!!!!!!!!!!!!!!!!!!!!!!!!!!!!!!!!!!!!!!",
"!!!!!!!!!!!!!!!!!!!!!!!!!!!!!!!!!!!!!!!!!!!!!!!!!!!!!!!!!!!!!!!!!!!!!!!!!!!!!!!!!!!!!!!!!!!!!!!!!!!!!!!!!!!!!!!!!!!!!!!!!!!!!!!!",
"!!!!!!!!!!!!!!!!!!!!!!!!!!!!!!!!!!!!!!!!!!!!!!!!!!!!!!!!!!!!!!!!!!!!!!!!!!!!!!!!!!!!!!!!!!!!!!!!!!!!!!!!!!!!!!!!!!!!!!!!!!!!!!!!",
"!!!!!!!!!!!!!!!!!!!!!!!!!!!!!!!!!!!!!!!!!!!!!!!!!!!!!!!!!!!!!!!!!!!!!!!!!!!!!!!!!!!!!!!!!!!!!!!!!!!!!!!!!!!!!!!!!!!!!!!!!!!!!!!!",
"!!!!!!!!!!!!!!!!!!!!!!!!!!!!!!!!!!!!!!!!!!!!!!!!!!!!!!!!!!!!!!!!!!!!!!!!!!!!!!!!!!!!!!!!!!!!!!!!!!!!!!!!!!!!!!!!!!!!!!!!!!!!!!!!",
"!!!!!!!!!!!!!!!!!!!!!!!!!!!!!!!!!!!!!!!!!!!!!!!!!!!!!!!!!!!!!!!!!!!!!!!!!!!!!!!!!!!!!!!!!!!!!!!!!!!!!!!!!!!!!!!!!!!!!!!!!!!!!!!!",
"!!!!!!!!!!!!!!!!!!!!!!!!!!!!!!!!!!!!!!!!!!!!!!!!!!!!!!!!!!!!!!!!!!!!!!!!!!!!!!!!!!!!!!!!!!!!!!!!!!!!!!!!!!!!!!!!!!!!!!!!!!!!!!!!",
"!!!!!!!!!!!!!!!!!!!!!!!!!!!!!!!!!!!!!!!!!!!!!!!!!!!!!!!!!!!!!!!!!!!!!!!!!!!!!!!!!!!!!!!!!!!!!!!!!!!!!!!!!!!!!!!!!!!!!!!!!!!!!!!!",
"!!!!!!!!!!!!!!!!!!!!!!!!!!!!!!!!!!!!!!!!!!!!!!!!!!!!!!!!!!!!!!!!!!!!!!!!!!!!!!!!!!!!!!!!!!!!!!!!!!!!!!!!!!!!!!!!!!!!!!!!!!!!!!!!",
"!!!!!!!!!!!!!!!!!!!!!!!!!!!!!!!!!!!!!!!!!!!!!!!!!!!!!!!!!!!!!!!!!!!!!!!!!!!!!!!!!!!!!!!!!!!!!!!!!!!!!!!!!!!!!!!!!!!!!!!!!!!!!!!!",
"!!!!!!!!!!!!!!!!!!!!!!!!!!!!!!!!!!!!!!!!!!!!!!!!!!!!!!!!!!!!!!!!!!!!!!!!!!!!!!!!!!!!!!!!!!!!!!!!!!!!!!!!!!!!!!!!!!!!!!!!!!!!!!!!",
"!!!!!!!!!!!!!!!!!!!!!!!!!!!!!!!!!!!!!!!!!!!!!!!!!!!!!!!!!!!!!!!!!!!!!!!!!!!!!!!!!!!!!!!!!!!!!!!!!!!!!!!!!!!!!!!!!!!!!!!!!!!!!!!!",
"!!!!!!!!!!!!!!!!!!!!!!!!!!!!!!!!!!!!!!!!!!!!!!!!!!!!!!!!!!!!!!!!!!!!!!!!!!!!!!!!!!!!!!!!!!!!!!!!!!!!!!!!!!!!!!!!!!!!!!!!!!!!!!!!",
"!!!!!!!!!!!!!!!!!!!!!!!!!!!!!!!!!!!!!!!!!!!!!!!!!!!!!!!!!!!!!!!!!!!!!!!!!!!!!!!!!!!!!!!!!!!!!!!!!!!!!!!!!!!!!!!!!!!!!!!!!!!!!!!!",
"!!!!!!!!!!!!!!!!!!!!!!!!!!!!!!!!!!!!!!!!!!!!!!!!!!!!!!!!!!!!!!!!!!!!!!!!!!!!!!!!!!!!!!!!!!!!!!!!!!!!!!!!!!!!!!!!!!!!!!!!!!!!!!!!",
"!!!!!!!!!!!!!!!!!!!!!!!!!!!!!!!!!!!!!!!!!!!!!!!!!!!!!!!!!!!!!!!!!!!!!!!!!!!!!!!!!!!!!!!!!!!!!!!!!!!!!!!!!!!!!!!!!!!!!!!!!!!!!!!!",
"!!!!!!!!!!!!!!!!!!!!!!!!!!!!!!!!!!!!!!!!!!!!!!!!!!!!!!!!!!!!!!!!!!!!!!!!!!!!!!!!!!!!!!!!!!!!!!!!!!!!!!!!!!!!!!!!!!!!!!!!!!!!!!!!",
"!!!!!!!!!!!!!!!!!!!!!!!!!!!!!!!!!!!!!!!!!!!!!!!!!!!!!!!!!!!!!!!!!!!!!!!!!!!!!!!!!!!!!!!!!!!!!!!!!!!!!!!!!!!!!!!!!!!!!!!!!!!!!!!!",
"!!!!!!!!!!!!!!!!!!!!!!!!!!!!!!!!!!!!!!!!!!!!!!!!!!!!!!!!!!!!!!!!!!!!!!!!!!!!!!!!!!!!!!!!!!!!!!!!!!!!!!!!!!!!!!!!!!!!!!!!!!!!!!!!",
"!!!!!!!!!!!!!!!!!!!!!!!!!!!!!!!!!!!!!!!!!!!!!!!!!!!!!!!!!!!!!!!!!!!!!!!!!!!!!!!!!!!!!!!!!!!!!!!!!!!!!!!!!!!!!!!!!!!!!!!!!!!!!!!!",
"!!!!!!!!!!!!!!!!!!!!!!!!!!!!!!!!!!!!!!141741!!!!!!!!!!!!!!!!!!!!!!!!!!!!!!!!!!!!!!!!478/.'!!!!!!!!!!!!!!!!!!!!!!!!!!!!!!!!!!!!!!",
"!!!!!!!!!!!!!!!!!!!!!!!!!!40+1+((*%(*,/2>9F774CK@@96-!!!!!!!!!!!!!!!!!!!!!!FH@GFCFGC7996.-'(%%%''*/*(,!!!!!!!!!!!!!!!!!!!!!!!!!!",
"!!!!!!!!!!!!!!!!!!!!!!!!;70,*''('(,.1.9=J8799=NNQM<9744!!!!!J;!!!!8<!!!!!JKGI<MGGJH<674112')*(%%'%$(+0=J!!!!!!!!!!!!!!!!!!!!!!!!",
"!!!!!!!!!!!!!!!!!!!!!!!!4%'(##$)/-/9--/666778CGIFINN96<<CHJHSIENCX@28;GLTIE?F<77EB<4-----)&&)$$'$##%0(*D!!!!!!!!!!!!!!!!!!!!!!!!",
"!!!!!!!!!!!!!!!!!!!!!!!!+(*%##$3D:4<22796299CPF@@C?M>>?eeQGX^Q]aKXGK@FT_X92.6...6<74--&)--))2000%##$+0+:!!!!!!!!!!!!!!!!!!!!!!!!",
"!!!!!!!!!!!!!!!!!!!!!!!!'*(%##%AD:1=5/;JBH?@H[KQK29E9?9gaJX]FISCb]S`U_KNX22-.-)CQHDD;485:5*0+**0'###+,00!!!!!!!!!!!!!!!!!!!!!!!!",
"!!!!!!!!!!!!!!!!!!!!!!!!'/'%##(DD7,/7==:AO[[_WKFJ>>E>>?IFJ`^^F]Sf]XnbURF>.--227CGJ@LLWB0+300'%(3(##$(*/3!!!!!!!!!!!!!!!!!!!!!!!!",
"!!!!!!!!!!!!!!!!!!!!!!!!**(/'$(DVB5358884DPW]K@.-22@@6@?=H`fLIXae`XoqiCJ8--/.&-)-@PWPA83+,,+*05A%##'*,*;!!!!!!!!!!!!!!!!!!!!!!!!",
"!!!!!!!!!!!!!!!!!!!!!!!!00/*'$'DmV::DOVYO=4DHK@9>926148KXU]bIMeKXfXfog_WD8+&&)27=DPD8(0BPA=303AZ%##'*18=!!!!!!!!!!!!!!!!!!!!!!!!",
"!!!!!!!!!!!!!!!!!!!!!!!!.0'/(%*OuudVBDBBOVhm[L==<9@7,,4CQ_R^QE@QTSSfkkaU=,%%-468=HPRc[OA1105DYZZ%##*3/8B!!!!!!!!!!!!!!!!!!!!!!!!",
"!!!!!!!!!!!!!!!!!!!!!!!!75&(0),ZmhdhdVOVVV[V[VLP=4/14;41Ja_UQX>^USeggno[83/,))1<RWY[YY;;:5;VZJ;4+#$*'.;C!!!!!!!!!!!!!!!!!!!!!!!!",
"!!!!!!!!!!!!!!!!!!!!!!!!1,&&5,4V!!!RW[YdmddhshJDD;1,8B5-8cW]X]IKNbgggoqc=881(,7DVVmmhVD[VVYcL.!!+%$,).87!!!!!!!!!!!!!!!!!!!!!!!!",
"!!!!!!!!!!!!!!!!!!!!!!!!43&&:)/:!!!!!!!!!RRalmL==7748;*,:LW_G@QTb]]`nqqh;5;34<8DVZshdB;@!!!!!!!!%$$,$)8<!!!!!!!!!!!!!!!!!!!!!!!!",
"!!!!!!!!!!!!!!!!!!!!!!!!/+&)0&44!!!!!!!!!!!!!UW[DJ=@4A1,BPPOB;@MNU[dmpsmJJA7BDZZms[C!!!!!!!!!!!!!##3$24C!!!!!!!!!!!!!!!!!!!!!!!!",
"!!!!!!!!!!!!!!!!!!!!!!!!2,&)/,1!!!!!!!!!!!!!!!!PW[dRVH.&,:LADO5;BBhhdlmc;=PZhmhmmH!!!!!!!!!!!!!!!$$.&24K!!!!!!!!!!!!!!!!!!!!!!!!",
"!!!!!!!!!!!!!!!!!!!!!!!!7)$&218!!!!!!!!!!!!!!!!GPPGDJPO))1DAAV5RW<lddlhRJddZPW[hL!!!!!!!!!!!!!!!!%&)$)4N!!!!!!!!!!!!!!!!!!!!!!!!",
"!!!!!!!!!!!!!!!!!!!!!!!!2,$$-7;!!!!!!!!!!!!!!!!!JRF94AD=/JD:5OYmmhdOYmlWhZO=CWh[!!!!!!!!!!!!!!!!!'%$$&8G!!!!!!!!!!!!!!!!!!!!!!!!",
"!!!!!!!!!!!!!!!!!!!!!!!!*0)$-7=!!!!!!!!!!!!!!!!!![dF116;77D0+:VDVZAAYma[[K;8Pmh!!!!!!!!!!!!!!!!!!''$$278!!!!!!!!!!!!!!!!!!!!!!!!",
"!!!!!!!!!!!!!!!!!!!!!!!!)1-)2=.!!!!!!!!!!!!!!!!!!!RhB;=FC480(5:+3A:B[l[i_YJVmP!!!!!!!!!!!!!!!!!!!)*&)64<!!!!!!!!!!!!!!!!!!!!!!!!",
"!!!!!!!!!!!!!!!!!!!!!!!!,*2)4B!!!!!!!!!!!!!!!!!!!!!!ZD48DBDV0*0**3:YumhhWDYmH!!!!!!!!!!!!!!!!!!!!!(&$9/<!!!!!!!!!!!!!!!!!!!!!!!!",
"!!!!!!!!!!!!!!!!!!!!!!!!-.)&7L!!!!!!!!!!!!!!!!!!!!!!!DO74BBc[:353DYuulhWYmV!!!!!!!!!!!!!!!!!!!!!!!8&$24<!!!!!!!!!!!!!!!!!!!!!!!!",
"!!!!!!!!!!!!!!!!!!!!!!!!-2)29@!!!!!!!!!!!!!!!!!!!!!!*+AV;4DcicKFGiuuulW[mY3%!!!!!!!!!!!!!!!!!!!!!!4')-6@6!!!!!!!!!!!!!!!!!!!!!!!",
"!!!!!!!!!!!!!!!!!!!!!!!-/6-6E<!!!!!!!!!!!!!!!!!!!!!!05AmhJBWihikkquushluumY0$!!!!!!!!!!!!!!!!!!!!!/.)-/@-!!!!!!!!!!!!!!!!!!!!!!!",
"!!!!!!!!!!!!!!!!!!!!!!!.69..@!!!!!!!!!!!!!!!!!!!!!!0+5OOVdm[ddsuussmmuusushD3!!!!!!!!!!!!!!!!!!!!!!)&22E2!!!!!!!!!!!!!!!!!!!!!!!",
"!!!!!!!!!!!!!!!!!!!!!!!92.-2H!!!!!!!!!!!!!!!!!!!!!05::AD[luhZmsuusmsuxuusmdYL)!!!!!!!!!!!!!!!!!!!!!/&-->>!!!!!!!!!!!!!!!!!!!!!!!",
"!!!!!!!!!!!!!!!!!!!!!!!@6926I!!!!!!!!!!!!!!!!!!!!!:5::OcYmnph[mmssmuuuuusm[YP;!!!!!!!!!!!!!!!!!!!!!/&-.FE!!!!!!!!!!!!!!!!!!!!!!!",
"!!!!!!!!!!!!!!!!!!!!!!!>9>>9@!!!!!!!!!!!!!!!!!!!!85503B[Rmlm_CRddYHdsuuqmdVDOJ8!!!!!!!!!!!!!!!!!!!!/-26II!!!!!!!!!!!!!!!!!!!!!!!",
"!!!!!!!!!!!!!!!!!!!!!!!E9>EEE!!!!!!!!!!!!!!!!!!!!:053:BYhlh!!!!!!!!!!hmohYYLOJB!!!!!!!!!!!!!!!!!!!!!262IN!!!!!!!!!!!!!!!!!!!!!!!",
"!!!!!!!!!!!!!!!!!!!!!!!I>ESX>!!!!!!!!!!!!!!!!!!!!A:3,JJYla!!!!!!!!!!!![lcWW9DRR!!!!!!!!!!!!!!!!!!!!!>76MN!!!!!!!!!!!!!!!!!!!!!!!",
"!!!!!!!!!!!!!!!!!!!!!!!M?ES]!!!!!!!!!!!!!!!!!!!!!:8,/W[d_!!!!!!!!!!!!!!Ncc[78LR7!!!!!!!!!!!!!!!!!!!!@96NX!!!!!!!!!!!!!!!!!!!!!!!",
"!!!!!!!!!!!!!!!!!!!!!!!I?IUS!!!!!!!!!!!!!!!!!!!!53,1=cdL!!!!!!!!!!!!!!!!HYa<8;JB!!!!!!!!!!!!!!!!!!!!9?9I]!!!!!!!!!!!!!!!!!!!!!!!",
"!!!!!!!!!!!!!!!!!!!!!!!S?S^X!!!!!!!!!!!!!!!!!!!!:0+1D_R!!!!!!!!!!!!!!!!!!BR=45=D!!!!!!!!!!!!!!!!!!!!E?>Ma!!!!!!!!!!!!!!!!!!!!!!!",
"!!!!!!!!!!!!!!!!!!!!!!!I?S`X!!!!!!!!!!!!!!!!!!!!B34=WhL!!!!!!!!!!!!!!!!!!JWJ=;;L!!!!!!!!!!!!!!!!!!!!N>EIX!!!!!!!!!!!!!!!!!!!!!!!",
"!!!!!!!!!!!!!!!!!!!!!!!I>S`S!!!!!!!!!!!!!!!!!!!!!ODLhhl!!!!!!!!!!!!!!!!!!RW[JBW!!!!!!!!!!!!!!!!!!!!!N7?I]!!!!!!!!!!!!!!!!!!!!!!!",
"!!!!!!!!!!!!!!!!!!!!!!!I?I]X!!!!!!!!!!!!!!!!!!!!!!lmqpp7!!!!!!!!!!!!!!!!JgehllH!!!!!!!!!!!!!!!!!!!!!Q6>I^!!!!!!!!!!!!!!!!!!!!!!!",
"!!!!!!!!!!!!!!!!!!!!!!!M9^`a!!!!!!!!!!!!!!!!!!!!!!!eqqsP8!!!!!!!!!!!!!!K_kklc!!!!!!!!!!!!!!!!!!!!!!!XC?I`!!!!!!!!!!!!!!!!!!!!!!!",
"!!!!!!!!!!!!!!!!!!!!!!MI9fSa!!!!!!!!!!!!!!!!!!!!!!!!!fqiR!!!!!!!!!!!!!!Rakc!!!!!!!!!!!!!!!!!!!!!!!!!]Q@I`E!!!!!!!!!!!!!!!!!!!!!!",
"!!!!!!!!!!!!!!!!!!!!!!SE6]bb!!!!!!!!!!!!!!!!!!!!!!!!!!hg_2!!!!!!!!!!!!!Rak<!!!!!!!!!!!!!!!!!!!!!!!!!aI?I]T!!!!!!!!!!!!!!!!!!!!!!",
"!!!!!!!!!!!!!!!!!!!!!!Q?9U`e!!!!!!!!!!!!!!!!!!!!!!!!!!JMa!!!!!!!!!!!!!!MM]M!!!!!!!!!!!!!!!!!!!!!!!!!aHE>Xa!!!!!!!!!!!!!!!!!!!!!!",
"!!!!!!!!!!!!!!!!!!!!!!M??]`g!!!!!!!!!!!!!!!!!!!!!!!!!!HFa!!!!!!!!!!!!!!SE]S!!!!!!!!!!!!!!!!!!!!!!!!!XNE>X`!!!!!!!!!!!!!!!!!!!!!!",
"!!!!!!!!!!!!!!!!!!!!!!Q>>bfi!!!!!!!!!!!!!!!!!!!!!!!!!!FM_!!!!!!!!!!!!!!SIXN!!!!!!!!!!!!!!!!!!!!!!!!!XQQ9SgN!!!!!!!!!!!!!!!!!!!!!",
"!!!!!!!!!!!!!!!!!!!!!CQ9FfXk!!!!!!!!!!!!!!!!!!!!!!!!!!E@Q!!!!!!!!!!!!!!QNaI!!!!!!!!!!!!!!!!!!!!!!!!!_HN9FaU!!!!!!!!!!!!!!!!!!!!!",
"!!!!!!!!!!!!!!!!!!!!!QF9Mefo!!!!!!!!!!!!!!!!!!!!!!!!!7CGI!!!!!!!!!!!!!!SXbI!!!!!!!!!!!!!!!!!!!!!!!!!cQT9IN^!!!!!!!!!!!!!!!!!!!!!",
"!!!!!!!!!!!!!!!!!!!!!LC>^Sal@!!!!!!!!!!!!!!!!!!!!!!!!KKKE!!!!!!!!!!!!!!!]^a!!!!!!!!!!!!!!!!!!!!!!!!!aGS?EQL2!!!!!!!!!!!!!!!!!!!!",
"!!!!!!!!!!!!!!!!!!!!JC@Ng]elM!!!!!!!!!!!!!!!!!!!!!!!!KHQG!!!!!!!!!!!!!!!`]b!!!!!!!!!!!!!!!!!!!!!!!!!_GTNFKKL!!!!!!!!!!!!!!!!!!!!",
"!!!!!!!!!!!!!!!!!!!!H<9KQN_fQ!!!!!!!!!!!!!!!!!!!!!!!@NGH?!!!!!!!!!!!!!!!NGI6!!!!!!!!!!!!!!!!!!!!!!!LcBBR@?JXC!!!!!!!!!!!!!!!!!!!",
"!!!!!!!!!!!!!!!!!!!!N<C]F=]iX!!!!!!!!!!!!!!!!!!!!!!!K`UJC!!!!!!!!!!!!!!E`^I<!!!!!!!!!!!!!!!!!!!!!!!Wd=1CN8G]9!!!!!!!!!!!!!!!!!!!",
"!!!!!!!!!!!!!!!!!!!!P<XTIXccG!!!!!!!!!!!!!!!!!!!!!IbQS]U<!!!!!!!!!!!!!!E]g`N9@!!!!!!!!!!!!!!!!!!!!!!YD<=HHG_6!!!!!!!!!!!!!!!!!!!",
"!!!!!!!!!!!!!!!!!!!HKNXXUbegN!!!!!!!!!!!!!!!!!!=WN`kM?SND=!!!!!!!!!!!!D=KM9KNSIV5!!!!!!!!!!!!!!!!!!RWH@CFXHKG!!!!!!!!!!!!!!!!!!!",
"!!!!!!!!!!!!!!!!!!!J@G_NUeeic!!!!!!!!!!!!!!!!!!!B<CU7!!48@!!!!!!!!!!!!4CG7!2C87R/!!!!!!!!!!!!!!!!!!_WCC62K<@R!!!!!!!!!!!!!!!!!!!",
"!!!!!!!!!!!!!!!!!!F=9QgUbnnnk!!!!!!!!!!!!!!!!!!!!!!!!!!!!!!!!!!!!!!!!!!!!!!!!!!!!!!!!!!!!!!!!!!!!!!_]aXCET<7JQ!!!!!!!!!!!!!!!!!!",
"!!!!!!!!!!!!!!!!!CJ7SeT``qkpkN!!!!!!!!!!!!!!!!!!!!!!!!!!!!!!!!!!!!!!!!!!!!!!!!!!!!!!!!!!!!!!!!!!!!LRaU_L@FT9<WF!!!!!!!!!!!!!!!!!",
"!!!!!!!!!!!!!!!!!aGIbUS`gjbpk_!!!!!!!!!!!!!!!!!!!!!!!!!!!!!!!!!!!!!!!!!!!!!!!!!!!!!!!!!!!!!!!!!!!!LNeUQN?69?6NcG!!!!!!!!!!!!!!!!",
"!!!!!!!!!!!!!!!Q]MM`f^bifbbnoj!!!!!!!!!!!LL8/BB!!!!!!!!!!!!!!!!!!!!!!!!!!!!!!!!!!AD4884!!!!!!!!!!!_cgSI]QE?XE<Sf]!!!!!!!!!!!!!!!",
"!!!!!!!!!!!!!!STNIbkfSkqonofpj?!!!!!!!PVYP7!!!:!!!!!!!!!!!!!!!!!!!!!!!!!!!!!!!!!!:!!!48:;;!!!!!!!CNeXnffgXEFXFE^`^!!!!!!!!!!!!!!",
"!!!!!!!!!!!!!I`eU]kf`f]!!kqknk`QUXS]^`d[H!!!!!0!!!!!!!!!!!!!!!!!!!!!!!!!!!!!!!!!!+!!!!!BHGHH<MF@CKWUise!!^X?M]FKFbU!!!!!!!!!!!!!",
"!!!!!!!!=JIQQab`]jkfjS!!!!jfNXgeTUQCQ__!!!!!!!!!!!!!!!!!!!!!!!!!!!!!!!!!!!!!!!!!!!!!!!!!!PDC@HKUMR=Ikk!!!!QURKMCFCRKGC=A!!!!!!!!",
"!!!!!!DZhhmiinkk]gfiX!!!!!!HC@QC7.1),48<!!!!!!!!!!!!!!!!!!!!!!!!!!!!!!!!!!!!!!!!!!!!!!!!1'''*242497CF!!!!!!LLJUQ_KaLZZVOA3!!!!!!",
"!!!!!Odd[loe`fgi<@GR!!!!!!!!!492.-.)-!!!!!!!!!!!!!!!!!!!!!!!!!!!!!!!!!!!!!!!!!!!!!!!!!!!!!!)/2.-174!!!!!!!!!8**.LLKKPdYOVO5!!!!!",
"!!!!DO!!!BGC=7@hCC;!!!!!!!!!!!!!!!!!!!!!!!!!!!!!!!!!!!!!!!!!!!!!!!!!!!!!!!!!!!!!!!!!!!!!!!!!!!!!!!!!!!!!!!!!!***:**43B7!!:A0!!!!",
"!!!:8!!!!'&*//4!!!!!!!!!!!!!!!!!!!!!!!!!!!!!!!!!!!!!!!!!!!!!!!!!!!!!!!!!!!!!!!!!!!!!!!!!!!!!!!!!!!!!!!!!!!!!!!!!!%%%$%*!!!!0+!!!",
"!!!0!!!!!!!!!!!!!!!!!!!!!!!!!!!!!!!!!!!!!!!!!!!!!!!!!!!!!!!!!!!!!!!!!!!!!!!!!!!!!!!!!!!!!!!!!!!!!!!!!!!!!!!!!!!!!!!!!!!!!!!!(!!!"
};