/* XPM */
static char * result[] = {
"128 128 92 1",
"! c #000000",
"# c #C6ABA6",
"$ c #AF9998",
"% c #A98F8C",
"& c #9E8D90",
"' c #9E8381",
"( c #938183",
") c #947977",
"* c #89797C",
"+ c #8F7370",
", c #877270",
"- c #817478",
". c #7D6D71",
"/ c #846866",
"0 c #7B6869",
"1 c #74696D",
"2 c #746569",
"3 c #785F5E",
"4 c #705E5E",
"5 c #6A6268",
"6 c #695D61",
"7 c #675B5F",
"8 c #685858",
"9 c #5F575C",
": c #6A5353",
"; c #605356",
"< c #674F52",
"= c #634849",
"> c #5C5458",
"? c #5C5052",
"@ c #5B4C4E",
"A c #5B4546",
"B c #565157",
"C c #554D51",
"D c #544B4E",
"E c #534749",
"F c #544041",
"G c #4F4A4F",
"H c #4D464B",
"I c #4D4548",
"J c #4C4247",
"K c #4B4141",
"L c #464146",
"M c #4B3E3F",
"N c #4C3B3C",
"O c #463D3F",
"P c #433C3F",
"Q c #3F3B3F",
"R c #4E3537",
"S c #453435",
"T c #41373A",
"U c #413031",
"V c #3D373A",
"W c #3D2F30",
"X c #393538",
"Y c #383235",
"Z c #373134",
"[ c #382E30",
"] c #372728",
"^ c #332F32",
"_ c #322D31",
"` c #302C2E",
"a c #30292B",
"b c #2B282A",
"c c #302526",
"d c #302223",
"e c #292427",
"f c #252324",
"g c #242022",
"h c #2C1E1F",
"i c #231D20",
"j c #201E1F",
"k c #1F1B1D",
"l c #271617",
"m c #201618",
"n c #1C1A1B",
"o c #1A1819",
"p c #181516",
"q c #161212",
"r c #111010",
"s c #150D0D",
"t c #0C0C0C",
"u c #18090A",
"v c #100808",
"w c #0A0909",
"x c #070606",
"y c #040404",
"z c #030303",
"{ c #020202",
"| c #010101",
"} c #010000",
"~ c #000000",
"!!!!!!!!!!!!!!!!!!!!!!!!!!!!!!!!!!!!!!!!!!!!!!!!!!!!!!!!!!!!!!!!!!!!!!!!!!!!!!!!!!!!!!!!!!!!!!!!!!!!!!!!!!!!!!!!!!!!!!!!!!!!!!!!",
"!!!!!!!!!!!!!!!!!!!!!!!!!!!!!!!!!!!!!!!!!!!!!!!!!!!!!!!!!!!!!!!!!!!!!!!!!!!!!!!!!!!!!!!!!!!!!!!!!!!!!!!!!!!!!!!!!!!!!!!!!!!!!!!!",
"!!!!!!!!!!!!!!!!!!!!!!!!!!!!!!!!!!!!!!!!!!!!!!!!!!!!!!!!!!!!!!!!!!!!!!!!!!!!!!!!!!!!!!!!!!!!!!!!!!!!!!!!!!!!!!!!!!!!!!!!!!!!!!!!",
"!!!!!!!!!!!!!!!!!!!!!!!!!!!!!!!!!!!!!!!!!!!!!!!!!!!!!!!!!!!!!!!!!!!!!!!!!!!!!!!!!!!!!!!!!!!!!!!!!!!!!!!!!!!!!!!!!!!!!!!!!!!!!!!!",
"!!!!!!!!!!!!!!!!!!!!!!!!!!!!!!!!!!!!!!!!!!!!!!!!!!!!!!!!!!!!!!!!!!!!!!!!!!!!!!!!!!!!!!!!!!!!!!!!!!!!!!!!!!!!!!!!!!!!!!!!!!!!!!!!",
"!!!!!!!!!!!!!!!!!!!!!!!!!!!!!!!!!!!!!!!!!!!!!!!!!!!!!!!!!!!!!!!!!!!!!!!!!!!!!!!!!!!!!!!!!!!!!!!!!!!!!!!!!!!!!!!!!!!!!!!!!!!!!!!!",
"!!!!!!!!!!!!!!!!!!!!!!!!!!!!!!!!!!!!!!!!!!!!!!!!!!!!!!!!!!!!!!!!!!!!!!!!!!!!!!!!!!!!!!!!!!!!!!!!!!!!!!!!!!!!!!!!!!!!!!!!!!!!!!!!",
"!!!!!!!!!!!!!!!!!!!!!!!!!!!!!!!!!!!!!!!!!!!!!!!!!!!!!!!!!!!!!!!!!!!!!!!!!!!!!!!!!!!!!!!!!!!!!!!!!!!!!!!!!!!!!!!!!!!!!!!!!!!!!!!!",
"!!!!!!!!!!!!!!!!!!!!!!!!!!!!!!!!!!!!!!!!!!!!!!!!!!!!!!!!!!!!!!!!!!!!!!!!!!!!!!!!!!!!!!!!!!!!!!!!!!!!!!!!!!!!!!!!!!!!!!!!!!!!!!!!",
"!!!!!!!!!!!!!!!!!!!!!!!!!!!!!!!!!!!!!!!!!!!!!!!!!!!!!!!!!!!!!!!!!!!!!!!!!!!!!!!!!!!!!!!!!!!!!!!!!!!!!!!!!!!!!!!!!!!!!!!!!!!!!!!!",
"!!!!!!!!!!!!!!!!!!!!!!!!!!!!!!!!!!!!!!!!!!!!!!!!!!!!!!!!!!!!!!!!!!!!!!!!!!!!!!!!!!!!!!!!!!!!!!!!!!!!!!!!!!!!!!!!!!!!!!!!!!!!!!!!",
"!!!!!!!!!!!!!!!!!!!!!!!!!!!!!!!!!!!!!!!!!!!!!!!!!!!!!!!!!!!!!!!!!!!!!!!!!!!!!!!!!!!!!!!!!!!!!!!!!!!!!!!!!!!!!!!!!!!!!!!!!!!!!!!!",
"!!!!!!!!!!!!!!!!!!!!!!!!!!!!!!!!!!!!!!!!!!!!!!!!!!!!!!!!!!!!!!!!!!!!!!!!!!!!!!!!!!!!!!!!!!!!!!!!!!!!!!!!!!!!!!!!!!!!!!!!!!!!!!!!",
"!!!!!!!!!!!!!!!!!!!!!!!!!!!!!!!!!!!!!!!!!!!!!!!!!!!!!!!!!!!!!!!!!!!!!!!!!!!!!!!!!!!!!!!!!!!!!!!!!!!!!!!!!!!!!!!!!!!!!!!!!!!!!!!!",
"!!!!!!!!!!!!!!!!!!!!!!!!!!!!!!!!!!!!!!!!!!!!!!!!!!!!!!!!!!!!!!!!!!!!!!!!!!!!!!!!!!!!!!!!!!!!!!!!!!!!!!!!!!!!!!!!!!!!!!!!!!!!!!!!",
"!!!!!!!!!!!!!!!!!!!!!!!!!!!!!!!!!!!!!!!!!!!!!!!!!!!!!!!!!!!!!!!!!!!!!!!!!!!!!!!!!!!!!!!!!!!!!!!!!!!!!!!!!!!!!!!!!!!!!!!!!!!!!!!!",
"!!!!!!!!!!!!!!!!!!!!!!!!!!!!!!!!!!!!!!!!!!!!!!!!!!!!!!!!!!!!!!!!!!!!!!!!!!!!!!!!!!!!!!!!!!!!!!!!!!!!!!!!!!!!!!!!!!!!!!!!!!!!!!!!",
"!!!!!!!!!!!!!!!!!!!!!!!!!!!!!!!!!!!!!!!!!!!!!!!!!!!!!!!!!!!!!!!!!!!!!!!!!!!!!!!!!!!!!!!!!!!!!!!!!!!!!!!!!!!!!!!!!!!!!!!!!!!!!!!!",
"!!!!!!!!!!!!!!!!!!!!!!!!!!!!!!!!!!!!!!!!!!!!!!!!!!!!!!!!!!!!!!!!!!!!!!!!!!!!!!!!!!!!!!!!!!!!!!!!!!!!!!!!!!!!!!!!!!!!!!!!!!!!!!!!",
"!!!!!!!!!!!!!!!!!!!!!!!!!!!!!!!!!!!!!!!!!!!!!!!!!!!!!!!!!!!!!!!!!!!!!!!!!!!!!!!!!!!!!!!!!!!!!!!!!!!!!!!!!!!!!!!!!!!!!!!!!!!!!!!!",
"!!!!!!!!!!!!!!!!!!!!!!!!!!!!!!!!!!!!!!!!!!!!!!!!!!!!!!!!!!!!!!!!!!!!!!!!!!!!!!!!!!!!!!!!!!!!!!!!!!!!!!!!!!!!!!!!!!!!!!!!!!!!!!!!",
"!!!!!!!!!!!!!!!!!!!!!!!!!!!!!!!!!!!!!!!!!!!!!!!!!!!!!!!!!!!!!!!!!!!!!!!!!!!!!!!!!!!!!!!!!!!!!!!!!!!!!!!!!!!!!!!!!!!!!!!!!!!!!!!!",
"!!!!!!!!!!!!!!!!!!!!!!!!!!!!!!!!!!!!!!!!!!!!!!!!!!!!!!!!!!!!!!!!!!!!!!!!!!!!!!!!!!!!!!!!!!!!!!!!!!!!!!!!!!!!!!!!!!!!!!!!!!!!!!!!",
"!!!!!!!!!!!!!!!!!!!!!!!!!!!!!!!!!!!!!!!!!!!!!!!!!!!!!!!!!!!!!!!!!!!!!!!!!!!!!!!!!!!!!!!!!!!!!!!!!!!!!!!!!!!!!!!!!!!!!!!!!!!!!!!!",
"!!!!!!!!!!!!!!!!!!!!!!!!!!!!!!!!!!!!!!!!!!!!!!!!!!!!!!!!!!!!!!!!!!!!!!!!!!!!!!!!!!!!!!!!!!!!!!!!!!!!!!!!!!!!!!!!!!!!!!!!!!!!!!!!",
"!!!!!!!!!!!!!!!!!!!!!!!!!!!!!!!!!!!!!!!!!!!!!!!!!!!!!!!!!!!!!!!!!!!!!!!!!!!!!!!!!!!!!!!!!!!!!!!!!!!!!!!!!!!!!!!!!!!!!!!!!!!!!!!!",
"!!!!!!!!!!!!!!!!!!!!!!!!!!!!!!!!!!!!!!!!!!!!!!!!!!!!!!!!!!!!!!!!!!!!!!!!!!!!!!!!!!!!!!!!!!!!!!!!!!!!!!!!!!!!!!!!!!!!!!!!!!!!!!!!",
"!!!!!!!!!!!!!!!!!!!!!!!!!!!!!!!!!!!!!!!!!!!!!!!!!!!!!!!!!!!!!!!!!!!!!!!!!!!!!!!!!!!!!!!!!!!!!!!!!!!!!!!!!!!!!!!!!!!!!!!!!!!!!!!!",
"!!!!!!!!!!!!!!!!!!!!!!!!!!!!!!!!!!!!!!!!!!!!!!!!!!!!!!!!!!!!!!!!!!!!!!!!!!!!!!!!!!!!!!!!!!!!!!!!!!!!!!!!!!!!!!!!!!!!!!!!!!!!!!!!",
"!!!!!!!!!!!!!!!!!!!!!!!!!!!!!!!!!!!!!!!!!!!!!!!!!!!!!!!!!!!!!!!!!!!!!!!!!!!!!!!!!!!!!!!!!!!!!!!!!!!!!!!!!!!!!!!!!!!!!!!!!!!!!!!!",
"!!!!!!!!!!!!!!!!!!!!!!!!!!!!!!!!!!!!!!!!!!!!!!!!!!!!!!!!!!!!!!!!!!!!!!!!!!!!!!!!!!!!!!!!!!!!!!!!!!!!!!!!!!!!!!!!!!!!!!!!!!!!!!!!",
"!!!!!!!!!!!!!!!!!!!!!!!!!!!!!!!!!!!!!!!!-!!!!!!!!!!!!!!!!!!!!!!!!!!!!!!!!!!!!!!!!!!!!!!!!!!!!!!!!!!!!!!!!!!!!!!!!!!!!!!!!!!!!!!!",
"!!!!!!!!!!!!!!!!!!!!!!!!!!!!!!!!!!!!!,222720!!!!!!!!!!!!!!!!!!!!!!!!!!!!!!!!!!!!!!4776,*&&!!!!!!!!!!!!!!!!!!!!!!!!!!!!!!!!!!!!!!",
"!!!!!!!!!!!!!!!!!!!!!!!!!!!3/3+''(%),,-.69H226EE997.!!!!!!!!!!!!!!!!!!!!!!!EDJGDEE;9755((''%%%')),'(!!!!!!!!!!!!!!!!!!!!!!!!!!!!",
"!!!!!!!!!!!!!!!!!!!!!!!!!I3/'/+)),%'(-99CDJ77;LPHG92.!!!!!!!!!!!!!!!!!!!!IKJ>OEOJI;B991.*&%%''')+')06!!!!!!!!!!!!!!!!!!!!!!!!!!!",
"!!!!!!!!!!!!!!!!!!!!!!!!84//)%'('',020;;J52C6EOPOL9;622!!!!I@8!!!;?4!!!DOJIH?PJJKE626102()++%$'%%%//8T!!!!!!!!!!!!!!!!!!!!!!!!!!",
"!!!!!!!!!!!!!!!!!!!!!!!!@%''##$'-(.G*-1552727>JPLLQ9696@DKIJQ;HLYC27?EOVLGGL?>CM@81-**.*(&*($%%##$/'+E!!!!!!!!!!!!!!!!!!!!!!!!!!",
"!!!!!!!!!!!!!!!!!!!!!!!!4%%)##$)82.--*.59992KPPBCGXQ97LKOVO^VI^DPD67?OVQC97C1..HE;.***&&&&&$(,%##$')'<!!!!!!!!!!!!!!!!!!!!!!!!!!",
"!!!!!!!!!!!!!!!!!!!!!!!!,'+'##%0F:3>1569.27>JPGBCBHG9>^eaDX`QZaVXHQCCTaX9115-.19;61**$-**(50/3'##$)/+8!!!!!!!!!!!!!!!!!!!!!!!!!!",
"!!!!!!!!!!!!!!!!!!!!!!!!'')'##$:R=4@3-;O?@>EITHPC1H9B9XkXOYKJQYb^VZVaPV^55*1(.CJDJE62.;6*++0+++###')/0!!!!!!!!!!!!!!!!!!!!!!!!!!",
"!!!!!!!!!!!!!!!!!!!!!!!!$')'##%:F8*884FNFcCIT[VV91B5GGG`IX^GOL9Q^Xg`ZPQL11*-*1X[PM<7EN/A,3'%'')##$+,0,!!!!!!!!!!!!!!!!!!!!!!!!!!",
"!!!!!!!!!!!!!!!!!!!!!!!!','%##'=N8).8E=8=Rc[cWKKKBHG9BGHHa^eEQZf_XofV_H9.-166?JKIEMSU/)/33)%')/##$')04!!!!!!!!!!!!!!!!!!!!!!!!!!",
"!!!!!!!!!!!!!!!!!!!!!!!!)'','$'=S@.,3444@N[eY971155DB9JG?Z`OPPegb^oofKK9-.0.&--28Ka]F<)'/''')3)##%))(4!!!!!!!!!!!!!!!!!!!!!!!!!!",
"!!!!!!!!!!!!!!!!!!!!!!!!'4(2($'=dRA<=<E;8EDT[QD-.15D89B?E_jOIVaeeVnrgOO2-*,*(**2TaN13//34//:=F+##%/2,<!!!!!!!!!!!!!!!!!!!!!!!!!!",
"!!!!!!!!!!!!!!!!!!!!!!!!)0,,'$'=lR<:FRUWN44KIK;9B515.8DV[YgBJeYZjYboiaYJ8+&&(59@ETM,'8FN=8033R+##$),8<!!!!!!!!!!!!!!!!!!!!!!!!!!",
"!!!!!!!!!!!!!!!!!!!!!!!!)2(8&$(AulF:4@AUdUOcW?;?G99.-6WV_P^bZZJ_`bojgXON0&%*279EENFTF]R:,+04Rl+##$30@<!!!!!!!!!!!!!!!!!!!!!!!!!!",
"!!!!!!!!!!!!!!!!!!!!!!!!.,%.,&)Ruul]RNA=FWsi[N?;7?75).4M`Y_Y7GHXQQbkik[4'%'*628@OSShh<0+34A]]U+##)3*8A!!!!!!!!!!!!!!!!!!!!!!!!!!",
"!!!!!!!!!!!!!!!!!!!!!!!!!;*%/(,Wqhhh]NNSU]dWWRSJ75-1;<.@^eQYaHOYQikfop[;4,-(-2DSUU]US::34A]U<2+%#''-@O!!!!!!!!!!!!!!!!!!!!!!!!!!",
"!!!!!!!!!!!!!!!!!!!!!!!!!+'&3.*U]JMismlmhFF]l]NNE2)4CR.4YeZY^LDJYiejqq];:<.'(8M]dl]N<F]]]lqE0./%#)'(49!!!!!!!!!!!!!!!!!!!!!!!!!!",
"!!!!!!!!!!!!!!!!!!!!!!!!!4&$3.7U!!!!CKTWmhluu]AAE;.0;=,.TWVeXYLVeijgmq]?:40(2?KSUuulSWWNWTC!!!))$,(*@;!!!!!!!!!!!!!!!!!!!!!!!!!!",
"!!!!!!!!!!!!!!!!!!!!!!!!.0($4*-<!!!!!!!!!TTemdF:8762<0)3JW[T>J_b_Z_mqqd84<24?4SUhmdW@;2!!!!!!!$%#(&(4C!!!!!!!!!!!!!!!!!!!!!!!!!!",
"!!!!!!!!!!!!!!!!!!!!!!!!*)&$8&,2!!!!!!!!!!!@chKA@;;6<:(<JcNN;?PbVYcissl@=F4E@NUhslW!!!!!!!!!!!!%#)&&2?!!!!!!!!!!!!!!!!!!!!!!!!!!",
"!!!!!!!!!!!!!!!!!!!!!!!!.0*&,(20!!!!!!!!!!!!!Od]<S@74A(:FWSN:EHO_]hmmslFN<;ENWlul?!!!!!!!!!!!!!$#/%14@!!!!!!!!!!!!!!!!!!!!!!!!!!",
"!!!!!!!!!!!!!!!!!!!!!!!!6(*&-+0-!!!!!!!!!!!!!!ETMd]ET2&,3F=RW:@DKlhhkq]<?KUllhml!!!!!!!!!!!!!!!%$,&-4E!!!!!!!!!!!!!!!!!!!!!!!!!!",
"!!!!!!!!!!!!!!!!!!!!!!!!D&(&-.8!!!!!!!!!!!!!!!!cdhP]dU'&0=F:W2NAEmddmmW:SlhhclmT!!!!!!!!!!!!!!!%%*&(2I!!!!!!!!!!!!!!!!!!!!!!!!!!",
"!!!!!!!!!!!!!!!!!!!!!!!!D($&124!!!!!!!!!!!!!!!!IEM>AAU@(,<F:]0h[MlddihSSh]WH[Wl!!!!!!!!!!!!!!!!)%&$&2I!!!!!!!!!!!!!!!!!!!!!!!!!!",
"!!!!!!!!!!!!!!!!!!!!!!!!8*$$*78!!!!!!!!!!!!!!!!;SM>74FR2;F=3FSlqhlRWmmWl]R@H[h]!!!!!!!!!!!!!!!!%'$$&7D!!!!!!!!!!!!!!!!!!!!!!!!!!",
"!!!!!!!!!!!!!!!!!!!!!!!!2.&$(78!!!!!!!!!!!!!!!!!W]?74==2;U33=hUdl]ASmmWhUF>Idm6!!!!!!!!!!!!!!!!%%$#(7@!!!!!!!!!!!!!!!!!!!!!!!!!!",
"!!!!!!!!!!!!!!!!!!!!!!!!()-$*64!!!!!!!!!!!!!!!!!!dh6*15<-F/)/RARU<:UmacYI4;duK!!!!!!!!!!!!!!!!!!&&$185!!!!!!!!!!!!!!!!!!!!!!!!!!",
"!!!!!!!!!!!!!!!!!!!!!!!!0*5&.?6!!!!!!!!!!!!!!!!!!!lS<;?@24/)/=3:=3<WmaiYSMRuU!!!!!!!!!!!!!!!!!!!)(&157!!!!!!!!!!!!!!!!!!!!!!!!!!",
"!!!!!!!!!!!!!!!!!!!!!!!!*.,*.@!!!!!!!!!!!!!!!!!!!!@l<@FO@<4)::')3<Nhlhih[Mlh!!!!!!!!!!!!!!!!!!!!)&&667!!!!!!!!!!!!!!!!!!!!!!!!!!",
"!!!!!!!!!!!!!!!!!!!!!!!!0*1(2E!!!!!!!!!!!!!!!!!!!!!SW82?EAUA)/)+3:WulhhSFdl!!!!!!!!!!!!!!!!!!!!!0'&5.6!!!!!!!!!!!!!!!!!!!!!!!!!!",
"!!!!!!!!!!!!!!!!!!!!!!!!0-*(1O!!!!!!!!!!!!!!!!!!!!!!FS@2E@Wh8//3ANuvhm[Slh!!!!!!!!!!!!!!!!!!!!!!4*$-67!!!!!!!!!!!!!!!!!!!!!!!!!!",
"!!!!!!!!!!!!!!!!!!!!!!!!,.*(1T!!!!!!!!!!!!!!!!!!!!!!)AN2.MTc]/:8Mhvuq]Klh/!!!!!!!!!!!!!!!!!!!!!!;($569!!!!!!!!!!!!!!!!!!!!!!!!!!",
"!!!!!!!!!!!!!!!!!!!!!!!!---16?!!!!!!!!!!!!!!!!!!!!!!)/SF1<[me[@EevuulW]lR+$!!!!!!!!!!!!!!!!!!!!!-***5C1!!!!!!!!!!!!!!!!!!!!!!!!!",
"!!!!!!!!!!!!!!!!!!!!!!!!4--.HC!!!!!!!!!!!!!!!!!!!!!)/:RlN;SmigffouuudduulU)!!!!!!!!!!!!!!!!!!!!!!.*-1>-!!!!!!!!!!!!!!!!!!!!!!!!!",
"!!!!!!!!!!!!!!!!!!!!!!!!71.1G>!!!!!!!!!!!!!!!!!!!!!+/:]lUFTheiooquuqhlvulU/$!!!!!!!!!!!!!!!!!!!!!1--.B-!!!!!!!!!!!!!!!!!!!!!!!!!",
"!!!!!!!!!!!!!!!!!!!!!!!!750*B6!!!!!!!!!!!!!!!!!!!!!//=]d][Uccmsssuummsvvm]:&!!!!!!!!!!!!!!!!!!!!!((-5G1!!!!!!!!!!!!!!!!!!!!!!!!!",
"!!!!!!!!!!!!!!!!!!!!!!!!6..-C!!!!!!!!!!!!!!!!!!!!!!//=URWqdddmvvuuuluvsvuhF,!!!!!!!!!!!!!!!!!!!!!*&-.77!!!!!!!!!!!!!!!!!!!!!!!!!",
"!!!!!!!!!!!!!!!!!!!!!!!!9-.1J!!!!!!!!!!!!!!!!!!!!!/33=RS]shhluuuuuuuvvvuqhU3!!!!!!!!!!!!!!!!!!!!!.(*->C!!!!!!!!!!!!!!!!!!!!!!!!!",
"!!!!!!!!!!!!!!!!!!!!!!!!>511L!!!!!!!!!!!!!!!!!!!!!/4::AWdsldluuuuuuuxvvsmdW<&!!!!!!!!!!!!!!!!!!!!-&(-CI!!!!!!!!!!!!!!!!!!!!!!!!!",
"!!!!!!!!!!!!!!!!!!!!!!!!B5B9H!!!!!!!!!!!!!!!!!!!!!34:=F]dsp]]muuuuuvxvvqmcWF,!!!!!!!!!!!!!!!!!!!!!*55GP!!!!!!!!!!!!!!!!!!!!!!!!!",
"!!!!!!!!!!!!!!!!!!!!!!!BC9B7H!!!!!!!!!!!!!!!!!!!!43<3AU]cmpmWlluuluvvvvslWWN8!!!!!!!!!!!!!!!!!!!!!.15GP!!!!!!!!!!!!!!!!!!!!!!!!!",
"!!!!!!!!!!!!!!!!!!!!!!!GC5BGO!!!!!!!!!!!!!!!!!!!!<3:/AU[dmmsWdlmlhsvvvsqhUNNA!!!!!!!!!!!!!!!!!!!!!551GT!!!!!!!!!!!!!!!!!!!!!!!!!",
"!!!!!!!!!!!!!!!!!!!!!!!HGBLHJ!!!!!!!!!!!!!!!!!!!!<33/=TWhkmmTShhdSmquuqmdSFNM!!!!!!!!!!!!!!!!!!!!!915LX!!!!!!!!!!!!!!!!!!!!!!!!!",
"!!!!!!!!!!!!!!!!!!!!!!!HG9ZXO!!!!!!!!!!!!!!!!!!!!:33/=M[mih!!!WS!!!hmspi]SKNN2!!!!!!!!!!!!!!!!!!!!C>5LQ!!!!!!!!!!!!!!!!!!!!!!!!!",
"!!!!!!!!!!!!!!!!!!!!!!!QHBV^C!!!!!!!!!!!!!!!!!!!!:3/0FNcmd!!!!!!!!!!cmmh]SINN;!!!!!!!!!!!!!!!!!!!!CB1L_!!!!!!!!!!!!!!!!!!!!!!!!!",
"!!!!!!!!!!!!!!!!!!!!!!!LGB^X!!!!!!!!!!!!!!!!!!!!!::,3SNdmV!!!!!!!!!!!hmc[S@MSE!!!!!!!!!!!!!!!!!!!!>>7L_!!!!!!!!!!!!!!!!!!!!!!!!!",
"!!!!!!!!!!!!!!!!!!!!!!!HBG^V!!!!!!!!!!!!!!!!!!!!:::,4WShh!!!!!!!!!!!![hc[S8FSM!!!!!!!!!!!!!!!!!!!!7>BL`!!!!!!!!!!!!!!!!!!!!!!!!!",
"!!!!!!!!!!!!!!!!!!!!!!!PGL_`!!!!!!!!!!!!!!!!!!!!:<3,8[WhO!!!!!!!!!!!!![]]W7@SN!!!!!!!!!!!!!!!!!!!!BBBLa!!!!!!!!!!!!!!!!!!!!!!!!!",
"!!!!!!!!!!!!!!!!!!!!!!!LBH`Z!!!!!!!!!!!!!!!!!!!!::,3A]c[!!!!!!!!!!!!!!![][88MN!!!!!!!!!!!!!!!!!!!!CBBH`!!!!!!!!!!!!!!!!!!!!!!!!!",
"!!!!!!!!!!!!!!!!!!!!!!!L9Qbf!!!!!!!!!!!!!!!!!!!!43)4Ma[J!!!!!!!!!!!!!!!T[a87AN?!!!!!!!!!!!!!!!!!!!PGGLY!!!!!!!!!!!!!!!!!!!!!!!!!",
"!!!!!!!!!!!!!!!!!!!!!!!LBQfZ!!!!!!!!!!!!!!!!!!!!:/+:ScJ!!!!!!!!!!!!!!!!?Ta;6<FI!!!!!!!!!!!!!!!!!!!J>GL`!!!!!!!!!!!!!!!!!!!!!!!!!",
"!!!!!!!!!!!!!!!!!!!!!!!CCBaX!!!!!!!!!!!!!!!!!!!!:)0@[]-!!!!!!!!!!!!!!!!!I[@44@N!!!!!!!!!!!!!!!!!!!H99LV!!!!!!!!!!!!!!!!!!!!!!!!!",
"!!!!!!!!!!!!!!!!!!!!!!!HBG`e!!!!!!!!!!!!!!!!!!!!:,0@a]-!!!!!!!!!!!!!!!!!E[E88@M!!!!!!!!!!!!!!!!!!!L>9HZ!!!!!!!!!!!!!!!!!!!!!!!!!",
"!!!!!!!!!!!!!!!!!!!!!!!QBL`i!!!!!!!!!!!!!!!!!!!!<04Fc[5!!!!!!!!!!!!!!!!!J[K;8F!!!!!!!!!!!!!!!!!!!!PC>L`!!!!!!!!!!!!!!!!!!!!!!!!!",
"!!!!!!!!!!!!!!!!!!!!!!!V9Q^k!!!!!!!!!!!!!!!!!!!!=8@ShaD!!!!!!!!!!!!!!!!!MWT@@N!!!!!!!!!!!!!!!!!!!!VLBL_G!!!!!!!!!!!!!!!!!!!!!!!!",
"!!!!!!!!!!!!!!!!!!!!!!!V9XQi!!!!!!!!!!!!!!!!!!!!AFF[mhE!!!!!!!!!!!!!!!!!T[WKKS!!!!!!!!!!!!!!!!!!!!VTBH`G!!!!!!!!!!!!!!!!!!!!!!!!",
"!!!!!!!!!!!!!!!!!!!!!!!Q9L`k!!!!!!!!!!!!!!!!!!!!!SWdpmK!!!!!!!!!!!!!!!!![acWUT!!!!!!!!!!!!!!!!!!!!YP>H_Z!!!!!!!!!!!!!!!!!!!!!!!!",
"!!!!!!!!!!!!!!!!!!!!!!!I9Lek!!!!!!!!!!!!!!!!!!!!![cmqpS4!!!!!!!!!!!!!!!Oeehc[!!!!!!!!!!!!!!!!!!!!!^VBGY^!!!!!!!!!!!!!!!!!!!!!!!!",
"!!!!!!!!!!!!!!!!!!!!!!VH9L_i!!!!!!!!!!!!!!!!!!!!!!gmqq];!!!!!!!!!!!!!!KYgiig[!!!!!!!!!!!!!!!!!!!!![OG9Yb!!!!!!!!!!!!!!!!!!!!!!!!",
"!!!!!!!!!!!!!!!!!!!!!!QCBLZk!!!!!!!!!!!!!!!!!!!!!!!kpsh@!!!!!!!!!!!!!!T_iii[!!!!!!!!!!!!!!!!!!!!!!XK>9Ye!!!!!!!!!!!!!!!!!!!!!!!!",
"!!!!!!!!!!!!!!!!!!!!!!^>9^bk!!!!!!!!!!!!!!!!!!!!!!!ekqiK1!!!!!!!!!!!!!Vakgb!!!!!!!!!!!!!!!!!!!!!!!VTV>Xa!!!!!!!!!!!!!!!!!!!!!!!!",
"!!!!!!!!!!!!!!!!!!!!!!XB9_fkG!!!!!!!!!!!!!!!!!!!!!!!apmW8!!!!!!!!!!!!!Xeka!!!!!!!!!!!!!!!!!!!!!!!!YXV9QiX!!!!!!!!!!!!!!!!!!!!!!!",
"!!!!!!!!!!!!!!!!!!!!!!^>>fVgJ!!!!!!!!!!!!!!!!!!!!!!!!imcE!!!!!!!!!!!!!XekO!!!!!!!!!!!!!!!!!!!!!!!!ZEV7HiQ!!!!!!!!!!!!!!!!!!!!!!!",
"!!!!!!!!!!!!!!!!!!!!!!O9G`ZkO!!!!!!!!!!!!!!!!!!!!!!!![eaK!!!!!!!!!!!!!TagC!!!!!!!!!!!!!!!!!!!!!!!!aPV9H^X!!!!!!!!!!!!!!!!!!!!!!!",
"!!!!!!!!!!!!!!!!!!!!!LV9GefnZ!!!!!!!!!!!!!!!!!!!!!!!!TZ_K!!!!!!!!!!!!!TXb!!!!!!!!!!!!!!!!!!!!!!!!!cV^9LPY!!!!!!!!!!!!!!!!!!!!!!!",
"!!!!!!!!!!!!!!!!!!!!!PV9HeZkV!!!!!!!!!!!!!!!!!!!!!!!!MPZJ!!!!!!!!!!!!!PP_B!!!!!!!!!!!!!!!!!!!!!!!!cDYBGP`!!!!!!!!!!!!!!!!!!!!!!!",
"!!!!!!!!!!!!!!!!!!!!!OE>QZbiP!!!!!!!!!!!!!!!!!!!!!!!!OIZG!!!!!!!!!!!!!VH^G!!!!!!!!!!!!!!!!!!!!!!!!aOTCCVE.!!!!!!!!!!!!!!!!!!!!!!",
"!!!!!!!!!!!!!!!!!!!!KICLb_ekZ!!!!!!!!!!!!!!!!!!!!!!!!PHZB!!!!!!!!!!!!!XH_G!!!!!!!!!!!!!!!!!!!!!!!!aITTIPOM!!!!!!!!!!!!!!!!!!!!!!",
"!!!!!!!!!!!!!!!!!!!!I?9C_ZeiX!!!!!!!!!!!!!!!!!!!!!!!!OG^!!!!!!!!!!!!!!XH_G!!!!!!!!!!!!!!!!!!!!!!!!aOOP?GPZ!!!!!!!!!!!!!!!!!!!!!!",
"!!!!!!!!!!!!!!!!!!!!K@9DZDYeZ!!!!!!!!!!!!!!!!!!!!!!!!KC^!!!!!!!!!!!!!!VL_C!!!!!!!!!!!!!!!!!!!!!!!!`E;TD>K[T!!!!!!!!!!!!!!!!!!!!!",
"!!!!!!!!!!!!!!!!!!!!T@9VV;Yfb!!!!!!!!!!!!!!!!!!!!!!!!JBX!!!!!!!!!!!!!!QL`>!!!!!!!!!!!!!!!!!!!!!!!!cF0;O7J[J!!!!!!!!!!!!!!!!!!!!!",
"!!!!!!!!!!!!!!!!!!!!YD9_LJ_eZ!!!!!!!!!!!!!!!!!!!!!!!!I>V!!!!!!!!!!!!!!PQb9!!!!!!!!!!!!!!!!!!!!!!!!cK4;T;Ja>!!!!!!!!!!!!!!!!!!!!!",
"!!!!!!!!!!!!!!!!!!!!T?X^LVbcO!!!!!!!!!!!!!!!!!!!!!!!!H>P!!!!!!!!!!!!!!PVeB!!!!!!!!!!!!!!!!!!!!!!!![M;>KPE`?!!!!!!!!!!!!!!!!!!!!!",
"!!!!!!!!!!!!!!!!!!!!TKZ`V`egV!!!!!!!!!!!!!!!!!!!!!!!!G>P!!!!!!!!!!!!!!QXeG!!!!!!!!!!!!!!!!!!!!!!!![KC?O`ITC!!!!!!!!!!!!!!!!!!!!!",
"!!!!!!!!!!!!!!!!!!!COOZVV`fi^!!!!!!!!!!!!!!!!!!!!!!!!ICP!!!!!!!!!!!!!!VYbQ!!!!!!!!!!!!!!!!!!!!!!!!`E?@5OJEO!!!!!!!!!!!!!!!!!!!!!",
"!!!!!!!!!!!!!!!!!!!I??TXVbefi!!!!!!!!!!!!!!!!!!!!!!!!OIP!!!!!!!!!!!!!!!^b_!!!!!!!!!!!!!!!!!!!!!!!ZYHH71O7DT!!!!!!!!!!!!!!!!!!!!!",
"!!!!!!!!!!!!!!!!!!!I8Cf^Zkojn!!!!!!!!!!!!!!!!!!!!!!!!PLP!!!!!!!!!!!!!!!^ab!!!!!!!!!!!!!!!!!!!!!!!_`a[GDX88OH!!!!!!!!!!!!!!!!!!!!",
"!!!!!!!!!!!!!!!!!!@@7PgbXkpknP!!!!!!!!!!!!!!!!!!!!!!DKPO!!!!!!!!!!!!!!!^Z`!!!!!!!!!!!!!!!!!!!!!!![ZYZOEQK2JZ!!!!!!!!!!!!!!!!!!!!",
"!!!!!!!!!!!!!!!!!!M8HeQ`Zpipk^!!!!!!!!!!!!!!!!!!!!!!JKTJ!!!!!!!!!!!!!!LXQX!!!!!!!!!!!!!!!!!!!!!!!YaT`TCGT9>[G!!!!!!!!!!!!!!!!!!!",
"!!!!!!!!!!!!!!!!!Z^>abL`egfjj`!!!!!!!!!!!!!EA@!!!!!!OOTI!!!!!!!!!!!!!!HVPQ5!!!!!!A!!!!!!!!!!!!!!EKcYTTB59>9Xe!!!!!!!!!!!!!!!!!!!",
"!!!!!!!!!!!!!!!!!_VLbXVbge`nkf!!!!!!!!!!!!F66F!!!!!!PVTI!!!!!!!!!!!!!!GYQP7!!!!!FFA8!!!!!!!!!!!!OPePVLB59D5JaQ!!!!!!!!!!!!!!!!!!",
"!!!!!!!!!!!!!!!!Z_JZeb`gjfekpj!!!!!!!!!!!NK!!3:!!!!PQ^VK!!!!!!!!!!!!!!H`^Q>!!!!!=!8874!!!!!!!!!!aag^LZQGB^D>XfY!!!!!!!!!!!!!!!!!",
"!!!!!!!!!!!!!!!PYOQgoZeopgknpgQ!!!!!!!!WSU8!!!!!!!!XQ^YK!!!!!!!!!!!!!!H``XE6!!!!!!!*@4@!!!!!!!!!Ybej`beVBXQ;Ie_H!!!!!!!!!!!!!!!!",
"!!!!!!!!!!!!!!L`PD_knVjrrqrbpoQ!!!!!Y`]W]?!!!!0!!!aZPXZK8!!!!!!!!!!!!!DZ_VLCL!!,,!!!!A7@N@!!!!!!PYVppkn`P9XPG^eb!!!!!!!!!!!!!!!!",
"!!!!!!!!!!!!!?Ye_Qfgf`k>!`qponbPXZX_a`ch5!!!!!,?TPe^LLYK@!!!!!!!!!!!!!@VVLOLQKF,!!!!!!UEIKDPHCDDZYgrk!!aY9L^H?JgP!!!!!!!!!!!!!!!",
"!!!!!!!!!!7GOJaaYfjggf!!!!onb_geZbXQ`eZ!!!!!!!!AVL`YD9ODF!!!!!!!!!!!!!APG9DLLKS,!!!!!!!OTKIPVZIPMPgq!!!!_VOVPE;PYJ91!!!!!!!!!!!!",
"!!!!!!!!ASW[[ffbaekgjX!!!!VgILebLDI4EOK!!!!!!!!@KDVV7!?8E!!!!!!!!!!!!7@K9!9ECDS!!!!!!!!::44;COPO8Be_!!!!!VPOPLOEWMSNFA3!!!!!!!!!",
"!!!!!!!F]hlmfknkjYngg!!!!!!!I?JD4-.(,386!!!!!!!!;7DI!!25;!!!!!!!!!!!!!;E!!!?66I!!!!!!!!)%%'.2.286CI!!!!!!TTKYZaT[O]UUR=+!!!!!!!!",
"!!!!!!F]hlmqfionj>ZZX!!!!!!!1@O@?;4*-81!!!!!!!!!-!!!!!!!!!!!!!!!!!!!!!!!!!!!!*!!!!!!!!!(''-8E84E@7!!!!!!!!D29IbTZOdd]UR3!!!!!!!!",
"!!!!!:Uh][mge_bnK5?M!!!!!!!!!!!!!!!!!!!!!!!!!!!!!!!!!!!!!!!!!!!!!!!!!!!!!!!!!(!!!!!!!!!!!!!!!!!!!!!!!!!!!!0)&.MFIIWdNRUA/!!!!!!!",
"!!!!!FS!!!OHI84W[@K!!!!!!!!!!!!!!!!!!!!!!!!!!!!!!!!!!!!!!!!!!!!!!!!!!!!!!!!!!!!!!!!!!!!!!!!!!!!!!!!!!!!!!!!,,,4')48K!!!<:)!!!!!!",
"!!!!:N!!!!)')*+MO!!!!!!!!!!!!!!!!!!!!!!!!!!!!!!!!!!!!!!!!!!!!!!!!!!!!!!!!!!!!!!!!!!!!!!!!!!!!!!!!!!!!!!!!!!!!*3$$$$)(!!!:/!!!!!!",
"!!!!:!!!!!%(,22!!!!!!!!!!!!!!!!!!!!!!!!!!!!!!!!!!!!!!!!!!!!!!!!!!!!!!!!!!!!!!!!!!!!!!!!!!!!!!!!!!!!!!!!!!!!!!!!''%%'(!!!!/!!!!!!",
"!!!+0!!!!!!!!!!!!!!!!!!!!!!!!!!!!!!!!!!!!!!!!!!!!!!!!!!!!!!!!!!!!!!!!!!!!!!!!!!!!!!!!!!!!!!!!!!!!!!!!!!!!!!!!!!!!!!!!!!!!!)!!!!!",
"!!!(!!!!!!!!!!!!!!!!!!!!!!!!!!!!!!!!!!!!!!!!!!!!!!!!!!!!!!!!!!!!!!!!!!!!!!!!!!!!!!!!!!!!!!!!!!!!!!!!!!!!!!!!!!!!!!!!!!!!!!'!!!!!",
"!!!!!!!!!!!!!!!!!!!!!!!!!!!!!!!!!!!!!!!!!!!!!!!!!!!!!!!!!!!!!!!!!!!!!!!!!!!!!!!!!!!!!!!!!!!!!!!!!!!!!!!!!!!!!!!!!!!!!!!!!!!!!!!!"
};