/* XPM */
static char * result[] = {
"128 128 92 1",
"! c #000000",
"# c #C7A9A6",
"$ c #B69C9C",
"% c #B29594",
"& c #A79293",
"' c #A78C8B",
"( c #A68785",
") c #9B8788",
"* c #9E807F",
"+ c #958080",
", c #977978",
"- c #8D7D80",
". c #8B7879",
"/ c #897577",
"0 c #8F7070",
"1 c #897070",
"2 c #837173",
"3 c #816D6E",
"4 c #82696A",
"5 c #826364",
"6 c #796C70",
"7 c #77676A",
"8 c #766466",
"9 c #776061",
": c #6E6063",
"; c #7A5A5D",
"< c #715A5B",
"= c #6D595B",
"> c #67595C",
"? c #665659",
"@ c #655456",
"A c #6A5053",
"B c #615051",
"C c #624C4E",
"D c #62464B",
"E c #595054",
"F c #574B4D",
"G c #5A494A",
"H c #52494B",
"I c #574648",
"J c #4F4648",
"K c #574247",
"L c #564140",
"M c #504243",
"N c #4C4144",
"O c #474044",
"P c #533C40",
"Q c #4D3B3E",
"R c #493C3F",
"S c #49393B",
"T c #463C3F",
"U c #413C3F",
"V c #42383B",
"W c #4B3639",
"X c #443637",
"Y c #403537",
"Z c #463034",
"[ c #3F2F31",
"] c #3C373B",
"^ c #3A3337",
"_ c #393234",
"` c #3A2F32",
"a c #342F32",
"b c #392C2E",
"c c #38292B",
"d c #342A2D",
"e c #312B2E",
"f c #2E282C",
"g c #362629",
"h c #302527",
"i c #2C2628",
"j c #2F2225",
"k c #2D1E21",
"l c #272326",
"m c #262023",
"n c #271E21",
"o c #221E20",
"p c #241A1D",
"q c #1E1A1B",
"r c #241517",
"s c #1D1516",
"t c #161314",
"u c #130E0F",
"v c #100A0A",
"w c #0A0909",
"x c #080706",
"y c #050404",
"z c #030303",
"{ c #020202",
"| c #010101",
"} c #010000",
"~ c #000000",
"!!!!!!!!!!!!!!!!!!!!!!!!!!!!!!!!!!!!!!!!!!!!!!!!!!!!!!!!!!!!!!!!!!!!!!!!!!!!!!!!!!!!!!!!!!!!!!!!!!!!!!!!!!!!!!!!!!!!!!!!!!!!!!!!",
"!!!!!!!!!!!!!!!!!!!!!!!!!!!!!!!!!!!!!!!!!!!!!!!!!!!!!!!!!!!!!!!!!!!!!!!!!!!!!!!!!!!!!!!!!!!!!!!!!!!!!!!!!!!!!!!!!!!!!!!!!!!!!!!!",
"!!!!!!!!!!!!!!!!!!!!!!!!!!!!!!!!!!!!!!!!!!!!!!!!!!!!!!!!!!!!!!!!!!!!!!!!!!!!!!!!!!!!!!!!!!!!!!!!!!!!!!!!!!!!!!!!!!!!!!!!!!!!!!!!",
"!!!!!!!!!!!!!!!!!!!!!!!!!!!!!!!!!!!!!!!!!!!!!!!!!!!!!!!!!!!!!!!!!!!!!!!!!!!!!!!!!!!!!!!!!!!!!!!!!!!!!!!!!!!!!!!!!!!!!!!!!!!!!!!!",
"!!!!!!!!!!!!!!!!!!!!!!!!!!!!!!!!!!!!!!!!!!!!!!!!!!!!!!!!!!!!!!!!!!!!!!!!!!!!!!!!!!!!!!!!!!!!!!!!!!!!!!!!!!!!!!!!!!!!!!!!!!!!!!!!",
"!!!!!!!!!!!!!!!!!!!!!!!!!!!!!!!!!!!!!!!!!!!!!!!!!!!!!!!!!!!!!!!!!!!!!!!!!!!!!!!!!!!!!!!!!!!!!!!!!!!!!!!!!!!!!!!!!!!!!!!!!!!!!!!!",
"!!!!!!!!!!!!!!!!!!!!!!!!!!!!!!!!!!!!!!!!!!!!!!!!!!!!!!!!!!!!!!!!!!!!!!!!!!!!!!!!!!!!!!!!!!!!!!!!!!!!!!!!!!!!!!!!!!!!!!!!!!!!!!!!",
"!!!!!!!!!!!!!!!!!!!!!!!!!!!!!!!!!!!!!!!!!!!!!!!!!!!!!!!!!!!!_UNVTT]>H!!!!!!!!!!!!!!!!!!!!!!!!!!!!!!!!!!!!!!!!!!!!!!!!!!!!!!!!!!!",
"!!!!!!!!!!!!!!!!!!!!!!!!!!!!!!!!!!!!!!!!!!!!!!!!!!!!!!!!!!Oa^OTaV_eJ^E:!!!!!!!!!!!!!!!!!!!!!!!!!!!!!!!!!!!!!!!!!!!!!!!!!!!!!!!!!",
"!!!!!!!!!!!!!!!!!!!!!!!!!!!!!!!!!!!!!!!!!!!!!!!!!!!!!!!!!JaeHO]OElfUlmT@!!!!!!!!!!!!!!!!!!!!!!!!!!!!!!!!!!!!!!!!!!!!!!!!!!!!!!!!",
"!!!!!!!!!!!!!!!!!!!!!!!!!!!!!!!!!!!!!!!!!!!!!!!!!!!!!!!!IYei_V]fmmi_sq^F:!!!!!!!!!!!!!!!!!!!!!!!!!!!!!!!!!!!!!!!!!!!!!!!!!!!!!!!",
"!!!!!!!!!!!!!!!!!!!!!!!!!!!!!!!!!!!!!!!!!!!!!!!!!!!!!!!!TdleVJ_idii]mtsHB!!!!!!!!!!!!!!!!!!!!!!!!!!!!!!!!!!!!!!!!!!!!!!!!!!!!!!!",
"!!!!!!!!!!!!!!!!!!!!!!!!!!!!!!!!!!!!!!!!!!!!!!!!!!!!!!!!RfmOUUmOfaoafoq]R!!!!!!!!!!!!!!!!!!!!!!!!!!!!!!!!!!!!!!!!!!!!!!!!!!!!!!!",
"!!!!!!!!!!!!!!!!!!!!!!!!!!!!!!!!!!!!!!!!!!!!!!!!!!!!!!!IRVea]EOEiO^]eqqe>8!!!!!!!!!!!!!!!!!!!!!!!!!!!!!!!!!!!!!!!!!!!!!!!!!!!!!!",
"!!!!!!!!!!!!!!!!!!!!!!!!!!!!!!!!!!!!!!!!!!!!!!!!!!!!!!!`d_`^^aEEa]OmoqolNF!!!!!!!!!!!!!!!!!!!!!!!!!!!!!!!!!!!!!!!!!!!!!!!!!!!!!!",
"!!!!!!!!!!!!!!!!!!!!!!!!!!!!!!!!!!!!!!!!!!!!!!!!!!!!!!!ele^ONeH?TOaolfoqiH!!!!!!!!!!!!!!!!!!!!!!!!!!!!!!!!!!!!!!!!!!!!!!!!!!!!!!",
"!!!!!!!!!!!!!!!!!!!!!!!!!!!!!!!!!!!!!!!!!!!!!!!!!!!!!!!Ofj_maaaY`lioltotui:!!!!!!!!!!!!!!!!!!!!!!!!!!!!!!!!!!!!!!!!!!!!!!!!!!!!!",
"!!!!!!!!!!!!!!!!!!!!!!!!!!!!!!!!!!!!!!!!!!!!!!!!!!!!!!>UeX_YH@F]aiVa_fqqtq[H!!!!!!!!!!!!!!!!!!!!!!!!!!!!!!!!!!!!!!!!!!!!!!!!!!!!",
"!!!!!!!!!!!!!!!!!!!!!!!!!!!!!!!!!!!!!!!!!!!!!7667::8EHBTd[[WG<IFJT`ddnrutnjdE:H@7-)-!!!!!!!!!!!!!!!!!!!!!!!!!!!!!!!!!!!!!!!!!!!!",
"!!!!!!!!!!!!!!!!!!!!!!!!!!!!!!!!!!!!!!!!!!!6722---:77:CQ[g[cPW4BGC:kpssuskbMEE:/2/--))!!!!!!!!!!!!!!!!!!!!!!!!!!!!!!!!!!!!!!!!!!",
"!!!!!!!!!!!!!!!!!!!!!!!!!!!!!!!!!!!!!!!!!!E/-/)./8878;<DQSCWCc:bMX:jcpppsrcPI@>B982:66.-!!!!!!!!!!!!!!!!!!!!!!!!!!!!!!!!!!!!!!!!",
"!!!!!!!!!!!!!!!!!!!!!!!!!!!!!!!!!!!!!!!!!E66-*%$%%%&*49CMSDADrXkxudtrgjkpjbW=22))&$+2?:6.!!!!!!!!!!!!!!!!!!!!!!!!!!!!!!!!!!!!!!!",
"!!!!!!!!!!!!!!!!!!!!!!!!!!!!!!!!!!!!!!!!:67-$$%*40,%'5=IgWP;AcguvvusZZkpusjZ</4;4+)&%+::2/!!!!!!!!!!!!!!!!!!!!!!!!!!!!!!!!!!!!!!",
"!!!!!!!!!!!!!!!!!!!!!!!!!!!!!!!!!!!!!!!B32-&&%+'(%%$'5AQWDD;;DkgrjrWDPbnsrkWA2/,+)2-/-2-FB!!!!!!!!!!!!!!!!!!!!!!!!!!!!!!!!!!!!!!",
"!!!!!!!!!!!!!!!!!!!!!!!!!!!!!!!!!!!!!!BF=33###&(0050$'0,1AA0*5W;D;W<<CgrkXQA4@D<5,+*&)8BERR!!!!!!!!!!!!!!!!!!!!!!!!!!!!!!!!!!!!!",
"!!!!!!!!!!!!!!!!!!!!!!!!!!!!!!!!!!!!!!NR:8-$%)+'')+,%$')7C55*AD0;,DACQgknNB84<=/..28.)3FHVd!!!!!!!!!!!!!!!!!!!!!!!!!!!!!!!!!!!!!",
"!!!!!!!!!!!!!!!!!!!!!!!!!!!!!!!!!!!!!!RBG6+..-/.3=CLD4&/KZC4,0504/;AIZkupU>FZ[S@=787::7?VRhY!!!!!!!!!!!!!!!!!!!!!!!!!!!!!!!!!!!!",
"!!!!!!!!!!!!!!!!!!!!!!!!!!!!!!!!!!!!!MSC=:<+<<BG=817DD3&;A4LL15;<AWWgsurjFHcPG=>BGI=G7EMNV`Y!!!!!!!!!!!!!!!!!!!!!!!!!!!!!!!!!!!!",
"!!!!!!!!!!!!!!!!!!!!!!!!!!!!!!!!!!!!>JSIBM<9C=M=CA;5;AA1))/XrgJF@NhrvvscRNjWDKKKKGYIKBB[`Yd`>!!!!!!!!!!!!!!!!!!!!!!!!!!!!!!!!!!!",
"!!!!!!!!!!!!!!!!!!!!!!!!!!!!!!!!!!!!GM[GIPCLWQM8)*(,1;AA,)@gZ[cfliuvvvtYJ[[RI=98:?YhgPZZ`YkjY8!!!!!!!!!!!!!!!!!!!!!!!!!!!!!!!!!!",
"!!!!!!!!!!!!!!!!!!!!!!!!!!!!!!!!!!!=LXcMMLGIjg:3+%%,,+/4+'7KKWXktuvvvunNIPMCB8/.:EHnkbPLcdrpbF!!!!!!!!!!!!!!!!!!!!!!!!!!!!!!!!!!",
"!!!!!!!!!!!!!!!!!!!!!!!!!!!!!!!!!!!?BRYWZWbrrgC=M2'&'*5A<<?FQZRpkruvvplgcZQ<737?hVSssrj[[krnYJ=!!!!!!!!!!!!!!!!!!!!!!!!!!!!!!!!!",
"!!!!!!!!!!!!!!!!!!!!!!!!!!!!!!!!!!6:MMMPQCprcX@GM?9.$#$*41:@?RT`QckunflSQ@2--8XchgcrpsrXhjhnhYJ!!!!!!!!!!!!!!!!!!!!!!!!!!!!!!!!!",
"!!!!!!!!!!!!!!!!!!!!!!!!!!!!!!!!!66:STGGFIR[VhK<C=4;,%##'+6ETYO`Rh_sjfdI76.6@WPSg[[unj[Mgh`jp`FE!!!!!!!!!!!!!!!!!!!!!!!!!!!!!!!!",
"!!!!!!!!!!!!!!!!!!!!!!!!!!!!!!!!!=8KL=BR`C@QMcK44150(+'%#&.?>8Y`jbbVOdO>./:F@GLGI@rphQKJnndSXgRJ!!!!!!!!!!!!!!!!!!!!!!!!!!!!!!!!",
"!!!!!!!!!!!!!!!!!!!!!!!!!!!!!!!!!<C9519`jKGZ@J:9940;*(.-&&)6:-:hphH7>J>:7?EB?WDDBMrc`WLSrr^BMMSN!!!!!!!!!!!!!!!!!!!!!!!!!!!!!!!!",
"!!!!!!!!!!!!!!!!!!!!!!!!!!!!!!!!!7A51/KXD=4PCM.L,5(,A/)'-/))2:H`GcV:::7877>GgD5A@[h[R[;LPgYEBKQJ!!!!!!!!!!!!!!!!!!!!!!!!!!!!!!!!",
"!!!!!!!!!!!!!!!!!!!!!!!!!!!!!!!!28<04QP=934KP!99;;0%5WB+')-346>beb:237667@[rQ09D9kb!HM?9?BLbGDLI>!!!!!!!!!!!!!!!!!!!!!!!!!!!!!!!",
"!!!!!!!!!!!!!!!!!!!!!!!!!!!!!!!!2,;1PQA9.3Kkk!<QK('$$0AD92-+//QnmhN3-)2=PgjX50/8@pb!!nc<3<PW[IG@B!!!!!!!!!!!!!!!!!!!!!!!!!!!!!!!",
"!!!!!!!!!!!!!!!!!!!!!!!!!!!!!!!!<939C;,*,<[Q!!!XM04'$$(,50/4+/XsssY2)+7KLAA/+2@@Mrk!!RKL37=CKGGSS?!!!!!!!!!!!!!!!!!!!!!!!!!!!!!!",
"!!!!!!!!!!!!!!!!!!!!!!!!!!!!!!!*54,5A400<[G=!!!C[40'&&$#$1DD9FhskphF9Z[G1+3348B<rk!!!?CZ?28=KA==P@!!!!!!!!!!!!!!!!!!!!!!!!!!!!!!",
"!!!!!!!!!!!!!!!!!!!!!!!!!!!!!!!,5(,;0154b[gJ!!!!GI14+.;,$#&1AgnsqpngK9.)2?WC8=@grp!!!!d[b8<9=C<7C=7!!!!!!!!!!!!!!!!!!!!!!!!!!!!!",
"!!!!!!!!!!!!!!!!!!!!!!!!!!!!!!'04(5;45ALjVG!!!!!SrA4,'09+)&+9.Fnfd`=1+/7?L<27BWvs!!!!!>brcC<<KA4<A2.!!!!!!!!!!!!!!!!!!!!!!!!!!!!",
"!!!!!!!!!!!!!!!!!!!!!!!!!!!!!#'(00A5<AWrZjb!!!!!!!X811,(()+))3`ppn`:'$+7=@9?9Crs!!!!!!!qkrZGDDC599/+!!!!!!!!!!!!!!!!!!!!!!!!!!!!",
"!!!!!!!!!!!!!!!!!!!!!!!!!!!!!##%,AADPgkPAL!!!!!!!!!SB:<A<+))/8Ck[bF.(+3<CLP=Fr!!!!!!!!!gKPgjZPKA9'')!!!!!!!!!!!!!!!!!!!!!!!!!!!!",
"!!!!!!!!!!!!!!!!!!!!!!!!!!!!!###'0DWWgPA5D!!!!!!!!!!`?3CL<101+=hkZ>+)/7PcI?Grs!!!!!!!!![AKZZP[P5)$%*(!!!!!!!!!!!!!!!!!!!!!!!!!!!",
"!!!!!!!!!!!!!!!!!!!!!!!!!!!!####$(5WWC=9/!!!!!!!!!!!EC@89;4414@hjW?//4BPAGPpp!!!!!!!!!!!?AP@WZ;''$$(+!!!!!!!!!!!!!!!!!!!!!!!!!!!",
"!!!!!!!!!!!!!!!!!!!!!!!!!!!!#####(,DP@;*C!!!!!!!!!!!!@GC99<<7BBkg[BB9CQLCWjp!!!!!!!!!!!!M<DBZD*%$$$$*!!!!!!!!!!!!!!!!!!!!!!!!!!!",
"!!!!!!!!!!!!!!!!!!!!!!!!!!!!$####%*AA?<@!!!!!!!!!!!!!>ORGG4BQCGkg[IBZQ?Qggrh!!!!!!!!!!!!!MMRP<*'##$%+!!!!!!!!!!!!!!!!!!!!!!!!!!!",
"!!!!!!!!!!!!!!!!!!!!!!!!!!!!$#%%#%*KABIi!!!!!!!!!!!!!!FHRbQ?XIQrjZQN[S[rhpjk!!!!!!!!!!!!!!aYPA*$#$')1!!!!!!!!!!!!!!!!!!!!!!!!!!!",
"!!!!!!!!!!!!!!!!!!!!!!!!!!!!!#(%$',<;<M!!!!!!!!!!!!!!!B8GXQbYdknR[[hhpnddbkr!!!!!!!!!!!!!!OSA;'$$&3-1!!!!!!!!!!!!!!!!!!!!!!!!!!!",
"!!!!!!!!!!!!!!!!!!!!!!!!!!!!!%$$$%4;<,9!!!!!!!!!!!!!!!I8H^MRc[X[`XS[kd`hpcrp!!!!!!!!!!!!!!>==4*%$&+-9!!!!!!!!!!!!!!!!!!!!!!!!!!!",
"!!!!!!!!!!!!!!!!!!!!!!!!!!!!!*##$%05A1!!!!!!!!!!!!!!!!==Rd^FGGIPbKBKKVhspkkj!!!!!!!!!!!!!!!8D4'$$&)7!!!!!!!!!!!!!!!!!!!!!!!!!!!!",
"!!!!!!!!!!!!!!!!!!!!!!!!!!!!!,$#$%,AA9!!!!!!!!!!!!!!!!D?SXRNC359A4/8Qh`prkch!!!!!!!!!!!!!!!?@;'$&%'9!!!!!!!!!!!!!!!!!!!!!!!!!!!!",
"!!!!!!!!!!!!!!!!!!!!!!!!!!!!!1*##'.CWQ!!!!!!!!!!!!!!!!TRBB?@?/.+5')2NbRdkphj!!!!!!!!!!!!!!!FM<'$$$-G!!!!!!!!!!!!!!!!!!!!!!!!!!!!",
"!!!!!!!!!!!!!!!!!!!!!!!!!!!!!11#%*/CS:!!!!!!!!!!!!!!!JicC:BK3)+*;'&+?gRYnrpe!!!!!!!!!!!!!!!!J=)$$&:M!!!!!!!!!!!!!!!!!!!!!!!!!!!!",
"!!!!!!!!!!!!!!!!!!!!!!!!!!!!!39%$+4WR!!!!!!!!!!!!!!!!H^XG27A.)4CD<)):cIFgk`U!!!!!!!!!!!!!!!!JB)%&)=F!!!!!!!!!!!!!!!!!!!!!!!!!!!!",
"!!!!!!!!!!!!!!!!!!!!!!!!!!!!!*&''49PA!!!!!!!!!!!!!!!!JmaB+3;+.<@QA1;3QC>bpf^!!!!!!!!!!!!!!!!8=)-)+78!!!!!!!!!!!!!!!!!!!!!!!!!!!!",
"!!!!!!!!!!!!!!!!!!!!!!!!!!!!!!))+.?L<!!!!!!!!!!!!!!!!YpZ<*00*-<gkZ507KA8bjpe!!!!!!!!!!!!!!!!35/+-2:=!!!!!!!!!!!!!!!!!!!!!!!!!!!!",
"!!!!!!!!!!!!!!!!!!!!!!!!!!!!!!+&3=IW3!!!!!!!!!!!!!!!!T`90**,&&<DP;9*3B<:SNjdb!!!!!!!!!!!!!!!,582:/:B!!!!!!!!!!!!!!!!!!!!!!!!!!!!",
"!!!!!!!!!!!!!!!!!!!!!!!!!!!!!!.)/7IP3!!!!!!!!!!!!!!!GU_4*'0*&)4+A*0(-CD5@KYUY!!!!!!!!!!!!!!!!56-27:!!!!!!!!!!!!!!!!!!!!!!!!!!!!!",
"!!!!!!!!!!!!!!!!!!!!!!!!!!!!!!)&6:IP!!!!!!!!!!!!!!!!AEF0*(**%%(&5$'&2<D9?Wd_M!!!!!!!!!!!!!!!!97.:26!!!!!!!!!!!!!!!!!!!!!!!!!!!!!",
"!!!!!!!!!!!!!!!!!!!!!!!!!!!!!!.&)6KK!!!!!!!!!!!!!!!!CEG5,**0)&('*$%&2=<3CXY^S!!!!!!!!!!!!!!!!17--/@!!!!!!!!!!!!!!!!!!!!!!!!!!!!!",
"!!!!!!!!!!!!!!!!!!!!!!!!!!!!!!/&)6IQ!!!!!!!!!!!!!!!!AVg954+2-'&)4+))6B9CQQkd`!!!!!!!!!!!!!!!!?:)-:T!!!!!!!!!!!!!!!!!!!!!!!!!!!!!",
"!!!!!!!!!!!!!!!!!!!!!!!!!!!!!!7&&6M[!!!!!!!!!!!!!!!5AhhKA<4)+&%)<4-)77BWWbkd[=!!!!!!!!!!!!!!!!>-)6NV!!!!!!!!!!!!!!!!!!!!!!!!!!!!",
"!!!!!!!!!!!!!!!!!!!!!!!!!!!!!!:--7KI!!!!!!!!!!!!!!!4WnjQD59++.&&</-+63ILQhdih=!!!!!!!!!!!!!!!!:2.7T^!!!!!!!!!!!!!!!!!!!!!!!!!!!!",
"!!!!!!!!!!!!!!!!!!!!!!!!!!!!!!>-/>M!!!!!!!!!!!!!!!,5GjnSA<@=841)9)37:MPI[h`d`C5!!!!!!!!!!!!!!!B62:JR!!!!!!!!!!!!!!!!!!!!!!!!!!!!",
"!!!!!!!!!!!!!!!!!!!!!!!!!!!!!!:-2EI!!!!!!!!!!!!!!(,ALbkZZP22=33.91=9M=8YrkSNJL;8!!!!!!!!!!!!!!E6/6JR!!!!!!!!!!!!!!!!!!!!!!!!!!!!",
"!!!!!!!!!!!!!!!!!!!!!!!!!!!!!N?/6HJ!!!!!!!!!!!!!(,5APSgWWW83/=@CXIGWF:EppgWEOZ;+<!!!!!!!!!!!!!E72:JV!!!!!!!!!!!!!!!!!!!!!!!!!!!!",
"!!!!!!!!!!!!!!!!!!!!!!!!!!!!!VE-:NJ!!!!!!!!!!!!!((0AKHbOQWG=@?@IN@KBNFYj^RR>R[;(,!!!!!!!!!!!!!F:6EOO!!!!!!!!!!!!!!!!!!!!!!!!!!!!",
"!!!!!!!!!!!!!!!!!!!!!!!!!!!!!^E6:OH!!!!!!!!!!!!(((0DDJYVgZMQKMMIQGXRIYbbdVK@YZ7,()!!!!!!!!!!!!H>>JHU!!!!!!!!!!!!!!!!!!!!!!!!!!!!",
"!!!!!!!!!!!!!!!!!!!!!!!!!!!!!]H7>VO!!!!!!!!!!!!((*ADDMj`SdYRXTScr[XQY`di`RSI`WD1*(!!!!!!!!!!!!!EEOJ^!!!!!!!!!!!!!!!!!!!!!!!!!!!!",
"!!!!!!!!!!!!!!!!!!!!!!!!!!!!!UH:>JT!!!!!!!!!!!.**5D5;FXPQN_qjdYcrYRbkqm`SQKBQ<K400*!!!!!!!!!!!UE>OO^!!!!!!!!!!!!!!!!!!!!!!!!!!!!",
"!!!!!!!!!!!!!!!!!!!!!!!!!!!!!UHEHOR!!!!!!!!!!!,%'5;0<@MFHRstsndbfRYpsqpNE@==S9D5*,,!!!!!!!!!!!OFHOUa!!!!!!!!!!!!!!!!!!!!!!!!!!!!",
"!!!!!!!!!!!!!!!!!!!!!!!!!!!!!^UEJOJ!!!!!!!!!!3*%(0509E[FEVmnmss!!!ssjj`I:@DBN=;5,,*1!!!!!!!!!!!NE]^f!!!!!!!!!!!!!!!!!!!!!!!!!!!!",
"!!!!!!!!!!!!!!!!!!!!!!!!!!!!!_OEHUJ!!!!!!!!!!30*(,,4=F[EJY[hpv!!!!!skRGM>=AGN=40,009!!!!!!!!!!!UE]Ua!!!!!!!!!!!!!!!!!!!!!!!!!!!!",
"!!!!!!!!!!!!!!!!!!!!!!!!!!!!!OJFU^J!!!!!!!!!!94,(*0=8INFN`gj!!!!!!!!!RIG@:=BF685054C8!!!!!!!!!!]O]Ua!!!!!!!!!!!!!!!!!!!!!!!!!!!!",
"!!!!!!!!!!!!!!!!!!!!!!!!!!!!!^EJU^T!!!!!!!!!95<.,10@GQV?Jjn!!!!!!!!!!!BL:2=CN66159G<9!!!!!!!!!_VOa]f!!!!!!!!!!!!!!!!!!!!!!!!!!!!",
"!!!!!!!!!!!!!!!!!!!!!!!!!!!!!_JOJ_V!!!!!!!!!B50,(..7F[QFkb!!!!!!!!!!!!!8G8<BQ./++5;=I!!!!!!!!!`VUaal!!!!!!!!!!!!!!!!!!!!!!!!!!!!",
"!!!!!!!!!!!!!!!!!!!!!!!!!!!!!^UNNaR!!!!!!!!!L05*%*(3@`Xgh!!!!!!!!!!!!!!!8B?GB.)'%,<9G!!!!!!!!!a]]a]f!!!!!!!!!!!!!!!!!!!!!!!!!!!!",
"!!!!!!!!!!!!!!!!!!!!!!!!!!!!!^ONTVT!!!!!!!!!C5;,',*9Bdcd!!!!!!!!!!!!!!!!!7AC:/(**/L;LQ!!!!!!!!`NO]af!!!!!!!!!!!!!!!!!!!!!!!!!!!!",
"!!!!!!!!!!!!!!!!!!!!!!!!!!!!!^]FFa_!!!!!!!!C<4;.+<9=Mjkd!!!!!!!!!!!!!!!!!79IG7.0*-L<@L!!!!!!!!^OJ^ef!!!!!!!!!!!!!!!!!!!!!!!!!!!!",
"!!!!!!!!!!!!!!!!!!!!!!!!!!!!!aUNEad!!!!!!!!L=C,&+PB:Skb!!!!!!!!!!!!!!!!!!!4GA18A(&7CCS!!!!!!!!YJHa^e!!!!!!!!!!!!!!!!!!!!!!!!!!!!",
"!!!!!!!!!!!!!!!!!!!!!!!!!!!!!^aH?_d!!!!!!!!MBG4'7RMSXjX!!!!!!!!!!!!!!!!!!!!<ABAC,&9LWS!!!!!!!!RHOJ^f!!!!!!!!!!!!!!!!!!!!!!!!!!!!",
"!!!!!!!!!!!!!!!!!!!!!!!!!!!!!UVEEafb!!!!!!!ML=')2Y`Xkb!!!!!!!!!!!!!!!!!!!!!4CILL,$,=[Q!!!!!!!!VJ]^fea!!!!!!!!!!!!!!!!!!!!!!!!!!!",
"!!!!!!!!!!!!!!!!!!!!!!!!!!!!!HOFEY_b!!!!!!!GB./3@j_gg_!!!!!!!!!!!!!!!!!!!!!!9CBZ5+44LPP!!!!!!!YRU^a_a!!!!!!!!!!!!!!!!!!!!!!!!!!!",
"!!!!!!!!!!!!!!!!!!!!!!!!!!!!UNTFEV_R!!!!!!!A<,33GgdkY!!!!!!!!!!!!!!!!!!!!!!!4ALX9.81GLQ!!!!!!!`OO^]]a!!!!!!!!!!!!!!!!!!!!!!!!!!!",
"!!!!!!!!!!!!!!!!!!!!!!!!!!!!^VVHTYbd!!!!!!!<4)/7EhbcX!!!!!!!!!!!!!!!!!!!!!!!!<CM40.,<AQ!!!!!!YX`V^eii!!!!!!!!!!!!!!!!!!!!!!!!!!!",
"!!!!!!!!!!!!!!!!!!!!!!!!!!!!NSFFRYdm!!!!!!!9+24BRibg!!!!!!!!!!!!!!!!!!!!!!!!!9?Q<9194<R!!!!!!_N`VYTa^!!!!!!!!!!!!!!!!!!!!!!!!!!!",
"!!!!!!!!!!!!!!!!!!!!!!!!!!!!JSBFJYeo!!!!!!!=339G[pn!!!!!!!!!!!!!!!!!!!!!!!!!!!S[B<744AZ!!!!!!hVVYYT^_!!!!!!!!!!!!!!!!!!!!!!!!!!!",
"!!!!!!!!!!!!!!!!!!!!!!!!!!!!NYNHHNdml!!!!!!P@7?MhmY!!!!!!!!!!!!!!!!!!!!!!!!!!!ACIB@6@Wg!!!!!!dRJV_dedY!!!!!!!!!!!!!!!!!!!!!!!!!!",
"!!!!!!!!!!!!!!!!!!!!!!!!!!!!__YNJO^mq!!!!!![XIF[hVNM!!!!!!!!!!!!!!!!!!!!!!!!!418IQBIYh!!!!!!ebJJ_alll_!!!!!!!!!!!!!!!!!!!!!!!!!!",
"!!!!!!!!!!!!!!!!!!!!!!!!!!!JYYVVUJ]osq!!!!!j[bTb`TRX!!!!!!!!!!!!!!!!!!!!!!!!!98=FKKbbn!!!!!!i`JO]fmil`!!!!!!!!!!!!!!!!!!!!!!!!!!",
"!!!!!!!!!!!!!!!!!!!!!!!!!!!RY]_aeUUmss!!!!!kpphh^V_`!!!!!!!!!!!!!!!!!!!!!!!!!@BFKM`npn!!!!!!iUJUemliiY!!!!!!!!!!!!!!!!!!!!!!!!!!",
"!!!!!!!!!!!!!!!!!!!!!!!!!!!RNUUfol^fst!!!!!!njjd]T^a!!!!!!!!!!!!!!!!!!!!!!!!!@F@FVjhnp!!!!!ddJUmsqefo`!!!!!!!!!!!!!!!!!!!!!!!!!!",
"!!!!!!!!!!!!!!!!!!!!!!!!!!!VOOHOioe]mt!!!!!!nij`_^eh!!!!!!!!!!!!!!!!!!!!!!!!!BNJOTfdj!!!!!!V^Easqqa^qie!!!!!!!!!!!!!!!!!!!!!!!!!",
"!!!!!!!!!!!!!!!!!!!!!!!!!!!O^H]falqaes!!!!!!mifaeaeh!!!!!!!!!!!!!!!!!!!!!!!!!!OTT]afp!!!!!!VMTqifiUUmll!!!!!!!!!!!!!!!!!!!!!!!!!",
"!!!!!!!!!!!!!!!!!!!!!!!!!!!HJEOeifmi]m!!!!!!!ia]efo!!!!!!!!!!!!!!!!!!!!!!!!!!!aOaUUf!!!!!!!VFiialfO]elq!!!!!!!!!!!!!!!!!!!!!!!!!",
"!!!!!!!!!!!!!!!!!!!!!!!!!!!EOUUqqolql_l!!!!!!!ffflq!!!!!!!!!!!!!!!!!!!!!!!!!!!aa]e^i!!!!!!!Tfoaqsi^e]f!!!!!!!!!!!!!!!!!!!!!!!!!!",
"!!!!!!!!!!!!!!!!!!!!!!!!!!!FUaUov!omoO^!!!!!!!la^aq!!!!!!!!!!!!!!!!!!!!!!!!!!!_ea]f!!!!!!!TOqio!smaa_e!!!!!!!!!!!!!!!!!!!!!!!!!!",
"!!!!!!!!!!!!!!!!!!!!!!!!!!!JJUOiv!!mo]Om!!!!!!!a]^m!!!!!!!!!!!!!!!!!!!!!!!!!!!^aafo!!!!!!JUieq!!haH_f_!!!!!!!!!!!!!!!!!!!!!!!!!!",
"!!!!!!!!!!!!!!!!!!!!!!!!!!!OHJE^us!!tfO_!!!!!!!]UUou!!!!!!!!!!!!!!!!!!!!!!!!!!^]]o!!!!!!!Ollef!![NF]UU!!!!!!!!!!!!!!!!!!!!!!!!!!",
"!!!!!!!!!!!!!!!!!!!!!!!!!!!mUE:_rk!!!qE7V!!!!!!!U^qu!!!!!!!!!!!!!!!!!!!!!!!!!J_aiq!!!!!!Oooa]!!AQREO]]!!!!!!!!!!!!!!!!!!!!!!!!!!",
"!!!!!!!!!!!!!!!!!!!!!!!!!!!lJ@7Rpj[!!!84?b!!!!!!]^mtt!!!!!!!!!!!!!!!!!!!!!!!IS^io!!!!!GOmeV!!!40=<6H]a!!!!!!!!!!!!!!!!!!!!!!!!!!",
"!!!!!!!!!!!!!!!!!!!!!!!!!!!sU:-Ccj[[!!!99Km!!!!!ffltt!!!!!!!!!!!!!!!!!!!!!!!MN^io!!!BXVaUHN!!!500*):al!!!!!!!!!!!!!!!!!!!!!!!!!!",
"!!!!!!!!!!!!!!!!!!!!!!!!!!!v_:-<Zkbb!!!9=FNft!!!lmmqqq!!!!!!!!!!!!!!!!!!!!!!ST`fp!!!SSTeVJ!!!!510()6fq!!!!!!!!!!!!!!!!!!!!!!!!!!",
"!!!!!!!!!!!!!!!!!!!!!!!!!!!!ea@8Lpg!!!!28J_Ol!!!`hflqo!!!!!!!!!!!!!!!!!!!!!BPVVem!!!XY^lF>!!!!990'8]lt!!!!!!!!!!!!!!!!!!!!!!!!!!",
"!!!!!!!!!!!!!!!!!!!!!!!!!!!!mfV:Bgg!!!!-.TllhR!!XJF^nm!!!!!!!!!!!!!!!!!!!!!GG>EUV!!Mgnl^66!!!!;9,,Noq!!!!!!!!!!!!!!!!!!!!!!!!!!!",
"!!!!!!!!!!!!!!!!!!!!!!!!!!!!!aV79L!!!!!!2:OjpbM!VTJali!!!!!!!!!!!!!!!!!!!!!!MEF]^_WcpkO>27!!!!!9*4`ls!!!!!!!!!!!!!!!!!!!!!!!!!!!",
"!!!!!!!!!!!!!!!!!!!!!!!!!!!!!l`/1I!!!!!!!!>Md!bQXNJfp!!!!!!!!!!!!!!!!!!!!!!!YHEOb[ckcH:8!!!!!!!,'/dq!!!!!!!!!!!!!!!!!!!!!!!!!!!!",
"!!!!!!!!!!!!!!!!!!!!!!!!!!!!!a`>1P!!!!!!!!!!!!![MJOls!!!!!!!!!!!!!!!!!!!!!!!bOERWc!!!!!!!!!!!!!,'<mm!!!!!!!!!!!!!!!!!!!!!!!!!!!!",
"!!!!!!!!!!!!!!!!!!!!!!!!!!!!!al_7G!!!!!!!!!!!!![[IVns!!!!!!!!!!!!!!!!!!!!!!!!]ELgh!!!!!!!!!!!!!,,Xpm!!!!!!!!!!!!!!!!!!!!!!!!!!!!",
"!!!!!!!!!!!!!!!!!!!!!!!!!!!!!inp@B!!!!!!!!!!!!!a`[Sn!!!!!!!!!!!!!!!!!!!!!!!!!YLghm!!!!!!!!!!!!!,<mpn!!!!!!!!!!!!!!!!!!!!!!!!!!!!",
"!!!!!!!!!!!!!!!!!!!!!!!!!!!!!hjr!!!!!!!!!!!!!!!eaSWk!!!!!!!!!!!!!!!!!!!!!!!!![Wbio!!!!!!!!!!!!!!!ojj!!!!!!!!!!!!!!!!!!!!!!!!!!!!",
"!!!!!!!!!!!!!!!!!!!!!!!!!!!!!cck!!!!!!!!!!!!!!!_^XWk!!!!!!!!!!!!!!!!!!!!!!!!!bZ[il!!!!!!!!!!!!!!!hcc!!!!!!!!!!!!!!!!!!!!!!!!!!!!",
"!!!!!!!!!!!!!!!!!!!!!!!!!!!!!![k!!!!!!!!!!!!!!!_TWZr!!!!!!!!!!!!!!!!!!!!!!!!!h[[fle!!!!!!!!!!!!!!c[c!!!!!!!!!!!!!!!!!!!!!!!!!!!!",
"!!!!!!!!!!!!!!!!!!!!!!!!!!!!!![g!!!!!!!!!!!!!!][GLhs!!!!!!!!!!!!!!!!!!!!!!!!!!dLLcf!!!!!!!!!!!!!![Z!!!!!!!!!!!!!!!!!!!!!!!!!!!!!",
"!!!!!!!!!!!!!!!!!!!!!!!!!!!!!![ch!!!!!!!!!!!!!VXIhs!!!!!!!!!!!!!!!!!!!!!!!!!!!lSXQf!!!!!!!!!!!!!!WZ!!!!!!!!!!!!!!!!!!!!!!!!!!!!!",
"!!!!!!!!!!!!!!!!!!!!!!!!!!!!!!!Z[!!!!!!!!!!!!`YOUmq!!!!!!!!!!!!!!!!!!!!!!!!!!!lY^Vea!!!!!!!!!!!!LL!!!!!!!!!!!!!!!!!!!!!!!!!!!!!!",
"!!!!!!!!!!!!!!!!!!!!!!!!!!!!!!!!WZ!!!!!!!!!!!YUJY`o!!!!!!!!!!!!!!!!!!!!!!!!!!!ldOVJ^!!!!!!!!!!!GGL!!!!!!!!!!!!!!!!!!!!!!!!!!!!!!",
"!!!!!!!!!!!!!!!!!!!!!!!!!!!!!!!!!LL!!!!!!!!!ieaVV`a]!!!!!!!!!!!!!!!!!!!!!!!!!!edY_OMF!!!!!!!!!5<!!!!!!!!!!!!!!!!!!!!!!!!!!!!!!!!",
"!!!!!!!!!!!!!!!!!!!!!!!!!!!!!!!!!!!!!!!!!!!lfefidVb^!!!!!!!!!!!!!!!!!!!!!!!!!!hemmUNFJ!!!!!!!!!!!!!!!!!!!!!!!!!!!!!!!!!!!!!!!!!!",
"!!!!!!!!!!!!!!!!!!!!!!!!!!!!!!!!!!!!!!!!Uafieloei^NV!!!!!!!!!!!!!!!!!!!!!!!!!TbVmmlYRF>@H!!!!!!!!!!!!!!!!!!!!!!!!!!!!!!!!!!!!!!!",
"!!!!!!!!!!!!!!!!!!!!!!!!!!!!!!!!!!!!!!XY_mqioe^em^JT!!!!!!!!!!!!!!!!!!!!!!!!!!dNYfaJ_Taf`JM!!!!!!!!!!!!!!!!!!!!!!!!!!!!!!!!!!!!!",
"!!!!!!!!!!!!!!!!!!!!!!!!!!!!!!!!!!!!ILc]ittm]]!aijjQ!!!!!!!!!!!!!!!!!!!!!!!!![W9df!I?VflaH[[L!!!!!!!!!!!!!!!!!!!!!!!!!!!!!!!!!!!",
"!!!!!!!!!!!!!!!!!!!!!!!!!!!!!!!!!!!!Lkr^fil_O!!UbjXcV!!!!!!!!!!!!!!!!!!!!!!!!MLLpe!!8?SVVJbcL!!!!!!!!!!!!!!!!!!!!!!!!!!!!!!!!!!!",
"!!!!!!!!!!!!!!!!!!!!!!!!!!!!!!!!!!!!!RSBEN_!!!!!BIQX!!!!!!!!!!!!!!!!!!!!!!!!!8=GGS!!!!H::7M[!!!!!!!!!!!!!!!!!!!!!!!!!!!!!!!!!!!!",
"!!!!!!!!!!!!!!!!!!!!!!!!!!!!!!!!!!!!!!!!!!!!!!!!!!!!!!!!!!!!!!!!!!!!!!!!!!!!!!!!!!!!!!!!!!!!!!!!!!!!!!!!!!!!!!!!!!!!!!!!!!!!!!!!"
};