/* XPM */
static char * result[] = {
"64 64 92 1",
"! c #000000",
"# c #ECECEC",
"$ c #DCDCDC",
"% c #FCF420",
"& c #D0D0D0",
"' c #E4D800",
"( c #CCC400",
") c #C0C0C0",
"* c #B4B4B4",
"+ c #A8A8A8",
", c #B4AC00",
"- c #989898",
". c #9C9C00",
"/ c #8C8C8C",
"0 c #848400",
"1 c #7C7C7C",
"2 c #707070",
"3 c #646464",
"4 c #706C00",
"5 c #545454",
"6 c #585400",
"7 c #484848",
"8 c #383838",
"9 c #404000",
": c #2C2C2C",
"; c #202020",
"< c #000000",
"= c #000000",
"> c #000000",
"? c #000000",
"@ c #000000",
"A c #000000",
"B c #000000",
"C c #000000",
"D c #000000",
"E c #000000",
"F c #000000",
"G c #000000",
"H c #000000",
"I c #000000",
"J c #000000",
"K c #000000",
"L c #000000",
"M c #000000",
"N c #000000",
"O c #000000",
"P c #000000",
"Q c #000000",
"R c #000000",
"S c #000000",
"T c #000000",
"U c #000000",
"V c #000000",
"W c #000000",
"X c #000000",
"Y c #000000",
"Z c #000000",
"[ c #000000",
"] c #000000",
"^ c #000000",
"_ c #000000",
"` c #000000",
"a c #000000",
"b c #000000",
"c c #000000",
"d c #000000",
"e c #000000",
"f c #000000",
"g c #000000",
"h c #000000",
"i c #000000",
"j c #000000",
"k c #000000",
"l c #000000",
"m c #000000",
"n c #000000",
"o c #000000",
"p c #000000",
"q c #000000",
"r c #000000",
"s c #000000",
"t c #000000",
"u c #000000",
"v c #000000",
"w c #000000",
"x c #000000",
"y c #000000",
"z c #000000",
"{ c #000000",
"| c #000000",
"} c #000000",
"~ c #000000",
"::::::::::::::::::::::::::::::::::::::::::::::::::::::::::::::::",
"55555555557$((((($$$$$$,,,$;8/+$$$$$(((2//5;77777777775555555555",
"55555555557$&,,,,-+((&))((/;8/)*/(1(...4558;82....11123777777777",
"////////;57$&,,,4-((.)))0,3;8+$+/1(14045158;8.('.4/*)(((33((////",
"&*,**+//;57$&..04-(.++-//.5;8/)///++3045258;8.',431*$(''73((01&&",
"++,,5212;57$).0421-+-./2/05;87+(.+//1652558;8.'43/*'(1..73.047/-",
"*-45///2;77$&.441+---./-2/5;871.0,/++232888;80.431(((14.723773,1",
"**1/+/25;87$&/11-+-&10-+//5;872/+/+///+2888:8043//1(1144721/2103",
"-++22/77;:7$)+-1-(--/-//+/5;;7522558888888;8813/1++1/+172/-//+13",
"////2577;:7$#+1-1(,2///+//5:;77888888888;;8881**/.1-11-32-/-//+/",
"22225788;:7$$/1--(.2+/+/+/5:;878::;;;;;::88881*1.7/+'1/2/2-32/33",
"55777;;;;:7+$+-1(,.2-//1/238;877772++++$$48882*/1331.85537777777",
";;;;;::::85/$&/1/.2//+1/./58;872+%%$$$&&$(4885/233576888888:::::",
":::::::::852+&/+///+//-/3358;:8+%(.//+/+.26;88888888888::;;;;;;;",
"888888888857/&+/+-2-/1/+0558;:7+(01+/''/.5488::::::::::888888888",
"5788888888572)/+-(.2+/+/4527;:7+'01/('1/0568775555;7777777777777",
"---------:;57))0/.0+2///2355;;7''11+''2/45887',,35751-----------",
"&(,$$(.228;57/)43-3/22+/2/27;;7'1/1/.43+/5888,,03:71)((($,++((($",
"(,0,,.4528;572-33//2/5/25257;;71/1/'3335558;8.053;7-(((1'.1+(.02",
",0+,.04528;757--2/322225257:;;:+/2/25888888;3.025;7-((1-..1-(.02",
"0+/,.44558;757355888888:;;;;;;:/2888;;;;;;;;3/0/5;7-+1/-.11+(.0-",
"+/+,455/58;757::::;;;;;;;;;;;;:858;;;;::::::/+/+5;7/+-+-+1+1+.42",
"/+1152/258;85578;;;;;;;;7777777//-.....15:83)$+)3;7//+'-/+-++11-",
"/(.1///378;8/((,./***3873.(((,&###((((,.0;81$)$+2;71-+-/+-'-1+-+",
"/.0+///378;8(,,.11111857.(,2-++-+-.1.0.04;8/$++)';7'+-+-''1+--+-",
"-0////2588;8,.0333333;57-#--.-(+--1+01.46;8/'//+.;7.623',0462252",
"3333357888;8,033-0.43;77-#'+-(0-((+-0+036;8/,2/+4;76887666677555",
"577888;;;;:8,03--1043;77-#(+(.1-(0-+--139;8/2/+$6;7::;;;;;;;;887",
";;;;;;:::777#3-+0/043;87-#,-(41+-+-1,0139;8'#+$+5;78888:::;;;;;;",
"7332/-////7;#--+0/3139;7-#,+.41-1-+-,0159;8,#))+5;78888888888888",
"3/*,,/++++3;#+&/4+/139;7-#+(.41-++-+,0/59;4.$++,5;74...,,0077775",
"3*,,03++++7;#+-+1/1/39;71-(.421+--1-,0359;8.$$,.5;72.4...,,,0-85",
"3,.03/+,,23;#&+-+0/+39;85-.411/-+1-1,0278;8.$+,45;7-22..00444185",
"3,.22+2,023;#-/-+//139;:5+#+((./1111,037:;4/&),65;7$++.422632387",
"32/+/2/,425;$+++-++139;:5/#)(041--/+.037;;./&+049;7&+/.4/1-3-387",
"3++/++,.425;$)1-(,1/39;;72&)0431/+-,.338;;7/&/469;7)++.41/--+587",
"3$-+//04425;)$/-,0/+399;75*$431/+/033328;871+149687++/.02-12-588",
"3$++/-44225;*$1+////399;85/)-11222332258;87588668872575555555588",
"3$*/,0/2/-5;-$+1++1/359;857//22557;9757;;8757788877;;;;;;;;;;;;8",
"3$*+/-/,.25;1$--+/3/159;:778:::;;:::8888887777777777778888888888",
"3$,,-/,.025;5#++///+156;:777888887775533322111110000111111111185",
"3,,0+-.4435;7#-/.1/1156;:83.......011/--+++++**(((,0))',)(,0)185",
"3,01--/443;:7#+/03+/356;;84((((((((.+)+)-)+)))(,000**',)),,,03:7",
"3,01+////5;:7#/+33//356;;84(,,,,,,,0+)++)(.-+-,0+-((,1/),.,015:7",
"3,0//+/+/5;87$++++/+359;;8:,,......04/)++..++-)-+(,,1/-+22,225:8",
"701/+/+/35;87&//+///358;;8:///.0.00442+)+/1-)--+(111-++-//,225:8",
"7////1355;:87*+//+/1358;;8:)$).444422/+)/*/--((-/12//',*+/,225:8",
"711235555;:87--+///2358;;8:*$&022221-/.+*+/*(+//+//-*,0+--2225;8",
"78;555555;8771333333558;;8:+$&21//,,0*//*-+*+/,+,+-*,0-++-,,25;8",
"555::;;:;:8788888888888;;::/&*/*-*,,4/*/*-//',4-+)-+--+-//*125;8",
"777788::::8788;;;;;;;;;;;;:/-22222044/+21/*',4+/+-//*1//(-/-25;8",
"71+(((./377588::::::::::::8578::::::5221/,*4411231///11*131135;8",
"7+('((((,.+/235788888888887577888888:755555555555555555555555;:8",
"7+(',///-+),''(((,,,,,021233557777788:::::;;::::::;;;;;;;;;;;:87",
"7+)-,-))*)*)+//........0//)+++++/757888888888:::::::::::::::8877",
"7+))-)*++-)+*)*+/////000/-)$''/)18757778888888888888888888887775",
"7+*&)*)',0**&+&))(.-/////*+/'0/13;8570,,,37775554,.0446777775555",
"7+))+/1,06)+)&+++&))+)+&+1+&+//35;877,0003$$*55.(((.1(++&(*-1775",
"7+/233306212321233321/+/1333333558;8730043***35/11111++/(.2+$-;5",
"7/37888888888888888888888888888888;:7*043-3-/37//+/+((++.02/+5;5",
"78;;;;;;;;;;;;;;;;;;;;;;;;;;;;;;;;;:7896533333733-+((.1+022//5;5",
"57888:::::::::::::::::::::::::::::::87998;;;;;8755465554655555;5",
"5555777777778888888888888888888888888777788888877;;;;;;;;;;;;;;5",
"8888888888888888888888888888888888888888888888888888888888888888"
};