/* XPM */
static char * result[] = {
"64 64 92 1",
"! c #000000",
"# c #8D856C",
"$ c #8D8166",
"% c #887E65",
"& c #887A60",
"' c #847960",
"( c #827860",
") c #657976",
"* c #84755A",
"+ c #657470",
", c #7C725A",
"- c #786F5A",
". c #786C55",
"/ c #736954",
"0 c #6E6450",
"1 c #5E716F",
"2 c #5E6E69",
"3 c #586D69",
"4 c #566C69",
"5 c #586963",
"6 c #506763",
"7 c #4D6463",
"8 c #4D615D",
"9 c #4A5F5C",
": c #475A57",
"; c #000000",
"< c #000000",
"= c #000000",
"> c #000000",
"? c #000000",
"@ c #000000",
"A c #000000",
"B c #000000",
"C c #000000",
"D c #000000",
"E c #000000",
"F c #000000",
"G c #000000",
"H c #000000",
"I c #000000",
"J c #000000",
"K c #000000",
"L c #000000",
"M c #000000",
"N c #000000",
"O c #000000",
"P c #000000",
"Q c #000000",
"R c #000000",
"S c #000000",
"T c #000000",
"U c #000000",
"V c #000000",
"W c #000000",
"X c #000000",
"Y c #000000",
"Z c #000000",
"[ c #000000",
"] c #000000",
"^ c #000000",
"_ c #000000",
"` c #000000",
"a c #000000",
"b c #000000",
"c c #000000",
"d c #000000",
"e c #000000",
"f c #000000",
"g c #000000",
"h c #000000",
"i c #000000",
"j c #000000",
"k c #000000",
"l c #000000",
"m c #000000",
"n c #000000",
"o c #000000",
"p c #000000",
"q c #000000",
"r c #000000",
"s c #000000",
"t c #000000",
"u c #000000",
"v c #000000",
"w c #000000",
"x c #000000",
"y c #000000",
"z c #000000",
"{ c #000000",
"| c #000000",
"} c #000000",
"~ c #000000",
"#*+242#&$$+&42$&(&+2+($&-%$2+2(&#&+242#&$&+$(2$&(&+++,$$-%$2+2(&",
"-*$6+2+-$($6+24,$/-2$+4&$&$2+27%-&$6+2$/$,$4+24,$/-&+&($$&$2$&-%",
"$.$,)2+2($(%$&+2$,$%+4+6#,$&+642$,$,7&+&(&(#$&$&$,$%+,+,#,$&+,42",
"+*(/$241+($&$2+&+&$&(+4/4,$/#2+2+&(/$241+,$$$2$&+&$&(&(94,$/#2+2",
"+5$&$&42+2#&$,+2+6$/$$+2+1$&(&)2+2$&$&(2+2#&$,$&$6$/$&$&$1$&(&)&",
"+5+%(,$2+6+&$&$14&+&$(#242+&$,$2$2+%(,$2+6+&$&$%(&$&$,#2(2+&$,$2",
"$579(&$&4242$&(&$6+2$$(/+2+2(&(/+&7/(&$&(242$&(&$.$2$&(/+&$2(&(/",
"#5+6+,#,$6+2),$,$2+9+($&$2+6+&$&#2$,$.#,$6+&),$,$*+/$,$&$2+6+&$&",
"$*424&$&-2+64&-&$2+2(((&$%494&$&$2424*$&-2+6(&-&$*$&4,(&$%494&$&",
"+2+6$&$,+&+6(,$%-2+,#($&$&$6$&$/+&+,$*$,$2$6(,$%-5$,#,$&$2+6$&$/",
"724%(&$272+&(&$&+24&(($272(,$%(272(%(*$272+&(&$2$&(&(,$272(,$%(2",
"+6#,$&$2)2$,#,-&$9$,$$$2$,$,$&75+6#,$*$&)&$,#,72$/$,$&+2+,$,$&72",
"4&$&$&+5+&(,(,+2+&$,$&41+,$&$&+54&$&$2+2+&(,(,$&+&$,$5(1+,$&$2+2",
"$&#&+&75$,-,42#6$&$&+&$2$&$&+2+.$&#&+&72$,-,42),$&$&+*+2$&$&+++6",
"$,-2+2)*(&#2+5$,$,$2+/$&$/$2+6(&$,-&+2)&(&#2$&$,$,$&+:+&$/$2+44&",
"$&+&4,$.$&$&+5$&(&$1+&(&$,),+&#&$&$2(,$,$&+&+2$&(&$1+5(&$,)6+$#&",
"#&$1+&$*$&72$5$/$,$9$6#,$&(24&(&#&+1+&$&$&72+2$/$,+9+8#,$&424+(&",
"$&(+72$*$&#&$*4&$%$2(&+&$,(&+&$&$&(27&+&$&#2+24&$%$245+&$,(2+2+&",
"$/$#7&$*-,$&$8+%$,#,$2(&$&(,4&$&$/$%72+2-,$&+6+%$,#,+542$&(,42$&",
"4&($#6$'4&$&(*$2$&(,(2+&-&$,$%$&4&(&#6$%(&$&(2+2+&(,(*+&7&$,$1+2",
"-2($$&$.42$,$*(24,$,$,+2$/(&$/+,72(&$&+6(2$,$&4246$,$.+2+9(&$/+6",
"+2+#$&(*(&(&$*$2424%$&$&$,-%(&$&+2+%$&(2424&$&$2424%$&$2+6-%(&$&",
"7&4&-,$.4,+&#*$%$/$&$,$%$&$&(,$&-$4&-,$,4,+2#&$%+/+2$,$%+2+2(,$&",
"$2+2(&(.#&$,$0(,$&$2+&$&(&$,$&$,$$$&4&(,#&+,+/(,$&$&$&$$(2$6+&$,",
"$2+64%$.(&$&$*$&(2$1$$$$(&42(%(&$$$64%$,(&+&+&$&(&+1+&$$(24&4%(&",
"$,$&(&$*$,$&$.$&$$42$($(-,+,(,-&$($2(&$$$6+&$,$&$&4&$,$(76+6(,-&",
"$1$,$&$.$2$,$&$2+&),$$($(64%(&$&+#$,$&$4$2+,$&$2$2),$&(+464%(&$2",
"+2-%(&+*#2$/$&(1$&$&$%74$6$,$&+,++-%(&$$)2$/$&41+2$&$%74+6$,$&+6",
"+&$&$6$8+&#,$,+2+&$&$&#++&-&$1+2+&$&$6$4+&#,$,+&+&$&$2)++&-&$1+2",
"$&#&4245$,(&($$6#&$&(,+6$,$&42(2$&#&424+$,(&4&+,#&$&4,+4$,$&4242",
"$,$5$%+*$&$,$+$&$&(%+,$&-,$&+2+&$,$2+1+$$&$6$2+&$&(1+,+&-,$2$2+&",
"$&4542$*$&-&$)$0$(+2+&(&#&+2+&(&$&4&42$$$&-2$1$/$,+2+2(&#&+2+2($",
"#&+542#*$&$&($$*($+&$6$&-%+2+2(&#&+545#$$&+542$&(&+++6$&-%+2+2($",
"-&$8$&+0$($,$$(.$--&$24&$&$2+27%-&$8+5+/$,$8+24,$/-$+24&$&$2$&7#",
"$,$.#2$*($(%$$+*$,$%$,+6#,$&+642$,$.)5+2(&('+2+2$,$#+6+6#,$&+642",
"+&(0$&4'+($&$$+*$&$&(2494,$/#2+2+&(0$541+,$*$2$2+&$&(2(9(,$/#&$2",
"$&$*$&45++#&$(+5+,$/$&+2+1$&(&)2+2$*$&42+2#*$,+2+6$/$&+2+1$&(&#&",
"$2+'(,$*+4$&$$$34&+&$,#242+&$,$2+2+'(,$2+6+*$&$142+&$,#24&+&$,$&",
"$&70(&$*(+(2$&(*+6+2$&(/+2+2(&(/+279(&$&4242$&(&+6+2$&(/+&+&(&(/",
"#2$8+,#.$(+&),$.$&+9+,$&$2+6+&$*#2+6+,#,$6+2),$,$2+/+,$&$&+,+&$&",
"$&(*4&$*-$+6(&-*$2++4,(&$1494&$*$2424&$&-2+64&-&$2$24,(&$%(94&$&",
"$*+.$&$.$++,(,$'-2+4#,$&+2+6$&$0+2+6$&$,+$+,(,$%-2+6#,$&$2+,$&$/",
"75('(&$&7++&(&$*+24$(,$2724,$%(5724%(&$&7+$&(&$2+24&(,$27&4,$%(&",
"+8#,$&$2)+$,#,-5$9$($&+2+6$,$&75+6#,$&+2)+$,#,7&$/$,$&+2+,$,$&-&",
"4*$&$2+2+$(,(6$*+&$($241+,$&$2+54&$&$2+2$$(,(6+2+&$,$241+,$&$5+2",
"$*#&$&-2$(-,4&#8$&$$+2+5$&$&+2+8$&#&+272$(-,4&#6$&$&+2+&$&$&$5+6",
"$.-&+2)&($#&+2+.$,$++/+*$/$2+64&$,-2+2#&(&#2+&+,$,$&$9+&$/$2+.4&",
"$*+246$,$$+&+2$&(&+)+2(*$,)6+2#&$$+2(6$,$&$2$2$&(&+1+2(&$,)6+5#&",
"#*+%+&$&$$7&+2$/$,$7$8#.$&4242(&#$+%$&$&$&-&$2$/$,+/+6#,$&4245(&",
"$*(&-2+&$$#2+&(&$%$+4*$&$,(2+2+&$$(272+&$&#&$&4&$%$242+&$,(2$5+&",
"$0$%-2+&-($&+6+1$,#(+5(2$&(,42+2$-$%7&+&-,$&$,$1$,#,+242$&(,(5+2",
"4*(&#6+14$$&(&$2$&(((&+27&$,$1+24$(&#6+1(&$&(2$&$&(,(&$27&$,$'$2",
"75(&$&+64$$,$&42(6$,$,$&$9(&$/+67+(&$&$,(&$,$&4&(,$,$,+2+9(&$0+,",
"+5+%$&(24+4&$&$2(24%$&$++67%(&$2++$%$&(&424&$&$242(%$&$2+67%(*$2",
"7542-,$,(4+2#&$%+9+2$,$#$&$&(,$&7+(2-,$,(,+&#&$%+9+&$,$%$2+&(.$&",
"$5+24&(,#++6+/(,$2+2+&$$(2+6+&$,$2+&4&(,#2+6$/(,$&$&$&$&(2+6+*$,",
"$5+64%$,(++2+&$&(2+1$&$$(242(%(&$2+6(%$,(2+2+&$&(&$1$$$&(&(24'(&",
"+8+2(&$&+4+2$,$&$2(2$,$(76+6(,-&+6+2(&$&$6+2$,$&+&42$($,-6$,(,-&",
"+3+,$&$6+++,$&$2+2#,$&(+4,4%(&$2$1+,$&$6+&+,$&$2$&),$$(&4,(%(&$2",
"+5-%(&++)+$/$&41+2$&$%74+6$,$&+6+2-%(&+&)2$/$&(1+&$&$#-6$,$,$&+6",
"+*$&$6+4+$#,$6+2+&$&$$)++&-&$1+2$&$&$6$4$&#,$6+2+$$&$+#&+&-&$1+&",
"$*#&424+$((&42+6#&$&44+4$,$&(242$&#&4&4+$,(&42+,#$$&44+6$,$&42(2",
"$.$2+1+$$$$6+2$&$&(1$4+$-,$2+&+&$,$2+1+$$&$,$&+&$$(%$(+&-,$&+&+&",
"$*4242$$$$-2+1$/$,$+++($#&+2+2(&$&42(2$$$&-2+1$/$($&+$(&#&+&$2(&"
};