/* XPM */
static char * result[] = {
"64 64 92 1",
"! c #000000",
"# c #FCFCFC",
"$ c #ECECEC",
"% c #DCDCDC",
"& c #D0D0D0",
"' c #C0C0C0",
"( c #B4B4B4",
") c #A8A8A8",
"* c #989898",
"+ c #8C8C8C",
", c #7C7C7C",
"- c #707070",
". c #646464",
"/ c #5C5C5C",
"0 c #545454",
"1 c #4C4C4C",
"2 c #484848",
"3 c #404040",
"4 c #383838",
"5 c #2C2C2C",
"6 c #202020",
"7 c #000000",
"8 c #000000",
"9 c #000000",
": c #000000",
"; c #000000",
"< c #000000",
"= c #000000",
"> c #000000",
"? c #000000",
"@ c #000000",
"A c #000000",
"B c #000000",
"C c #000000",
"D c #000000",
"E c #000000",
"F c #000000",
"G c #000000",
"H c #000000",
"I c #000000",
"J c #000000",
"K c #000000",
"L c #000000",
"M c #000000",
"N c #000000",
"O c #000000",
"P c #000000",
"Q c #000000",
"R c #000000",
"S c #000000",
"T c #000000",
"U c #000000",
"V c #000000",
"W c #000000",
"X c #000000",
"Y c #000000",
"Z c #000000",
"[ c #000000",
"] c #000000",
"^ c #000000",
"_ c #000000",
"` c #000000",
"a c #000000",
"b c #000000",
"c c #000000",
"d c #000000",
"e c #000000",
"f c #000000",
"g c #000000",
"h c #000000",
"i c #000000",
"j c #000000",
"k c #000000",
"l c #000000",
"m c #000000",
"n c #000000",
"o c #000000",
"p c #000000",
"q c #000000",
"r c #000000",
"s c #000000",
"t c #000000",
"u c #000000",
"v c #000000",
"w c #000000",
"x c #000000",
"y c #000000",
"z c #000000",
"{ c #000000",
"| c #000000",
"} c #000000",
"~ c #000000",
"!!!!!!!!!!!!!!!!!!!!!!!!!))))+++++++----.!!!!!!!!!!!!!!!!!!!!!!!",
"!!!!!!!!!!!!!!!!!!!!))%%&&&'''(())**++,--.0200!!!!!!!!!!!!!!!!!!",
"!!!!!!!!!!!!!!!!!!'##$$$%%%&&&''(()*-'+,-.023445!!!!!!!!!!!!!!!!",
"!!!!!!!!!!!!!!!!!$####$$$###%%&''(()**+,,20234465!!!!!!!!!!!!!!!",
"!!!!!!!!!!!!!!!!%$$######$%&''(())*+,,-....4345655!!!!!!!!!!!!!!",
"!!!!!!!!!!!!!!!!%%$$###$$&&&'')&))*+,,-..032556655!!!!!!!!!!!!!!",
"!!!!!!!!!!!!!!!!'%%#$##$$$%%&&''(()*+,-.0235466555!!!!!!!!!!!!!!",
"!!!!!!!!!!!!!!!!!''#$$##$$##%%&''))*+,-.034566655!!!!!!!!!!!!!!!",
"!!!!!!!!!!!!!!!!!!!($$####$%&')(*+,-.0235456666!!!!!!!!!!!!!!!!!",
"!!!!!!!!!!!!!!!!!!!!(''###$%&'()*+,-.023455665!!!!!!!!!!!!!!!!!!",
"!!!!!!!!!!!!!!!!!!!!!*'$##$%&'()*+,-0.2345665!!!!!!!!!!!!!!!!!!!",
"!!!!!!!!!!!!!!!!!!!!!*'$##$%&'()*+,-.02345665!!!!!!!!!!!!!!!!!!!",
"!!!!!!!!!!!!!!!!!!!!!*'###$%&'()+),-.02354665!!!!!!!!!!!!!!!!!!!",
"!!!!!!!!!!!!!!!!!!!!!*'###$%&'(+*),-.02345665!!!!!!!!!!!!!!!!!!!",
"!!!!!!!!!!!!!!!!!!!!!*'###$%&'()*+,-.3.345665!!!!!!!!!!!!!!!!!!!",
"!!!!!!!!!!!!!!!!!!!!!*'###$%&'()*+,-.0.345665!!!!!!!!!!!!!!!!!!!",
"!!!!!!!!!!!!!!!!!!!!!*'$$%&'()*+,-.0232566665!!!!!!!!!!!!!!!!!!!",
"!!!!!!!!!!!!!!!!!!!!!*+)())++,--..02345666666!!!!!!!!!!!!!!!!!!!",
"!!!!!!!!!!!!!!!!!!!!!!%#%$##$%&'()*+,-0.2465!!!!!!!!!!!!!!!!!!!!",
"!!!!!!!!!!!!!!!!!!!!!'%####%&'()*+,-.02045564!!!!!!!!!!!!!!!!!!!",
"!!!!!!!!!!!!!!!!!!!!!'%###$%&&()*,+-.02345665!!!!!!!!!!!!!!!!!!!",
"!!!!!!!!!!!!!!!!!!!!!*'###$%($()*+-,.02345665!!!!!!!!!!!!!!!!!!!",
"!!!!!!!!!!!!!!!!!!!!!*'###$%'$()*+,-.02354665!!!!!!!!!!!!!!!!!!!",
"!!!!!!!!!!!!!!!!!!!!!*'###$%&&()*+,-0.2345!65!!!!!!!!!!!!!!!!!!!",
"!!!!!!!!!!!!!!!!!!!!!*'###$%&'()*+,-.02525665!!!!!!!!!!!!!!!!!!!",
"!!!!!!!!!!!!!!!!!!!!!*)###$(#'()*+,-.02345665!!!!!!!!!!!!!!!!!!!",
"!!!!!!!!!!!!!!!!!!!!!*%###$%&'()*,*-.02435665!!!!!!!!!!!!!!!!!!!",
"!!!!!!!!!!!!!!!!!!!!!*'###$%(%()*+,-.20345665!!!!!!!!!!!!!!!!!!!",
"!!!!!!!!!!!!!!!!!!!!!*'###$%&'()+*,-.02354665!!!!!!!!!!!!!!!!!!!",
"!!!!!!!!!!!!!!!!!!!!!,*%$%&'()*+,-.0234566666!!!!!!!!!!!!!!!!!!!",
"!!!!!!!!!!!!!!!!!!!!!!,*)*++,,--..0234566!!!!!!!!!!!!!!!!!!!!!!!",
"!!!!!!!!!!!!!!!!!!!!!)&#####'%&'()*+,-.024554!!!!!!!!!!!!!!!!!!!",
"!!!!!!!!!!!!!!!!!!!!!*'###$%$'()*+,-.02345665!!!!!!!!!!!!!!!!!!!",
"!!!!!!!!!!!!!!!!!!!!!*'###$%&'()+*,.,02353!65!!!!!!!!!!!!!!!!!!!",
"!!!!!!!!!!!!!!!!!!!!!*'###$%($()*+,-.03245665!!!!!!!!!!!!!!!!!!!",
"!!!!!!!!!!!!!!!!!!!!!*'##%#%&'()*+,-.20346565!!!!!!!!!!!!!!!!!!!",
"!!!!!!!!!!!!!!!!!!!!!*'#$#$%(')(*,+-.00345666!!!!!!!!!!!!!!!!!!!",
"!!!!!!!!!!!!!!!!!!!!!*'###$(#'()*+,-.02435665!!!!!!!!!!!!!!!!!!!",
"!!!!!!!!!!!!!!!!!!!!!*'###$#&'()*+-,.02345665!!!!!!!!!!!!!!!!!!!",
"!!!!!!!!!!!!!!!!!!!!!*'##%#%&'()+*,-.03254665!!!!!!!!!!!!!!!!!!!",
"!!!!!!!!!!!!!!!!!!!!!*'###$%&(%)*+,-0.2345665!!!!!!!!!!!!!!!!!!!",
"!!!!!!!!!!!!!!!!!!!!!*'###$&$'()*+-,.02354665!!!!!!!!!!!!!!!!!!!",
"!!!!!!!!!!!!!!!!!!!!!,'$#$$%&'(**+,-.20345664!!!!!!!!!!!!!!!!!!!",
"!!!!!!!!!!!!!!!!!!!!!!)&%'''()*-*-.023456666!!!!!!!!!!!!!!!!!!!!",
"!!!!!!!!!!!!!!!!!!!!!)$('&'*+,-0..02345666666!!!!!!!!!!!!!!!!!!!",
"!!!!!!!!!!!!!!!!!!!!!*&#$###$%&'(+*+,-.024655!!!!!!!!!!!!!!!!!!!",
"!!!!!!!!!!!!!!!!!!!!!*'###$%&'()*,*-.02353665!!!!!!!!!!!!!!!!!!!",
"!!!!!!!!!!!!!!!!!!!!!*'###&#&'*%*+,-.02345665!!!!!!!!!!!!!!!!!!!",
"!!!!!!!!!!!!!!!!!!!!!*'###$%&'()*,*-.20345665!!!!!!!!!!!!!!!!!!!",
"!!!!!!!!!!!!!!!!!!!!!*'###$%&'()*+,-0.2345665!!!!!!!!!!!!!!!!!!!",
"!!!!!!!!!!!!!!!!!!!!!*'###$%&'*'*+,.-02345665!!!!!!!!!!!!!!!!!!!",
"!!!!!!!!!!!!!!!!!!!!!*'###$%&)%)*+,-.03045665!!!!!!!!!!!!!!!!!!!",
"!!!!!!!!!!!!!!!!!!!!!*'$##&#&'()*+,-.02345665!!!!!!!!!!!!!!!!!!!",
"!!!!!!!!!!!!!!!!!!!!!*'$##&#&'()*+,-.20345665!!!!!!!!!!!!!!!!!!!",
"!!!!!!!!!!!!!!!!!!!!(%'###$%&'(*(+,-.023454665!!!!!!!!!!!!!!!!!!",
"!!!!!!!!!!!!!!!!!!!($$####$%&'()*+,-.02354566655!!!!!!!!!!!!!!!!",
"!!!!!!!!!!!!!!!!!''#$###$$##%%&''))*+,-.034566655532100//..!!!!!",
"!!!!!!!!!!!!!!!!'%%#$##$$$%%&&''(()*+,-.023546655544322100/..!!!",
"!!!!!!!!!!!!!!!!%%$$###$$&&&''(())+),,-..032556655444432210//.!!",
"!!!!!!!!!!!!!!!!%$$######$%&''(())*+,,-..-.1145655444432210//.!!",
"!!!!!!!!!!!!!!!!!$####$$$###%%&''(()**+,,-/3/4465444332110//.!!!",
"!!!!!!!!!!!!!!!!!!'##$$$%%%&&&'(&()**+,+-./2344533322210//.!!!!!",
"!!!!!!!!!!!!!!!!!!!!))%%&&&'''(())**++,--.023320///......!!!!!!!",
"!!!!!!!!!!!!!!!!!!!!!!!!!))))+++++++----.03320/..!!!!!!!!!!!!!!!"
};