/* XPM */
static char * result[] = {
"300 300 92 1",
"! c #000000",
"# c #C3A396",
"$ c #AB8873",
"% c #9E775A",
"& c #747173",
"' c #826145",
"( c #6B6157",
") c #626262",
"* c #5D5D5D",
"+ c #575758",
", c #674C34",
"- c #54504D",
". c #515050",
"/ c #4E4E4E",
"0 c #4C4A4B",
"1 c #494949",
"2 c #474747",
"3 c #464646",
"4 c #444445",
"5 c #434343",
"6 c #454240",
"7 c #414242",
"8 c #483E36",
"9 c #3F3F3F",
": c #3D3D3E",
"; c #3C3C3C",
"< c #3B3B3B",
"= c #3A3A3A",
"> c #3D3733",
"? c #373737",
"@ c #353636",
"A c #3E2F22",
"B c #343230",
"C c #323333",
"D c #313131",
"E c #303030",
"F c #2F2F2F",
"G c #302F2D",
"H c #2D2F31",
"I c #2E2E2F",
"J c #2E2D2D",
"K c #2C2C2C",
"L c #2B2A2B",
"M c #2B2826",
"N c #282828",
"O c #272728",
"P c #262626",
"Q c #2B221B",
"R c #252323",
"S c #242323",
"T c #212222",
"U c #202020",
"V c #1E1E1F",
"W c #211C1A",
"X c #1C1C1C",
"Y c #1B1B1B",
"Z c #211814",
"[ c #1E120F",
"] c #191A1B",
"^ c #181818",
"_ c #161617",
"` c #151414",
"a c #131315",
"b c #141110",
"c c #111111",
"d c #101011",
"e c #0F0F0F",
"f c #0C0F16",
"g c #170C09",
"h c #0D0D0C",
"i c #0C0C0C",
"j c #0B0B0C",
"k c #180804",
"l c #0E0605",
"m c #09090C",
"n c #080809",
"o c #070707",
"p c #060606",
"q c #050505",
"r c #070503",
"s c #070302",
"t c #040406",
"u c #030303",
"v c #020202",
"w c #030101",
"x c #010102",
"y c #010101",
"z c #000107",
"{ c #030100",
"| c #040000",
"} c #000002",
"~ c #010101",
"!!!!!!!!!!!!!!!!!!!!!!!!!!!!!!!!!!!!!!!!!!!!!!!!!!!!!!!!!!!!!!!!!!!!!!!!!!!!!!!!!!!!!!!!!!!!!!!!!!!!!!!!!!!!!!!!!!!!!!!!!!!!!!!!!!!!!!!!!!!!!!!!!!!!!!!!!!!!!!!!!!!!!!!!!!!!!!!!!!!!!!!!!!!!!!!!!!!!!!!!!!!!!!!!!!!!!!!!!!!!!!!!!!!!!!!!!!!!!!!!!!!!!!!!!!!!!!!!!!!!!!!!!!!!!!!!!!!!!!!!!!!!!!!!!!!!!!!!!!!!",
"!!!!!!!!!!!!!!!!!!!!!!!!!!!!!!!!!!!!!!!!!!!!!!!!!!!!!!!!!!!!!!!!!!!!!!!!!!!!!!!!!!!!!!!!!!!!!!!!!!!!!!!!!!!!!!!!!!!!!!!!!!!!!!!!!!!!!!!!!!!!!!!!!!!!!!!!!!!!!!!!!!!!!!!!!!!!!!!!!!!!!!!!!!!!!!!!!!!!!!!!!!!!!!!!!!!!!!!!!!!!!!!!!!!!!!!!!!!!!!!!!!!!!!!!!!!!!!!!!!!!!!!!!!!!!!!!!!!!!!!!!!!!!!!!!!!!!!!!!!!!",
"!!!!!!!!!!!!!!!!!!!!!!!!!!!!!!!!!!!!!!!!!!!!!!!!!!!!!!!!!!!!!!!!!!!!!!!!!!!!!!!!!!!!!!!!!!!!!!!!!!!!!!!!!!!!!!!!!!!!!!!!!!!!!!!!!!!!!!!!!!!!!!!!!!!!!!!!!!!!!!!!!!!!!!!!!!!!!!!!!!!!!!!!!!!!!!!!!!!!!!!!!!!!!!!!!!!!!!!!!!!!!!!!!!!!!!!!!!!!!!!!!!!!!!!!!!!!!!!!!!!!!!!!!!!!!!!!!!!!!!!!!!!!!!!!!!!!!!!!!!!!",
"!!!!!!!!!!!!!!!!!!!!!!!!!!!!!!!!!!!!!!!!!!!!!!!!!!!!!!!!!!!!!!!!!!!!!!!!!!!!!!!!!!!!!!!!!!!!!!!!!!!!!!!!!!!!!!!!!!!!!!!!!!!!!!!!!!!!!!!!!!!!!!!!!!!!!!!!!!!!!!!!!!!!!!!!!!!!!!!!!!!!!!!!!!!!!!!!!!!!!!!!!!!!!!!!!!!!!!!!!!!!!!!!!!!!!!!!!!!!!!!!!!!!!!!!!!!!!!!!!!!!!!!!!!!!!!!!!!!!!!!!!!!!!!!!!!!!!!!!!!!!",
"!!!!!!!!!!!!!!!!!!!!!!!!!!!!!!!!!!!!!!!!!!!!!!!!!!!!!!!!!!!!!!!!!!!!!!!!!!!!!!!!!!!!!!!!!!!!!!!!!!!!!!!!!!!!!!!!!!!!!!!!!!!!!!!!!!!!!!!!!!!!!!!!!!!!!!!!!!!!!!!!!!!!!!!!!!!!!!!!!!!!!!!!!!!!!!!!!!!!!!!!!!!!!!!!!!!!!!!!!!!!!!!!!!!!!!!!!!!!!!!!!!!!!!!!!!!!!!!!!!!!!!!!!!!!!!!!!!!!!!!!!!!!!!!!!!!!!!!!!!!!",
"!!!!!!!!!!!!!!!!!!!!!!!!!!!!!!!!!!!!!!!!!!!!!!!!!!!!!!!!!!!!!!!!!!!!!!!!!!!!!!!!!!!!!!!!!!!!!!!!!!!!!!!!!!!!!!!!!!!!!!!!!!!!!!!!!!!!!!!!!!!!!!!!!!!!!!!!!!!!!!!!!!!!!!!!!!!!!!!!!!!!!!!!!!!!!!!!!!!!!!!!!!!!!!!!!!!!!!!!!!!!!!!!!!!!!!!!!!!!!!!!!!!!!!!!!!!!!!!!!!!!!!!!!!!!!!!!!!!!!!!!!!!!!!!!!!!!!!!!!!!!",
"!!!!!!!!!!!!!!!!!!!!!!!!!!!!!!!!!!!!!!!!!!!!!!!!!!!!!!!!!!!!!!!!!!!!!!!!!!!!!!!!!!!!!!!!!!!!!!!!!!!!!!!!!!!!!!!!!!!!!!!!!!!!!!!!!!!!!!!!!!!!!!!!!!!!!!!!!!!!!!!!!!!!!!!!!!!!!!!!!!!!!!!!!!!!!!!!!!!!!!!!!!!!!!!!!!!!!!!!!!!!!!!!!!!!!!!!!!!!!!!!!!!!!!!!!!!!!!!!!!!!!!!!!!!!!!!!!!!!!!!!!!!!!!!!!!!!!!!!!!!!",
"!!!!!!!!!!!!!!!!!!!!!!!!!!!!!!!!!!!!!!!!!!!!!!!!!!!!!!!!!!!!!!!!!!!!!!!!!!!!!!!!!!!!!!!!!!!!!!!!!!!!!!!!!!!!!!!!!!!!!!!!!!!!!!!!!!!!!!!!!!!!!!!!!!!!!!!!!!!!!!!!!!!!!!!!!!!!!!!!!!!!!!!!!!!!!!!!!!!!!!!!!!!!!!!!!!!!!!!!!!!!!!!!!!!!!!!!!!!!!!!!!!!!!!!!!!!!!!!!!!!!!!!!!!!!!!!!!!!!!!!!!!!!!!!!!!!!!!!!!!!!",
"!!!!!!!!!!!!!!!!!!!!!!!!!!!!!!!!!!!!!!!!!!!!!!!!!!!!!!!!!!!!!!!!!!!!!!!!!!!!!!!!!!!!!!!!!!!!!!!!!!!!!!!!!!!!!!!!!!!!!!!!!!!!!!!!!!!!!!!!!!!!!!!!!!!!!!!!!!!!!!!!!!!!!!!!!!!!!!!!!!!!!!!!!!!!!!!!!!!!!!!!!!!!!!!!!!!!!!!!!!!!!!!!!!!!!!!!!!!!!!!!!!!!!!!!!!!!!!!!!!!!!!!!!!!!!!!!!!!!!!!!!!!!!!!!!!!!!!!!!!!!",
"!!!!!!!!!!!!!!!!!!!!!!!!!!!!!!!!!!!!!!!!!!!!!!!!!!!!!!!!!!!!!!!!!!!!!!!!!!!!!!!!!!!!!!!!!!!!!!!!!!!!!!!!!!!!!!!!!!!!!!!!!!!!!!!!!!!!!!!!!!!!!!!!!!!!!!!!!!!!!!!!!!!!!!!!!!!!!!!!!!!!!!!!!!!!!!!!!!!!!!!!!!!!!!!!!!!!!!!!!!!!!!!!!!!!!!!!!!!!!!!!!!!!!!!!!!!!!!!!!!!!!!!!!!!!!!!!!!!!!!!!!!!!!!!!!!!!!!!!!!!!",
"!!!!!!!!!!!!!!!!!!!!!!!!!!!!!!!!!!!!!!!!!!!!!!!!!!!!!!!!!!!!!!!!!!!!!!!!!!!!!!!!!!!!!!!!!!!!!!!!!!!!!!!!!!!!!!!!!!!!!!!!!!!!!!!!!!!!!!!!!!!!!!!!!!!!!!!!!!!!!!!!!!!!!!!!!!!!!!!!!!!!!!!!!!!!!!!!!!!!!!!!!!!!!!!!!!!!!!!!!!!!!!!!!!!!!!!!!!!!!!!!!!!!!!!!!!!!!!!!!!!!!!!!!!!!!!!!!!!!!!!!!!!!!!!!!!!!!!!!!!!!",
"!!!!!!!!!!!!!!!!!!!!!!!!!!!!!!!!!!!!!!!!!!!!!!!!!!!!!!!!!!!!!!!!!!!!!!!!!!!!!!!!!!!!!!!!!!!!!!!!!!!!!!!!!!!!!!!!!!!!!!!!!!!!!!!!!!!!!!!!!!!!!!!!!!!!!!!!!!!!!!!!!!!!!!!!!!!!!!!!!!!!!!!!!!!!!!!!!!!!!!!!!!!!!!!!!!!!!!!!!!!!!!!!!!!!!!!!!!!!!!!!!!!!!!!!!!!!!!!!!!!!!!!!!!!!!!!!!!!!!!!!!!!!!!!!!!!!!!!!!!!!",
"!!!!!!!!!!!!!!!!!!!!!!!!!!!!!!!!!!!!!!!!!!!!!!!!!!!!!!!!!!!!!!!!!!!!!!!!!!!!!!!!!!!!!!!!!!!!!!!!!!!!!!!!!!!!!!!!!!!!!!!!!!!!!!!!!!!!!!!!!!!!!!!!!!!!!!!!!!!!!!!!!!!!!!!!!!!!!!!!!!!!!!!!!!!!!!!!!!!!!!!!!!!!!!!!!!!!!!!!!!!!!!!!!!!!!!!!!!!!!!!!!!!!!!!!!!!!!!!!!!!!!!!!!!!!!!!!!!!!!!!!!!!!!!!!!!!!!!!!!!!!",
"!!!!!!!!!!!!!!!!!!!!!!!!!!!!!!!!!!!!!!!!!!!!!!!!!!!!!!!!!!!!!!!!!!!!!!!!!!!!!!!!!!!!!!!!!!!!!!!!!!!!!!!!!!!!!!!!!!!!!!!!!!!!!!!!!!!!!!!!!!!!!!!!!!!!!!!!!!!!!!!!!!!!!!!!!!!!!!!!!!!!!!!!!!!!!!!!!!!!!!!!!!!!!!!!!!!!!!!!!!!!!!!!!!!!!!!!!!!!!!!!!!!!!!!!!!!!!!!!!!!!!!!!!!!!!!!!!!!!!!!!!!!!!!!!!!!!!!!!!!!!",
"!!!!!!!!!!!!!!!!!!!!!!!!!!!!!!!!!!!!!!!!!!!!!!!!!!!!!!!!!!!!!!!!!!!!!!!!!!!!!!!!!!!!!!!!!!!!!!!!!!!!!!!!!!!!!!!!!!!!!!!!!!!!!!!!!!!!!!!!!!!!!!!!!!!!!!!!!!!!!!!!!!!!!!!!!!!!!!!!!!!!!!!!!!!!!!!!!!!!!!!!!!!!!!!!!!!!!!!!!!!!!!!!!!!!!!!!!!!!!!!!!!!!!!!!!!!!!!!!!!!!!!!!!!!!!!!!!!!!!!!!!!!!!!!!!!!!!!!!!!!!",
"!!!!!!!!!!!!!!!!!!!!!!!!!!!!!!!!!!!!!!!!!!!!!!!!!!!!!!!!!!!!!!!!!!!!!!!!!!!!!!!!!!!!!!!!!!!!!!!!!!!!!!!!!!!!!!!!!!!!!!!!!!!!!!!!!!!!!!!!!!!!!!!!!!!!!!!!!!!!!!!!!!!!!!!!!!!!!!!!!!!!!!!!!!!!!!!!!!!!!!!!!!!!!!!!!!!!!!!!!!!!!!!!!!!!!!!!!!!!!!!!!!!!!!!!!!!!!!!!!!!!!!!!!!!!!!!!!!!!!!!!!!!!!!!!!!!!!!!!!!!!",
"!!!!!!!!!!!!!!!!!!!!!!!!!!!!!!!!!!!!!!!!!!!!!!!!!!!!!!!!!!!!!!!!!!!!!!!!!!!!!!!!!!!!!!!!!!!!!!!!!!!!!!!!!!!!!!!!!!!!!!!!!!!!!!!!!!!!!!!!!!!!!!!!!!!!!!!!!!!!!!!!!!!!!!!!!!!!!!!!!!!!!!!!!!!!!!!!!!!!!!!!!!!!!!!!!!!!!!!!!!!!!!!!!!!!!!!!!!!!!!!!!!!!!!!!!!!!!!!!!!!!!!!!!!!!!!!!!!!!!!!!!!!!!!!!!!!!!!!!!!!!",
"!!!!!!!!!!!!!!!!!!!!!!!!!!!!!!!!!!!!!!!!!!!!!!!!!!!!!!!!!!!!!!!!!!!!!!!!!!!!!!!!!!!!!!!!!!!!!!!!!!!!!!!!!!!!!!!!!!!!!!!!!!!!!!!!!!!!!!!!!!!!!!!!!!!!!!!!!!!!!!!!!!!!!!!!!!!!!!!!!!!!!!!!!!!!!!!!!!!!!!!!!!!!!!!!!!!!!!!!!!!!!!!!!!!!!!!!!!!!!!!!!!!!!!!!!!!!!!!!!!!!!!!!!!!!!!!!!!!!!!!!!!!!!!!!!!!!!!!!!!!!",
"!!!!!!!!!!!!!!!!!!!!!!!!!!!!!!!!!!!!!!!!!!!!!!!!!!!!!!!!!!!!!!!!!!!!!!!!!!!!!!!!!!!!!!!!!!!!!!!!!!!!!!!!!!!!!!!!!!!!!!!!!!!!!!!!!!!!!!!!!!!!!!!!!!!!!!!!!!!!!!!!!!!!!!!!!!!!!!!!!!!!!!!!!!!!!!!!!!!!!!!!!!!!!!!!!!!!!!!!!!!!!!!!!!!!!!!!!!!!!!!!!!!!!!!!!!!!!!!!!!!!!!!!!!!!!!!!!!!!!!!!!!!!!!!!!!!!!!!!!!!!",
"!!!!!!!!!!!!!!!!!!!!!!!!!!!!!!!!!!!!!!!!!!!!!!!!!!!!!!!!!!!!!!!!!!!!!!!!!!!!!!!!!!!!!!!!!!!!!!!!!!!!!!!!!!!!!!!!!!!!!!!!!!!!!!!!!!!!!!!!!!!!!!!!!!!!!!!!!!!!!!!!!!!!!!!!!!!!!!!!!!!!!!!!!!!!!!!!!!!!!!!!!!!!!!!!!!!!!!!!!!!!!!!!!!!!!!!!!!!!!!!!!!!!!!!!!!!!!!!!!!!!!!!!!!!!!!!!!!!!!!!!!!!!!!!!!!!!!!!!!!!!",
"!!!!!!!!!!!!!!!!!!!!!!!!!!!!!!!!!!!!!!!!!!!!!!!!!!!!!!!!!!!!!!!!!!!!!!!!!!!!!!!!!!!!!!!!!!!!!!!!!!!!!!!!!!!!!!!!!!!!!!!!!!!!!!!!!!!!!!!!!!!!!!!!!!!!!!!!!!!!!!!!!!!!!!!!!!!!!!!!!!!!!!!!!!!!!!!!!!!!!!!!!!!!!!!!!!!!!!!!!!!!!!!!!!!!!!!!!!!!!!!!!!!!!!!!!!!!!!!!!!!!!!!!!!!!!!!!!!!!!!!!!!!!!!!!!!!!!!!!!!!!",
"!!!!!!!!!!!!!!!!!!!!!!!!!!!!!!!!!!!!!!!!!!!!!!!!!!!!!!!!!!!!!!!!!!!!!!!!!!!!!!!!!!!!!!!!!!!!!!!!!!!!!!!!!!!!!!!!!!!!!!!!!!!!!!!!!!!!!!!!!!!!!!!!!!!!!!!!!!!!!!!!!!!!!!!!!!!!!!!!!!!!!!!!!!!!!!!!!!!!!!!!!!!!!!!!!!!!!!!!!!!!!!!!!!!!!!!!!!!!!!!!!!!!!!!!!!!!!!!!!!!!!!!!!!!!!!!!!!!!!!!!!!!!!!!!!!!!!!!!!!!!",
"!!!!!!!!!!!!!!!!!!!!!!!!!!!!!!!!!!!!!!!!!!!!!!!!!!!!!!!!!!!!!!!!!!!!!!!!!!!!!!!!!!!!!!!!!!!!!!!!!!!!!!!!!!!!!!!!!!!!!!!!!!!!!!!!!!!!!!!!!!!!!!!!!!!!!!!!!!!!!!!!!!!!!!!!!!!!!!!!!!!!!!!!!!!!!!!!!!!!!!!!!!!!!!!!!!!!!!!!!!!!!!!!!!!!!!!!!!!!!!!!!!!!!!!!!!!!!!!!!!!!!!!!!!!!!!!!!!!!!!!!!!!!!!!!!!!!!!!!!!!!",
"!!!!!!!!!!!!!!!!!!!!!!!!!!!!!!!!!!!!!!!!!!!!!!!!!!!!!!!!!!!!!!!!!!!!!!!!!!!!!!!!!!!!!!!!!!!!!!!!!!!!!!!!!!!!!!!!!!!!!!!!!!!!!!!!!!!!!!!!!!!!!!!!!!!!!!!!!!!!!!!!!!!!!!!!!!!!!!!!!!!!!!!!!!!!!!!!!!!!!!!!!!!!!!!!!!!!!!!!!!!!!!!!!!!!!!!!!!!!!!!!!!!!!!!!!!!!!!!!!!!!!!!!!!!!!!!!!!!!!!!!!!!!!!!!!!!!!!!!!!!!",
"!!!!!!!!!!!!!!!!!!!!!!!!!!!!!!!!!!!!!!!!!!!!!!!!!!!!!!!!!!!!!!!!!!!!!!!!!!!!!!!!!!!!!!!!!!!!!!!!!!!!!!!!!!!!!!!!!!!!!!!!!!!!!!!!!!!!!!!!!!!!!!!!!!!!!!!!!!!!!!!!!!!!!!!!!!!!!!!!!!!!!!!!!!!!!!!!!!!!!!!!!!!!!!!!!!!!!!!!!!!!!!!!!!!!!!!!!!!!!!!!!!!!!!!!!!!!!!!!!!!!!!!!!!!!!!!!!!!!!!!!!!!!!!!!!!!!!!!!!!!!",
"!!!!!!!!!!!!!!!!!!!!!!!!!!!!!!!!!!!!!!!!!!!!!!!!!!!!!!!!!!!!!!!!!!!!!!!!!!!!!!!!!!!!!!!!!!!!!!!!!!!!!!!!!!!!!!!!!!!!!!!!!!!!!!!!!!!!!!!!!!!!!!!!!!!!!!!!!!!!!!!!!!!!!!!!!!!!!!!!!!!!!!!!!!!!!!!!!!!!!!!!!!!!!!!!!!!!!!!!!!!!!!!!!!!!!!!!!!!!!!!!!!!!!!!!!!!!!!!!!!!!!!!!!!!!!!!!!!!!!!!!!!!!!!!!!!!!!!!!!!!!",
"!!!!!!!!!!!!!!!!!!!!!!!!!!!!!!!!!!!!!!!!!!!!!!!!!!!!!!!!!!!!!!!!!!!!!!!!!!!!!!!!!!!!!!!!!!!!!!!!!!!!!!!!!!!!!!!!!!!!!!!!!!!!!!!!!!!!!!!!!!!!!!!!!!!!!!!!!!!!!!!!!!!!!!!!!!!!!!!!!!!!!!!!!!!!!!!!!!!!!!!!!!!!!!!!!!!!!!!!!!!!!!!!!!!!!!!!!!!!!!!!!!!!!!!!!!!!!!!!!!!!!!!!!!!!!!!!!!!!!!!!!!!!!!!!!!!!!!!!!!!!",
"!!!!!!!!!!!!!!!!!!!!!!!!!!!!!!!!!!!!!!!!!!!!!!!!!!!!!!!!!!!!!!!!!!!!!!!!!!!!!!!!!!!!!!!!!!!!!!!!!!!!!!!!!!!!!!!!!!!!!!!!!!!!!!!!!!!!!!!!!!!!!!!!!!!!!!!!!!!!!!!!!!!!!!!!!!!!!!!!!!!!!!!!!!!!!!!!!!!!!!!!!!!!!!!!!!!!!!!!!!!!!!!!!!!!!!!!!!!!!!!!!!!!!!!!!!!!!!!!!!!!!!!!!!!!!!!!!!!!!!!!!!!!!!!!!!!!!!!!!!!!",
"!!!!!!!!!!!!!!!!!!!!!!!!!!!!!!!!!!!!!!!!!!!!!!!!!!!!!!!!!!!!!!!!!!!!!!!!!!!!!!!!!!!!!!!!!!!!!!!!!!!!!!!!!!!!!!!!!!!!!!!!!!!!!!!!!!!!!!!!!!!!!!!!!!!!!!!!!!!!!!!!!!!!!!!!!!!!!!!!!!!!!!!!!!!!!!!!!!!!!!!!!!!!!!!!!!!!!!!!!!!!!!!!!!!!!!!!!!!!!!!!!!!!!!!!!!!!!!!!!!!!!!!!!!!!!!!!!!!!!!!!!!!!!!!!!!!!!!!!!!!!",
"!!!!!!!!!!!!!!!!!!!!!!!!!!!!!!!!!!!!!!!!!!!!!!!!!!!!!!!!!!!!!!!!!!!!!!!!!!!!!!!!!!!!!!!!!!!!!!!!!!!!!!!!!!!!!!!!!!!!!!!!!!!!!!!!!!!!!!!!!!!!!!!!!!!!!!!!!!!!!!!!!!!!!!!!!!!!!!!!!!!!!!!!!!!!!!!!!!!!!!!!!!!!!!!!!!!!!!!!!!!!!!!!!!!!!!!!!!!!!!!!!!!!!!!!!!!!!!!!!!!!!!!!!!!!!!!!!!!!!!!!!!!!!!!!!!!!!!!!!!!!",
"!!!!!!!!!!!!!!!!!!!!!!!!!!!!!!!!!!!!!!!!!!!!!!!!!!!!!!!!!!!!!!!!!!!!!!!!!!!!!!!!!!!!!!!!!!!!!!!!!!!!!!!!!!!!!!!!!!!!!!!!!!!!!!!!!!!!!!!!!!!!!!!!!!!!!!!!!!!!!!!!!!!!!!!!!!!!!!!!!!!!!!!!!!!!!!!!!!!!!!!!!!!!!!!!!!!!!!!!!!!!!!!!!!!!!!!!!!!!!!!!!!!!!!!!!!!!!!!!!!!!!!!!!!!!!!!!!!!!!!!!!!!!!!!!!!!!!!!!!!!!",
"!!!!!!!!!!!!!!!!!!!!!!!!!!!!!!!!!!!!!!!!!!!!!!!!!!!!!!!!!!!!!!!!!!!!!!!!!!!!!!!!!!!!!!!!!!!!!!!!!!!!!!!!!!!!!!!!!!!!!!!!!!!!!!!!!!!!!!!!!!!!!!!!!!!!!!!!!!!!!!!!!!!!!!!!!!!!!!!!!!!!!!!!!!!!!!!!!!!!!!!!!!!!!!!!!!!!!!!!!!!!!!!!!!!!!!!!!!!!!!!!!!!!!!!!!!!!!!!!!!!!!!!!!!!!!!!!!!!!!!!!!!!!!!!!!!!!!!!!!!!!",
"!!!!!!!!!!!!!!!!!!!!!!!!!!!!!!!!!!!!!!!!!!!!!!!!!!!!!!!!!!!!!!!!!!!!!!!!!!!!!!!!!!!!!!!!!!!!!!!!!!!!!!!!!!!!!!!!!!!!!!!!!!!!!!!!!!!!!!!!!!!!!!!!!!!!!!!!!!!!!!!!!!!!!!!!!!!!!!!!!!!!!!!!!!!!!!!!!!!!!!!!!!!!!!!!!!!!!!!!!!!!!!!!!!!!!!!!!!!!!!!!!!!!!!!!!!!!!!!!!!!!!!!!!!!!!!!!!!!!!!!!!!!!!!!!!!!!!!!!!!!!",
"!!!!!!!!!!!!!!!!!!!!!!!!!!!!!!!!!!!!!!!!!!!!!!!!!!!!!!!!!!!!!!!!!!!!!!!!!!!!!!!!!!!!!!!!!!!!!!!!!!!!!!!!!!!!!!!!!!!!!!!!!!!!!!!!!!!!!!!!!!!!!!!!!!!!!!!!!!!!!!!!!!!!!!!!!!!!!!!!!!!!!!!!!!!!!!!!!!!!!!!!!!!!!!!!!!!!!!!!!!!!!!!!!!!!!!!!!!!!!!!!!!!!!!!!!!!!!!!!!!!!!!!!!!!!!!!!!!!!!!!!!!!!!!!!!!!!!!!!!!!!",
"!!!!!!!!!!!!!!!!!!!!!!!!!!!!!!!!!!!!!!!!!!!!!!!!!!!!!!!!!!!!!!!!!!!!!!!!!!!!!!!!!!!!!!!!!!!!!!!!!!!!!!!!!!!!!!!!!!!!!!!!!!!!!!!!!!!!!!!!!!!!!!!!!!!!!!!!!!!!!!!!!!!!!!!!!!!!!!!!!!!!!!!!!!!!!!!!!!!!!!!!!!!!!!!!!!!!!!!!!!!!!!!!!!!!!!!!!!!!!!!!!!!!!!!!!!!!!!!!!!!!!!!!!!!!!!!!!!!!!!!!!!!!!!!!!!!!!!!!!!!!",
"!!!!!!!!!!!!!!!!!!!!!!!!!!!!!!!!!!!!!!!!!!!!!!!!!!!!!!!!!!!!!!!!!!!!!!!!!!!!!!!!!!!!!!!!!!!!!!!!!!!!!!!!!!!!!!!!!!!!!!!!!!!!!!!!!!!!!!!!!!!!!!!!!!!!!!!!!!!!!!!!!!!!!!!!!!!!!!!!!!!!!!!!!!!!!!!!!!!!!!!!!!!!!!!!!!!!!!!!!!!!!!!!!!!!!!!!!!!!!!!!!!!!!!!!!!!!!!!!!!!!!!!!!!!!!!!!!!!!!!!!!!!!!!!!!!!!!!!!!!!!",
"!!!!!!!!!!!!!!!!!!!!!!!!!!!!!!!!!!!!!!!!!!!!!!!!!!!!!!!!!!!!!!!!!!!!!!!!!!!!!!!!!!!!!!!!!!!!!!!!!!!!!!!!!!!!!!!!!!!!!!!!!!!!!!!!!!!!!!!!!!!!!!!!!!!!!!!!!!!!!!!!!!!!!!!!!!!!!!!!!!!!!!!!!!!!!!!!!!!!!!!!!!!!!!!!!!!!!!!!!!!!!!!!!!!!!!!!!!!!!!!!!!!!!!!!!!!!!!!!!!!!!!!!!!!!!!!!!!!!!!!!!!!!!!!!!!!!!!!!!!!!",
"!!!!!!!!!!!!!!!!!!!!!!!!!!!!!!!!!!!!!!!!!!!!!!!!!!!!!!!!!!!!!!!!!!!!!!!!!!!!!!!!!!!!!!!!!!!!!!!!!!!!!!!!!!!!!!!!!!!!!!!!!!!!!!!!!!!!!!!!!!!!!!!!!!!!!!!!!!!!!!!!!!!!!!!!!!!!!!!!!!!!!!!!!!!!!!!!!!!!!!!!!!!!!!!!!!!!!!!!!!!!!!!!!!!!!!!!!!!!!!!!!!!!!!!!!!!!!!!!!!!!!!!!!!!!!!!!!!!!!!!!!!!!!!!!!!!!!!!!!!!!",
"!!!!!!!!!!!!!!!!!!!!!!!!!!!!!!!!!!!!!!!!!!!!!!!!!!!!!!!!!!!!!!!!!!!!!!!!!!!!!!!!!!!!!!!!!!!!!!!!!!!!!!!!!!!!!!!!!!!!!!!!!!!!!!!!!!!!!!!!!!!!!!!!!!!!!!!!!!!!!!!!!!!!!!!!!!!!!!!!!!!!!!!!!!!!!!!!!!!!!!!!!!!!!!!!!!!!!!!!!!!!!!!!!!!!!!!!!!!!!!!!!!!!!!!!!!!!!!!!!!!!!!!!!!!!!!!!!!!!!!!!!!!!!!!!!!!!!!!!!!!!",
"!!!!!!!!!!!!!!!!!!!!!!!!!!!!!!!!!!!!!!!!!!!!!!!!!!!!!!!!!!!!!!!!!!!!!!!!!!!!!!!!!!!!!!!!!!!!!!!!!!!!!!!!!!!!!!!!!!!!!!!!!!!!!!!!!!!!!!!!!!!!!!!!!!!!!!!!!!!!!!!!!!!!!!!!!!!!!!!!!!!!!!!!!!!!!!!!!!!!!!!!!!!!!!!!!!!!!!!!!!!!!!!!!!!!!!!!!!!!!!!!!!!!!!!!!!!!!!!!!!!!!!!!!!!!!!!!!!!!!!!!!!!!!!!!!!!!!!!!!!!!",
"!!!!!!!!!!!!!!!!!!!!!!!!!!!!!!!!!!!!!!!!!!!!!!!!!!!!!!!!!!!!!!!!!!!!!!!!!!!!!!!!!!!!!!!!!!!!!!!!!!!!!!!!!!!!!!!!!!!!!!!!!!!!!!!!!!!!!!!!!!!!!!!!!!!!!!!!!!!!!!!!!!!!!!!!!!!!!!!!!!!!!!!!!!!!!!!!!!!!!!!!!!!!!!!!!!!!!!!!!!!!!!!!!!!!!!!!!!!!!!!!!!!!!!!!!!!!!!!!!!!!!!!!!!!!!!!!!!!!!!!!!!!!!!!!!!!!!!!!!!!!",
"!!!!!!!!!!!!!!!!!!!!!!!!!!!!!!!!!!!!!!!!!!!!!!!!!!!!!!!!!!!!!!!!!!!!!!!!!!!!!!!!!!!!!!!!!!!!!!!!!!!!!!!!!!!!!!!!!!!!!!!!!!!!!!!!!!!!!!!!!!!!!!!!!!!!!!!!!!!!!!!!!!!!!!!!!!!!!!!!!!!!!!!!!!!!!!!!!!!!!!!!!!!!!!!!!!!!!!!!!!!!!!!!!!!!!!!!!!!!!!!!!!!!!!!!!!!!!!!!!!!!!!!!!!!!!!!!!!!!!!!!!!!!!!!!!!!!!!!!!!!!",
"!!!!!!!!!!!!!!!!!!!!!!!!!!!!!!!!!!!!!!!!!!!!!!!!!!!!!!!!!!!!!!!!!!!!!!!!!!!!!!!!!!!!!!!!!!!!!!!!!!!!!!!!!!!!!!!!!!!!!!!!!!!!!!!!!!!!!!!!!!!!!!!!!!!!!!!!!!!!!!!!!!!!!!!!!!!!!!!!!!!!!!!!!!!!!!!!!!!!!!!!!!!!!!!!!!!!!!!!!!!!!!!!!!!!!!!!!!!!!!!!!!!!!!!!!!!!!!!!!!!!!!!!!!!!!!!!!!!!!!!!!!!!!!!!!!!!!!!!!!!!",
"!!!!!!!!!!!!!!!!!!!!!!!!!!!!!!!!!!!!!!!!!!!!!!!!!!!!!!!!!!!!!!!!!!!!!!!!!!!!!!!!!!!!!!!!!!!!!!!!!!!!!!!!!!!!!!!!!!!!!!!!!!!!!!!!!!!!!!!!!!!!!!!!!!!!!!!!!!!!!!!!!!!!!!!!!!!!!!!!!!!!!!!!!!!!!!!!!!!!!!!!!!!!!!!!!!!!!!!!!!!!!!!!!!!!!!!!!!!!!!!!!!!!!!!!!!!!!!!!!!!!!!!!!!!!!!!!!!!!!!!!!!!!!!!!!!!!!!!!!!!!",
"!!!!!!!!!!!!!!!!!!!!!!!!!!!!!!!!!!!!!!!!!!!!!!!!!!!!!!!!!!!!!!!!!!!!!!!!!!!!!!!!!!!!!!!!!!!!!!!!!!!!!!!!!!!!!!!!!!!!!!!!!!!!!!!!!!!!!!!!!!!!!!!!!!!!!!!!!!!!!!!!!!!!!!!!!!!!!!!!!!!!!!!!!!!!!!!!!!!!!!!!!!!!!!!!!!!!!!!!!!!!!!!!!!!!!!!!!!!!!!!!!!!!!!!!!!!!!!!!!!!!!!!!!!!!!!!!!!!!!!!!!!!!!!!!!!!!!!!!!!!!",
"!!!!!!!!!!!!!!!!!!!!!!!!!!!!!!!!!!!!!!!!!!!!!!!!!!!!!!!!!!!!!!!!!!!!!!!!!!!!!!!!!!!!!!!!!!!!!!!!!!!!!!!!!!!!!!!!!!!!!!!!!!!!!!!!!!!!!!!!!!!!!!!!!!!!!!!!!!!!!!!!!!!!!!!!!!!!!!!!!!!!!!!!!!!!!!!!!!!!!!!!!!!!!!!!!!!!!!!!!!!!!!!!!!!!!!!!!!!!!!!!!!!!!!!!!!!!!!!!!!!!!!!!!!!!!!!!!!!!!!!!!!!!!!!!!!!!!!!!!!!!",
"!!!!!!!!!!!!!!!!!!!!!!!!!!!!!!!!!!!!!!!!!!!!!!!!!!!!!!!!!!!!!!!!!!!!!!!!!!!!!!!!!!!!!!!!!!!!!!!!!!!!!!!!!!!!!!!!!!!!!!!!!!!!!!!!!!!!!!!!!!!!!!!!!!!!!!!!!!!!!!!!!!!!!!!!!!!!!!!!!!!!!!!!!!!!!!!!!!!!!!!!!!!!!!!!!!!!!!!!!!!!!!!!!!!!!!!!!!!!!!!!!!!!!!!!!!!!!!!!!!!!!!!!!!!!!!!!!!!!!!!!!!!!!!!!!!!!!!!!!!!!",
"!!!!!!!!!!!!!!!!!!!!!!!!!!!!!!!!!!!!!!!!!!!!!!!!!!!!!!!!!!!!!!!!!!!!!!!!!!!!!!!!!!!!!!!!!!!!!!!!!!!!!!!!!!!!!!!!!!!!!!!!!!!!!!!!!!!!!!!!!!!!!!!!!!!!!!!!!!!!!!!!!!!!!!!!!!!!!!!!!!!!!!!!!!!!!!!!!!!!!!!!!!!!!!!!!!!!!!!!!!!!!!!!!!!!!!!!!!!!!!!!!!!!!!!!!!!!!!!!!!!!!!!!!!!!!!!!!!!!!!!!!!!!!!!!!!!!!!!!!!!!",
"!!!!!!!!!!!!!!!!!!!!!!!!!!!!!!!!!!!!!!!!!!!!!!!!!!!!!!!!!!!!!!!!!!!!!!!!!!!!!!!!!!!!!!!!!!!!!!!!!!!!!!!!!!!!!!!!!!!!!!!!!yyyyyyyyyy!!!!!!!!!!!!!!!!!!!!!!!!!!!!!!!!!!!!!!!!!!!!!!!!!!!!!!!!!!!!!!!!!!!!!!!!!!!!!!!!!!!!!!!!!!!!!!!!!!!!!!!!!!!!!!!!!!!!!!!!!!!!!!!!!!!!!!!!!!!!!!!!!!!!!!!!!!!!!!!!!!!!!!!!!",
"!!!!!!!!!!!!!!!!!!!!!!!!!!!!!!!!!!!!!!!!!!!!!!!!!!!!!!!!!!!!!!!!!!!!!!!!!!!!!!!!!!!!!!!!!!!!!!!!!!!!!!!!!!!!!!!!!!!!!!!!yyyyyyyyyyyy!!!!!!!!!!!!!!!!!!!!!!!!!!!!!!!!!!!!!!!!!!!!!!!!!!!!!!!!!!!!!!!!!!!!!!!!!!!!!!!!!!!!!!!!!!!!!!!!!!!!!!!!!!!!!!!!!!!!!!!!!!!!!!!!!!!!!!!!!!!!!!!!!!!!!!!!!!!!!!!!!!!!!!!!",
"!!!!!!!!!!!!!!!!!!!!!!!!!!!!!!!!!!!!!!!!!!!!!!!!!!!!!!!!!!!!!!!!!!!!!!!!!!!!!!!!!!!!!!!!!!!!!!!!!!!!!!!!!!!!!!!!!!!!!!!y}}qojoqvvyyyy!!!!!!!!!!!!!!!!!!!!!!!!!!!!!!!!!!!!!!!!!!!!!!!!!!!!!!!!!!!!!!!!!!!!!!!!!!!!!!!!!!!!!!!!!!!!!!!!!!!!!!!!!!!!!!!!!!!!!!!!!!!!!!!!!!!!!!!!!!!!!!!!!!!!!!!!!!!!!!!!!!!!!!!",
"!!!!!!!!!!!!!!!!!!!!!!!!!!!!!!!!!!!!!!!!!!!!!!!!!!!!!!!!!!!!!!!!!!!!!!!!!!!!!!!!!!!!!!!!!!!!!!!!!!!!!!!!!!!!!!!!!!!!!!y}yyoe_djquv}yyyyyyyyy!!!!!!!!!!!!!!!!!!!!!!!!!!!!!!!!!!!!!!!!!!!!!!!!!!!!!!!!!!!!!!!!!!!!!!!!!!!!!!!!!!!!!!!!!!!!!!!!!!!!!!!!!!!!!!!!!!!!!!!!!!!!!!!!!!!!!!!!!!!!!!!!!!!!!!!!!!!!!!!!",
"!!!!!!!!!!!!!!!!!!!!!!!!!!!!!!!!!!!!!!!!!!!!!!!!!!!!!!!!!!!!!!!!!!!!!!!!!!!!!!!!!!!!!!!!!!!!!!!!!!!!!!!!!!!!!!!!!!!!!yy}yxj_U_doqv}}yyyyyyyyy!!!!!!!!!!!!!!!!!!!!!!!!!!!!!!!!!!!!!!!!!!!!!!!!!!!!!!!!!!!!!!!!!!!!!!!!!!!!!!!!!!!!!!!!!!!!!!!!!!!!!!!!!!!!!!!!!!!!!!!!!!!!!!!!!!!!!!!!!!!!!!!!!!!!!!!!!!!!!!!",
"!!!!!!!!!!!!!!!!!!!!!!!!!!!!!!!!!!!!!!!!!!!!!!!!!!!!!!!!!!!!!!!!!!!!!!!!!!!!!!!!!!!!!!!!!!!!!!!!!!!!!!!!!!!!!!!!!!!!yyyqni^SHLSX_cinqyyyyyyyyy!!!!!!!!!!!!!!!!!!!!!!!!!!!!!!!!!!!!!!!!!!!!!!!!!!!!!!!!!!!!!!!!!!!!!!!!!!!!!!!!!!!!!!!!!!!!!!!!!!!!!!!!!!!!!!!!!!!!!!!!!!!!!!!!!!!!!!!!!!!!!!!!!!!!!!!!!!!!!!",
"!!!!!!!!!!!!!!!!!!!!!!!!!!!!!!!!!!!!!!!!!!!!!!!!!!!!!!!!!!!!!!!!!!!!!!!!!!!!!!!!!!!!!!!!!!!!!!!!!!!!!!!!!!!!!!!!!!!yyyyoe_PC7:?CLT]cjuvyyyyyyyyyyy!!!!!!!!!!!!!!!!!!!!!!!!!!!!!!!!!!!!!!!!!!!!!!!!!!!!!!!!!!!!!!!!!!!!!!!!!!!!!!!!!!!!!!!!!!!!!!!!!!!!!!!!!!!!!!!!!!!!!!!!!!!!!!!!!!!!!!!!!!!!!!!!!!!!!!!!!!",
"!!!!!!!!!!!!!!!!!!!!!!!!!!!!!!!!!!!!!!!!!!!!!!!!!!!!!!!!!!!!!!!!!!!!!!!!!!!!!!!!!!!!!!!!!!!!!!!!!!!!!!!!!!!!!!!!!!yyyyyj_TC7./02:DP]equyyyyyyyyyyyy!!!!!!!!!!!!!!!!!!!!!!!!!!!!!!!!!!!!!!!!!!!!!!!!!!!!!!!!!!!!!!!!!!!!!!!!!!!!!!!!!!!!!!!!!!!!!!!!!!!!!!!!!!!!!!!!!!!!!!!!!!!!!!!!!!!!!!!!!!!!!!!!!!!!!!!!!",
"!!!!!!!!!!!!!!!!!!!!!!!!!!!!!!!!!!!!!!!!!!!!!!!!!!!!!!!!!!!!!!!!!!!!!!!!!!!!!!!!!!!!!!!!!!!!!!!!!!!!!!!!!!!!!!!!!!yyyyyi_S@1*+++/7?LXejouvyy{wsssslh!!!!!!!!!!!!!!!!!!!!!!!!!!!!!!!!!!!!!!!!!!!!!!!!!!!!!!!!!!!!!!!!!!!!!!!!!!!!!!!!!!!!!!!!!!!!!!!!!!!!!!!!!!!!!!!!!!!!!!!!!!!!!!!!!!!!!!!!!!!!!!!!!!!!!!!!",
"!!!!!!!!!!!!!!!!!!!!!!!!!!!!!!!!!!!!!!!!!!!!!!!!!!!!!!!!!!!!!!!!!!!!!!!!!!!!!!!!!!!!!!!!!!!!!!!!!!!!!!!!!!!!!!!!!!yyyyyi]P=/))))*+0=L]ahpqvywsllllg`XH7+7HV!!!!!!!!!!!!!!!!!!!!!!!!!!!!!!!!!!!!!!!!!!!!!!!!!!!!!!!!!!!!!!!!!!!!!!!!!!!!!!!!!!!!!!!!!!!!!!!!!!!!!!!!!!!!!!!!!!!!!!!!!!!!!!!!!!!!!!!!!!!!!!!!!",
"!!!!!!!!!!!!!!!!!!!!!!!!!!!!!!!!!!!!!!!!!!!!!!!!!!!!!!!!!!!!!!!!!!!!!!!!!!!!!!!!!!!!!!!!!!!!!!!!!!!!!!!!!!!!!!!!!!yyyyyh]O:+&&&&&)*0?PXcnpuyslkkkkg^XH7+7HVV!!!!!!!!!!!!!!!!!!!!!!!!!!!!!!!!!!!!!!!!!!!!!!!!!!!!!!!!!!!!!!!!!!!!!!!!!!!!!!!!!!!!!!!!!!!!!!!!!!!!!!!!!!!!!!!!!!!!!!!!!!!!!!!!!!!!!!!!!!!!!!!!",
"!!!!!!!!!!!!!!!!!!!!!!!!!!!!!!!!!!!!!!!!!!!!!!!!!!!!!!!!!!!!!!!!!!!!!!!!!!!!!!!!!!!!!!!!!!!!!!!!!!!!!!!!!!!!!!!!!!yyyyyj_T@0)&&&&&&)/:IVeiosllkkkkZRF:/*0:HHC!!!!!!!!!!!!!!!!!!!!!!!!!!!!!!!!!!!!!!!!!!!!!!!!!!!!!!!!!!!!!!!!!!!!!!!!!!!!!!!!!!!!!!!!!!!!!!!!!!!!!!!!!!!!!!!!!!!!!!!!!!!!!!!!!!!!!!!!!!!!!!!",
"!!!!!!!!!!!!!!!!!!!!!!!!!!!!!!!!!!!!!!!!!!!!!!!!!!!!!!!!!!!!!!!!!!!!!!!!!!!!!!!!!!!!!!!!!!!!!!!!!!!!!!!!!!!!!!!!!!yyyyyncYH7+)&&&&&&)+9L_bgllkkkkkWG7/+)+0:::<!!!!!!!!!!!!!!!!!!!!!!!!!!!!!!!!!!!!!!!!!!!!!!!!!!!!!!!!!!!!!!!!!!!!!!!!!!!!!!!!!!!!!!!!!!!!!!!!!!!!!!!!!!!!!!!!!!!!!!!!!!!!!!!!!!!!!!!!!!!!!!",
"!!!!!!!!!!!!!!!!!!!!!!!!!!!!!!!!!!!!!!!!!!!!!!!!!!!!!!!!!!!!!!!!!!!!!!!!!!!!!!!!!!!!!!!!!!!!!!!!!!!!!!!!!!!!!!!!!!yyyyyoe_O=0)&$###&&&.@X^gkkkkkkkQ<.*)&)+/27<<!!!!!!!!!!!!!!!!!!!!!!!!!!!!!!!!!!!!!!!!!!!!!!!!!!!!!!!!!!!!!!!!!!!!!!!!!!!!!!!!!!!!!!!!!!!!!!!!!!!!!!!!!!!!!!!!!!!!!!!!!!!!!!!!!!!!!!!!!!!!!",
"!!!!!!!!!!!!!!!!!!!!!!!!!!!!!!!!!!!!!!!!!!!!!!!!!!!!!!!!!!!!!!!!!!!!!!!!!!!!!!!!!!!!!!!!!!!!!!!!!!!!!!!!!!!!!!!!!!yyyyyphaUI;+&&&$#&&&+?^[gkkkkkkkZJ:4/+04<<=>BR!!!!!!!!!!!!!!!!!!!!!!!!!!!!!!!!!!!!!!!!!!!!!!!!!!!!!!!!!!!!!!!!!!!!!!!!!!!!!!!!!!!!!!!!!!!!!!!!!!!!!!!!!!!!!!!!!!!!!!!!!!!!!!!!!!!!!!!!!!!!",
"!!!!!!!!!!!!!!!!!!!!!!!!!!!!!!!!!!!!!!!!!!!!!!!!!!!!!!!!!!!!!!!!!!!!!!!!!!!!!!!!!!!!!!!!!!!!!!!!!!!!!!!!!!!!!!!!!!yyyyypjc]SK3)&&&$&&&*>[ggkkkkkkk[WNH?7?HOJB>M^uqqp!!!!!!!!!!!!!!!!!!!!!!!!!!!!!!!!!!!!!!!!!!!!!!!!!!!!!!!!!!!!!!!!!!!!!!!!!!!!!!!!!!!!!!!!!!!!!!!!!!!!!!!!!!!!!!!!!!!!!!!!!!!!!!!!!!!!!!!!",
"!!!!!!!!!!!!!!!!!!!!!!!!!!!!!!!!!!!!!!!!!!!!!!!!!!!!!!!!!!!!!!!!!!!!!!!!!!!!!!!!!!!!!!!!!!!!!!!!!!!!!!!!!!!!!!!!!!yyyyyqje`^V?.&&&&&&&)>ggkkkkkkkkgba]TLSV_ULBRbuqqpp!!!!!!!!!!!!!!!!!!!!!!!!!!!!!!!!!!!!!!!!!!!!!!!!!!!!!!!!!!!!!!!!!!!!!!!!!!!!!!!!!!!!!!!!!!!!!!!!!!!!!!!!!!!!!!!!!!!!!!!!!!!!!!!!!!!!!!!",
"!!!!!!!!!!!!!!!!!!!!!!!!!!!!!!!!!!!!!!!!!!!!!!!!!!!!!!!!!!!!!!!!!!!!!!!!!!!!!!!!!!!!!!!!!!!!!!!!!!!!!!!!!!!!!!!!!!yyyyyqje_VO?1+)&&&&)3Mgkkkkkkkkkghe_YTX_d_WR^huqqopt!!!!!!!!!!!!!!!!!!!!!!!!!!!!!!!!!!!!!!!!!!!!!!!!!!!!!!!!!!!!!!!!!!!!!!!!!!!!!!!!!!!!!!!!!!!!!!!!!!!!!!!!!!!!!!!!!!!!!!!!!!!!!!!!!!!!!!",
"!!!!!!!!!!!!!!!!!!!!!!!!!!!!!!!!!!!!!!!!!!!!!!!!!!!!!!!!!!!!!!!!!!!!!!!!!!!!!!!!!!!!!!!!!!!!!!!!!!!!!!!!!!!!!!!!!!yyyyyqje]PE?71*&&)->MZkkkkkkkkkkghid`^aejhebhovqpoquy!!!!!!!!!!!!!!!!!!!!!!!!!!!!!!!!!!!!!!!!!!!!!!!!!!!!!!!!!!!!!!!!!!!!!!!!!!!!!!!!!!!!!!!!!!!!!!!!!!!!!!!!!!!!!!!!!!!!!!!!!!!!!!!!!!!!!",
"!!!!!!!!!!!!!!!!!!!!!!!!!!!!!!!!!!!!!!!!!!!!!!!!!!!!!!!!!!!!!!!!!!!!!!!!!!!!!!!!!!!!!!!!!!!!!!!!!!!!!!!!!!!!!!!!!!yyyyyqjeXK==??/)&+Bggkkkkkkkkkkkklniechnquvyyyvqpnquyy!!!!!!!!!!!!!!!!!!!!!!!!!!!!!!!!!!!!!!!!!!!!!!!!!!!!!!!!!!!!!!!!!!!!!!!!!!!!!!!!!!!!!!!!!!!!!!!!!!!!!!!!!!!!!!!!!!!!!!!!!!!!!!!!!!!!",
"!!!!!!!!!!!!!!!!!!!!!!!!!!!!!!!!!!!!!!!!!!!!!!!!!!!!!!!!!!!!!!!!!!!!!!!!!!!!!!!!!!!!!!!!!!!!!!!!!!!!!!!!!!!!!!!!!!!yyyyuoj_SDDEF9.)3Mggkkkkkkkkg[[[bbeehllsswywvuqonoputp!!!!!!!!!!!!!!!!!!!!!!!!!!!!!!!!!!!!!!!!!!!!!!!!!!!!!!!!!!!!!!!!!!!!!!!!!!!!!!!!!!!!!!!!!!!!!!!!!!!!!!!!!!!!!!!!!!!!!!!!!!!!!!!!!!!",
"!!!!!!!!!!!!!!!!!!!!!!!!!!!!!!!!!!!!!!!!!!!!!!!!!!!!!!!!!!!!!!!!!!!!!!!!!!!!!!!!!!!!!!!!!!!!!!!!!!!!!!!!!!!!!!!!!!!!yyyvuqcXNNNNC90>Qkkkkkkkkkk[ZQWW^`glllss|wvurpninnonnn!!!!!!!!!!!!!!!!!!!!!!!!!!!!!!!!!!!!!!!!!!!!!!!!!!!!!!!!!!!!!!!!!!!!!!!!!!!!!!!!!!!!!!!!!!!!!!!!!!!!!!!!!!!!!!!!!!!!!!!!!!!!!!!!!!",
"!!!!!!!!!!!!!!!!!!!!!!!!!!!!!!!!!!!!!!!!!!!!!!!!!!!!!!!!!!!!!!!!!!!!!!!!!!!!!!!!!!!!!!!!!!!!!!!!!!!!!!!!!!!!!!!!!!!!!yyyyyj`UUUUPJCMZkkkkkkkkkk[QJMRRZgllllssvurroihhijjmnn!!!!!!!!!!!!!!!!!!!!!!!!!!!!!!!!!!!!!!!!!!!!!!!!!!!!!!!!!!!!!!!!!!!!!!!!!!!!!!!!!!!!!!!!!!!!!!!!!!!!!!!!!!!!!!!!!!!!!!!!!!!!!!!!!",
"!!!!!!!!!!!!!!!!!!!!!!!!!!!!!!!!!!!!!!!!!!!!!!!!!!!!!!!!!!!!!!!!!!!!!!!!!!!!!!!!!!!!!!!!!!!!!!!!!!!!!!!!!!!!!!!!!!!!!yyyyyoe`^XUSNJR[kkkkkkk[ZWMG?@BBMZkklllssssrronnnonnnnn!!!!!!!!!!!!!!!!!!!!!!!!!!!!!!!!!!!!!!!!!!!!!!!!!!!!!!!!!!!!!!!!!!!!!!!!!!!!!!!!!!!!!!!!!!!!!!!!!!!!!!!!!!!!!!!!!!!!!!!!!!!!!!!!",
"!!!!!!!!!!!!!!!!!!!!!!!!!!!!!!!!!!!!!!!!!!!!!!!!!!!!!!!!!!!!!!!!!!!!!!!!!!!!!!!!!!!!!!!!!!!!!!!!!!!!!!!!!!!!!!!!!!!!!yyyyyqojc^UTSPW[kkkkkkkZQB><6666BQ[gkklllsssssrrqtponnnn!!!!!!!!!!!!!!!!!!!!!!!!!!!!!!!!!!!!!!!!!!!!!!!!!!!!!!!!!!!!!!!!!!!!!!!!!!!!!!!!!!!!!!!!!!!!!!!!!!!!!!!!!!!!!!!!!!!!!!!!!!!!!!!",
"!!!!!!!!!!!!!!!!!!!!!!!!!!!!!!!!!!!!!!!!!!!!!!!!!!!!!!!!!!!!!!!!!!!!!!!!!!!!!!!!!!!!!!!!!!!!!!!!!!!!!!!!!!!!!!!!!!!!!yyyyyyyyj`UUUUZ[kkkkkkkWB63100--6GZ[gkkkllsss|~~wwuqoonnn!!!!!!!!!!!!!!!!!!!!!!!!!!!!!!!!!!!!!!!!!!!!!!!!!!!!!!!!!!!!!!!!!!!!!!!!!!!!!!!!!!!!!!!!!!!!!!!!!!!!!!!!!!!!!!!!!!!!!!!!!!!!!!",
"!!!!!!!!!!!!!!!!!!!!!!!!!!!!!!!!!!!!!!!!!!!!!!!!!!!!!!!!!!!!!!!!!!!!!!!!!!!!!!!!!!!!!!!!!!!!!!!!!!!!!!!!!!!!!!!!!!!!!!yyyyyyyoe`___bgkkkkgg[QB62/.+*)-8MQW[[ggkllssss|wvuqqqpqt!!!!!!!!!!!!!!!!!!!!!!!!!!!!!!!!!!!!!!!!!!!!!!!!!!!!!!!!!!!!!!!!!!!!!!!!!!!!!!!!!!!!!!!!!!!!!!!!!!!!!!!!!!!!!!!!!!!!!!!!!!!!!",
"!!!!!!!!!!!!!!!!!!!!!!!!!!!!!!!!!!!!!!!!!!!!!!!!!!!!!!!!!!!!!!!!!!!!!!!!!!!!!!!!!!!!!!!!!!!!!!!!!!!!!!!!!!!!!!!!!!!!!!!yyyyyyqojiihhgkkkkg[WMB60.*))&*0>BMQWZ[[gllllssyvvuuuuuuvlbZ!!!!!!!!!!!!!!!!!!!!!!!!!!!!!!!!!!!!!!!!!!!!!!!!!!!!!!!!!!!!!!!!!!!!!!!!!!!!!!!!!!!!!!!!!!!!!!!!!!!!!!!!!!!!!!!!!!!!!!!!!",
"!!!!!!!!!!!!!!!!!!!!!!!!!!!!!!!!!!!!!!!!!!!!!!!!!!!!!!!!!!!!!!!!!!!!!!!!!!!!!!!!!!!!!!!!!!!!!!!!!!!!!!!!!!!!!!!!!!!!!!!!yyyyyyyyyuqllkkkk[WRJ@90+)&&&&*06>GMQWZ[kkkklsyyyyyyyyvvlbZZ!!!!!!!!!!!!!!!!!!!!!!!!!!!!!!!!!!!!!!!!!!!!!!!!!!!!!!!!!!!!!!!!!!!!!!!!!!!!!!!!!!!!!!!!!!!!!!!!!!!!!!!!!!!!!!!!!!!!!!!!",
"!!!!!!!!!!!!!!!!!!!!!!!!!!!!!!!!!!!!!!!!!!!!!!!!!!!!!!!!!!!!!!!!!!!!!!!!!!!!!!!!!!!!!!!!!!!!!!!!!!!!!!!!!!!!!!!!!!!!!!!!!yyyyyyyyvurllg[ZWURJ?9/*&&&$&&)*-6>BMQW[[ggglllllrssssrlgbbh!!!!!!!!!!!!!!!!!!!!!!!!!!!!!!!!!!!!!!!!!!!!!!!!!!!!!!!!!!!!!!!!!!!!!!!!!!!!!!!!!!!!!!!!!!!!!!!!!!!!!!!!!!!!!!!!!!!!!!!",
"!!!!!!!!!!!!!!!!!!!!!!!!!!!!!!!!!!!!!!!!!!!!!!!!!!!!!!!!!!!!!!!!!!!!!!!!!!!!!!!!!!!!!!!!!!!!!!!!!!!!!!!!!!!!!!!!!!!!!!!!!!yyyyyyyyywssbZRPPMG?:.)&&$##$&&)+06>GMQWZ[[gggggklllllllinnp!!!!!!!!!!!!!!!!!!!!!!!!!!!!!!!!!!!!!!!!!!!!!!!!!!!!!!!!!!!!!!!!!!!!!!!!!!!!!!!!!!!!!!!!!!!!!!!!!!!!!!!!!!!!!!!!!!!!!!",
"!!!!!!!!!!!!!!!!!!!!!!!!!!!!!!!!!!!!!!!!!!!!!!!!!!!!!!!!!!!!!!!!!!!!!!!!!!!!!!!!!!!!!!!!!!!!!!!!!!!!!!!!!!!!!!!!!!!!!!!!!!!yyyyyyyyyyycTDFLME?:+&&$#####$&)*/6>BMQQZZZ[[[[gkkkkklruqqpp!!!!!!!!!!!!!!!!!!!!!!!!!!!!!!!!!!!!!!!!!!!!!!!!!!!!!!!!!!!!!!!!!!!!!!!!!!!!!!!!!!!!!!!!!!!!!!!!!!!!!!!!!!!!!!!!!!!!!",
"!!!!!!!!!!!!!!!!!!!!!!!!!!!!!!!!!!!!!!!!!!!!!!!!!!!!!!!!!!!!!!!!!!!!!!!!!!!!!!!!!!!!!!!!!!!!!!!!!!!!!!!!!!!!!!!!!!!!!!!!!!!!yyyyyyyyyyeVJGDB?<9.)&&$#####$&&)+06>BGMMQQQQQQMMQQQWW^``bbi!!!!!!!!!!!!!!!!!!!!!!!!!!!!!!!!!!!!!!!!!!!!!!!!!!!!!!!!!!!!!!!!!!!!!!!!!!!!!!!!!!!!!!!!!!!!!!!!!!!!!!!!!!!!!!!!!!!!",
"!!!!!!!!!!!!!!!!!!!!!!!!!!!!!!!!!!!!!!!!!!!!!!!!!!!!!!!!!!!!!!!!!!!!!!!!!!!!!!!!!!!!!!!!!!!!!!!!!!!!!!!!!!!!!!!!!!!!!!!!!!!!!yyyyyyyyyeXNE@;:970+*&&$######&&&*.66;>>BBB>>8626>>BBGMQW[hy!!!!!!!!!!!!!!!!!!!!!!!!!!!!!!!!!!!!!!!!!!!!!!!!!!!!!!!!!!!!!!!!!!!!!!!!!!!!!!!!!!!!!!!!!!!!!!!!!!!!!!!!!!!!!!!!!!!",
"!!!!!!!!!!!!!!!!!!!!!!!!!!!!!!!!!!!!!!!!!!!!!!!!!!!!!!!!!!!!!!!!!!!!!!!!!!!!!!!!!!!!!!!!!!!!!!!!!!!!!!!!!!!!!!!!!!!!!!!!!!!!!!yyyyyyyyh^PE<3444321*&&$######$&&)./16669610+*)*-0668>AAZhyy!!!!!!!!!!!!!!!!!!!!!!!!!!!!!!!!!!!!!!!!!!!!!!!!!!!!!!!!!!!!!!!!!!!!!!!!!!!!!!!!!!!!!!!!!!!!!!!!!!!!!!!!!!!!!!!!!!",
"!!!!!!!!!!!!!!!!!!!!!!!!!!!!!!!!!!!!!!!!!!!!!!!!!!!!!!!!!!!!!!!!!!!!!!!!!!!!!!!!!!!!!!!!!!!!!!!!!!!!!!!!!!!!!!!!!!!!!!!!!!!!!!yyyyyyyyh]PE=4432357/*&&$######$&&)**+....--/016>BBGJMQZblyyy!!!!!!!!!!!!!!!!!!!!!!!!!!!!!!!!!!!!!!!!!!!!!!!!!!!!!!!!!!!!!!!!!!!!!!!!!!!!!!!!!!!!!!!!!!!!!!!!!!!!!!!!!!!!!!!!!",
"!!!!!!!!!!!!!!!!!!!!!!!!!!!!!!!!!!!!!!!!!!!!!!!!!!!!!!!!!!!!!!!!!!!!!!!!!!!!!!!!!!!!!!!!!!!!!!!!!!!!!!!!!!!!!!!!!!!!!!!!!!!!!!yyyyyyyyh]OE=732139<40+)&$######$&&&&))))*++2=LPUWY^`bbhlryyyy!!!!!!!!!!!!!!!!!!!!!!!!!!!!!!!!!!!!!!!!!!!!!!!!!!!!!!!!!!!!!!!!!!!!!!!!!!!!!!!!!!!!!!!!!!!!!!!!!!!!!!!!!!!!!!!!",
"!!!!!!!!!!!!!!!!!!!!!!!!!!!!!!!!!!!!!!!!!!!!!!!!!!!!!!!!!!!!!!!!!!!!!!!!!!!!!!!!!!!!!!!!!!!!!!!!!!!!!!!!!!!!!!!!!!!!!!!!!!!!!!yyyyyyyyhYNE=731/4;@?=:.)&$######$&&&&&&&))+9Pijnptvyyyyyyyyyyy!!!!!!!!!!!!!!!!!!!!!!!!!!!!!!!!!!!!!!!!!!!!!!!!!!!!!!!!!!!!!!!!!!!!!!!!!!!!!!!!!!!!!!!!!!!!!!!!!!!!!!!!!!!!!!!",
"!!!!!!!!!!!!!!!!!!!!!!!!!!!!!!!!!!!!!!!!!!!!!!!!!!!!!!!!!!!!!!!!!!!!!!!!!!!!!!!!!!!!!!!!!!!!!!!!!!!!!!!!!!!!!!!!!!!!!!!!!!!!!!yyyuquyyhYOE=72/./14321*&&&#######$$&&&)+.3<LYjhedhlsrnihhhnoqqq!!!!!!!!!!!!!!!!!!!!!!!!!!!!!!!!!!!!!!!!!!!!!!!!!!!!!!!!!!!!!!!!!!!!!!!!!!!!!!!!!!!!!!!!!!!!!!!!!!!!!!!!!!!!!!",
"!!!!!!!!!!!!!!!!!!!!!!!!!!!!!!!!!!!!!!!!!!!!!!!!!!!!!!!!!!!!!!!!!!!!!!!!!!!!!!!!!!!!!!!!!!!!!!!!!!!!!!!!!!!!!!!!!!!!!!!!!!!!!!yyupnpuyh]OE=71/+++++++)&&&###########&*7@LV^cjd`]`glgb^^^^benoquqpnnnnnnnjjje`^^^^!!!!!!!!!!!!!!!!!!!!!!!!!!!!!!!!!!!!!!!!!!!!!!!!!!!!!!!!!!!!!!!!!!!!!!!!!!!!!!!!!!!!!!!!!!!",
"!!!!!!!!!!!!!!!!!!!!!!!!!!!!!!!!!!!!!!!!!!!!!!!!!!!!!!!!!!!!!!!!!!!!!!!!!!!!!!!!!!!!!!!!!!!!!!!!!!!!!!!!!!!!!!!!!!!!!!!!!!!!!!yyqnhnqyh]PF=71.**)))))&&&&$##########&.LYeyuombYSW[k[WSRRRW`ejpuqpnnnnnnnjjje`^^^^^!!!!!!!!!!!!!!!!!!!!!!!!!!!!!!!!!!!!!!!!!!!!!!!!!!!!!!!!!!!!!!!!!!!!!!!!!!!!!!!!!!!!!!!!!!",
"!!!!!!!!!!!!!!!!!!!!!!!!!!!!!!!!!!!!!!!!!!!!!!!!!!!!!!!!!!!!!!!!!!!!!!!!!!!!!!!!!!!!!!!!!!!!!!!!!!!!!!!!!!!!!!!!!!!!!!!!!!!!!!yyupnpuyh]PI?9/+))*+.03.*&&&##########&2U^aiedb`^WZ[[[ZWWURW[glllllihhhb_]YYYVUSTVXY]!!!!!!!!!!!!!!!!!!!!!!!!!!!!!!!!!!!!!!!!!!!!!!!!!!!!!!!!!!!!!!!!!!!!!!!!!!!!!!!!!!!!!!!!!",
"!!!!!!!!!!!!!!!!!!!!!!!!!!!!!!!!!!!!!!!!!!!!!!!!!!!!!!!!!!!!!!!!!!!!!!!!!!!!!!!!!!!!!!!!!!!!!!!!!!!!!!!!!!!!!!!!!!!!!!!!!!!!!!yyyuquyyi^PJ@:/*&)+19@M=2+&&#########&):__^^^]Y^[[[ZWZ[[ZWQW[ggklggggbbWRKKKKJJGLPUVY_!!!!!!!!!!!!!!!!!!!!!!!!!!!!!!!!!!!!!!!!!!!!!!!!!!!!!!!!!!!!!!!!!!!!!!!!!!!!!!!!!!!!!!!!",
"!!!!!!!!!!!!!!!!!!!!!!!!!!!!!!!!!!!!!!!!!!!!!!!!!!!!!!!!!!!!!!!!!!!!!!!!!!!!!!!!!!!!!!!!!!!!!!!!!!!!!!!!!!!!!!!!!!!!!!!!!!!!!!yyyyyyyyi^PKC<.)&).=JWgQB9*&########$&+Ch`XSSSSW[k[WSW[k[ZQZ[kkkgggg[[ZQG;;;;;<<CKRUY__!!!!!!!!!!!!!!!!!!!!!!!!!!!!!!!!!!!!!!!!!!!!!!!!!!!!!!!!!!!!!!!!!!!!!!!!!!!!!!!!!!!!!!!",
"!!!!!!!!!!!!!!!!!!!!!!!!!!!!!!!!!!!!!!!!!!!!!!!!!!!!!!!!!!!!!!!!!!!!!!!!!!!!!!!!!!!!!!!!!!!!!!!!!!!!!!!!!!!!!!!!!!!!!!!!!!!!!yyyyyyyyyj_TND=1+)+9LQZgZQG3*&&&&$##&&*4I`^^WWWW[gkg[W[gkg[Z[[gg[[[ZZWQQMGC3+))+.7CSVY___!!!!!!!!!!!!!!!!!!!!!!!!!!!!!!!!!!!!!!!!!!!!!!!!!!!!!!!!!!!!!!!!!!!!!!!!!!!!!!!!!!!!!!",
"!!!!!!!!!!!!!!!!!!!!!!!!!!!!!!!!!!!!!!!!!!!!!!!!!!!!!!!!!!!!!!!!!!!!!!!!!!!!!!!!!!!!!!!!!!!!!!!!!!!!!!!!!!!!!!!!!!!!!!!!!!!!yyyyyyyyyyjaXPF=50+5BWZ[k[ZWJ;0*)&&&&)+7@NX^[[[[[ggkgg[ggkgg[[[g[ZWWRRMJBGJL.&$&&).=TV]____C/&))+6Qk!!!!!!!!!!!!!!!!!!!!!!!!!!!!!!!!!!!!!!!!!!!!!!!!!!!!!!!!!!!!!!!!!!!!!!!!!!!!",
"!!!!!!!!!!!!!!!!!!!!!!!!!!!!!!!!!!!!!!!!!!!!!!!!!!!!!!!!!!!!!!!!!!!!!!!!!!!!!!!!!!!!!!!!!!!!!!!!!!!!!!!!!!!!!!!!!!!!!!!!!!!yyyyyyyyyyync^SJ?;94BQggkkkkk[ZQ>.))*+3@SSSSW[kkkkkkkkkkkkkkkkgg[ZQMMKJC?;@LS+$##$&*9UX]____C/&))+6Qkk!!!!!!!!!!!!!!!!!!!!!!!!!!!!!!!!!!!!!!!!!!!!!!!!!!!!!!!!!!!!!!!!!!!!!!!!!!!",
"!!!!!!!!!!!!!!!!!!!!!!!!!!!!!!!!!!!!!!!!!!!!!!!!!!!!!!!!!!!!!!!!!!!!!!!!!!!!!!!!!!!!!!!!!!!!!!!!!!!!!!!!!!!!!!!!!!!!!!!!!!vvyyyyyyyyyynd^TL@;50=MZ[[[[[[[ZZM;0024=ISTUWZ[kkkkkkkkkkkkkkgg[[ZWMJJJJGDCDDH)$###&&+?KT_ULC5.)++/>Qkk!!!!!!!!!!!!!!!!!!!!!!!!!!!!!!!!!!!!!!!!!!!!!!!!!!!!!!!!!!!!!!!!!!!!!!!!!!!",
"!!!!!!!!!!!!!!!!!!!!!!!!!!!!!!!!!!!!!!!!!!!!!!!!!!!!!!!!!!!!!!!!!!!!!!!!!!!!!!!!!!!!!!!!!!!!!!!!!!!!!!!!!!!!!!!!!!!!!!!!!quuuvyyyyyyyyne_UND;2.6BQQWWWWWZ[[WMBBBEKNSUWZ[gkkkkkkkkkkkkkgg[[ZWRKBBEGKLNF@;)$####&)/;N_L:..../15BWkk!!!!!!!!!!!!!!!!!!!!!!!!!!!!!!!!!!!!!!!!!!!!!!!!!!!!!!!!!!!!!!!!!!!!!!!!!!!",
"!!!!!!!!!!!!!!!!!!!!!!!!!!!!!!!!!!!!!!!!!!!!!!!!!!!!!!!!!!!!!!!!!!!!!!!!!!!!!!!!!!!!!!!!!!!!!!!!!!!!!!!!!!!!!!!!!!!!!!!!qqqqquyyyyyyyyoe_VPI;1+1>MMMSSSSW[kg[[ZZWWTSWZggkkkkkkkkkkkkkkg[[ZWUMB=?BGNRUJ=2&#####$&)0E`C.&)+27:?MZkk!!!!!!!!!!!!!!!!!!!!!!!!!!!!!!!!!!!!!!!!!!!!!!!!!!!!!!!!!!!!!!!!!!!!!!!!!!!",
"!!!!!!!!!!!!!!!!!!!!!!!!!!!!!!!!!!!!!!!!!!!!!!!!!!!!!!!!!!!!!!!!!!!!!!!!!!!!!!!!!!!!!!!!!!!!!!!!!!!!!!!!!!!!!!!!!!!!!!!!qqqqquyyyyyyyyoe`XRK?4.06;BJRRRSW[kkg[[ZWWWWZ[ggkkkkkkkkkkkkgg[WQRRPKE@@CDGKLD?9)$####&&).<P?0*.19<@ERZkk!!!!!!!!!!!!!!!!!!!!!!!!!!!!!!!!!!!!!!!!!!!!!!!!!!!!!!!!!!!!!!!!!!!!!!!!!!!",
"!!!!!!!!!!!!!!!!!!!!!!!!!!!!!!!!!!!!!!!!!!!!!!!!!!!!!!!!!!!!!!!!!!!!!!!!!!!!!!!!!!!!!!!!!!!!!!!!!!!!!!!!!!!!!!!!!!!!!!!!qqqqquyyyyyyyyoe`XSNC910009BQRRSW[kkgg[WTWWZ[[kkkkkkkkkkkkkgg[WMBGJKJGDBC@CCC@@?*&###$&&)+3@:5149=CJOW[kk!!!!!!!!!!!!!!!!!!!!!!!!!!!!!!!!!!!!!!!!!!!!!!!!!!!!!!!!!!!!!!!!!!!!!!!!!!!",
"!!!!!!!!!!!!!!!!!!!!!!!!!!!!!!!!!!!!!!!!!!!!!!!!!!!!!!!!!!!!!!!!!!!!!!!!!!!!!!!!!!!!!!!!!!!!!!!!!!!!!!!!!!!!!!!!!!!!!!!!qqqqquyyyyyyyyoh`YUOE>60-*0>QQRSW[kkkk[WSWZ[[gkkkkkkkkkkkkkg[[QB:=@EGJKEC?=<;?@E+&#$&&&&)*.37;?@@CKPVZ[kk!!!!!!!!!!!!!!!!!!!!!!!!!!!!!!!!!!!!!!!!!!!!!!!!!!!!!!!!!!!!!!!!!!!!!!!!!!!",
"!!!!!!!!!!!!!!!!!!!!!!!!!!!!!!!!!!!!!!!!!!!!!!!!!!!!!!!!!!!!!!!!!!!!!!!!!!!!!!!!!!!!!!!!!!!!!!!!!!!!!!!!!!!!!!!!!!!!!!!!uuuqquyyyyyyyyoe`XSLE>;60.16>GMUWZ[[[gZWSWZ[ggkkkkkkkkkkg[[M>2.+)+07<@EDBB@=;:::.)&&&)*+/4<DILOPPSUX^`bggb!!!!!!!!!!!!!!!!!!!!!!!!!!!!!!!!!!!!!!!!!!!!!!!!!!!!!!!!!!!!!!!!!!!!!!!!!!",
"!!!!!!!!!!!!!!!!!!!!!!!!!!!!!!!!!!!!!!!!!!!!!!!!!!!!!!!!!!!!!!!!!!!!!!!!!!!!!!!!!!!!!!!!!!!!!!!!!!!!!!!!!!!!!!!!!!!!!!!!yyvuquyyyyyyyyoe`VPJB?=:63220>MWWWWZ[[ZWSWZ[gkkkkkkkkkkk[ZQ9+&&&&&).2:@BFJB?:730.+*+/39?HLSXY]^^__`acbbb`_^!!!!!!!!!!!!!!!!!!!!!!!!!!!!!!!!!!!!!!!!!!!!!!!!!!!!!!!!!!!!!!!!!!!!!!!!!",
"!!!!!!!!!!!!!!!!!!!!!!!!!!!!!!!!!!!!!!!!!!!!!!!!!!!!!!!!!!!!!!!!!!!!!!!!!!!!!!!!!!!!!!!!!!!!!!!!!!!!!!!!!!!!!!!!!!!!!!!!yyyuquyyyyyyyyoe_UNEB@??==3.*3GZWUSWZ[ZWSW[ggkkkkkkkkkkk[QG+&####$&).3=CJPG@:3/+/5=CIOTY_dinnnnnnnjjje`^^^^^!!!!!!!!!!!!!!!!!!!!!!!!!!!!!!!!!!!!!!!!!!!!!!!!!!!!!!!!!!!!!!!!!!!!!!!!",
"!!!!!!!!!!!!!!!!!!!!!!!!!!!!!!!!!!!!!!!!!!!!!!!!!!!!!!!!!!!!!!!!!!!!!!!!!!!!!!!!!!!!!!!!!!!!!!!!!!!!!!!!!!!!!!!!!!!!!!!!sssrquvyyyyyyynbYTNJGEBBBC:2.3>BJMRWZ[ZWSW[ggkkkkkkkkkkkZQB+&#####$&&).3<EC@=92.149=CKOTY^_aa``_^]YYYVUSTVXY]!!!!!!!!!!!!!!!!!!!!!!!!!!!!!!!!!!!!!!!!!!!!!!!!!!!!!!!!!!!!!!!!!!!!!!!",
"!!!!!!!!!!!!!!!!!!!!!!!!!!!!!!!!!!!!!!!!!!!!!!!!!!!!!!!!!!!!!!!!!!!!!!!!!!!!!!!!!!!!!!!!!!!!!!!!!!!!!!!!!!!!!!!!!!!!!!!!lllrqquuuuuvyyj`USNLLKJKKLC:3221;BMW[g[WSW[kkkkkkkkkkkkgZMB*&#######&&)+1=?@C=923349?CKOTUVXUUTPNKKKKJJGLPUVY_!!!!!!!!!!!!!!!!!!!!!!!!!!!!!!!!!!!!!!!!!!!!!!!!!!!!!!!!!!!!!!!!!!!!!!",
"!!!!!!!!!!!!!!!!!!!!!!!!!!!!!!!!!!!!!!!!!!!!!!!!!!!!!!!!!!!!!!!!!!!!!!!!!!!!!!!!!!!!!!!!!!!!!!!!!!!!!!!!!!!!!!!!!!!!!!!!kkllqqqqqqquyyh^PPONNNNPRSKC<2.)/>QW[k[WSW[kkkkkkkkkkkggZM>*&########$&&+7<@JC=95314:?CJOONNLJGC?;;;;;<<CKRUY__!!!!!!!!!!!!!!!!!!!!!!!!!!!!!!!!!!!!!!!!!!!!!!!!!!!!!!!!!!!!!!!!!!!!!",
"!!!!!!!!!!!!!!!!!!!!!!!!!!!!!!!!!!!!!!!!!!!!!!!!!!!!!!!!!!!!!!!!!!!!!!!!!!!!!!!!!!!!!!!!!!!!!!!!!!!!!!!!!!!!!!!!!!!!!!!!kkkljjnnopquuvj`WRPKLLLNPSLE@91.06>MZk[WSW[kkkkkkkkkkkggQG>+&$########$&&*/7@?=<730/..04:=?C@=;97345599;?BJPU^YX!!!!!!!!!!!!!!!!!!!!!!!!!!!!!!!!!!!!!!!!!!!!!!!!!!!!!!!!!!!!!!!!!!!!",
"!!!!!!!!!!!!!!!!!!!!!!!!!!!!!!!!!!!!!!!!!!!!!!!!!!!!!!!!!!!!!!!!!!!!!!!!!!!!!!!!!!!!!!!!!!!!!!!!!!!!!!!!!!!!!!!!!!!!!!!!kkgbcdehjoqqqqng[WMEFJKLPRNIC?;520->Qk[WSW[kkkkkkkkkkkggQB9+)&$########$&&)/;<=?93/+)&)*+/397310/./0137:=?CKSXVUT!!!!!!!!!!!!!!!!!!!!!!!!!!!!!!!!!!!!!!!!!!!!!!!!!!!!!!!!!!!!!!!!!!!",
"!!!!!!!!!!!!!!!!!!!!!!!!!!!!!!!!!!!!!!!!!!!!!!!!!!!!!!!!!!!!!!!!!!!!!!!!!!!!!!!!!!!!!!!!!!!!!!!!!!!!!!!!!!!!!!!!!!!!!!!!kkgb_``chnqqqpllkZMCDEILNRNLHEDC6-(6Mk[WSW[kkkkkkkkkkgg[QB6/+)&##########$&*59=C;3/)&&&&&)+1/.+++++..149:;;CNUUUTT!!!!!!!!!!!!!!!!!!!!!!!!!!!!!!!!!!!!!!!!!!!!!!!!!!!!!!!!!!!!!!!!!!",
"!!!!!!!!!!!!!!!!!!!!!!!!!!!!!!!!!!!!!!!!!!!!!!!!!!!!!!!!!!!!!!!!!!!!!!!!!!!!!!!!!!!!!!!!!!!!!!!!!!!!!!!!!!!!!!!!!!!!!!!!kkgeecc`ceinoqrll[RDFJLNPRPNLKID;2->Qk[WSW[kkkkkkkkkkg[[QB9520)&##########&&+.150+*)&&&&)*.3344579;=@@CDCC@LU_YVSOJ!!!!!!!!!!!!!!!!!!!!!!!!!!!!!!!!!!!!!!!!!!!!!!!!!!!!!!!!!!!!!!!!!",
"!!!!!!!!!!!!!!!!!!!!!!!!!!!!!!!!!!!!!!!!!!!!!!!!!!!!!!!!!!!!!!!!!!!!!!!!!!!!!!!!!!!!!!!!!!!!!!!!!!!!!!!!!!!!!!!!!!!!!!!!kkklnic```aenvussbUIKLOPPSSSPNLKC<6GWk[WSW[kkkkkkkkkgg[ZQG=?@C0)&$########$&&)*.+)&&&&&)*+19<?CILOSUXVTSPLJS^h`XRKC9!!!!!!!!!!!!!!!!!!!!!!!!!!!!!!!!!!!!!!!!!!!!!!!!!!!!!!!!!!!!!!!!",
"!!!!!!!!!!!!!!!!!!!!!!!!!!!!!!!!!!!!!!!!!!!!!!!!!!!!!!!!!!!!!!!!!!!!!!!!!!!!!!!!!!!!!!!!!!!!!!!!!!!!!!!!!!!!!!!!!!!!!!!!kklsyne_^]YcnyyyyeXLNPSSSSSTUSOLKFBRZk[WSW[kkkkkkkkgg[[ZQLCKRYG5+&$########$&&&))&&&&&&)+/4<CNUY`ejpvne_XTPYeueYPG?99!!!!!!!!!!!!!!!!!!!!!!!!!!!!!!!!!!!!!!!!!!!!!!!!!!!!!!!!!!!!!!!",
"!!!!!!!!!!!!!!!!!!!!!!!!!!!!!!!!!!!!!!!!!!!!!!!!!!!!!!!!!!!!!!!!!!!!!!!!!!!!!!!!!!!!!!!!!!!!!!!!!!!!!!!!!!!!!!!!!!!!!!!!kkklnjda_^]]YX]_`^WURROPRSTUVSNIJGGRZg[[W[gkkkgkkkkgg[ZWRMJRWZM@5*&$#########$&&&&&&&)*+/159DS_cejoqypjea_Y`enc^UNB;CS!!!!!!!!!!!!!!!!!!!!!!!!!!!!!!!!!!!!!!!!!!!!!!!!!!!!!!!!!!!!!!",
"!!!!!!!!!!!!!!!!!!!!!!!!!!!!!!!!!!!!!!!!!!!!!!!!!!!!!!!!!!!!!!!!!!!!!!!!!!!!!!!!!!!!!!!!!!!!!!!!!!!!!!!!!!!!!!!!!!!!!!!!kkgbcdfff_]SI?CILRW[WRNNPSTVXSLBGJKRZgg[[ggkkgggkkkgg[WRRRRWZ[WMG2*&&##########$&&))*+.17777EVjnoqqvyuqojieeeec`^SJ=L^y!!!!!!!!!!!!!!!!!!!!!!!!!!!!!!!!!!!!!!!!!!!!!!!!!!!!!!!!!!!!!",
"!!!!!!!!!!!!!!!!!!!!!!!!!!!!!!!!!!!!!!!!!!!!!!!!!!!!!!!!!!!!!!!!!!!!!!!!!!!!!!!!!!!!!!!!!!!!!!!!!!!!!!!!!!!!!!!!!!!!!!!!kkg`]afmfa]H7./49GZk[RKNPSUVYRJ>BJMU^bggkkkkgg[ggkkgg[WMRUWZ[[[ZWE4+&&##########$&)+.15;@<73G^yyyyyyyyyyyvune``ccXL@Scyy!!!!!!!!!!!!!!!!!!!!!!!!!!!!!!!!!!!!!!!!!!!!!!!!!!!!!!!!!!!!",
"!!!!!!!!!!!!!!!!!!!!!!!!!!!!!!!!!!!!!!!!!!!!!!!!!!!!!!!!!!!!!!!!!!!!!!!!!!!!!!!!!!!!!!!!!!!!!!!!!!!!!!!!!!!!!!!!!!!!!!!kkkg`^_affa_TH::96GWkWG9=DLPTXRLBGKMU`hg[[ggkkggggkgg[ZWRUWZZ[[ZWUL@9+)&$########&)/29?DKNJ@<O`yyyyyyyyyyyvujcY_`cYSJUeyy!!!!!!!!!!!!!!!!!!!!!!!!!!!!!!!!!!!!!!!!!!!!!!!!!!!!!!!!!!!!",
"!!!!!!!!!!!!!!!!!!!!!!!!!!!!!!!!!!!!!!!!!!!!!!!!!!!!!!!!!!!!!!!!!!!!!!!!!!!!!!!!!!!!!!!!!!!!!!!!!!!!!!!!!!!!!!!!!!!!!!kkkkgb__^^__a]TOH<4BWkQ;+1;FNSVRMGJLMW`lb[W[gkkkggggg[ZZWRWZ[[[[ZWRRMM=0*&&######$&+<CKSUX^UNEUeyyyyyyyyyyyvvi_UY`e^VPYevv!!!!!!!!!!!!!!!!!!!!!!!!!!!!!!!!!!!!!!!!!!!!!!!!!!!!!!!!!!!!",
"!!!!!!!!!!!!!!!!!!!!!!!!!!!!!!!!!!!!!!!!!!!!!!!!!!!!!!!!!!!!!!!!!!!!!!!!!!!!!!!!!!!!!!!!!!!!!!!!!!!!!!!!!!!!!!!!!!!!!kkkkkgb`^YV]_ffffT@1BQkM0)+3@IPVSMLMMMW`lbWQW[kkkkkkg[ZWWQRW[g[[ZWRMW[gWJ;+&$####$&)4OU^cehj`XR^iyyyyyyyyyyyyvh^RV_e`YV`iuu!!!!!!!!!!!!!!!!!!!!!!!!!!!!!!!!!!!!!!!!!!!!!!!!!!!!!!!!!!!!",
"!!!!!!!!!!!!!!!!!!!!!!!!!!!!!!!!!!!!!!!!!!!!!!!!!!!!!!!!!!!!!!!!!!!!!!!!!!!!!!!!!!!!!!!!!!!!!!!!!!!!!!!!!!!!!!!!!!!![[Z[ggbb_]XUVVV]]fVL@MZkM6*+05?JTSRMMPRWblbZQWZZ[gkkkk[WQQWWZ[g[ZWWWUZ[gWMC1*&&$#$&&+=UX^`chnc^V`nyyyyyyyyyyyyyh^SX_eb_^^^_ah!!!!!!!!!!!!!!!!!!!!!!!!!!!!!!!!!!!!!!!!!!!!!!!!!!!!!!!!!!!",
"!!!!!!!!!!!!!!!!!!!!!!!!!!!!!!!!!!!!!!!!!!!!!!!!!!!!!!!!!!!!!!!!!!!!!!!!!!!!!!!!!!!!!!!!!!!!!!!!!!!!!!!!!!!!!!!!!!!k[WMW_ec`^YVUSOKOV]VTTY[kQ>....7CSSSSSURZblg[ZWQMW[kkkk[QMQWZ[[g[WQWWZ[[gZUN=1+&&$&&*4H]^^^`enhb^eoyyyyyyyyyyyyyi_TX_ecc`YTNUcy!!!!!!!!!!!!!!!!!!!!!!!!!!!!!!!!!!!!!!!!!!!!!!!!!!!!!!!!!!",
"!!!!!!!!!!!!!!!!!!!!!!!!!!!!!!!!!!!!!!!!!!!!!!!!!!!!!!!!!!!!!!!!!!!!!!!!!!!!!!!!!!!!!!!!!!!!!!!!!!!!!!!!!!!!!!!!!!kkZMBO]fa_WWUUNH=HOV]afegkWB5/+)/=PSUVWWW`blgb[QM>MZkkkkZQBMW[[[[ZWRWZ[[[g[WULC:+&&&*2@Sa_^Y`enihcjpyyyyyyyyyyyyyj`UY`eeehVJ;N`yy!!!!!!!!!!!!!!!!!!!!!!!!!!!!!!!!!!!!!!!!!!!!!!!!!!!!!!!!!",
"!!!!!!!!!!!!!!!!!!!!!!!!!!!!!!!!!!!!!!!!!!!!!!!!!!!!!!!!!!!!!!!!!!!!!!!!!!!!!!!!!!!!!!!!!!!!!!!!!!!!!!!!!!!!!!!!!!ZZWPIS]ff_YYYXN@7=HOV_ffeg^RH:1+/5=DNUVXY`glhbbZQMQZ[[ggZRGMW[[[[ZWRWZ[[[[ZWSLD=.)&).:HT`_^Y`enjhejqyyyyi^SPPOLKIC=9JXjjnn`VNYhyy!!!!!!!!!!!!!!!!!!!!!!!!!!!!!!!!!!!!!!!!!!!!!!!!!!!!!!!!!",
"!!!!!!!!!!!!!!!!!!!!!!!!!!!!!!!!!!!!!!!!!!!!!!!!!!!!!!!!!!!!!!!!!!!!!!!!!!!!!!!!!!!!!!!!!!!!!!!!!!!!!!!!!!!!!!!!!!MMPOOV]ffa^^__N</4=HT]fffda]XK:////9DSUY^bhllgb[ZWWQQZ[g^RJRW[[[[ZWRWZ[[ZZWRRLIC0)&)2HOV__^]`ennjhnqyyyy^I210/.+****7Sqqqqne`eoyy!!!!!!!!!!!!!!!!!!!!!!!!!!!!!!!!!!!!!!!!!!!!!!!!!!!!!!!!!",
"!!!!!!!!!!!!!!!!!!!!!!!!!!!!!!!!!!!!!!!!!!!!!!!!!!!!!!!!!!!!!!!!!!!!!!!!!!!!!!!!!!!!!!!!!!!!!!!!!!!!!!!!!!!!!!!!!!BBIOT]fffa_aacN7+/7@O]mffffmmXH5/+)/=PUY`bhllhebbbZQGR^d^UMQZ[[ZZWQRW[g[ZWRRMLLI4*&+:SUY_^^]`ennnjouyyyyS2)&&&&&&&&&+Lyyyyyyyyyyy!!!!!!!!!!!!!!!!!!!!!!!!!!!!!!!!!!!!!!!!!!!!!!!!!!!!!!!!!",
"!!!!!!!!!!!!!!!!!!!!!!!!!!!!!!!!!!!!!!!!!!!!!!!!!!!!!!!!!!!!!!!!!!!!!!!!!!!!!!!!!!!!!!!!!!!!!!!!!!!!!!!!!!!!!!!!!!RRRTVVTTV]]_aeTC4:CHT_ffffffm]O@7.*.4?JT_bhlgb[[bbZWUW^bYUMQZ[[ZZWWQZ[g[WQRRMJC=1*&.=UX^`_^Y`enhc`eoypjcL4*)&&&&&&&&+?Y`hpnnjnopp!!!!!!!!!!!!!!!!!!!!!!!!!!!!!!!!!!!!!!!!!!!!!!!!!!!!!!!!!",
"!!!!!!!!!!!!!!!!!!!!!!!!!!!!!!!!!!!!!!!!!!!!!!!!!!!!!!!!!!!!!!!!!!!!!!!!!!!!!!!!!!!!!!!!!!!!!!!!!!!!!!!!!!!!!!!!!!ZZY]VOHHLT]_fe]OCHOV]_fffffff_VO?1*+.0=N^bhlg[ZZ[bb`````YUMQZ[[ZZZWWZ[g[WRRMMB=5/+)/@V]`d`^X_djc^U`jyj_UD7.*&&&&&&&)+3?NYhecadhjj!!!!!!!!!!!!!!!!!!!!!!!!!!!!!!!!!!!!!!!!!!!!!!!!!!!!!!!!!",
"!!!!!!!!!!!!!!!!!!!!!!!!!!!!!!!!!!!!!!!!!!!!!!!!!!!!!!!!!!!!!!!!!!!!!!!!!!!!!!!!!!!!!!!!!!!!!!!!!!!!!!!!!!!!!!!!!!kkb_]O@4@O]_fma]U]_fa__affffffa]H4+***2DY`glgZQWZ[bhlhb^WUMWZ[[ZZZZZZ[g[WRMMM@7/.+*1CY_chc^X_ci_UNYhydUD?:4+)&&&&&)++..:Na_^X^aee!!!!!!!!!!!!!!!!!!!!!!!!!!!!!!!!!!!!!!!!!!!!!!!!!!!!!!!!!",
"!!!!!!!!!!!!!!!!!!!!!!!!!!!!!!!!!!!!!!!!!!!!!!!!!!!!!!!!!!!!!!!!!!!!!!!!!!!!!!!!!!!!!!!!!!!!!!!!!!!!!!!!!!!!!!!!!!ll^N=70+4@HVfmff]_afa_]^_affffa_O@40.+1?MWblg[WZZZ[bgb`^WRMWZ[[ZZZZZ[[[ZWRMJB9/*+.0;LY^`c`^X_cjc_Ycnyi]PI?90+))&&)+1223CTd`_Y^`cej!!!!!!!!!!!!!!!!!!!!!!!!!!!!!!!!!!!!!!!!!!!!!!!!!!!!!!!!",
"!!!!!!!!!!!!!!!!!!!!!!!!!!!!!!!!!!!!!!!!!!!!!!!!!!!!!!!!!!!!!!!!!!!!!!!!!!!!!!!!!!!!!!!!!!!!!!!!!!!!!!!!!!!!!!!!!!ssU;+*))+4@O]mfffffa_]XX]]_afffaVOH;1+09BR^lg[ZZWWZZ[[^^WRMQZ[[ZZZZ[[[[ZWRLB=1+)+2=FPX^_`_]X_cjihhnqyncYPH<:42.*)+0<<==LXec_]^_`eny!!!!!!!!!!!!!!!!!!!!!!!!!!!!!!!!!!!!!!!!!!!!!!!!!!!!!!!",
"!!!!!!!!!!!!!!!!!!!!!!!!!!!!!!!!!!!!!!!!!!!!!!!!!!!!!!!!!!!!!!!!!!!!!!!!!!!!!!!!!!!!!!!!!!!!!!!!!!!!!!!!!!!!!!!!!!ssM-&&&&)+4HVmmmmmfa^YUUVV]_afffa_]H7./49JWlgbbZWQQWZZZZWRMQZ[[ZZZ[[[[[ZWRG?6.)&+9PTUXY^^^YX_djouyyyyqjdXL?CHH:.).9HIIIT_jd`^^__eoyy!!!!!!!!!!!!!!!!!!!!!!!!!!!!!!!!!!!!!!!!!!!!!!!!!!!!!!",
"!!!!!!!!!!!!!!!!!!!!!!!!!!!!!!!!!!!!!!!!!!!!!!!!!!!!!!!!!!!!!!!!!!!!!!!!!!!!!!!!!!!!!!!!!!!!!!!!!!!!!!!!!!!!!!!!!!||W;+))&))+:Pmmmffa_^^]YXVX]___aaaaTH::96?JRWZb[ZWWWWZZZWRMWZ[[ZZZ[[[[[ZWWM>90+*1CUVXXY^^^]Y`eoqvyyyyqjdXN@HHL:.)+2=??@P_ojecc`_cinn!!!!!!!!!!!!!!!!!!!!!!!!!!!!!!!!!!!!!!!!!!!!!!!!!!!!!!",
"!!!!!!!!!!!!!!!!!!!!!!!!!!!!!!!!!!!!!!!!!!!!!!!!!!!!!!!!!!!!!!!!!!!!!!!!!!!!!!!!!!!!!!!!!!!!!!!!!!!!!!!!!!!!!!!!!!{{`M80*&&&&0Lmjdda_Z_``^YVXXX]]_aff]VOH<47:=JU``[[ZZQWZZWWRWZ[[[Z[[[[[ZZWWMB9641?N^]]Y]]^^]]aiquvyyyyqjdYODHLO:.)+.459;N_qqonhc_`cee!!!!!!!!!!!!!!!!!!!!!!!!!!!!!!!!!!!!!!!!!!!!!!!!!!!!!!",
"!!!!!!!!!!!!!!!!!!!!!!!!!!!!!!!!!!!!!!!!!!!!!!!!!!!!!!!!!!!!!!!!!!!!!!!!!!!!!!!!!!!!!!!!!!!!!!!!!!!!!!!!!!!!!!!!!!yyh[Q>-)&&&+Cieb_^ZZ[bea^XVVUVX]_fffffT@10/.:M`bbg[ZQWZZZWWZ[[[[Z[[g[[ZZZZMB<=?COVc`^Y]]^^^^cjvyyyyyyqjd]PFKOP=.)*+./25J_yyyyoe_____!!!!!!!!!!!!!!!!!!!!!!!!!!!!!!!!!!!!!!!!!!!!!!!!!!!!!!",
"!!!!!!!!!!!!!!!!!!!!!!!!!!!!!!!!!!!!!!!!!!!!!!!!!!!!!!!!!!!!!!!!!!!!!!!!!!!!!!!!!!!!!!!!!!!!!!!!!!!!!!!!!!!!!!!!!!yylgZG6+)&&.IjhbbZWWZbic^XVVVVXX]_ffff]O@:2/4=JRYbb[ZZZZZZZ[[[[[Z[[g[ZZZZZQG=@DKPV_^]Y]^_^^^cnvyyyyyyqjd]SILOT@1*+.////<N_eoyoe`^YV]c!!!!!!!!!!!!!!!!!!!!!!!!!!!!!!!!!!!!!!!!!!!!!!!!!!!!!",
"!!!!!!!!!!!!!!!!!!!!!!!!!!!!!!!!!!!!!!!!!!!!!!!!!!!!!!!!!!!!!!!!!!!!!!!!!!!!!!!!!!!!!!!!!!!!!!!!!!!!!!!!!!!!!!!!!!~~rlgQ>2-*&0Ljigg[WRY`jc_VVVXVVVX]_affa]TH9/012@Rbbb[[[Z[[bbgg[[Z[[g[ZWZZZQG>BLPTVYYYX]^___^dnyyyyyyyqjd]SILPUH7.//0/.+1<JVeypia^VPXdy!!!!!!!!!!!!!!!!!!!!!!!!!!!!!!!!!!!!!!!!!!!!!!!!!!!!",
"!!!!!!!!!!!!!!!!!!!!!!!!!!!!!!!!!!!!!!!!!!!!!!!!!!!!!!!!!!!!!!!!!!!!!!!!!!!!!!!!!!!!!!!!!!!!!!!!!!!!!!!!!!!!!!!!!!~~|sl[Q>6-)5Pmlkk[WNVand_VXXYVVUVVX_fffffT?0.+)2Jbbggg[Z[ghggg[[Z[[g[ZWWZZQJ>GPVVVVVXX^_``__dnyyyyyyyqjd]SJNSVH=2211.+)+/5J_ypjc]SKXeyy!!!!!!!!!!!!!!!!!!!!!!!!!!!!!!!!!!!!!!!!!!!!!!!!!!!",
"!!!!!!!!!!!!!!!!!!!!!!!!!!!!!!!!!!!!!!!!!!!!!!!!!!!!!!!!!!!!!!!!!!!!!!!!!!!!!!!!!!!!!!!!!!!!!!!!!!!!!!!!!!!!!!!!!!|||ssgZM>6->Ullkk[WOXcojd`_^YXVUVVV^affff]L?4.*0=PW`ggb[gglggg[ZZZ[g[ZWWZZMB:@JSTUVVVX^`ddddjpyyyyyyyqjd]SJOT]H7++*))&&&)*9Uxqnj^PCTcyy!!!!!!!!!!!!!!!!!!!!!!!!!!!!!!!!!!!!!!!!!!!!!!!!!!!",
"!!!!!!!!!!!!!!!!!!!!!!!!!!!!!!!!!!!!!!!!!!!!!!!!!!!!!!!!!!!!!!!!!!!!!!!!!!!!!!!!!!!!!!!!!!!!!!!!!!!!!!!!!!!!!!!!!!|||||l[ZM>6GWllkk[WOXdqpnje`YXVUVVV]_fffmf]O?1*.4=LWggggglllgg[ZWZ[g[ZQWWZM>3;CLPTVVVV^cijjnpuyyyyyyyqjd]SJPV_H2))&&&&$&&&.Luqqp_N<O`yy!!!!!!!!!!!!!!!!!!!!!!!!!!!!!!!!!!!!!!!!!!!!!!!!!!!",
"!!!!!!!!!!!!!!!!!!!!!!!!!!!!!!!!!!!!!!!!!!!!!!!!!!!!!!!!!!!!!!!!!!!!!!!!!!!!!!!!!!!!!!!!!!!!!!!!!!!!!!!!!!!!!!!!!!ss|wyslkZQBQ[llkk[WO]evyyync]YXVVUUX^affmmffL7+..0?Rhhggglllgg[ZWZ[g[ZQWWZM<05=DLSVVVV_dnpuyyyyyyyyyyqjd]SJPXaH/&&&$#####$)@tuxy_K7K_yy!!!!!!!!!!!!!!!!!!!!!!!!!!!!!!!!!!!!!!!!!!!!!!!!!!!",
"!!!!!!!!!!!!!!!!!!!!!!!!!!!!!!!!!!!!!!!!!!!!!!!!!!!!!!!!!!!!!!!!!!!!!!!!!!!!!!!!!!!!!!!!!!!!!!!!!!!!!!!!!!!!!!!!!!bbipvsslgZRZglg[ZWUT_ivvyypic`_]YXV]_affffffTH941/9DRWZ[[gggbb[ZWZ[g[WRWWZM;/4=ILSVXXX^_acdeeehnqyyyyqjd]SJOTXH7.)&&&$#$&&+Iquvy_K7K_yyy!!!!!!!!!!!!!!!!!!!!!!!!!!!!!!!!!!!!!!!!!!!!!!!!!!",
"!!!!!!!!!!!!!!!!!!!!!!!!!!!!!!!!!!!!!!!!!!!!!!!!!!!!!!!!!!!!!!!!!!!!!!!!!!!!!!!!!!!!!!!!!!!!!!!!!!!!!!!!!!!!!!!!!!WWbiussslhbgll[WMPTVajuvyyuomhc`^]X^`daaaaff_VO@7.29?GMWZZ[[```^Z[[g[WRWWZJ9.3=KOSVXY]YXXXXYYYYcnyyyyqjd]SJLOPLC</)&&&&&&&0Optvy_K7K_yyyy!!!!!!!!!!!!!!!!!!!!!!!!!!!!!!!!!!!!!!!!!!!!!!!!!",
"!!!!!!!!!!!!!!!!!!!!!!!!!!!!!!!!!!!!!!!!!!!!!!!!!!!!!!!!!!!!!!!!!!!!!!!!!!!!!!!!!!!!!!!!!!!!!!!!!!!!!!!!!!!!!!!!!!MMWbuvwy{|ssslZM=IS^dmuvyyyyvojda^Y_aea^X_fffffO;..//9BQQWZZ^_^__`[g[WRUWZG6+2=LPTVX^_XTNNNNNNNYhyyyyqjd]SJJKKNPT=.&&&&&)+:Totvy_K7K_yyyyy!!!!!!!!!!!!!!!!!!!!!!!!!!!!!!!!!!!!!!!!!!!!!!!!",
"!!!!!!!!!!!!!!!!!!!!!!!!!!!!!!!!!!!!!!!!!!!!!!!!!!!!!!!!!!!!!!!!!!!!!!!!!!!!!!!!!!!!!!!!!!!!!!!!!!!!!!!!!!!!!!!!!!!M^ivvvvwwwssl[M?EOV_ennnjnntmjfa^X]^_^]Y^_ffffVH:72/26<BMWW_cbbbbgg[WRUWZB2*0?PSUVUTSTVYTNEEEEUdyyyyqjd_XSTUVVVVC2***)+.1CXtuvy`L9L`yyyyy!!!!!!!!!!!!!!!!!!!!!!!!!!!!!!!!!!!!!!!!!!!!!!!!",
"!!!!!!!!!!!!!!!!!!!!!!!!!!!!!!!!!!!!!!!!!!!!!!!!!!!!!!!!!!!!!!!!!!!!!!!!!!!!!!!!!!!!!!!!!!!!!!!!!!!!!!!!!!!!!!!!!!!!bowvuuuvwssl[M?DLSX`hec`dfmmfff^XVXVXXY]^_aaf]TO@7//..6BRX`hhhhggg[WRUWZB/)/?UUVVPLCP^hYN????Pcyyyyqjda_]_cea^VK;01125:=O`vvyy`N;N`yyyyy!!!!!!!!!!!!!!!!!!!!!!!!!!!!!!!!!!!!!!!!!!!!!!!!",
"!!!!!!!!!!!!!!!!!!!!!!!!!!!!!!!!!!!!!!!!!!!!!!!!!!!!!!!!!!!!!!!!!!!!!!!!!!!!!!!!!!!!!!!!!!!!!!!!!!!!!!!!!!!!!!!!!!!!!yyvuqqvywsl[P@BJLS]c_]V]afffff]VUTSUV]]YY]_afffO=/+))+9NVannnllgg[WRUWZ>-&.?YXXVNC9L`y`L9999L`yyyyqjddddjqyncYPE=@CHILLXhyyyyaP=Payyyyy!!!!!!!!!!!!!!!!!!!!!!!!!!!!!!!!!!!!!!!!!!!!!!!!",
"!!!!!!!!!!!!!!!!!!!!!!!!!!!!!!!!!!!!!!!!!!!!!!!!!!!!!!!!!!!!!!!!!!!!!!!!!!!!!!!!!!!!!!!!!!!!!!!!!!!!!!!!!!!!!!!!!!!!!!yvuquvywss`P?DJLSX__^^_ffffmff_]]X]____^__aaaaTH?7/+/4<IT`eirllk[WRUWZB0)0CXXXVNC;N`y^F2222F^yyyyqjdeijoqyj`VN@9;?CCDEUdyyyyaO=Oayyyyy!!!!!!!!!!!!!!!!!!!!!!!!!!!!!!!!!!!!!!!!!!!!!!!!",
"!!!!!!!!!!!!!!!!!!!!!!!!!!!!!!!!!!!!!!!!!!!!!!!!!!!!!!!!!!!!!!!!!!!!!!!!!!!!!!!!!!!!!!!!!!!!!!!!!!!!!!!!!!!!!!!!!!!!!!!vuuvyy{{|`R?DJNSUY^`cdfffmmmfffffffffaa______]VTH=210/9FU_hqrllbZRQWWB3+3DXXXVOE=Pay]C////C]yyyyqjdinqqvyj_UJ=37:=???Rcyyyy`N;N`yyyyy!!!!!!!!!!!!!!!!!!!!!!!!!!!!!!!!!!!!!!!!!!!!!!!!",
"!!!!!!!!!!!!!!!!!!!!!!!!!!!!!!!!!!!!!!!!!!!!!!!!!!!!!!!!!!!!!!!!!!!!!!!!!!!!!!!!!!!!!!!!!!!!!!!!!!!!!!!!!!!!!!!!!!!!!!!!vvyyy~~{bP?CJOPTV^aijjffmzzzzmmmmffffca_^^]]_ff]O@4.).:KVdvurrbZRRWWG9/9IXXVVPF?PcyX=++++=Xyyyyqjdjqyyyyi_SD:025::::N`yyyy`N:N`yyyyy!!!!!!!!!!!!!!!!!!!!!!!!!!!!!!!!!!!!!!!!!!!!!!!!",
"!!!!!!!!!!!!!!!!!!!!!!!!!!!!!!!!!!!!!!!!!!!!!!!!!!!!!!!!!!!!!!!!!!!!!!!!!!!!!!!!!!!!!!!!!!!!!!!!!!!!!!!!!!!!!!!!!!!!!!!!!vyyy~{{bUBJLPTX^`ejda]afzzzzmmmfmmfffa_]^__aff]TO@4.039IVehjlbZUWWZM?4@NYYXXSLCTcyaP====Payyyyqojoqyqje_XSC9/17;?DLXeyyyycUEUdyyyyy!!!!!!!!!!!!!!!!!!!!!!!!!!!!!!!!!!!!!!!!!!!!!!!!",
"!!!!!!!!!!!!!!!!!!!!!!!!!!!!!!!!!!!!!!!!!!!!!!!!!!!!!!!!!!!!!!!!!!!!!!!!!!!!!!!!!!!!!!!!!!!!!!!!!!!!!!!!!!!!!!!!!!!!!!!!!!yyy{{|eWLNPSV^beincXO]fzzzzmmfmmmfffa_]^_aa__]]]O@520.9K]`djb^WZZ[QG=JS^]YXTNJVeyjaXXXXajyyyyvqqqvyj`VUTSC7.17<FS^dnyyyyh^S^iyyyyy!!!!!!!!!!!!!!!!!!!!!!!!!!!!!!!!!!!!!!!!!!!!!!!!",
"!!!!!!!!!!!!!!!!!!!!!!!!!!!!!!!!!!!!!!!!!!!!!!!!!!!!!!!!!!!!!!!!!!!!!!!!!!!!!!!!!!!!!!!!!!!!!!!!!!!!!!!!!!!!!!!!!!!!!!!!!!!yy{wsh^RSST]bjnno_SCTczzzztmfmmzmffa^X^afa^X_ff]OC4.).<PV_ib[ZZ[[WMGPV`^]XUSNYhyyyyyyyyyyyyyyyyyyyeVJLNPC4.17=N_pqvyyyvnd_enyyyyy!!!!!!!!!!!!!!!!!!!!!!!!!!!!!!!!!!!!!!!!!!!!!!!!",
"!!!!!!!!!!!!!!!!!!!!!!!!!!!!!!!!!!!!!!!!!!!!!!!!!!!!!!!!!!!!!!!!!!!!!!!!!!!!!!!!!!!!!!!!!!!!!!!!!!!!!!!!!!!!!!!!!!!!!!!!!!!yy~{wh_UUUVY[[[ZQQA>MW[hoztommmzmmff_X]_a_]V]af_VPH<27:?ELTUWWZ[[ZWRUW^^``^XT^epquyyyyyyyyyyvqqnie^SJLNPC4.17?JT_enyyyvpjejqyyyyy!!!!!!!!!!!!!!!!!!!!!!!!!!!!!!!!!!!!!!!!!!!!!!!!",
"!!!!!!!!!!!!!!!!!!!!!!!!!!!!!!!!!!!!!!!!!!!!!!!!!!!!!!!!!!!!!!!!!!!!!!!!!!!!!!!!!!!!!!!!!!!!!!!!!!!!!!!!!!!!!!!!!!!!!!!!!!!yy~~{jbWWXXWZZQAAAAAAAQ[h}vuttzmmmmf_X]]_]VTX_ffa_VTL@915:?FMWZZ[[ZZZWX_cjc_Y_cjnqvvyyyyyyyyqojc^VSNJLNP@4+19@DJNYeyyvvqpnquyyyyy!!!!!!!!!!!!!!!!!!!!!!!!!!!!!!!!!!!!!!!!!!!!!!!!",
"!!!!!!!!!!!!!!!!!!!!!!!!!!!!!!!!!!!!!!!!!!!!!!!!!!!!!!!!!!!!!!!!!!!!!!!!!!!!!!!!!!!!!!!!!!!!!!!!!!!!!!!!!!!!!!!!!!!!!!!!!!!yyyyynbZ^^]ZQQA8,,8AAAAQgyyyyzzzmzzfaXX]]VUSV]affmmmfO7*+./9GQWZ[[gg[WU_hune``ccinuvvyyyyyyypjd]SJJJJLNP@4+19C@?=P`yyvvyyyyyyyyyy!!!!!!!!!!!!!!!!!!!!!!!!!!!!!!!!!!!!!!!!!!!!!!!!",
"!!!!!!!!!!!!!!!!!!!!!!!!!!!!!!!!!!!!!!!!!!!!!!!!!!!!!!!!!!!!!!!!!!!!!!!!!!!!!!!!!!!!!!!!!!!!!!!!!!!!!!!!!!!!!!!!!!!!!!!!!!!!yyyyphb`ZZQAA,,'',,,,,AQglryttmmmmff]XUTSSSUX]afffffVH:40.4?MRQWZ[gZWPU^ccccccceijnoqqqqquuqnj_TJLOSTVXL=17?EC?=O`yyvvvyyvuqqqqoj!!!!!!!!!!!!!!!!!!!!!!!!!!!!!!!!!!!!!!!!!!!!!!!",
"!!!!!!!!!!!!!!!!!!!!!!!!!!!!!!!!!!!!!!!!!!!!!!!!!!!!!!!!!!!!!!!!!!!!!!!!!!!!!!!!!!!!!!!!!!!!!!!!!!!!!!!!!!!!!!!!!!!!!!!!!!!!!yyyqnhb[ZAA,,'%%%%'',8AZ[lytnjmmmff_VPKNPSTVV]^afffa]TC4+1:CJMRWZgZRJNSV^`ddccccdejnnnopqqqqqaUJOU]_`aTE:?CLD@;N`yyvvvvvqponnjiea!!!!!!!!!!!!!!!!!!!!!!!!!!!!!!!!!!!!!!!!!!!!!!",
"!!!!!!!!!!!!!!!!!!!!!!!!!!!!!!!!!!!!!!!!!!!!!!!!!!!!!!!!!!!!!!!!!!!!!!!!!!!!!!!!!!!!!!!!!!!!!!!!!!!!!!!!!!!!!!!!!!!!!!!!!!!!!!yyuqog[ZA,''%%$$$%'',8AZgyqjejmmfffVL@FNTTTTUVX_ffmmzT;+/4;@DKRZgWMCDIKT_hedc``_`dhijjnopqvyeVJS]deij^PCFLOI@:N`yyvvvuupnjihedcaa!!!!!!!!!!!!!!!!!!!!!!!!!!!!!!!!!!!!!!!!!!!!!",
"!!!!!!!!!!!!!!!!!!!!!!!!!!!!!!!!!!!!!!!!!!!!!!!!!!!!!!!!!!!!!!!!!!!!!!!!!!!!!!!!!!!!!!!!!!!!!!!!!!!!!!!!!!!!!!!!!!!!!!!!!!!!!!!yoggZQA,,''%%%''',,8AQZgnhc`dfmf_VPI@DJNLKJKKKS]ffmz]K9742:DNRWZMB9<?CLSY^_`_]XVVVXY^`cehij`VNTY`cce^UNPSUPNJUcqonijjjhecccaaaaaa!!!!!!!!!!!!!!!!!!!!!!!!!!!!!!!!!!!!!!!!!!!!",
"!!!!!!!!!!!!!!!!!!!!!!!!!!!!!!!!!!!!!!!!!!!!!!!!!!!!!!!!!!!!!!!!!!!!!!!!!!!!!!!!!!!!!!!!!!!!!!!!!!!!!!!!!!!!!!!!!!!!!!!!!!!!!!!!g[ZAA,,'%%''',,8AAAQZ[[b`_]_ad_VPLD@CCEC@?==<HT_ffmfXO@4.5CSRPMB9039=CINTX_YVSNJDILOTX___`]VSUX^__`^XVXY]YXV_enic``ac`_^^___`aaaa!!!!!!!!!!!!!!!!!!!!!!!!!!!!!!!!!!!!!!!!!!!",
"!!!!!!!!!!!!!!!!!!!!!!!!!!!!!!!!!!!!!!!!!!!!!!!!!!!!!!!!!!!!!!!!!!!!!!!!!!!!!!!!!!!!!!!!!!!!!!!!!!!!!!!!!!!!!!!!!!!!!!!!!!!!!!!!!QQA,,'%%%',,AAQQZ[[g[[^YXVY_aXPIDC????<95310<KYafmmmfL4*1@VPLC90+.19:=@KT^VSLC<5:=@IOUUUUUUUVXXYY]^_```acdehijc^VXY^YXVXXX^_aaaaa!!!!!!!!!!!!!!!!!!!!!!!!!!!!!!!!!!!!!!!!!!",
"!!!!!!!!!!!!!!!!!!!!!!!!!!!!!!!!!!!!!!!!!!!!!!!!!!!!!!!!!!!!!!!!!!!!!!!!!!!!!!!!!!!!!!!!!!!!!!!!!!!!!!!!!!!!!!!!!!!!!!!!!!!!!!!!!AA8,''%%',,8AQQQZZZZZWWXY^__`XSLD?:?FN@7//0037;IVfffmVH7@P^TK@1+&)+15;@FNSOKD<4/149=CIIIIIIIJLNOPSTTVUTTTUUX^_]VSTUVTTSTTUX_aaaaa!!!!!!!!!!!!!!!!!!!!!!!!!!!!!!!!!!!!!!!!!!",
"!!!!!!!!!!!!!!!!!!!!!!!!!!!!!!!!!!!!!!!!!!!!!!!!!!!!!!!!!!!!!!!!!!!!!!!!!!!!!!!!!!!!!!!!!!!!!!!!!!!!!!!!!!!!!!!!!!!!!!!!!!!!!!!!!AA,,''''',8AQZZWWWWWUUTX^ca`_YTPE=4@N]F5++/0.+*4KfffmaXPU]aUJ=.)&&)+19CCEIDC@5/*+/147:::::::<=?CEJKLNLIEDDDKPUTSPPPPPONOPSV^aaaaa!!!!!!!!!!!!!!!!!!!!!!!!!!!!!!!!!!!!!!!!!!",
"!!!!!!!!!!!!!!!!!!!!!!!!!!!!!!!!!!!!!!!!!!!!!!!!!!!!!!!!!!!!!!!!!!!!!!!!!!!!!!!!!!!!!!!!!!!!!!!!!!!!!!!!!!!!!!!!!!!!!!!!!!!!!!!!!,,,'%''',8AQZ[[WURPOOPPV`jea_YVTE:0@UjN3)*.0*&&*=^ffmmmnmieVJ:*&$&&*.7C@?=<;:0+))++./00000001349<?@CC?<9975<CLLLLLLKKJJLLNT]aaaaa!!!!!!!!!!!!!!!!!!!!!!!!!!!!!!!!!!!!!!!!!!",
"!!!!!!!!!!!!!!!!!!!!!!!!!!!!!!!!!!!!!!!!!!!!!!!!!!!!!!!!!!!!!!!!!!!!!!!!!!!!!!!!!!!!!!!!!!!!!!!!!!!!!!!!!!!!!!!!!!!!!!!!!!!!!!!!!,,,'%'',,AAQZ[ZWRRPPPRSYcnjec_YUNC<@FN?1++/0+)&+Ccfffmmmjie^SI5+&&))*+014930.*)&&)+++........./01233410//..049::::99:<?@CELPTTTTT!!!!!!!!!!!!!!!!!!!!!!!!!!!!!!!!!!!!!!!!!!",
"!!!!!!!!!!!!!!!!!!!!!!!!!!!!!!!!!!!!!!!!!!!!!!!!!!!!!!!!!!!!!!!!!!!!!!!!!!!!!!!!!!!!!!!!!!!!!!!!!!!!!!!!!!!!!!!!!!!!!!!!!!!!!!!!!,,''%',,8AQZZ[ZUPPPPSST^eqpnjc^VSOLC:310//00+)&0Kiiffffjjiha^VL?5.)&&))*.2.+)&&&&&)**++++++++++++++++++****++......./159<?@CEEEEE!!!!!!!!!!!!!!!!!!!!!!!!!!!!!!!!!!!!!!!!!!",
"!!!!!!!!!!!!!!!!!!!!!!!!!!!!!!!!!!!!!!!!!!!!!!!!!!!!!!!!!!!!!!!!!!!!!!!!!!!!!!!!!!!!!!!!!!!!!!!!!!!!!!!!!!!!!!!!!!!!!!!!!!!!!!!!!,,''%',8AQZZZ[WSOPPPSUV`jwvuqh`XXYYC0)+/5310.*)4Pomffffffeheeda_]<*&&&&&*/*)&&&$&&)))))))))))))))))))))&&&&)))))))))*+/1499999999!!!!!!!!!!!!!!!!!!!!!!!!!!!!!!!!!!!!!!!!!!",
"!!!!!!!!!!!!!!!!!!!!!!!!!!!!!!!!!!!!!!!!!!!!!!!!!!!!!!!!!!!!!!!!!!!!!!!!!!!!!!!!!!!!!!!!!!!!!!!!!!!!!!!!!!!!!!!!!!!!!!!!!!!!!!!!!,,,''',8AQZZZZWSPSSTTUU^cnoprne`^XUI;0135310.*)4Pomjffa_aaaccda`^J7+++*.4<3.*))&)*+............+++++++++++++++++++++05=?CEEEEC=9!!!!!!!!!!!!!!!!!!!!!!!!!!!!!!!!!!!!!!!!!!!",
"!!!!!!!!!!!!!!!!!!!!!!!!!!!!!!!!!!!!!!!!!!!!!!!!!!!!!!!!!!!!!!!!!!!!!!!!!!!!!!!!!!!!!!!!!!!!!!!!!!!!!!!!!!!!!!!!!!!!!!!!!!!!!!!!!,,,''',,AQ[ZWWUSSTVXVUTY`eiosojh`XRNJC?:5310.*)4Ponjja^VX]^_acc``VNDC@@DJND=72/./15777799977777544432222222233334457=EOPSTTTTPJ!!!!!!!!!!!!!!!!!!!!!!!!!!!!!!!!!!!!!!!!!!!!",
"!!!!!!!!!!!!!!!!!!!!!!!!!!!!!!!!!!!!!!!!!!!!!!!!!!!!!!!!!!!!!!!!!!!!!!!!!!!!!!!!!!!!!!!!!!!!!!!!!!!!!!!!!!!!!!!!!!!!!!!!!!!!!!!!!88,,',,,AQ[ZWRSSSUX^XUSVY_cjssssbWMRV]N@5310.*)4PonjjaXSTUV]`cccaceiedca``YTNKFCCCDDDDEEFEEDDDDCCCC@@@@@@@@@@@@@@CCEPXaaaaaaaa!!!!!!!!!!!!!!!!!!!!!!!!!!!!!!!!!!!!!!!!!!!!!",
"!!!!!!!!!!!!!!!!!!!!!!!!!!!!!!!!!!!!!!!!!!!!!!!!!!!!!!!!!!!!!!!!!!!!!!!!!!!!!!!!!!!!!!!!!!!!!!!!!!!!!!!!!!!!!!!!!!!!!!!!!!!!!!!!,,,,,,,,8AQZWWUUVXXYYUPLPTX^bhllsh`WY^_RB9531.*)5Sqonjd`^YXVVVVXX]`djhedcca_XUSPLNNNOOOPPSPPPPOOOOONNNNLLLLLLLLNNNOPSX`ec_Y_chh!!!!!!!!!!!!!!!!!!!!!!!!!!!!!!!!!!!!!!!!!!!!!",
"!!!!!!!!!!!!!!!!!!!!!!!!!!!!!!!!!!!!!!!!!!!!!!!!!!!!!!!!!!!!!!!!!!!!!!!!!!!!!!!!!!!!!!!!!!!!!!!!!!!!!!!!!!!!!!!!!!!!!!!!!!!!!!!'',,,,88AAAQWWUUX^`^]XSLEKNSV^bglllggbbbRG;953.+)5Svqnihee`YTSNKNPT]cjiihedca_^YVUUVVVXXXY]]YYXXXXXYXXXXVVVVVVVVVXX]^_cencYS]dpp!!!!!!!!!!!!!!!!!!!!!!!!!!!!!!!!!!!!!!!!!!!!!",
"!!!!!!!!!!!!!!!!!!!!!!!!!!!!!!!!!!!!!!!!!!!!!!!!!!!!!!!!!!!!!!!!!!!!!!!!!!!!!!!!!!!!!!!!!!!!!!!!!!!!!!!!!!!!!!!!!!!!!!!!!!!!!!'''((,8AAAAAMPRUX^ae`^VOF?CILRUW[gllsslggWJ>;96/+)6Tyqninoqe^TLD=CINV`jjjjieeeddc`___```acdeeddccacdeeddccaaaaaaaccdeijnpqcVKXeyy!!!!!!!!!!!!!!!!!!!!!!!!!!!!!!!!!!!!!!!!!!!!!",
"!!!!!!!!!!!!!!!!!!!!!!!!!!!!!!!!!!!!!!!!!!!!!!!!!!!!!!!!!!!!!!!!!!!!!!!!!!!!!!!!!!!!!!!!!!!!!!!!!!!!!!!!!!!!!!!!!!!!!!!!!!!!!%%''(-8AAAA8AJPUX^`ch`XPKC=?CDKMRWZ[gglgggZQMB;30-+=Vspnijnoh`]VSOSVX`eoooonnjjjjieeeeeehhijjjjjiiheedccc`^Y_chhhhijjnnoqquh]KXey!!!!!!!!!!!!!!!!!!!!!!!!!!!!!!!!!!!!!!!!!!!!!!",
"!!!!!!!!!!!!!!!!!!!!!!!!!!!!!!!!!!!!!!!!!!!!!!!!!!!!!!!!!!!!!!!!!!!!!!!!!!!!!!!!!!!!!!!!!!!!!!!!!!!!!!!!!!!!!!!!!!!!!!!!!%$$$%%%',88AQA>6>GRU]`cej_ULE@<=??BGJMQQZZ[ggg[[ZM>1111BWrlnijjnidaa``cdeiossrrrqqqqqponoooooppqqqqqponjeccca^VS]dppppppqqquuvyoc!!!!!!!!!!!!!!!!!!!!!!!!!!!!!!!!!!!!!!!!!!!!!!!!!!",
"!!!!!!!!!!!!!!!!!!!!!!!!!!!!!!!!!!!!!!!!!!!!!!!!!!!!!!!!!!!!!!!!!!!!!!!!!!!!!!!!!!!!!!!!!!!!!!!!!!!!!!!!!!!!!!!!!!!!!!!!%%$$$$%%',>AAQA809DSX_ehij_SD@=:::9<?>BBBMQZ[[kkkkQ>068>MZlljjiiiijjnqvvyyw||||||~yyyyyyyyyyyyyyyyyyyyyvnhaa``XSKXeyyyyyyyyyyyyyy!!!!!!!!!!!!!!!!!!!!!!!!!!!!!!!!!!!!!!!!!!!!!!!!!!!",
"!!!!!!!!!!!!!!!!!!!!!!!!!!!!!!!!!!!!!!!!!!!!!!!!!!!!!!!!!!!!!!!!!!!!!!!!!!!!!!!!!!!!!!!!!!!!!!!!!!!!!!!!!!!!!!!!!!!!!!!$$$$$$$%'(,>AAQB;1<IUY`dccaVK?=:997599;>>>GMQQQQZZ[QA>>AMQ[llloolllllruwwww{|||||{~yyyyyyyyyyyyyyyyyyyyvvpnheee^TLXeyyvqqqqvyyyyyyy!!!!!!!!!!!!!!!!!!!!!!!!!!!!!!!!!!!!!!!!!!!!!!!!!!",
"!!!!!!!!!!!!!!!!!!!!!!!!!!!!!!!!!!!!!!!!!!!!!!!!!!!!!!!!!!!!!!!!!!!!!!!!!!!!!!!!!!!!!!!!!!!!!!!!!!!!!!!!!!!!!!!!!!!!!!##$$$$$%',,8>>GMB<4?LX^`c`^XNC:9775434469;>>BGGAAMQQQQQQZZ[gkllsrlllllssww|{{{{{~~~yyyyyyyyyyyyyyyyyyvuvvyupnnnn`ULXeyvqooooqvyyyyyyy!!!!!!!!!!!!!!!!!!!!!!!!!!!!!!!!!!!!!!!!!!!!!!!!!",
"!!!!!!!!!!!!!!!!!!!!!!!!!!!!!!!!!!!!!!!!!!!!!!!!!!!!!!!!!!!!!!!!!!!!!!!!!!!!!!!!!!!!!!!!!!!!!!!!!!!!!!!!!!!!!!!!!!!!!####$$##%',888>BLC=9CP^_`c^VPE<444431110036;>>>>88>>AQZ[gkkkkkls||slssss|||||{~yyyyyyyyyyyyyyyyyyyyyyyuquvyyvvvuudVLXeyqojjjjoqyyyyyyyy!!!!!!!!!!!!!!!!!!!!!!!!!!!!!!!!!!!!!!!!!!!!!!!!",
"!!!!!!!!!!!!!!!!!!!!!!!!!!!!!!!!!!!!!!!!!!!!!!!!!!!!!!!!!!!!!!!!!!!!!!!!!!!!!!!!!!!!!!!!!!!!!!!!!!!!!!!!!!!!!!!!!!!!#########%',8>BGJLD?:CP]^_`YSLC;310///.///13669;8888>>BMQQZZZZZ[horssss|||||www~yyyyyyyyyyyyyyyyyyyvrrrrsrrolllllle`X`hqpnjnnoqvyyyyyyyyy!!!!!!!!!!!!!!!!!!!!!!!!!!!!!!!!!!!!!!!!!!!!!!!",
"!!!!!!!!!!!!!!!!!!!!!!!!!!!!!!!!!!!!!!!!!!!!!!!!!!!!!!!!!!!!!!!!!!!!!!!!!!!!!!!!!!!!!!!!!!!!!!!!!!!!!!!!!!!!!!!!!!!%#########%',8AMMNLD?:DPY^^_VPI@:30.++++.../003696666668>>BGMMMMW`hnr|||||{~wwvwyyyyyyyyyyyyyyyyyyyyrlgllsllggggggggeehjnnnnoqqvyyyyyyyyyyy!!!!!!!!!!!!!!!!!!!!!!!!!!!!!!!!!!!!!!!!!!!!!!",
"!!!!!!!!!!!!!!!!!!!!!!!!!!!!!!!!!!!!!!!!!!!!!!!!!!!!!!!!!!!!!!!!!!!!!!!!!!!!!!!!!!!!!!!!!!!!!!!!!!!!!!!!!!!!!!!!!!%%#########%',8AYUPLE@<DPXY^^TNC=92/+)***++....026664210012668>>BMWbhpyyyyyyyyvuvyyyyyyyyyyyyyyyyyyyyrg[glslg[[[[[[[glyqneinoqvyyyyyyyyyyyyyy!!!!!!!!!!!!!!!!!!!!!!!!!!!!!!!!!!!!!!!!!!!!!",
"!!!!!!!!!!!!!!!!!!!!!!!!!!!!!!!!!!!!!!!!!!!!!!!!!!!!!!!!!!!!!!!!!!!!!!!!!!!!!!!!!!!!!!!!!!!!!!!!!!!!!!!!!!!!!!!!!$$$#########%',8AYUPLE@=EPYYYYTNF?91.+)****+++++./12232100002669;>GMV^dnoquuuuuuuvyyyyvyyyyyyyyyyyyyyyrlgklllkgg[[[[[gryphbejpqqupjhhhhnqyyyyy!!!!!!!!!!!!!!!!!!!!!!!!!!!!!!!!!!!!!!!!!!!!!",
"!!!!!!!!!!!!!!!!!!!!!!!!!!!!!!!!!!!!!!!!!!!!!!!!!!!!!!!!!!!!!!!!!!!!!!!!!!!!!!!!!!!!!!!!!!!!!!!!!!!!!!!!!!!!!!!!%$$$########$%',8AYTPKE@=FP]YXXTNJ@91.+)*******+++../0210000001146:?DLS]cejoppqqquvyyyvuvyyyyyyyyyyyyyysllllllkkgg[[gglryoe`bjqqpph`YYYYcnyyyyy!!!!!!!!!!!!!!!!!!!!!!!!!!!!!!!!!!!!!!!!!!!!!",
"!!!!!!!!!!!!!!!!!!!!!!!!!!!!!!!!!!!!!!!!!!!!!!!!!!!!!!!!!!!!!!!!!!!!!!!!!!!!!!!!!!!!!!!!!!!!!!!!!!!!!!!!!!!!!!!%%$$#########$%',,AYTPKE@=IS^YVUSOLC91.+)***))))*++++./10000/////0359=?JS]`ejnnnpquvyyvuquvyyyyyyyyyyyyy|ssllllkkkg[gkklsynbZbiqponaVNNNNYhyyyyy!!!!!!!!!!!!!!!!!!!!!!!!!!!!!!!!!!!!!!!!!!!!!",
"!!!!!!!!!!!!!!!!!!!!!!!!!!!!!!!!!!!!!!!!!!!!!!!!!!!!!!!!!!!!!!!!!!!!!!!!!!!!!!!!!!!!!!!!!!!!!!!!!!!!!!!!!!!!!!%%%$#########$$%',,AVSNJD@=IS^]XXTPL@91.+*))))))))***++.//000/////01359:@IPTX_`adeijnoqpoopqvuuuvyyyyyyyy||sslklllllgkllswyoe^``c`_^VSNNNNV_hnqyy!!!!!!!!!!!!!!!!!!!!!!!!!!!!!!!!!!!!!!!!!!!!!",
"!!!!!!!!!!!!!!!!!!!!!!!!!!!!!!!!!!!!!!!!!!!!!!!!!!!!!!!!!!!!!!!!!!!!!!!!!!!!!!!!!!!!!!!!!!!!!!!!!!!!!!!'((((''%%$$#########$$%',,ASOLIC@=IS^]]YUPL@90.+*)))))&))))**+++./00////./011239?DJNSUX^_`cehjjjjnpqqppqvyyyyyyy~||slklssssrrssw{yoh`^YVTPNNNNNNNSVYcnyy!!!!!!!!!!!!!!!!!!!!!!!!!!!!!!!!!!!!!!!!!!!!!",
"!!!!!!!!!!!!!!!!!!!!!!!!!!!!!!!!!!!!!!!!!!!!!!!!!!!!!!!!!!!!!!!!!!!!!!!!!!!!!!!!!!!!!!!!!!!!!!!!!!!!!!''((((''%$$##########$$%',,>OLKFC@=IS^^^^VSL@70.+*))))&&&))))***++/10///..//////17:=@DKPTVY^`adehijnonnnpuyyyyyyyyyyrlglryyyyyyyyyypicYSKE@=CINNNNNNNYhyy!!!!!!!!!!!!!!!!!!!!!!!!!!!!!!!!!!!!!!!!!!!!!",
"!!!!!!!!!!!!!!!!!!!!!!!!!!!!!!!!!!!!!!!!!!!!!!!!!!!!!!!!!!!!!!!!!!!!!!!!!!!!!!!!!!!!!!!!!!!!!!!!!!!!!'''''(''%%$$##########$$%',,>OLJFC@?KT`___VSL@70.+*)))))&&)))))***++..//.....////01479;@ELOSTUVXY^``acccdeijnopqvyyyysrlrsyyyyyyyyvujaYSKC?=;?CFJLNNNNV_hjn!!!!!!!!!!!!!!!!!!!!!!!!!!!!!!!!!!!!!!!!!!!!",
"!!!!!!!!!!!!!!!!!!!!!!!!!!!!!!!!!!!!!!!!!!!!!!!!!!!!!!!!!!!!!!!!!!!!!!!!!!!!!!!!!!!!!!!!!!!!!!!!!!!!(''%''''%%$$$$#########$$%',,>OLJECC@LXca`_XSL@7/.+**)))))))))))))**+++./..++...////01139=CEJLLLLOSVVVXY^^_`acejnqyyyywsrswyyyyyyyvqocYRKC;::9;=@DJNNNNSVY`jyyyy!!!!!!!!!!!!!!!!!!!!!!!!!!!!!!!!!!!!!!!!",
"!!!!!!!!!!!!!!!!!!!!!!!!!!!!!!!!!!!!!!!!!!!!!!!!!!!!!!!!!!!!!!!!!!!!!!!!!!!!!!!!!!!!!!!!!!!!!!!!!!!(('%%%','%$$$$$$#######$$$%',,>OLJECC@N]hdc`XSK?7/.+****)))))))))))****+./.++++.../..+...14:=@C@@?CJNNNNPTVVVX^`cipyyyyyyyyyyyyyyyyuoj_TI@:445579:@FNNNNNNNYhyyyyy!!!!!!!!!!!!!!!!!!!!!!!!!!!!!!!!!!!!!!!",
"!!!!!!!!!!!!!!!!!!!!!!!!!!!!!!!!!!!!!!!!!!!!!!!!!!!!!!!!!!!!!!!!!!!!!!!!!!!!!!!!!!!!!!!!!!!!!!!!!!%%%'''''''%$$$$$$$$######$$%',,ASNJCCCCP^jedaYSJ?5//...++*))))))))))*****+++++++..//....++.0147::99<?CCCCINSSTTVY_chnpquvyyyyyyyyvuqje`VNC=945779:;@FNNNNNNNV_hnqyy!!!!!!!!!!!!!!!!!!!!!!!!!!!!!!!!!!!!!!!",
"!!!!!!!!!!!!!!!!!!!!!!!!!!!!!!!!!!!!!!!!!!!!!!!!!!!!!!!!!!!!!!!!!!!!!!!!!!!!!!!!!!!!!!!!!!!!!!!!!%%$$%',,,'%%$$$$$$$$$#####$$%',,AVPI@CCES_njed]SJ=4/0241/.+)))))))****)))******+./////...++++..0112359::::@ENNOPSTV^`dinqqvyyyyyyyqpnd_VND=:74779:;<@INNNNNNNSVYcnyy!!!!!!!!!!!!!!!!!!!!!!!!!!!!!!!!!!!!!!!",
"!!!!!!!!!!!!!!!!!!!!!!!!!!!!!!!!!!!!!!!!!!!!!!!!!!!!!!!!!!!!!!!!!!!!!!!!!!!!!!!!!!!!!!!!!!!!!!!!%%$$#%(A8,'%$$$$$$$$$$$####$$%',,AYPI?CDJU`onie^SI=4.19?93/+*)))*******)))))))**+.///////.+*****++.//0111229@IJKLNPSUY_chnpuyyyyyyvpnh_UND?975479:;<=CINNNNNNNNNNYhyy!!!!!!!!!!!!!!!!!!!!!!!!!!!!!!!!!!!!!!!",
"!!!!!!!!!!!!!!!!!!!!!!!!!!!!!!!!!!!!!!!!!!!!!!!!!!!!!!!!!!!!!!!!!!!!!!!!!!!!!!!!!!!!!!!!!!!!!!!!%%$$#%(>8,'%$$$$$$$%$$$$##$$$%',,AYPI?CEJU`njhe^SI?717?I=4.+*)))******))))))))))*++./////..+++++++...//01117;@CFKLNNSX^cipquyyyyuqojd`XSKC=9999:<=??@DJNLLLLNNNNNV_hh!!!!!!!!!!!!!!!!!!!!!!!!!!!!!!!!!!!!!!!",
"!!!!!!!!!!!!!!!!!!!!!!!!!!!!!!!!!!!!!!!!!!!!!!!!!!!!!!!!!!!!!!!!!!!!!!!!!!!!!!!!!!!!!!!!!!!!!!!!$$$$$%(8,''%$$$$$$$%$$$$$#$$$%',,AYPI?CEKT`njed]SF@:4=EP@4++))))*****)))))))))))**++.0000//...+++++++..//01379=CJJKKPV^cjquvyyyyqnjc_YTNFC=9::;=?CCCDFKLLJIKLNNNNSVYY!!!!!!!!!!!!!!!!!!!!!!!!!!!!!!!!!!!!!!!",
"!!!!!!!!!!!!!!!!!!!!!!!!!!!!!!!!!!!!!!!!!!!!!!!!!!!!!!!!!!!!!!!!!!!!!!!!!!!!!!!!!!!!!!!!!!!!!!!!$$$$$%(8,'%%$$$$$$%%%$$$$$$$$%'',AYPI?CEKT`jiecYPFC=:CNXE4+*))))****))))))))))))))*+.1111100//...++++++.//01129@IFFENT^cjvvyyyvvojd_XTOJC@<9:=?@CEFIJKKLJFDILNNNNNNNN!!!!!!!!!!!!!!!!!!!!!!!!!!!!!!!!!!!!!!!",
"!!!!!!!!!!!!!!!!!!!!!!!!!!!!!!!!!!!!!!!!!!!!!!!!!!!!!!!!!!!!!!!!!!!!!!!!!!!!!!!!!!!!!!!!!!!!!!!!$$$%%',8,'%%$$$$$$$%%%$$$$$$$%'',AYRI?CDJS^hdc`VPFC@=CLSC4+*))))))*****))))))))))))++//0110000////.....///01127:??@CINS]cnnnoopqjd`]VSNKEC?<=?@CEIJKKKKJFECJOTSPNNNNN!!!!!!!!!!!!!!!!!!!!!!!!!!!!!!!!!!!!!!!",
"!!!!!!!!!!!!!!!!!!!!!!!!!!!!!!!!!!!!!!!!!!!!!!!!!!!!!!!!!!!!!!!!!!!!!!!!!!!!!!!!!!!!!!!!!!!!!!!!$$$%'(,8,''%$$$##$$%%%%$$$$$$%'',AXRJ?CDFS]da_^UNEDCCEJL?4.+)))))))***+*)))))))))))*+.//00111111111000/////013457:<?CEJS]cdeeijne`]VTPNLJDC?@CCEIKLLLKJIECCLSYVSNNNNN!!!!!!!!!!!!!!!!!!!!!!!!!!!!!!!!!!!!!!!",
"!!!!!!!!!!!!!!!!!!!!!!!!!!!!!!!!!!!!!!!!!!!!!!!!!!!!!!!!!!!!!!!!!!!!!!!!!!!!!!!!!!!!!!!!!!!!!!!!$$%'--,8,''%%$$##$$%%%%%$$$$%%'',AXRJ@CCEPXa_^XSNEFFIFFE<3.+*))))))**+++*))))))))))*++./00111124475442100//01311037<=??JT^_``cejc^VTPNNLLIDCCDFJKLLNNLIECC@LV`YTNNNNN!!!!!!!!!!!!!!!!!!!!!!!!!!!!!!!!!!!!!!!",
"!!!!!!!!!!!!!!!!!!!!!!!!!!!!!!!!!!!!!!!!!!!!!!!!!!!!!!!!!!!!!!!!!!!!!!!!!!!!!!!!!!!!!!!!!!!!!!!$$$$'(-,,,''%%$$$#$$%%%'%%$%%%%',,AUPLDEIKSXa_^XSNEIJLJIE@;7/+)))))))**++**))))))))))*++.//001113454443211101232112479<?ENTVY^__`]VSPONNLLJFCEFJKLLLLLJECC@?ENVTSOSVY_d!!!!!!!!!!!!!!!!!!!!!!!!!!!!!!!!!!!!!!",
"!!!!!!!!!!!!!!!!!!!!!!!!!!!!!!!!!!!!!!!!!!!!!!!!!!!!!!!!!!!!!!!!!!!!!!!!!!!!!!!!!!!!!!!!!!!!!!%$$$$%((,,,''%%$$$#$$%%'('%%%%%'',,ASPLJLLNTY`_]XSLEJLNLJEDCC7.*)))))))***++*))))&))))**++.//00112344444433333343332114:=CFLPTXXVVTPNNNNNNLKIEFJKLLNLLKFC@?=<@ELNNPV_hjpy!!!!!!!!!!!!!!!!!!!!!!!!!!!!!!!!!!!!!",
"!!!!!!!!!!!!!!!!!!!!!!!!!!!!!!!!!!!!!!!!!!!!!!!!!!!!!!!!!!!!!!!!!!!!!!!!!!!!!!!!!!!!!!!!!!!!!%%%$$$%((,,,''%%$$$$$$%%'(('''''',,8ANNNNOPPV]`_]XSLEKNPNKEKNP?1**)))))))**+++)))&&&)))))*+..//01112344555557754444520.17=?@CJOUSPNLKIKLNNNNLKIJLLLNNLKID@?=;:<=@ELP^iyyyyy!!!!!!!!!!!!!!!!!!!!!!!!!!!!!!!!!!!!",
"!!!!!!!!!!!!!!!!!!!!!!!!!!!!!!!!!!!!!!!!!!!!!!!!!!!!!!!!!!!!!!!!!!!!!!!!!!!!!!!!!!!!!!!!!!!!!$$$$$%%((-8,,''%$$$$$$%%'((('''',,,8ASPPNPSTX_c`^XTOJLOSPNKLNN?1+**)))))))*+++*))))))))**++...//1122333433233344455742147:=@CINPPPPONNNNNNNNLKIJLLLLLKIEC@=<:9:;=@DJT^enqyy!!!!!!!!!!!!!!!!!!!!!!!!!!!!!!!!!!!!",
"!!!!!!!!!!!!!!!!!!!!!!!!!!!!!!!!!!!!!!!!!!!!!!!!!!!!!!!!!!!!!!!!!!!!!!!!!!!!!!!!!!!!!!!!!!!!!##$$$%'((-88,,'%%$$$$$%%(-(((,,,,,,AAVTPOPTU]`ea_YUPLOPTSPNNLL?3+++*))))))*++++**)))))**+++..../13333221111111145777777779<@DIKLNPSSSSSPPONNLKJKKLLLLJFD@?<::9999<?CKSYcnyy!!!!!!!!!!!!!!!!!!!!!!!!!!!!!!!!!!!!",
"!!!!!!!!!!!!!!!!!!!!!!!!!!!!!!!!!!!!!!!!!!!!!!!!!!!!!!!!!!!!!!!!!!!!!!!!!!!!!!!!!!!!!!!!!!!!!###$%%((-08888,'%$$$$$%%(----,,8,,,AQYVSOSUX^chc_]VSOPSTTSSOLJ=4.+++*))))))+.++++*))))*+++...++/144332110/////137779::<:95;@FFFFLPTTVVUSPPNNLKJKKLLLLIEC@=::997757:;@FNYeyy!!!!!!!!!!!!!!!!!!!!!!!!!!!!!!!!!!!!",
"!!!!!!!!!!!!!!!!!!!!!!!!!!!!!!!!!!!!!!!!!!!!!!!!!!!!!!!!!!!!!!!!!!!!!!!!!!!!!!!!!!!!!!!!!!!!$##$$%%((-,8888,'%%$$$$$%'((--,,88,,AAQMMPTX^`cec`^XTPSTUTTTPLI?71//.+*)))))*++++++****++....../014577754310000259:::<=?=<:?CFDCCFLSTUXVTTPNLJIEFIJKLLJEC@=::99775799=CJVeyyy!!!!!!!!!!!!!!!!!!!!!!!!!!!!!!!!!!!",
"!!!!!!!!!!!!!!!!!!!!!!!!!!!!!!!!!!!!!!!!!!!!!!!!!!!!!!!!!!!!!!!!!!!!!!!!!!!!!!!!!!!!!!!!!!!%$$$$%%(((,,88AA8,'%$$$$$%%'(--,8888,AAAAMPV^ccdec`_XUPSTUUUTPLF@;5411.+)))))**+++++++++++...../01479:;;::74211149<<==?@C@@?@CEC@=CJOSUXVVUSNKFDCCDFJKLJEC@=::99774557:?CTcyyyy!!!!!!!!!!!!!!!!!!!!!!!!!!!!!!!!!!",
"!!!!!!!!!!!!!!!!!!!!!!!!!!!!!!!!!!!!!!!!!!!!!!!!!!!!!!!!!!!!!!!!!!!!!!!!!!!!!!!!!!!!!!!!!!%%%$$%%&(((,,8AAM>-(%$$$$$$%''(-,88888888AASX`heedc`_YVSTTVVVVPLEC?;:750+*)))))**+......+....../13457:=????<944447;????@CDDDDDEE@=9?ENPUXXXXSNIDC?@CDFKLJFC@=:::97744449<@Scyyyyy!!!!!!!!!!!!!!!!!!!!!!!!!!!!!!!!!",
"!!!!!!!!!!!!!!!!!!!!!!!!!!!!!!!!!!!!!!!!!!!!!!!!!!!!!!!!!!!!!!!!!!!!!!!!!!!!!!!!!!!!!!!!!!$$$$$%%''',,8AAMM>0('%$$$$$%%'(-88AAAAAAAAQV^ciiiieec_YUVVVVVUPLFDC@?<:2.**)))))**+++++++++..../011347:<<<<:7444479;<<<?@CCCCCDEC?<?CFNSXVVVSLEC?==?@CCEDCC?=::997744447:=LXenqyy!!!!!!!!!!!!!!!!!!!!!!!!!!!!!!!!!",
"!!!!!!!!!!!!!!!!!!!!!!!!!!!!!!!!!!!!!!!!!!!!!!!!!!!!!!!!!!!!!!!!!!!!!!!!!!!!!!!!!!!!!!!!!!$$$$%%%'',,8>AMMP>3-'%$$$$$%%'(-88AAAAAAAAQ^`ejjnnjjjc_YXXVVUUPNIFFEC@?5/+*))))))***++++*++.....//012479999975544779999;?@@@@CDFC@??@@IPVVVVPKC@=:;<=??@@@@?<::9975444379;DPYcnyy!!!!!!!!!!!!!!!!!!!!!!!!!!!!!!!!!",
"!!!!!!!!!!!!!!!!!!!!!!!!!!!!!!!!!!!!!!!!!!!!!!!!!!!!!!!!!!!!!!!!!!!!!!!!!!!!!!!!!!!!!!!!!!##$$%%%'',,AAQMPO@6-(%$$$$$%%'(-88AAQQQAAQZcehjnoqqppic_^XVVUTPNJKLLJFC90+*)))))))*******++......./011455555555555555559<????CCFDCC?=;CNUUUUOJC?:799::;<==?=<::99754443479?ENYeyy!!!!!!!!!!!!!!!!!!!!!!!!!!!!!!!!!",
"!!!!!!!!!!!!!!!!!!!!!!!!!!!!!!!!!!!!!!!!!!!!!!!!!!!!!!!!!!!!!!!!!!!!!!!!!!!!!!!!!!!!!!!!!!$$$%((((,,88AMMOOC:2(%$$$$$%%''-,88AQQQAAQZceinoquqqqnhc_]VVUTSOLNNNKD@91.+*))))))********++++++...//0123454322221112459:<<<<?@CCCC@?=CINPTXSNJC?;;::::;<<=<;:::9977544479=CJT_jj!!!!!!!!!!!!!!!!!!!!!!!!!!!!!!!!!",
"!!!!!!!!!!!!!!!!!!!!!!!!!!!!!!!!!!!!!!!!!!!!!!!!!!!!!!!!!!!!!!!!!!!!!!!!!!!!!!!!!!!!!!!!!!$$%(1/---028BMNOOH@;-'%$$$$$%%'(,,8AAQQAAQZcejoqqvvvvqnic^XVVUSPOPPPKC?:40.+*)))))*********++++++....//0135310000//.025799999<?CCCDCC@@CCLTYVTPLD@=<::::::::;;::::97754577;?CNV``!!!!!!!!!!!!!!!!!!!!!!!!!!!!!!!!!",
"!!!!!!!!!!!!!!!!!!!!!!!!!!!!!!!!!!!!!!!!!!!!!!!!!!!!!!!!!!!!!!!!!!!!!!!!!!!!!!!!!!!!!!!!!!%%(1H@:74119CNNLLHHH0(%$$$$$%%'((,,8AQQAAQZcejpqvyyyyvqoe_XVVUTSSSSSLC<:740.+*))))*************++..++../02520////.++.155555559<?@CEDCC@?<FS^]XVPLD@=:::::99::;;;;::9774557:=@IPVV!!!!!!!!!!!!!!!!!!!!!!!!!!!!!!!!!",
"!!!!!!!!!!!!!!!!!!!!!!!!!!!!!!!!!!!!!!!!!!!!!!!!!!!!!!!!!!!!!!!!!!!!!!!!!!!!!!!!!!!!!!!!!'&&)+21//149?IPPPOOOL6(%%$$$$%%%'(,,8AQQQQQZdinquvyyyyvqpia^YXVUTTSPOJC=:740.+**)))**************+++++.//12520////.++./11123459:<?CDDDDC@?FPVVUTSPPLE@??==<;=?@CCDCC@?=;:::=?@INTT!!!!!!!!!!!!!!!!!!!!!!!!!!!!!!!!!",
"!!!!!!!!!!!!!!!!!!!!!!!!!!!!!!!!!!!!!!!!!!!!!!!!!!!!!!!!!!!!!!!!!!!!!!!!!!!!!!!!!!!!!!!!''(())****/7@INTTTTTTT8(%%$$$$$%%%'(,8AAQQQZ[hjouvyyyyyvuqjd_^YXVUTSOLFC?<941/++*))****************+++../013420////.+++..//013579:=?CDEIECCINSSSSTVXTNIEC@@??@DJLNONLLID@@?=?@CINSS!!!!!!!!!!!!!!!!!!!!!!!!!!!!!!!!!",
"!!!!!!!!!!!!!!!!!!!!!!!!!!!!!!!!!!!!!!!!!!!!!!!!!!!!!!!!!!!!!!!!!!!!!!!!!!!!!!!!!!!!!!!'''(+)&&&&)+9LPTXXVVVVV>,%%$$$$$%%%'(,88AAQQZbjnqvyyyyyyyuqnhc`^XXVVSNIEC@=:51/.++*******************++./0113410////.++++++./025577:=CDFKJFEILNNNOU^c^VPLJDCC@ELPSVXVVTPNJFCCCCCILOO!!!!!!!!!!!!!!!!!!!!!!!!!!!!!!!!!",
"!!!!!!!!!!!!!!!!!!!!!!!!!!!!!!!!!!!!!!!!!!!!!!!!!!!!!!!!!!!!!!!!!!!!!!!!!!!!!!!!!!!!!!!,,(())&&))*1=NPTVVVVVX]>,'%%$$$$%%%'(,88AAQQZbinpuvyyyyyvuqnid`_YXVTPLECC@=:531/..++**)))))))********++..//012110000/.++++./0135577:<?CEJJJJKLNNPPUY_YVSPNLKJFLNPSTVXY^YVTSOLLKJLNOO!!!!!!!!!!!!!!!!!!!!!!!!!!!!!!!!!",
"!!!!!!!!!!!!!!!!!!!!!!!!!!!!!!!!!!!!!!!!!!!!!!!!!!!!!!!!!!!!!!!!!!!!!!!!!!!!!!!!!!!!!!!--(&&&&)*+09CPSTVVVVX]^A,'%%$$$$%%%'(,8AAAQQZbejoquvyyvuuqqojec_]XUSNJDCC@=954310/.++*))))))))*******++...//011111220/..../023455779:=@CIJLLLNNOPSUX]XUSSSSPONOPSSTTY_dca`^XUSPNNOPP!!!!!!!!!!!!!!!!!!!!!!!!!!!!!!!!!",
"!!!!!!!!!!!!!!!!!!!!!!!!!!!!!!!!!!!!!!!!!!!!!!!!!!!!!!!!!!!!!!!!!!!!!!!!!!!!!!!!!!!!!!!..)&&&&*.2;CLSTUVVUUX^_A,''%$$$$%%''(,8AAAQQZbeinqqvyvuqqqqonid`^XTPLICC@@=95555411.+*))))))))*******++.....//11444520////02555557799:?CFKLONNNPSTUUVUUTVVXVUTTSSSSS]cnnnnhc_YVSPPPP!!!!!!!!!!!!!!!!!!!!!!!!!!!!!!!!!",
"!!!!!!!!!!!!!!!!!!!!!!!!!!!!!!!!!!!!!!!!!!!!!!!!!!!!!!!!!!!!!!!!!!!!!!!!!!!!!!!!!!!!!!+*)&&&&).1:CJOTTUVVUUVY^A8,'%%%$$%%'',,,8AAAQQZbejqqvyvuqqqqonjea_]VTNJCCCC@?<<<<974/+*))))))))******+++....../0113453100001355555779;=@CFJLLLLLNPSSTTTSSTVXVUTUVVVVV^ahjnpjhc_YTTSPNE!!!!!!!!!!!!!!!!!!!!!!!!!!!!!!!!",
"!!!!!!!!!!!!!!!!!!!!!!!!!!!!!!!!!!!!!!!!!!!!!!!!!!!!!!!!!!!!!!!!!!!!!!!!!!!!!!!!!!!!!5+)&&&$&*1:CLOSUVVVUUTVVXA8,'%%%%$%%'',,,8AAAAQZZbhpquyvuqqqqpnjhc`^YVPKCDEFDCCCCC?;91.**)))))))*****++++......./01134432222345555577:=@CDFIJKJJJLNPPPSPPPSUVVVUXY^^^^_`chnupnic^XUTSLC9!!!!!!!!!!!!!!!!!!!!!!!!!!!!!!!",
"!!!!!!!!!!!!!!!!!!!!!!!!!!!!!!!!!!!!!!!!!!!!!!!!!!!!!!!!!!!!!!!!!!!!!!!!!!!!!!!!!!!!55+&&&$$&+:CLTUVVVVVUUTTUUG8,''%%%$%%'',,,88AAAAQQ[gpquyvuqqqqpnniec`^XSLCEIKKKKKKKD@<4/+*)))))))*****+...........//124455555555555577:?CDEFFFFFFFJLNNOOOOOSTVVVVY_aaaa`__enyvqoh`]XUSJ@99!!!!!!!!!!!!!!!!!!!!!!!!!!!!!!",
"!!!!!!!!!!!!!!!!!!!!!!!!!!!!!!!!!!!!!!!!!!!!!!!!!!!!!!!!!!!!!!!!!!!!!!!!!!!!!!!!!!!!..)&&$$$&+=DNTUVVVVVVVVVXXMA8,'%%%%%''',,88AAAAQZ[ghpquyvuuqqqpponiea_YTOJKLLKIEEEEC?;4/+**))))))****++....../////012477999999999999::=?CDFJJKKKKKKLLLLLNNOPSTTUVY_a``____eoyvuqje`_]XPF??!!!!!!!!!!!!!!!!!!!!!!!!!!!!!!",
"!!!!!!!!!!!!!!!!!!!!!!!!!!!!!!!!!!!!!!!!!!!!!!!!!!!!!!!!!!!!!!!!!!!!!!!!!!!!!!!!!!!!**&&$$$$&.@FNTUVVVVVXXYY]]RA8,'%%%%%'',,,8AAAAQZ[ghnoquyvvuqqpqqqonjd`YVSONNNKECCCC?=:4/++*))))))**++++...../0000111479:;<<<<<<<<<<<==?@CDILLLLLLLLKJJJJLNOPPSSTVY_c`^]^__eoyyvuojec`_VOFF!!!!!!!!!!!!!!!!!!!!!!!!!!!!!!",
"!!!!!!!!!!!!!!!!!!!!!!!!!!!!!!!!!!!!!!!!!!!!!!!!!!!!!!!!!!!!!!!!!!!!!!!!!!!!!!!!!!!!&&&&$$$$&.CKOTUUVVVXY]^^__UM>,'%%%%%'',,8AAAAQQ[gppooquyyvvuqpqquqpoh`]XVTSPPKD????=;940.++********+......./0222233479;==???????????@@@@@DKNNOOOOOLKFFEEJLOOOOSTVY_c_]VY^`eoyyyyqpnjed^VOO!!!!!!!!!!!!!!!!!!!!!!!!!!!!!!",
"!!!!!!!!!!!!!!!!!!!!!!!!!!!!!!!!!!!!!!!!!!!!!!!!!!!!!!!!!!!!!!!!!!!!!!!!!!!!!!!!!!!!&&&&$$&&)/CINSSSSTUVY^```aYRM8'%%%%''',,8AAAQQQQQQQZ[glyyyyuqqqqqnjec`^YXUSOLE@<<<<:9941/.++++****+.///////012110111347:=????????????@@CCFKNNOOOOOLKFIIJLNOOOOSTVY_`_^Y^_`hoyyyyvqpnnjc_XX!!!!!!!!!!!!!!!!!!!!!!!!!!!!!!",
"!!!!!!!!!!!!!!!!!!!!!!!!!!!!!!!!!!!!!!!!!!!!!!!!!!!!!!!!!!!!!!!!!!!!!!!!!!!!!!!!!!!!&&&$$&&&)0CFLOOONPTUY_ccde_YT8,'%%%''',,8AAQQQQAA,AAQZgvyyyvuqqqpjd`___^XVSLF@=9999977421/.+++++++./111111111310////0147;?????????????@CEILNNNOOOOLKFJKLNNOOOOSTVY^`____`cipyyyyyvuqqqnecc!!!!!!!!!!!!!!!!!!!!!!!!!!!!!!",
"!!!!!!!!!!!!!!!!!!!!!!!!!!!!!!!!!!!!!!!!!!!!!!!!!!!!!!!!!!!!!!!!!!!!!!!!!!!!!!!!!!!!$$$$$&&&*1CEJLLLKNPTY`ehijda]>,'''''',,,8AAQQQQA,',,AQgvyyyyuqqpoe`X]_`_]XSKC=:555555544410......./133333333331/....//14:?????????????CDIKLNNNOOOOLKFKLOOOOOOOSUXY^__``accjpyyyyyyyyyyvqoo!!!!!!!!!!!!!!!!!!!!!!!!!!!!!!",
"!!!!!!!!!!!!!!!!!!!!!!!!!!!!!!!!!!!!!!!!!!!!!!!!!!!!!!!!!!!!!!!!!!!!!!!!!!!!!!!!!!!&&$$$$&&)+4CCCCC@=CLSX`hijjidaM8''''',,,8AAAAAAA,,',,AQ[uvyyyvuqonhc``cca_^TLC?:55557999974100/////013333211111//..//01379<;:9:;<=?????@@@DJNNLLLNNLLKLNOOOOOOOSUX^`cdeeeeenqyyyyyyyyyyvuqq!!!!!!!!!!!!!!!!!!!!!!!!!!!!!!",
"!!!!!!!!!!!!!!!!!!!!!!!!!!!!!!!!!!!!!!!!!!!!!!!!!!!!!!!!!!!!!!!!!!!!!!!!!!!!!!!!!!*&&$$$$&)+09@??=:74<DPV`hjjnjieQ8,,,',,,8AAAAA8,,''%',AA[quvyyvuqojjhehhiec`VOD?;75559:=<;;95211111112333310/////../01247799742479;=?????=<@ELLLKKKKLLLNNOOOOOOPSVY_cijnnnjjouyyyyyyyyyyyvvv!!!!!!!!!!!!!!!!!!!!!!!!!!!!!!",
"!!!!!!!!!!!!!!!!!!!!!!!!!!!!!!!!!!!!!!!!!!!!!!!!!!!!!!!!!!!!!!!!!!!!!!!!!!!!!!!!!**&&$$$$&*27;?=:720.4?NV_ijnonnjWA8,,,,,8AAAAAA,'%%%%',8AZptuyyvvqnjjnoonnjhd]PF@;77559=@???<975433333333331/......./1479:97520/0259<????<:7=CLKJFFIIKNOOOOOOOOPPTV]ahpquvqqoqvyyyyyyyyyyyyyy!!!!!!!!!!!!!!!!!!!!!!!!!!!!!!",
"!!!!!!!!!!!!!!!!!!!!!!!!!!!!!!!!!!!!!!!!!!!!!!!!!!!!!!!!!!!!!!!!!!!!!!!!!!!!!!!!!**)&&&&&&+37;?<9531/7?KT^ehjonnnZQA8,,,,8AAAA,,,'%%%%%',AQ[glvvvvqojnnnnopnjh_TLD?:9759<@@@@?;9975555443211//../////1359;==<;97479;=@CCCC@?<=?@CDIFEEILNNNOOOOPSSV]`ejquvyuqqqvyyyyyyyyyyyyyy!!!!!!!!!!!!!!!!!!!!!!!!!!!!!!",
"!!!!!!!!!!!!!!!!!!!!!!!!!!!!!!!!!!!!!!!!!!!!!!!!!!!!!!!!!!!!!!!!!!!!!!!!!!!!!!!!!**)&&&&&)+49<?;943219?IPXaejoooobZQA8,,88AAA8,,'%%%$$%',8AQZgquvyqpnnjjnpqpnj`XPKC=;959<?@CC@=;:9777774310/.../02111357:=@@@@??=??@CFKKKKFC@?;9=CIFDCEILLNNOOOPTUY`djovvyyvuqvyyyyyyyyyyyyyyy!!!!!!!!!!!!!!!!!!!!!!!!!!!!!!",
"!!!!!!!!!!!!!!!!!!!!!!!!!!!!!!!!!!!!!!!!!!!!!!!!!!!!!!!!!!!!!!!!!!!!!!!!!!!!!!!!!**)&&&&&*.59<?;72345:?DNV_cioopph[ZQA,,8AAAA,,''%%$$#$',,,AQ[qqvyuqonjhnpvqpnd^TOIC=:59<?CCFC@=<;::::7531/....027755799=@DEEFFFFFFFKLOOOONKI?707?JEC@CEJLLNNOOSUX_cjoqyyyyyyvyyyyyyyyyyyyyyyy!!!!!!!!!!!!!!!!!!!!!!!!!!!!!!",
"!!!!!!!!!!!!!!!!!!!!!!!!!!!!!!!!!!!!!!!!!!!!!!!!!!!!!!!!!!!!!!!!!!!!!!!!!!!!!!!!!***)))))*.59<?<95799<?CLT^aennopig[QAA88,,,,,'''%%$$#$',,,AA[qqvyuqpnieinponnd_XSLE@=9<?CCDFC@==;:9977431/..//1599754447:<<=====??@CFKLLLLLLD?:?ELLNNNPPPSSSSSTVY`enpuyyyyyyyyyyyyyyyyyyyyyyy!!!!!!!!!!!!!!!!!!!!!!!!!!!!!!",
"!!!!!!!!!!!!!!!!!!!!!!!!!!!!!!!!!!!!!!!!!!!!!!!!!!!!!!!!!!!!!!!!!!!!!!!!!!!!!!!!!+++++*))+/59<?=;9:;==??ISY`djnopnihZQAA8,,,,''''%%$$#$',,,8AZpquyuqpnhdeijjjjea^VPJD@=?@CDEFC@?=;:9754431/./0149<:7431112444444479;=@CEIKLLNLIEJLPSTVXXXVVTUUUXY^ahnquyyyyyyyyyyyyyyyyyyyyyyy!!!!!!!!!!!!!!!!!!!!!!!!!!!!!!",
"!!!!!!!!!!!!!!!!!!!!!!!!!!!!!!!!!!!!!!!!!!!!!!!!!!!!!!!!!!!!!!!!!!!!!!!!!!!!!!!!!++./0.*)+/59<??=<=?@?==EOX_cijnppppbQAA,,,''''''%%$$#$',,,8AZpquyvqqnecceehhieca]TNJC@CDFFFFC@?=;:7533331/./149;?;9410//////////0259<?CCFKNPPSSSSSX^caa`_]XXXX]^_cipqvyyyyyyyyyyyyyyyyyyyyyyy!!!!!!!!!!!!!!!!!!!!!!!!!!!!!!",
"!!!!!!!!!!!!!!!!!!!!!!!!!!!!!!!!!!!!!!!!!!!!!!!!!!!!!!!!!!!!!!!!!!!!!!!!!!!!!!!!!++./1/++.049;?======??@JPX^aeinppppg[QA8,,''''''%%$$$%',,,,AZoquyvuqnhcccdeeeeca^VPNKFFIJIIFCC?=:9743211//./157:;:7420//////////0259<?CCFKNPPSSTVX^aeeehdc````acdinquyyyyyyyyyyyyyyyyyyyyyyyy!!!!!!!!!!!!!!!!!!!!!!!!!!!!!!",
"!!!!!!!!!!!!!!!!!!!!!!!!!!!!!!!!!!!!!!!!!!!!!!!!!!!!!!!!!!!!!!!!!!!!!!!!!!!!!!!!!++.031/./137:===?=<;?CDLSX^`cejoppqngbQA,,'%''''%%$$$%',,,,8Qoquvvuqnhcccacdecca_XUSPNNLLKIFDC@=:544310//../1579977520//////////0259<?CCFKNPPPSUY_aejjnonjhhiijjnpqvyyyyyyyyyyyyyyyyyyyyyyyyy!!!!!!!!!!!!!!!!!!!!!!!!!!!!!!",
"!!!!!!!!!!!!!!!!!!!!!!!!!!!!!!!!!!!!!!!!!!!!!!!!!!!!!!!!!!!!!!!!!!!!!!!!!!!!!!!!!++.1543222259<=??=;9=CKOTX]_`djoppqqqqZA,,'%%'''%%%$$%',,'',Qnpqvvuunhca```cccca_^XVUTSONLJFDC@=944331/..../2775555520//////////0259<?CCFKNPPPPV_dhjnquyvuqqqquvyyyyyyyyyyyyyyyyyyyyyyyyyyyyy!!!!!!!!!!!!!!!!!!!!!!!!!!!!!!",
"!!!!!!!!!!!!!!!!!!!!!!!!!!!!!!!!!!!!!!!!!!!!!!!!!!!!!!!!!!!!!!!!!!!!!!!!!!!!!!!!/.+04;:9754259<==?=;:@ENPTXY^_chnopqqqq[QA,''''''%%%$$%''''',A[hovvvvoidca`cehheec`^XUSPNKJIFCC?<94311//..//147775555310000000112479;=?CCFJLNNPPV^cejpqvyyvuuuuvyyyyyyyyyyyyyyyyyyyyyyyyyyyyyy!!!!!!!!!!!!!!!!!!!!!!!!!!!!!!",
"!!!!!!!!!!!!!!!!!!!!!!!!!!!!!!!!!!!!!!!!!!!!!!!!!!!!!!!!!!!!!!!!!!!!!!!!!!!!!!!51/.19@?=;95259<<===<;CJPSUXY]^aejnoqqqqbZA8,'''''%%%%$%%'''',AQ[gvvvvpjedcadinnnnhc_YUPNLIFFFC@?;9410//../01359775555432222222479:;<=??CCFIJKLOPV^aenquyyyyvvyyyyyyyyyyyyyyyyyyyyyyyyyyyyyyyyy!!!!!!!!!!!!!!!!!!!!!!!!!!!!!!",
"!!!!!!!!!!!!!!!!!!!!!!!!!!!!!!!!!!!!!!!!!!!!!!!!!!!!!!!!!!!!!!!!!!!!!!!!!!!!!!5521/4=FCC?;7259<<<<<==CLTUVXXY]`cijoqqqqh[ZA8,,,''%%%%%%%''',,8AQgvvyyqnhedcenqqqqnea^UPLJDEEFC@=:741/..../145799755555555555559<???????CCFFFFKNPU]`envyyyyyyyyyyyyyyyyyyyyyyyyyyyyyyyyyyyyyyyy!!!!!!!!!!!!!!!!!!!!!!!!!!!!!!",
"!!!!!!!!!!!!!!!!!!!!!!!!!!!!!!!!!!!!!!!!!!!!!!!!!!!!!!!!!!!!!!!!!!!!!!!!!!!!!!99754<CLKIE@=9:;<;:9:<=CLTTVVVXX^`dhjoppqig[QA,,,,''%%%%%'''',,8AQ[suvyqnjedaejopquoid_VPNICCCCC?=:951/..//02479:97555555555543259<<<<<<<?@CCCCILNSX^cjuvyyyyyyyyyyyyyyyyyyyyyyyyyyyyyyyyyyyyyyy!!!!!!!!!!!!!!!!!!!!!!!!!!!!!!",
"!!!!!!!!!!!!!!!!!!!!!!!!!!!!!!!!!!!!!!!!!!!!!!!!!!!!!!!!!!!!!!!!!!!!!!!!!!!!!!::;<=CJPONLIC??=<:959;=DLSTUVVUUX^`cinoopnhgZQA8,,''''%%''''',,8AQ[rswyuojhdadinpqupni`XSNICCCC@?=;972/.//11457:;:75555555555310259999999<?CCCCDILPUYaiquyyyyyyyyyyyyyyyyyyyyyyyyyyyyyyyyyyyyyyy!!!!!!!!!!!!!!!!!!!!!!!!!!!!!!",
"!!!!!!!!!!!!!!!!!!!!!!!!!!!!!!!!!!!!!!!!!!!!!!!!!!!!!!!!!!!!!!!!!!!!!!!!!!!!!!<<?CFLPTTTTPLFC?<9527:?DLSTTUTTSUX^`ejnoppoobZQA,,,''''''''',,,8AQ[lrwyuqnid`chjoqvqonc]SNF@@@????<:720./134579:=:9555555555520/0255555559<????CDINSV_hquvyyyyyyyyyyyyyyyyyyyyyyyyyyyyyyyyyyyyyy!!!!!!!!!!!!!!!!!!!!!!!!!!!!!!",
"!!!!!!!!!!!!!!!!!!!!!!!!!!!!!!!!!!!!!!!!!!!!!!!!!!!!!!!!!!!!!!!!!!!!!!!!!!!!!!!<CFLNPSTV]UPKD@<72/27<CJPPPSPONSUX_ceinoooog[ZAA,,,'''''''',,,8AQZlrsyvqpjeacehjpuqpoe_VPKCC@????=:9510147799:<=<:99997422220/./01111111247799;?@INT^eqqvyyyyyyyyyyyyyyyyyyyyyyyyyyyyyyyyyyyyyy!!!!!!!!!!!!!!!!!!!!!!!!!!!!!!",
"!!!!!!!!!!!!!!!!!!!!!!!!!!!!!!!!!!!!!!!!!!!!!!!!!!!!!!!!!!!!!!!!!!!!!!!!!!!!!!!!FLPPPPV^a]TLF@<50+/4:@FNNNNLLJNSV]_ceinnnnhb[QA8,,'''''''',,,8AAZllsyvuqneaccdinqqqqia]TNECC@???=<:95359::::;=?==<<<<930000/.+.........//001259<CKP]dpqvyyyyyyyyyyyyyyyyyyyyyyyyyyyyyyyyyyyyyy!!!!!!!!!!!!!!!!!!!!!!!!!!!!!!",
"!!!!!!!!!!!!!!!!!!!!!!!!!!!!!!!!!!!!!!!!!!!!!!!!!!!!!!!!!!!!!!!!!!!!!!!!!!!!!!!!!TTSPOV`j`VOIC<3.*.19=CLLKKIECKOTX^`cejnnnjhhZQA8,'''''''',,,,AAZglryyvvohccaaejqqqund_VPJEC@@???=<::9:<?==<=????????92////.+++++++++++++++./037=DNXcpqvyyyyyyyyyyyyyyyyyyyyyyyyyyyyyyyyyyyyyy!!!!!!!!!!!!!!!!!!!!!!!!!!!!!!",
"!!!!!!!!!!!!!!!!!!!!!!!!!!!!!!!!!!!!!!!!!!!!!!!!!!!!!!!!!!!!!!!!!!!!!!!!!!!!!!!!!LLLLKS]d]SIC<71.+/4=@CIFEEEDDLSX]_`adehijiheZQAA,,,,,,,,,,,,AAQZglryyvvpjeca`cinpquoic^VPLE@@@??=======??===??@@C@@?:400//..++++++++++++++../12:CLU`jnqvvyyyyyyyyyyyyyyyyyyyyyyyyyyyyyyyyyyyy!!!!!!!!!!!!!!!!!!!!!!!!!!!!!!",
"!!!!!!!!!!!!!!!!!!!!!!!!!!!!!!!!!!!!!!!!!!!!!!!!!!!!!!!!!!!!!!!!!!!!!!!!!!!!!!!!!EEDDCNV_ULC<71/.+09CCCCCC@CDFOU^__``acdeheee[ZQAA,,,,,,,,,,AAQQZggrvvyyqniea_aeinqvpnic^VPJC@@?????@@@@???????@CCC@?;7310//...+++++++++++++../07?JS^einquvyyyyyyyyyyyyyyyyyyyyyyyyyyyyyyyyyyy!!!!!!!!!!!!!!!!!!!!!!!!!!!!!!",
"!!!!!!!!!!!!!!!!!!!!!!!!!!!!!!!!!!!!!!!!!!!!!!!!!!!!!!!!!!!!!!!!!!!!!!!!!!!!!!!!!?????ISYPE<71/.++1;IEC@@?=@CIPXa``````acddddb[ZQAA8,,,,,,,AAQQZ[[govvyyqpnea^`cejpvqqoic_UNCC@????CCFCC???????CCFCC?<:731////..+++++++++++++...4<EOX`djoqvyyyyyyyyyyyyyyyyyyyyyyyyyyyyyyyyyyy!!!!!!!!!!!!!!!!!!!!!!!!!!!!!!",
"!!!!!!!!!!!!!!!!!!!!!!!!!!!!!!!!!!!!!!!!!!!!!!!!!!!!!!!!!!!!!!!!!!!!!!!!!!!!!!!!!CCCCCJNSI?930..//7CNKD@???CJNTX________`accdbb[ZQQAA,,,,8AAAQQZZ[gluvvyuqoic_```enqqqpjec]SLIECCCCCEFDC????@@CCCDC@?=:775457754210/..++...//137=FPV_dinquvyyyyyyyyyyyyyyyyyyyyyyyyyyyyyyyyyyy!!!!!!!!!!!!!!!!!!!!!!!!!!!!!!",
"!!!!!!!!!!!!!!!!!!!!!!!!!!!!!!!!!!!!!!!!!!!!!!!!!!!!!!!!!!!!!!!!!!!!!!!!!!!!!!!!!CCEIKJJI@:30.+.14=JTNF@???ENTVY^^^^^^^^__`ceehhg[ZQAAAAAAAQQQQZZZghquvyvuqje``_^cippqqnje`XSOLFEEDEFIDC????@CCCCC@@@=:79:<=@C@??:721/..//0149=@KS]`djnqvvyyyyyyyyyyyyyyyyyyyyyyyyyyyyyyyyyyyy!!!!!!!!!!!!!!!!!!!!!!!!!!!!!!",
"!!!!!!!!!!!!!!!!!!!!!!!!!!!!!!!!!!!!!!!!!!!!!!!!!!!!!!!!!!!!!!!!!!!!!!!!!!!!!!!!!FFKLOKC?:40.+*.3<EPYSI????ISYYYYYYYYYYY]]_aeinplhg[QQAAAAQQQQQZZZ[hqqvyyvvohc_^X_enoqqpnjd_XTPLKJIIIIDC????CCFDC@@@@=:9<@DILNNNNE?952000037:@IOV_eijoqvyyyyyyyyyyyyyyyyyyvyyyyyyyyyyyyyyyyyyy!!!!!!!!!!!!!!!!!!!!!!!!!!!!!!",
"!!!!!!!!!!!!!!!!!!!!!!!!!!!!!!!!!!!!!!!!!!!!!!!!!!!!!!!!!!!!!!!!!!!!!!!!!!!!!!!!!NNOPSLC;730/..19?IPVPJCCCCINTSSSPNLLLLOSU]`einpollg[ZQQQQQZQQQZZZ[gloryyyyqnhc_Y_chjoqponhc_XTNNLKJJJEC????CDFDC@@CC@@?DKPSTVVVVNE?:512239<@IPV^ahjnoquyyyyyyyyyyyyyyyyyyyyyyyyyyyvvvvyyyyyyy!!!!!!!!!!!!!!!!!!!!!!!!!!!!!!",
"!!!!!!!!!!!!!!!!!!!!!!!!!!!!!!!!!!!!!!!!!!!!!!!!!!!!!!!!!!!!!!!!!!!!!!!!!!!!!!!!!TTTUVL@74100005<CJPUPKCCCCFLNLKID@?===CKPV_ejnqppolg[[ZZZZZZQQQZZZ[glrvyyyupne`^_`cenqppojec^VSPNLLKJEC@???CDIECCCCDEFINTX^_```_VNC?94457<CKPV^`dijnnquyyyyyyyyyyyyyyyyyyyyyyyyyvuuuuuvyyyyyy!!!!!!!!!!!!!!!!!!!!!!!!!!!!!!",
"!!!!!!!!!!!!!!!!!!!!!!!!!!!!!!!!!!!!!!!!!!!!!!!!!!!!!!!!!!!!!!!!!!!!!!!!!!!!!!!!!YYYYYL?2110135;@FLPTPLFFFFFFFCC?;722119@KT^ejnqquurpohb[[ZZZZQQQQZ[[glvyyyyuqjc____cjqqppnjh`]TSPNLLKFC@@??CDIEDCCEFKNPV^ceijjji_TLC=799:@KSX_deijnnnpuyyyyyyyyyyyyyyyyyyyyyyyyvuqqqqquvyyyyy!!!!!!!!!!!!!!!!!!!!!!!!!!!!!!",
"!!!!!!!!!!!!!!!!!!!!!!!!!!!!!!!!!!!!!!!!!!!!!!!!!!!!!!!!!!!!!!!!!!!!!!!!!!!!!!!!!``_]VK=12349;?CFLLNPNLLJFCC@?<953100117<CLU_cjpqquqpohb[ZZQQAAAAQQZ[gluvyyyvunea`_]`ennpqonjc_XTPNLKJEC@@@?CEJJKKLOPTVY_cijjnida_]VSLFIKLPUY^`cca``aaceijjjjjjnoqquvvvvvvyyvvvvvuqqqqquvyyyyyy!!!!!!!!!!!!!!!!!!!!!!!!!!!!!",
"!!!!!!!!!!!!!!!!!!!!!!!!!!!!!!!!!!!!!!!!!!!!!!!!!!!!!!!!!!!!!!!!!!!!!!!!!!!!!!!!!ee`]UI;137:?CJLNPNLLLNPLEC?<941/...//147;CNX_enoqqqpohb[ZZQAA8AAAAQZ[hquvyyvvpjea^X_cijoqpnne`^VSNLJFDC@@@@CFLNNPTVY^`cejonnne`^_`c`^XY]^_`ccca_]VVVVY^_______chnopqqqqquuuuuuuuuqqqqquvyyyyyyy!!!!!!!!!!!!!!!!!!!!!!!!!!!!",
"!!!!!!!!!!!!!!!!!!!!!!!!!!!!!!!!!!!!!!!!!!!!!!!!!!!!!!!!!!!!!!!!!!!!!!!!!!!!!!!!!ood]TE:04:?ELTTTTPLFLPTLE?;72/+*+++./0134=FPXcnnpqqppib`ZQQA,,,,AAQZ[hpquyyyyqnjc^V]`dinqqpoid`YTNLJECC@@@@CILPSV]_cejoqqvqpnd^U_hqpnjnnonnnhd`YTNNNNPSTTTTTTTY`hjnppppqqqqqqqquqqqqqquvyyyyyyyy!!!!!!!!!!!!!!!!!!!!!!!!!!!",
"!!!!!!!!!!!!!!!!!!!!!!!!!!!!!!!!!!!!!!!!!!!!!!!!!!!!!!!!!!!!!!!!!!!!!!!!!!!!!!!!!ooaVLC:3:CLPU]VTPNLLPTVPI?:51/../0247:;<=@FLT^einpppqnhb[ZZAA,88AAQZ[gnpqvvyyupne`Y^_`ejppppjhc_XTOKDC@?@@CEKNSV^`dijoqqqqpon_PCSaupnjjiihhec_]SJ?@@@CCDDEEFJKOTXXXXXXX]^_____``````aadejnoquvyy!!!!!!!!!!!!!!!!!!!!!!!!!!!",
"!!!!!!!!!!!!!!!!!!!!!!!!!!!!!!!!!!!!!!!!!!!!!!!!!!!!!!!!!!!!!!!!!!!!!!!!!!!!!!!!!oo_SC?;9@LVY_aYSLLNPTX^TJ?:400004:?@CEEEDEEFOV_ciopqqojhbb[QAAAAAAQZ[bjnpquyyvqpic^^^^ahnopqojec_YSLDC@=@CDILOU^cejopquqonnnoXC2E^uqnjheccaa_XUK=4445777999;=@CFLJFDDDDIKNNNNNOPPSSSTTV]_chnpuyy!!!!!!!!!!!!!!!!!!!!!!!!!!!",
"!!!!!!!!!!!!!!!!!!!!!!!!!!!!!!!!!!!!!!!!!!!!!!!!!!!!!!!!!!!!!!!!!!!!!!!!!!!!!!!!!oo^L<<<<IUadej_SFLPTV^aVL?93/125=EOPSTSPOLECKSX_enoqqqonihbZQAAAAAQZZbhjnquvyyvune`_^X_djnquqnjec`VNC@?=@CFKNPX`inqvvyyqnijnoS:+:Vvqnjea__^^XTP@4+.......//149:;=:5222259<<<<=??@CCCDDLPU]ahnqyy!!!!!!!!!!!!!!!!!!!!!!!!!!!",
"!!!!!!!!!!!!!!!!!!!!!!!!!!!!!!!!!!!!!!!!!!!!!!!!!!!!!!!!!!!!!!!!!!!!!!!!!!!!!!!!!jjYL<?@CP^heedXOCFLPTX^SI?:4137;CLUVX]YXXTPNPTX_djnpqqppnih[ZQQAAAQZZbehjnpuyyyvpjeca_acejnqpnniec]SLFC?@CCKOT^cnoqvvuunhceinP7*9Sponjhda_^]TLC:1./14579999:;==??=:99999:<<<<=??@CCCCCJNPUY_ciopq!!!!!!!!!!!!!!!!!!!!!!!!!!",
"!!!!!!!!!!!!!!!!!!!!!!!!!!!!!!!!!!!!!!!!!!!!!!!!!!!!!!!!!!!!!!!!!!!!!!!!!!!!!!!!!eeVK<@ELVcpjc_TK?CFLPTVOE=:727<@KS]_`accc_]VVVV^cjnpqqqqonibZWQQAQQZZbdehinqyyyyuqojeccccejponnjih`XPLICCCCKSX`hqqquuqqjc^aejO4)5Pnnjjied`^XNC930.17=@CFEDCCCCC@@@??====<<<<<=??@CCCCCEJLPSV^aijou!!!!!!!!!!!!!!!!!!!!!!!!!",
"!!!!!!!!!!!!!!!!!!!!!!!!!!!!!!!!!!!!!!!!!!!!!!!!!!!!!!!!!!!!!!!!!!!!!!!!!!!!!!!!!aaUI<CLT_jyncYPE<?CFLPTLC<:95;@FPXadejjnojea_YU]ahjoqquuqpnhb[ZQQQQZZ`ccdejpyyyyyyyqnjec`cinnnnnnnd_VSLEC@?KT_dnvvuuqqpe_V^ciN3)3Lhijnjjic^VJ:0//.4=INSVUTSOLIEDCCCDCCC@?<<<<=??@CCCCCCEFJLNT^chnuu!!!!!!!!!!!!!!!!!!!!!!!!",
"!!!!!!!!!!!!!!!!!!!!!!!!!!!!!!!!!!!!!!!!!!!!!!!!!!!!!!!!!!!!!!!!!!!!!!!!!!!!!!!!!!aSE=FP]ajqh_VNC:=CFJKLD?:999?ENU^deeeeeeeeda_^`dinoqquuqpoie`ZWQQZZ[beeeejpvyyyyyyuqojhdeijjnnnooic_VSLIECNVaenvuqpnie`XSVY_F2*3I`cdeedcYPF?911229?FCC???========????==<;;<<==?@CEEEEFFFIJKPU]`enn!!!!!!!!!!!!!!!!!!!!!!!!",
"!!!!!!!!!!!!!!!!!!!!!!!!!!!!!!!!!!!!!!!!!!!!!!!!!!!!!!!!!!!!!!!!!!!!!!!!!!!!!!!!!!!NC?KVaejoc]SJ?9<@FEDC?;999:CLTY`eeedca`cdeedcehjnpqquuqqpneb`ZWZZZ[ejihejouvyyyyyyuqpniiihjjnopqnid_VPNKIS]djovqonea_XTOPSS@1*2DX^_c``_SC775479:=@D<3.///11457999::::::::;<==?CDIJJKJIFEEDKOSX`ee!!!!!!!!!!!!!!!!!!!!!!!!",
"!!!!!!!!!!!!!!!!!!!!!!!!!!!!!!!!!!!!!!!!!!!!!!!!!!!!!!!!!!!!!!!!!!!!!!!!!!!!!!!!!!!!??N]jjjj`VOE=5;@FC?<:959:<EPY_djeda_^Y_djjjjjjnopqquuqqqniec`^ZZZbhpniejnquyyyyyyyyvqojiehjnoqvqonc^TSOLU_inqvqnia^USNKJJI;1+2@SUY_^]YJ9.039;?CCCC4+))))*+./12344444779:;<==?CEKLLNLJFDC@CILSYaa!!!!!!!!!!!!!!!!!!!!!!!!",
"!!!!!!!!!!!!!!!!!!!!!!!!!!!!!!!!!!!!!!!!!!!!!!!!!!!!!!!!!!!!!!!!!!!!!!!!!!!!!!!!!!!!EES_jied]SK@:37;?=:7775:=CLV`_^]XUSSPPV^aceehhijjjnoqqqqnjieb``ZZbhnjjijoquvyyyyyyyvuqonjiiinpqqond_VUTSYcnopqnhc_XTPOLJFD:0+1?OPSTSPND<47:?=;:::;3.++++.14579:::::::;;<==?@@CEJKLNLKIEC@CEJOTYY!!!!!!!!!!!!!!!!!!!!!!!!",
"!!!!!!!!!!!!!!!!!!!!!!!!!!!!!!!!!!!!!!!!!!!!!!!!!!!!!!!!!!!!!!!!!!!!!!!!!!!!!!!!!!!!LLVanhc_VNC=71479741345;@IS^e_VNKFCCDENT]_`ddeeeeehjoopponjhe```Zbejjjnnopqvyyyyyyyyvvqpnjheinqpone`YXXV_eqpppjc_]VSPONKEC7/+1=LLLKFDC@??@CD=7112321111159==???@@@@???????@CCDFIKLNLKJFCCCDFLOTT!!!!!!!!!!!!!!!!!!!!!!!!",
"!!!!!!!!!!!!!!!!!!!!!!!!!!!!!!!!!!!!!!!!!!!!!!!!!!!!!!!!!!!!!!!!!!!!!!!!!!!!!!!!!!!!TT]doe`YSI?:4011210/125=EOXco_O?<959:<CLTV^aacca``chnnoppoojeca```chjnppooqvyyyyyyyyyyyuqnhcejoonnha^^^^cjvqpne`YVTPPPOKC?5/*0:IDC@=:7=CLLLN?3+...17<<<<?CFFFFFFFFEECC@@@@CDFFFFJLNLLKFDCCCDFKLL!!!!!!!!!!!!!!!!!!!!!!!!",
"!!!!!!!!!!!!!!!!!!!!!!!!!!!!!!!!!!!!!!!!!!!!!!!!!!!!!!!!!!!!!!!!!!!!!!!!!!!!!!!!!!!!UU^dne`YPE<71///0//.15;CLUX^`TE:::;=@CJNTVY^^^^YVUY_cejnoopnjeeb`bcehjnoopqvyyyyyyyyyyyvuojdehijnojd``aaenqng[WM>BJNNNLC<53107?KIDC@?=@DJEC@:401479<??=<=======<<<===?@???@CDDDCEFJIIFECCCCDIKLNS!!!!!!!!!!!!!!!!!!!!!!!",
"!!!!!!!!!!!!!!!!!!!!!!!!!!!!!!!!!!!!!!!!!!!!!!!!!!!!!!!!!!!!!!!!!!!!!!!!!!!!!!!!!!!!VV_dje`YOC930......+19@KS]XVTJ=49<@CILNPTUVVVVUSOLPV^aennoponjhc`bcceinnopqvyyyyyyyyyyyyyqnhedcenqnideeijnog[QA8,8>LLKK?5/15:?ENKIDCCCCEI@;7555:=@CCC@?<:955554313459;????@CCCCCCCCCDDCCCCCEIKLPU^!!!!!!!!!!!!!!!!!!!!!!",
"!!!!!!!!!!!!!!!!!!!!!!!!!!!!!!!!!!!!!!!!!!!!!!!!!!!!!!!!!!!!!!!!!!!!!!!!!!!!!!!!!!!!YY_djd_YN@51.+++++++1;FPXaXPF?707?FLPTTTTTTTSPOKD@FOU^cjnoqppojeccaadejnoqqvyyyyyyyyyyyyyqojea_cjqonijnponn[QA8,'-8IIFF:0*0:FKLONKIIJJIFE=4/17<CIOLKFC?<72/////.+.//39====?@C@@??@@@@CCCCCDEIKLSV^^!!!!!!!!!!!!!!!!!!!!!",
"!!!!!!!!!!!!!!!!!!!!!!!!!!!!!!!!!!!!!!!!!!!!!!!!!!!!!!!!!!!!!!!!!!!!!!!!!!!!!!!!!!!!YY_ce`YTF;1/.+++*++.5@NTX_TJ?<97<@FJKLLLLLKJIFEC?=@ELSYcejoooonieeccdeejnopqquvyyyyyyyyyyupne`]`djiheijonjhQA,,,(-8IFFF:0*0:FKLONKIIJJIFE<4/17<@FNLKIDC@=;9:::9979:;?CJIIFIJJIFEEEEFFIIJKLNOSTV]`cc!!!!!!!!!!!!!!!!!!!!!",
"!!!!!!!!!!!!!!!!!!!!!!!!!!!!!!!!!!!!!!!!!!!!!!!!!!!!!!!!!!!!!!!!!!!!!!!!!!!!!!!!!!!!YY_`d^UN@5..++***+.1;FTVY^PC79<?@CFEDCCCC@@?===<:9;=?JS]`ennnonjjheddddejnnnnpuyyyyyyyyyyvqpe_V]_cccdejnjedM8'(--6=FFFF:0*0:FKLONKIIJJIFD<4/17<@DKKJJIEDDDDEFIIFEIJLNSTTSSPPPONNNNNNNNOPSTUV]_ceinn!!!!!!!!!!!!!!!!!!!!!",
"!!!!!!!!!!!!!!!!!!!!!!!!!!!!!!!!!!!!!!!!!!!!!!!!!!!!!!!!!!!!!!!!!!!!!!!!!!!!!!!!!!!!YY^_aXPF;1+++**))+/5@NYYYYL<07?FFFFC?<<<<:95555555577?KT]cjjnoonnjhedcadejjiinqyyyyyyyyyyyuqe_TVX^_`cehjhc`>,%'-7;@FFFF:0*0:FKLONKIIJJIED<4/17<?CIJJKKKKNPSTUVVVVXY]^_`_^]YXVVTTTSSSSSTVX]^_cjpqvyy!!!!!!!!!!!!!!!!!!!!!",
"!!!!!!!!!!!!!!!!!!!!!!!!!!!!!!!!!!!!!!!!!!!!!!!!!!!!!!!!!!!!!!!!!!!!!!!!!!!!!!!!!!!!YY^__TJ?5/+**)**+/9CNV`_^YN?4:?C@=:720//..+++++++./13:CLSYadhnnnnnjiecacehijjoqvyyyyyyyyyyvujc]]]]^_aacc^WQ>,(-2;?CFC@=9309CPPSSNKDDEEC?=:749=@@@@DILNPSTVY^^_____``acdca``___^^^]]]^^_``ccejnquyyyy!!!!!!!!!!!!!!!!!!!!",
"!!!!!!!!!!!!!!!!!!!!!!!!!!!!!!!!!!!!!!!!!!!!!!!!!!!!!!!!!!!!!!!!!!!!!!!!!!!!!!!!!!!!YY]^^PC71.+*))*+.7CSX`ec_YOC:<?C;40.+**)))&&&&&)))+.15;CKSY_cijnonnjhecccdhjnpqvvyyyyyyyyyyyoha_^Y^_`__^QAA8868<@CDF@:479:COXXVVPJCCCC?:57:;?CFC?;@FNSUX^_ccdedddeehhiiiheeeedddccccdeehjjnnpqvyyyyyy!!!!!!!!!!!!!!!!!!!",
"!!!!!!!!!!!!!!!!!!!!!!!!!!!!!!!!!!!!!!!!!!!!!!!!!!!!!!!!!!!!!!!!!!!!!!!!!!!!!!!!!!!!YYYYYL<0.+*))&).2@Saejoe`YSI????5/*))&&&&&&&&&&&&&)+/15:@KSX`einoooojeccccejpqquvyyyyyyyyyyyqnic_X]^_^XVA8,8>JIIFFFF=4/4=FPXa_^YSI??@@:405<CFKNC=5=EOT]`chjnnnnnnnnooooonnnnnnoonnnnpqqquvvyyyyyyyyyyy!!!!!!!!!!!!!!!!!!",
"!!!!!!!!!!!!!!!!!!!!!!!!!!!!!!!!!!!!!!!!!!!!!!!!!!!!!!!!!!!!!!!!!!!!!!!!!!!!!!!!!!!!^^YVTE:0.+**)).4@NXeijoe_VOE?:51.+)))&&&&&&&&&&&&)*+027:@FNT]aeinnooniedccejpqquvyyyyyyyyyyyqnhdc`^]XURMA>8>BIIFFC@=:74<CNTX_]VTL@999:977;@DCC@?=;BMWY`bhinoooonnnlllllnnnooppqqqpopquuuuvvvvvuuuqrrrlg!!!!!!!!!!!!!!!!!",
"!!!!!!!!!!!!!!!!!!!!!!!!!!!!!!!!!!!!!!!!!!!!!!!!!!!!!!!!!!!!!!!!!!!!!!!!!!!!!!!!!!!!__XTN@7/.+)**+2@SXajjnod]SLC=4/+*)))&&&&&&&&&&))))+.149;?CIPV_aennopnjiedcejpqqvvyyyyyyyyyyyqnheee`XTMAA>>>BBIFFF@:47:=CLTVY^VSNC:22227:?@CF@;7:=@LW[[ghloprrrroollgggllloopqquvuqquuvvvvvvvuqqpooollg[Z!!!!!!!!!!!!!!!!",
"!!!!!!!!!!!!!!!!!!!!!!!!!!!!!!!!!!!!!!!!!!!!!!!!!!!!!!!!!!!!!!!!!!!!!!!!!!!!!!!!!!!!aaXPF=4/+*)*+/=OaejoooocXOIC<0*&&&&&&&&&&&&&))****+/259<?@CLSX_djnoponniechjpquvvyyyyyyyyyyyqneijnaXNG>88BIIFFFFF=4/4=FNTYYYYTNF=4////4=IIII=5/5=IRZgklllrssrrrrrlggggggllrruvyyyyvyyyyyvvuuqpnnjjhgg[[ZZ!!!!!!!!!!!!!!!",
"!!!!!!!!!!!!!!!!!!!!!!!!!!!!!!!!!!!!!!!!!!!!!!!!!!!!!!!!!!!!!!!!!!!!!!!!!!!!!!!!!!!!!aTLC;4/++)+09FVeijonjj_TK@:3.*))))))))))))))*++++.0379<?@CLSY_cjnnpponjieinpquvvyyyyyyyyyvunhcejqe_UMA>>BIFDCCCC?;7=DNPTVUTTLC=:522229?IC@=:94=GRWZ[ggggg[ZZQQQQQAAAAAQQQQZZZZ[[ZZZ[[[[[ZZZZWWWWWWWWQQQQ!!!!!!!!!!!!!!!",
"!!!!!!!!!!!!!!!!!!!!!!!!!!!!!!!!!!!!!!!!!!!!!!!!!!!!!!!!!!!!!!!!!!!!!!!!!!!!!!!!!!!!!!NC?93/.+*/9DS^jjnojieYPC;3.+*)))))******))*+....0147:<?CENT]_chjnqpppnjijnqquyyvvvvuvyyuqoic_dnujc^UMGGGFDCCCCCCCCINTTSSPONC<4579999=CF@:49:=GMWZZ[[[g[QQAAA88,,,,,,,88AAAAAAAAAAAAAAMMAAAAAAAAGGMMMAAA!!!!!!!!!!!!!!!",
"!!!!!!!!!!!!!!!!!!!!!!!!!!!!!!!!!!!!!!!!!!!!!!!!!!!!!!!!!!!!!!!!!!!!!!!!!!!!!!!!!!!!!!!<<71/.+*1@T]doooojeaVL?5/**)))**++++++++*+.00001359:<?CFNU^`cejnqqqqonjnoqqvyyvvuuquvyqoje`]cnyqjd_XSNLFCC????CKOSVYVSOLKF=4/29????CCF=4/4=FMW[[ZZZ[[QAA8,,'''''''''',,,,,,,888888888888,,,,88888>>>AA!!!!!!!!!!!!!!!",
"!!!!!!!!!!!!!!!!!!!!!!!!!!!!!!!!!!!!!!!!!!!!!!!!!!!!!!!!!!!!!!!!!!!!!!!!!!!!!!!!!!!!!!!<<72////:L]ahopqqjc^PD:2.++**++.....+++++./11113599:<?CFNT]`cijoqqqqponopquvyyyvvuuvvyupne`^cjvqnjaYTPLFIIIECCFNSTUVSNKFC@<727<CCCC@@@<94=BMQZZQAAAAAA,,,'''''%%%%%''''''''',,,,,,,,,,,,,,,,,,-08888>86!!!!!!!!!!!!!!",
"!!!!!!!!!!!!!!!!!!!!!!!!!!!!!!!!!!!!!!!!!!!!!!!!!!!!!!!!!!!!!!!!!!!!!!!!!!!!!!!!!!!!!!!<<730135CTdhjoqqvj`VL?40.+++../0000..+++./1333359::;<?CFNT]`djnoqqqqqpopqquvyyyyvvvvyyuqpic^cjqqppe^TPLILNSNJCLPVUTSNJC@=;::9<@CCCC@=;<<=BMWQQQAA,,,,,'''%%%%%%%%%%%%%%%%%%''''''''''''''''''((---06630-!!!!!!!!!!!!!",
"!!!!!!!!!!!!!!!!!!!!!!!!!!!!!!!!!!!!!!!!!!!!!!!!!!!!!!!!!!!!!!!!!!!!!!!!!!!!!!!!!!!!!!!<<9304:?O_ooooqvyj_TE:0/.+./01354320.++./1255559:<<<<?CFNTY`ennpqqqqqqqqquvvyyyyyyyyyyvuqjc^choquyj`VSNINTYTNFNTYVSOKC?<959<?CCFFFF@;5;@FMW[ZQQA,'''''%%%%$$$$$$$$$$$$$$$$$%%%%%%%%%%%%%%%%%'''(((--0//--!!!!!!!!!!!!",
"!!!!!!!!!!!!!!!!!!!!!!!!!!!!!!!!!!!!!!!!!!!!!!!!!!!!!!!!!!!!!!!!!!!!!!!!!!!!!!!!!!!!!!!<<973:CLVaoooonnn`TJ?910/./011110/.++*+./1257799:<<<<?CFNSV^cinoqqqqqqqquuvyyyyyyyyyyyvuune`chnoqund_XTOSVYTNFJLNKEC?=<<;;=?C@?=??@=;9?GMQQQQAA,,''''%%%%$$$$$$$$$$$$$$$$$$$%%%%%%%%%%%%%%%%%'''(((+---++!!!!!!!!!!!!",
"!!!!!!!!!!!!!!!!!!!!!!!!!!!!!!!!!!!!!!!!!!!!!!!!!!!!!!!!!!!!!!!!!!!!!!!!!!!!!!!!!!!!!!!<<:99@LV_eoooojecVL?:511111231/..++***++/12579::;<<<<?CFLPU]`ejouqqqqqqquvvyyyyyyyyyyyvvunicehjnpqnje`]UVXYTNFDC@=:7799;=@CCC?:479;;<<BMWQQQAAA,'''%%%%$$$$$$$$$$$$$$$$$$$$$$$%%%%$$$$%%%%%%%%%'''(((((((!!!!!!!!!!!!",
"!!!!!!!!!!!!!!!!!!!!!!!!!!!!!!!!!!!!!!!!!!!!!!!!!!!!!!!!!!!!!!!!!!!!!!!!!!!!!!!!!!!!!!!<<<<<IUaejooooe`YN@54323455551.+**))))*+/1259:<<<<<<<?CFLPTX^chovuqpqqquuvyyyyyyyyyyyyyvvpjehhijnppooha^]]YTNF@;520/025;@FFFF=4/0259<?KQ[QQAA8,,'%%%%%$$$$$$$$$######$$$$$$$$$$$$$$$$$$$$%%%%%%%%%'''''''!!!!!!!!!!!!",
"!!!!!!!!!!!!!!!!!!!!!!!!!!!!!!!!!!!!!!!!!!!!!!!!!!!!!!!!!!!!!!!!!!!!!!!!!!!!!!!!!!!!!!!??@@CNYeijonjjaXSI?9775421.+*)))))))))*+.0399:<<<<<<<?CFLOSV]`enuqpopqquuvyyyyyvvuuvvyyvvqojjihda_ceic^VVVVSNF?9211037;?CFDC@:40259=BKMQQAAA,,'''%%%%$$$$$$$$$#######$$$$$$$$$$$$$$$$$$$$$%%%%%%%%%'''''''!!!!!!!!!!!",
"!!!!!!!!!!!!!!!!!!!!!!!!!!!!!!!!!!!!!!!!!!!!!!!!!!!!!!!!!!!!!!!!!!!!!!!!!!!!!!!!!!!!!!!CCDFIT_jjnojie^SIC?::9940.*)&&&&&&&&&))*+/3::;<<<<<<<?CFKNPTX^cjqppopqquuvvyyyvuqqqquvvyyuqpnjh`XPV^c^VPSTUPLF?701127<@CDFC?;95259<BMQQAAA8,,''%%%%%$$$$$$$$$#########$$$$$$$$$$$$$$$$$$$$$%%%%%%%%%'''''''!!!!!!!!!!",
"!!!!!!!!!!!!!!!!!!!!!!!!!!!!!!!!!!!!!!!!!!!!!!!!!!!!!!!!!!!!!!!!!!!!!!!!!!!!!!!!!!!!!!!FFKLOXcoooojeaVL??=<<<<4/+)&$$$$&&&&&&))*.3<<<<<<<<<<?CFKLOSVY`hpoonoqquuvvyyvuqqpoqqvvyyyvvpjeYN@LU_XSLNPSOLF=4/025;@FFFF@;55559<?KQ[QA,,,,'%%%%$$$$$$$$$$$##########$$$$$$$$$%$$$$$$$$$$$$%%%%%%%%%'''''''!!!!!!!!!",
"!!!!!!!!!!!!!!!!!!!!!!!!!!!!!!!!!!!!!!!!!!!!!!!!!!!!!!!!!!!!!!!!!!!!!!!!!!!!!!!!!!!!!!!FFKLOXcoooojeaVL??=<<<<4/+)&$$$$&&&&&&))*.3<<<<<<<<<<?CFKLOSVY`hpoonoqquuvvyyvuqqpoqqvvyyyvvpjeYN@LU_XSLNPSOLF=4/025;@FFFF@;55559<?KQ[QA,,,,'%%%%$$$$$$$$$$$##########$$$$$$$$$%$$$$$$$$$$$$%%%%%%%%%'''''''!!!!!!!!!"
};