/* XPM */
static char * result[] = {
"300 300 92 1",
"! c #000000",
"# c #FFFFFF",
"$ c #FFFFF0",
"% c #FDF2F0",
"& c #FFF6D4",
"' c #FEF28A",
"( c #FBDD91",
") c #FBBE59",
"* c #FC9A28",
"+ c #CAB489",
", c #B6926A",
"- c #E67E28",
". c #E2641D",
"/ c #A7805F",
"0 c #9E6944",
"1 c #76746A",
"2 c #69645F",
"3 c #685D53",
"4 c #595A5A",
"5 c #EC4615",
"6 c #B9450D",
"7 c #745137",
"8 c #6F4225",
"9 c #545455",
": c #525251",
"; c #504F4F",
"< c #544230",
"= c #4D4D4D",
"> c #4B4B4B",
"? c #484848",
"@ c #474645",
"A c #454445",
"B c #434343",
"C c #48443D",
"D c #473A2C",
"E c #414141",
"F c #3F3F3F",
"G c #3D3D3D",
"H c #3B3A3A",
"I c #383938",
"J c #373737",
"K c #363636",
"L c #363432",
"M c #323333",
"N c #313130",
"O c #8D2011",
"P c #38281C",
"Q c #2F2F2F",
"R c #30271F",
"S c #2D2E2D",
"T c #2C2826",
"U c #2A2B2B",
"V c #292927",
"W c #282828",
"X c #262525",
"Y c #271E18",
"Z c #232424",
"[ c #222222",
"] c #212121",
"^ c #201F1F",
"_ c #1F1D1C",
"` c #1B1C1C",
"a c #1A1A1A",
"b c #201814",
"c c #171818",
"d c #1D1411",
"e c #1B0D09",
"f c #151616",
"g c #141414",
"h c #121313",
"i c #111011",
"j c #0F0F11",
"k c #100E0D",
"l c #0D0C0C",
"m c #0F0907",
"n c #0B0A0B",
"o c #09090B",
"p c #080808",
"q c #070707",
"r c #080505",
"s c #050505",
"t c #040404",
"u c #030304",
"v c #020202",
"w c #020101",
"x c #01030E",
"y c #010201",
"z c #010101",
"{ c #00020E",
"| c #0E0000",
"} c #000004",
"~ c #010101",
"!!!!!!!!!!!!!!!!!!!!!!!!!!!!!!!!!!!!!!!!!!!!!!!!!!!!!!!!!!!!!!!!!!!!!!!!!!!!!!11/,++++,/00!!!!!!!!!////00!!!!!!!!!!!!!!!!!!!!!++++,,!!!!!!!!!!!!!!!!!!!!!!!!!!!!!!!!!!!!!!!!!!!!!!!!!!!!!!!!!!!!!!!!!!!!!!!!!!!!!!!!!!!!!!!!!!!!!!!!!!!!!!!!!!!!!!!!!!!!!!!!!!!!!!!!!!!!!!!!!!!!!!!!!!!!!!!!!!!!!!!!!!!!!!!!",
"!!!!!!!!!!!!!!!!!!!!!!!!!!!!!!!!!!!!!!!!!!!!!!!!!!!!!!!!!!!!!!!!!!!!!!!!!!!!!!11/,++++,/00!!!!!!!!!////00!!!!!!!!!!!!!!!!!!!!!++++,,!!!!!!!!!!!!!!!!!!!!!!!!!!!!!!!!!!!!!!!!!!!!!!!!!!!!!!!!!!!!!!!!!!!!!!!!!!!!!!!!!!!!!!!!!!!!!!!!!!!!!!!!!!!!!!!!!!!!!!!!!!!!!!!!!!!!!!!!!!!!!!!!!!!!!!!!!!!!!!!!!!!!!!!!",
"!!!!!!!!!!!!!!!!!!!!!!!!!!!!!!!!!!!!!!!!!!!!!!!!!!!!!!!!!!!!!!!!!!!!!!!!!!!!!111//,,,,,/.00!!!!!!!50/00000!!!!!!!!!!!!!!!!!!!,,,,///!!!!!!!!!!!!!!!!!!!!!!!!!!!!!!!!!!!!!!!!!!!!!!!!!!!!!!!!!!!!!!!!!!!!!!!!!!!!!!!!!!!!!!!!!!!!!!!!!!!!!!!!!!!!!!!!!!!!!!!!!!!!!!!!!!!!!!!!!!!!!!!!!!!!!!!!!!!!!!!!!!!!!!!!",
"!!!!!!!!!!!!!!!!!!!!!!!!!!!!!!!!!!!!!!!!!!!!!!!!!!!!!!!!!!!!!!!!!!!!!!!!!!!!3111///////.5../!!!!!555..000000/,,/1!!!!!!!!!!!/////066!!!!!!!!!!!!!!!!!!!!!!!!!!!!!!!!!!!!!!!!!!!!!!!!!!!!!!!!!!!!!!!!!!!!!!!!!!!!!!!!!!!!!!!!!!!!!!!!!!!!!!!!!!!!!!!!!!!!!!!!!!!!!!!!!!!!!!!!!!!!!!!!!!!!!!!!!!!!!!!!!!!!!!!!",
"!!!!!!!!!!!!!!!!!!!!!!!!!!!!!!!!!!!!!!!!!!!!!!!!!!!!!!!!!!!!!!!!!!!!!!!!!!!333110000000.5..//!!!555555.00000/,,/11!!!!!!!!!///1108OO!!!!!!!!!!!!!!!!!!!!!!!!!!!!!!!!!!!!!!!!!!!!!!!!!!!!!!!!!!!!!!!!!!!!!!!!!!!!!!!!!!!!!!!!!!!!!!!!!!!!!!!!!!!!!!!!!!!!!!!!!!!!!!!!!!!!!!!!!!!!!!!!!!!!!!!!!!!!!!!!!!!!!!!!",
"!!!!!!!!!!!!!!!!!!!!!!!!!!!!!!!!!!!!!!!!!!!!!!!!!!!!!!!!!!!!!!!!!!!!!!!!!!!3300//////,-.5../,,!555555556666600001//!!!!!!!00000776666!!!!!!!!!!!!!!!!!!!!!!!!!!!!!!!!!!!!!!!!!!!!!!!!!!!!!!!!!!!!!!!!!!!!!!!!!!!!!!!!!!!!!!!!!!!!!!!!!!!!!!!!!!!!!!!!!!!!!!!!!!!!!!!!!!!!!!!!!!!!!!!!!!!!!!!!!!!!!!!!!!!!!!!",
"!!!!!!!!!!!!!!!!!!!!!!!!!!!!!!!!!!!!!!!!!!!!!!!!!!!!!!!!!!!!!!!!!!!!!!!!!!!7700//,***)--.----,).5555555555566O7700/,//003300007886666O0/,!!!!!!!!!!!!!!!!!!!!!!!!!!!!!!!!!!!!!!!!!!!!!!!!!!!!!!!!!!!!!!!!!!!!!!!!!!!!!!!!!!!!!!!!!!!!!!!!!!!!!!!!!!!!!!!!!!!!!!!!!!!!!!!!!!!!!!!!!!!!!!!!!!!!!!!!!!!!!!!!!!!",
"!!!!!!!!!!!!!!!!!!!!!!!!!!!!!!!!!!!!!!!!!!!!!!!!!!!!!!!!!!!!!!!!!!!!!!!!!!!7700/****)))*------)-555555555555OOOOO0/,//003300.66866.66O0/,,!!!!!!!!!!!!!!!!!!!!!!!!!!!!!!!!!!!!!!!!!!!!!!!!!!!!!!!!!!!!!!!!!!!!!!!!!!!!!!!!!!!!!!!!!!!!!!!!!!!!!!!!!!!!!!!!!!!!!!!!!!!!!!!!!!!!!!!!!!!!!!!!!!!!!!!!!!!!!!!!!!",
"!!!!!!!!!!!!!!!!!!!!!!!!!!!!!!!!!!!!!!!!!!!!!!!!!!!!!!!!!!!!!!!!!!!!!!!!!!!00//-****))))**--)))-.555555555556666600/00000006666O66666O60///!!!!!!!!!!!!!!!!!!!!!!!!!!!!!!!!!!!!!!!!!!!!!!!!!!!!!!!!!!!!!!!!!!!!!!!!!!!!!!!!!!!!!!!!!!!!!!!!!!!!!!!!!!!!!!!!!!!!!!!!!!!!!!!!!!!!!!!!!!!!!!!!!!!!!!!!!!!!!!!!!",
"!!!!!!!!!!!!!!!!!!!!!!!!!!!!!!!!!!!!!!!!!!!!!!!!!!!!!!!!!!!!!!!!!!!!!!!!!!!///,*****))))))))))+)-5555555555555555.00066600.66666666666660011!!!!!!!!+!!!!!!!!!!!!!!!!!!!!!!!!!!!!!!!!!!!!!!!!!!!!!!!!!!!!!!!!!!!!!!!!!!!!!!!!!!!!!!!!!!!!!!!!!!!!!!!!!!!!!!!!!!!!!!!!!!!!!!!!!!!!!!!!!!!!!!!!!!!!!!!!!!!!!!!",
"!!!!!!!!!!!!!!!!!!!!!!!!!!!!!!!!!!!!!!!!!!!!!!!!!!!!!!!!!!!!!!!!!!!!!!!!!!!,,,******))))))))))+)--.555555555555555.06655.-.566666666666OO7111!!!!!!+++!!!!!!!!!!!!!!!!!!!!!!!!!!!!!!!!!!!!!!!!!!!!!!!!!!!!!!!!!!!!!!!!!!!!!!!!!!!!!!!!!!!!!!!!!!!!!!!!!!!!!!!!!!!!!!!!!!!!!!!!!!!!!!!!!!!!!!!!!!!!!!!!!!!!!!",
"!!!!!!!!!!!!!!!!!!!!!!!!!!!!!!!!!!!!!!!!!!!!!!!!!!!!!!!!!!!!!!!!!!!!!!!!!!!!,,******)))))))))))))*--.5555555555555..5555...555666666666666001/!!!!/,,,!!!!!!!!!!!!!!!!!!!!!!!!!!!!!!!!!!!!!!!!!!!!!!!!!!!!!!!!!!!!!!!!!!!!!!!!!!!!!!!!!!!!!!!!!!!!!!!!!!!!!!!!!!!!!!!!!!!!!!!!!!!!!!!!!!!!!!!!!!!!!!!!!!!!!!",
"!!!!!!!!!!!!!!!!!!!!!!!!!!!!!!!!!!!!!!!!!!!!!!!!!!!!!!!!!!!!!!!!!!!!!!!!!!!!!,******))))))))))))))*--.55555555555...5555..55555556666666666700//373111!!!!!!!!!!!!!!!!!!!!!!!!!!!!!!!!!!!!!!!!!!!!!!!!!!!!!!!!!!!!!!!!!!!!!!!!!!!!!!!!!!!!!!!!!!!!!!!!!!!!!!!!!!!!!!!!!!!!!!!!!!!!!!!!!!!!!!!!!!!!!!!!!!!!!!",
"!!!!!!!!!!!!!!!!!!!!!!!!!!!!!!!!!!!!!!!!!!!!!!!!!!!!!!!!!!!!!!!!!!!!!!!!!!!!!!******))))))))))))))***-..55555.............55555.55655555.66O70//377777!!!!!!!!!!!!!!!!!!!!!!!!!!!!!!!!!!!!!!!!!!!!!!!!!!!!!!!!!!!!!!!!!!!!!!!!!!!!!!!!!!!!!!!!!!!!!!!!!!!!!!!!!!!!!!!!!!!!!!!!!!!!!!!!!!!!!!!!!!!!!!!!!!!!!!",
"!!!!!!!!!!!!!!!!!!!!!!!!!!!!!!!!!!!!!!!!!!!!!!!!!!!!!!!!!!!!!!!!!!!!!!!!!!!!!0--****)))))))))))))))****-..5....------.....55555.5555555556666600788877!!!!!!!!!!!!!!!!!!!!!!!!!!!!!!!!!!!!!!!!!!!!!!!!!!!!!!!!!!!!!!!!!!!!!!!!!!!!!!!!!!!!!!!!!!!!!!!!!!!!!!!!!!!!!!!!!!!!!!!!!!!!!!!!!!!!!!!!!!!!!!!!!!!!!!",
"!!!!!!!!!!!!!!!!!!!!!!!!!!!!!!!!!!!!!!!!!!!!!!!!!!!!!!!!!!!!!!!!!!!!!!!!!!!!100-****)))))))')))))))******-..--********-...5555.-.555555555566666OO8888!!!!!!!!!!!!!!!!!!!!!!!!!!!!!!!!!!!!!!!!!!!!!!!!!!!!!!!!!!!!!!!!!!!!!!!!!!!!!!!!!!!!!!!!!!!!!!!!!!!!!!!!!!!!!!!!!!!!!!!!!!!!!!!!!!!!!!!!!!!!!!!!!!!!!!",
"!!!!!!!!!!!!!!!!!!!!!!!!!!!!!!!!!!!!!!!!!!!!!!!!!!!!!!!!!!!!!!!!!!!!!!!!!!!1100--***))))))'''))))))))******************-......-*.55555555555556OOOOO88!!!!!!!!!!!!!!!!!!!!!!!!!!!!!!!!!!!!!!!!!!!!!!!!!!!!!!!!!!!!!!!!!!!!!!!!!!!!!!!!!!!!!!!!!!!!!!!!!!!!!!!!!!!!!!!!!!!!!!!!!!!!!!!!!!!!!!!!!!!!!!!!!!!!!!",
"!!!!!!!!!!!!!!!!!!!!!!!!!!!!!!!!!!!!!!!!!!!!!!!!!!!!!!!!!!!!!!!!!!!!!!!!!!333000-***))))))'''''''))))))******************--..-**-.555555555555566OOOOO!!!!!!!!!!!!!!!!!!!!!!!!!!!!!!!!!!!!!!!!!!!!!!!!!!!!!!!!!!!!!!!!!!!!!!!!!!!!!!!!!!!!!!!!!!!!!!!!!!!!!!!!!!!!!!!!!!!!!!!!!!!!!!!!!!!!!!!!!!!!!!!!!!!!!!",
"!!!!!!!!!!!!!!!!!!!!!!!!!!!!!!!!!!!!!!!!!!!!!!!!!!!!!!!!!!!!!!!!!!!!!!!!!7777000-***))))))''''''''')))))))******)))))*******-****-.....5555555556OOOOO!!!!!!!!!!666.!!!!!!!!!!!!!!!!!!!!!!!!!!!!!!!!!!!!!!!!!!!!!!!!!!!!!!!!!!!!!!!!!!!!!!!!!!!!!!!!!!!!!!!!!!!!!!!!!!!!!!!!!!!!!!!!!!!!!!!!!!!!!!!!!!!!!!!!",
"!!!!!!!!!!!!!!!!!!!!!!!!!!!!!!!!!!!!!!!!!!!!!!!!!!!!!!!!!!!!!!!!!!!!!!!!77777700--**))))))''''''''''')))))))***)))))))))**************-...--..55566OOO!!!!!!!!!6666..!!!!!!!!!!!!!!!!!!!!!!!!!!!!!!!!!!!!!!!!!!!!!!!!!!!!!!!!!!!!!!!!!!!!!!!!!!!!!!!!!!!!!!!!!!!!!!!!!!!!!!!!!!!!!!!!!!!!!!!!!!!!!!!!!!!!!!!",
"!!!!!!!!!!!!!!!!!!!!!!!!!!!!!!!!!!!!!!!!!!!!!!!!!!!!!!!!!!!!!!!!!!!!!!!!!7778706--*))))))'''''''''''''((()))))))))))))))))**************--**--.5555666!!!!!!!!66666.60!!!!!!!!!!!!!!!!!!!!!!!!!!!!!!!!!!!!!!!!!!!!!!!!!!!!!!!!!!!!!!!!!!!!!!!!!!!!!!!!!!!!!!!!!!!!!!!!!!!!!!!!!!!!!!!!!!!!!!!!!!!!!!!!!!!!!!",
"!!!!!!!!!!!!!!!!!!!!!!!!!!!!!!!!!!!!!!!!!!!!!!!!!!!!!!!!!!!!!!!!!!!!!!!!!!888865.*))))))'''''&&&&&&&(((((((())))))))))'))))******************--5555555!!!!--.666666.607!!!!!!!!!!!!!!!!!!!!!!!!!!!!!!!!!!!!!!!!!!!!!!!!!!!!!!!!!!!!!!!!!!!!!!!!!!!!!!!!!!!!!!!!!!!!!!!!!!!!!!!!!!!!!!!!!!!!!!!!!!!!!!!!!!!!!",
"!!!!!!!!!!!!!!!!!!!!!!!!!!!!!!!!!!!!!!!!!!!!!!!!!!!!!!!!!!!!!!!!!!!!!!!!!!!88O65.*))))'''''&&&$$&&&&&&&&(('((((('''''''''))))******************.555555!!!---.666666.0777!!!!!!!!!!!!!!!!!!!!!!!!!!!!!!!!!!!!!!!!!!!!!!!!!!!!!!!!!!!!!!!!!!!!!!!!!!!!!!!!!!!!!!!!!!!!!!!!!!!!!!!!!!!!!!!!!!!!!!!!!!!!!!!!!!!!",
"!!!!!!!!!!!!!!!!!!!!!!!!!!!!!!!!!!!!!!!!!!!!!!!!!!!!!!!!!!!!!!!!!!!!!!!!!!!88O65.-)))))'''''&&$$$$$&&&&&&&&((((((((('''''(()))))*****))********.5555555!----....6...6000!!!!!!!!!!!!!!!!!!!!!!!!!!!!!!!!!!!!!!!!!!!!!!!!!!!!!!!!!!!!!!!!!!!!!!!!!!!!!!!!!!!!!!!!!!!!!!!!!!!!!!!!!!!!!!!!!!!!!!!!!!!!!!!!!!!!",
"!!!!!!!!!!!!!!!!!!!!!!!!!!!!!!!!!!!!!!!!!!!!!!!!!!!!!!!!!!!!!!!!!!!!!!!!!!!OO6655-*)))))''''&&$$$$$$$%%%&&&&&((((((((((((((())))))))))))))*****-..55555.-**---.......000!!!!!!!!!!!!!!!!!!!!!!!!!!!!!!!!!!!!!!!!!!!!!!!!!!!!!!!!!!!!!!!!!!!!!!!!!!!!!!!!!!!!!!!!!!!!!!!!!!!!!!!!!!!!!!!!!!!!!!!!!!!!!!!!!!!!",
"!!!!!!!!!!!!!!!!!!!!!!!!!!!!!!!!!!!!!!!!!!!!!!!!!!!!!!!!!!!!!!!!!!!!!!!!!!!OO6655-**))))''''&&########%%%%%&&&&&&&&&&&&&&&((((()))))))))))********-.....-****----....---!!!!!!!!!!!!!!!!!!!!!!!!!!!!!!!!!!!!!!!!!!!!!!!!!!!!!!!!!!!!!!!!!!!!!!!!!!!!!!!!!!!!!!!!!!!!!!!!!!!!!!!!!!!!!!!!!!!!!!!!!!!!!!!!!!!!",
"!!!!!!!!!!!!!!!!!!!!!!!!!!!!!!!!!!!!!!!!!!!!!!!!!!!!!!!!!!!!!!!!!!!!!!!!!!!666655.****)))'''&&$########%%%%%&&&&&&&&&&&&&&&((((((((''''))))***********--******---...----!!!!!!!!!!!!!!!!!!!!!!!!!!!!!!!!!!!!!!!!!!!!!!!!!!!!!!!!!!!!!!!!!!!!!!!!!!!!!!!!!!!!!!!!!!!!!!!!!!!!!!!!!!!!!!!!!!!!!!!!!!!!!!!!!!!!",
"!!!!!!!!!!!!!!!!!!!!!!!!!!!!!!!!!!!!!!!!!!!!!!!!!!!!!!!!!!!!!!!!!!!!!!!!!!!0065555--***))'''&&%%########%%%%&&&&&&&&&&&&&&&&&&(((((''''''))))*****************--....--,,!!!!!!!!!!!!!!!!!!!!!!!!!!!!!!!!!!!!!!!!!!!!!!!!!!!!!!!!!!!!!!!!!!!!!!!!!!!!!!!!!!!!!!!!!!!!!!!!!!!!!!!!!!!!!!!!!!!!!!!!!!!!!!!!!!!!",
"!!!!!!!!!!!!!!!!!!!!!!!!!!!!!!!!!!!!!!!!!!!!!!!!!!!!!!!!!!!!!!!!!!!!!!!!!!!--.55555.-***))'''&%%#########%%%%&&&&&&&&&&&&&&&&&&&&&&''''''')))****))))*********-...---,,,!!!!!!!!!!!!!!!!!!!!!!!!!!!!!!!!!!!!!!!!!!!!!!!!!!!!!!!!!!!!!!!!!!!!!!!!!!!!!!!!!!!!!!!!!!!!!!!!!!!!!!!!!!!!!!!!!!!!!!!!!!!!!!!!!!!!",
"!!!!!!!!!!!!!!!!!!!!!!!!!!!!!!!!!!!!!!!!!!!!!!!!!!!!!!!!!!!!!!!!!!!!!!!!!!!--.555555.-**))'''&%%%########%%%%&&&&&&&&&&&&&&&&&&&&&&&'''''''')))))))))))))*****-.5...-///0!!!!!!!!!!!!!!!!!!!!!!!!!!!!!!!!!!!!!!!!!!!!!!!!!!!!!!!!!!!!!!!!!!!!!!!!!!!!!!!!!!!!!!!!!!!!!!!!!!!!!!!!!!!!!!!!!!!!!!!!!!!!!!!!!!!",
"!!!!!!!!!!!!!!!!!!!!!!!!!!!!!!!!!!!!!!!!!!!!!!!!!!!!!!!!!!!!!!!!!!!!!!!!!!!--.5555555.***))''&%%%########%%%%&&&&&&&&&&&&&&&&&&&&&&&&&&&'''''')))))))))))))***..555..00066!!!!!!!!!!!!!!!!!!!!!!!!!!!!!!!!!!!!!!!!!!!!!!!!!!!!!!!!!!!!!!!!!!!!!!!!!!!!!!!!!!!!!!!!!!!!!!!!!!!!!!!!!!!!!!!!!!!!!!!!!!!!!!!!!!",
"!!!!!!!!!!!!!!!!!!!!!!!!!!!!!!!!!!!!!!!!!!!!!!!!!!!!!!!!!!!!!!!!!!!!!!!!!!!--.5555555.-**))''&&%%%########%%%$&&&&&&&&&&&&&&&&&&&&&&&&&&&&&''''''''''''')))***.55555.077666!!!!!!!!!!!!!!!!!!!!!!!!!!!!!!!!!!!!!!!!!!!!!!!!!!!!!!!!!!!!!!!!!!!!!!!!!!!!!!!!!!!!!!!!!!!!!!!!!!!!!!!!!!!!!!!!!!!!!!!!!!!!!!!!!",
"!!!!!!!!!!!!!!!!!!!!!!!!!!!!!!!!!!!!!!!!!!!!!!!!!!!!!!!!!!!!!!!!!!!!!!!!!!!--.5555555.-**))''(&%%%%########%$$$$$&&&&&&&&&&&&&&&&&&&&&&&&&&&'''''''''''')))***.5555560706666!!!!!!!!!!!!!!!!!!!!!!!!!!!!!!!!!!!!!!!!!!!!!!!!!!!!!!!!!!!!!!!!!!!!!!!!!!!!!!!!!!!!!!!!!!!!!!!!!!!!!!!!!!!!!!!!!!!!!!!!!!!!!!!!",
"!!!!!!!!!!!!!!!!!!!!!!!!!!!!!!!!!!!!!!!!!!!!!!!!!!!!!!!!!!!!!!!!!!!!!!!!!!!....555555.-**)))'(&&%%%%########$$$$$$$%&&&&&&&&&&&&&&&&&&&&&&&&&&&''('''''''))***.555..607666603!!!!!!!!!!!!!!!!!!!!!!!!!!!!!!!!!!!!!!!!!!!!!!!!!!!!!!!!!!!!!!!!!!!!!!!!!!!!!!!!!!!!!!!!!!!!!!!!!!!!!!!!!!!!!!!!!!!!!!!!!!!!!!!",
"!!!!!!!!!!!!!!!!!!!!!!!!!!!!!!!!!!!!!!!!!!!!!!!!!!!!!!!!!!!!!!!!!!!!!!!!!!!.....55555.-***))((&&%%%%%##########$$$$$$$&&&&&&&&&&&&&&&&&&&&&&&&&&&&&''''''))***.555..6676666033!!!!!!!!!!!!!!!!!!!!!!!!!!!!!!!!!!!!!!!!!!!!!!!!!!!!!!!!!!!!!!!!!!!!!!!!!!!!!!!!!!!!!!!!!!!!!!!!!!!!!!!!!!!!!!!!!!!!!!!!!!!!!!",
"!!!!!!!!!!!!!!!!!!!!!!!!!!!!!!!!!!!!!!!!!!!!!!!!!!!!!!!!!!!!!!!!!!!!!!!!!!!6666655555.-***))(((&%%%%%###########$$$$$$$$$&&&&&&&&&&&&&&&&&&&&&&&&&&&&''''))****.5...6666666077!!!!!!!!!!!!!!!!!!!!!!!!!!!!!!!!!!!!!!!!!!!!!!!!!!!!!!!!!!!!!!!!!!!!!!!!!!!!!!!!!!!!!!!!!!!!!!!!!!!!!!!!!!!!!!!!!!!!!!!!!!!!!!",
"!!!!!!!!!!!!!!!!!!!!!!!!!!!!!!!!!!!!!!!!!!!!!!!!!!!!!!!!!!!!!!!!!!!!!!!!!!!6666655555..-**)))((&&%%%%##############$$$$$$$$$$$$&&&&$$$&&&&&&&&&&&&&&&&('()))****...556666.6666!!!!!!!!!!!!!!!!!!!!!!!!!!!!!!!!!!!!!!!!!!!!!!!!!!!!!!!!!!!!!!!!!!!!!!!!!!!!!!!!!!!!!!!!!!!!!!!!!!!!!!!!!!!!!!!!!!!!!!!!!!!!!!",
"!!!!!!!!!!!!!!!!!!!!!!!!!!!!!!!!!!!!!!!!!!!!!!!!!!!!!!!!!!!!!!!!!!!!!!!!!!!66666555555.-**)))(((&%%%%###################$$$$$$$$$$$$$$$$&&&&&&&&&&&&&&&(()))*****.5555666.6666!!!!!!!!!!!!!!!!!!!!!!!!!!!!!!!!!!!!!!!!!!!!!!!!!!!!!!!!!!!!!!!!!!!!!!!!!!!!!!!!!!!!!!!!!!!!!!!!!!!!!!!!!!!!!!!!!!!!!!!!!!!!!!",
"!!!!!!!!!!!!!!!!!!!!!!!!!!!!!!!!!!!!!!!!!!!!!!!!!!!!!!!!!!!!!!!!!!!!!!!!!!!66666655...-***)))(((&%%%%%###################$$$$$$$$$$$$$$$$$$$$$$$$$%%%&&&(())*****.555555...666!!!!!!!!!!!!!!!!!!!!!!!!!!!!!!!!!!!!!!!!!!!!!!!!!!!!!!!!!!!!!!!!!!!!!!!!!!!!!!!!!!!!!!!!!!!!!!!!!!!!!!!!!!!!!!!!!!!!!!!!!!!!!!",
"!!!!!!!!!!!!!!!!!!!!!!!!!!!!!!!!!!!!!!!!!!!!!!!!!!!!!!!!!!!!!!!!!!!!!!!!!!!88O666....-****)))(((&%%%%%%#####################$$$$$$$$$$$$$$$$$$$$$$%%%&&&(()))****.555555....66!!!!!!!!!!!!!!!!!!!!!!!!!!!!!!!!!!!!!!!!!!!!!!!!!!!!!!!!!!!!!!!!!!!!!!!!!!!!!!!!!!!!!!!!!!!!!!!!!!!!!!!!!!!!!!!!!!!!!!!!!!!!!!",
"!!!!!!!!!!!!!!!!!!!!!!!!!!!!!!!!!!!!!!!!!!!!!!!!!!!!!!!!!!!!!!!!!!!!!!!!!!!888666.---*****)))''(&&%%%%%%###########################################%%%&&(()))****.555555......!!!!!!!!!!!!!!!!!!!!!!!!!!!!!!!!!!!!!!!!!!!!!!!!!!!!!!!!!!!!!!!!!!!!!!!!!!!!!!!!!!!!!!!!!!!!!!!!!!!!!!!!!!!!!!!!!!!!!!!!!!!!!!",
"!!!!!!!!!!!!!!!!!!!!!!!!!!!!!!!!!!!!!!!!!!!!!!!!!!!!!!!!!!!!!!!!!!!!!!!!!!!!8866..---****))))''(&&%%%%%%#################################%&++++&%##%%%%&&(())****.555555......!!!!!!!!!!!!!!!!!!!!!!!!!!!!!!!!!!!!!!!!!!!!!!!!!!!!!!!!!!!!!!!!!!!!!!!!!!!!!!!!!!!!!!!!!!!!!!!!!!!!!!!!!!!!!!!!!!!!!!!!!!!!!!",
"!!!!!!!!!!!!!!!!!!!!!!!!!!!!!!!!!!!!!!!!!!!!!!!!!!!!!!!!!!!!!!!!!!!!!!!!!!!!!666.----***))))(''(&&%%%%%%#################################&+//00,&##%%%%%&(())****.555555.-----!!!!!!!!!!!!!!!!!!!!!!!!!!!!!!!!!!!!!!!!!!!!!!!!!!!!!!!!!!!!!!!!!!!!!!!!!!!!!!!!!!!!!!!!!!!!!!!!!!!!!!!!!!!!!!!!!!!!!!!!!!!!!!",
"!!!!!!!!!!!!!!!!!!!!!!!!!!!!!!!!!!!!!!!!!!!!!!!!!!!!!!!!!!!!!!!!!!!!!!!!!!!!!!..--,--***))))'''(&&&%$%%%#################################+/OOOP0+###%%%%&(())****.555555.-----!!!!!!!!!!!!!!!!!!!!!!!!!!!!!!!!!!!!!!!!!!!!!!!!!!!!!!!!!!!!!!!!!!!!!!!!!!!!!!!!!!!!!!!!!!!!!!!!!!!!!!!!!!!!!!!!!!!!!!!!!!!!!!",
"!!!!!!!!!!!!!!!!!!!!!!!!!!!!!!!!!!!!!!!!!!!!!!!!!!!!!!!!!!!!!!!!!!!!!!!!!!!!!!!.-,,-****))))'''(&&&%%%%%#################################+,6OOO7,+&%#%%%&&(())***-.55555..----!!!!!!!!!!!!!!!!!!!!!!!!!!!!!!!!!!!!!!!!!!!!!!!!!!!!!!!!!!!!!!!!!!!!!!!!!!!!!!!!!!!!!!!!!!!!!!!!!!!!!!!!!!!!!!!!!!!!!!!!!!!!!!",
"!!!!!!!!!!!!!!!!!!!!!!!!!!!!!!!!!!!!!!!!!!!!!!!!!!!!!!!!!!!!!!!!!!!!!!!!!!!!!!!!,,+)*****)))'''(&&&%%%%%#################################+,6OOO831+&##%%%&((())***-555555..---!!!!!!!!!!!!!!!!!!!!!!!!!!!!!!!!!!!!!!!!!!!!!!!!!!!!!!!!!!!!!!!!!!!!!!!!!!!!!!!!!!!!!!!!!!!!!!!!!!!!!!!!!!!!!!!!!!!!!!!!!!!!!!",
"!!!!!!!!!!!!!!!!!!!!!!!!!!!!!!!!!!!!!!!!!!!!!!!!!!!!!!!!!!!!!!!!!!!!!!!!!!!!!!!!!++)*****)))'''(&&&%%%%%#################################(,668O8<H1+####%&&((())***.555555.---!!!!!!!!!!!!!!!!!!!!!!!!!!!!!!!!!!!!!!!!!!!!!!!!!!!!!!!!!!!!!!!!!!!!!!!!!!!!!!!!!!!!!!!!!!!!!!!!!!!!!!!!!!!!!!!!!!!!!!!!!!!!!!",
"!!!!!!!!!!!!!!!!!!!!!!!!!!!!!!!!!!!!!!!!!!!!!!!!!!!!!!!!!!!!!!!!!!!!!!!!!!!!!!!!!++)******))'''(&&&&%%%######################%&&&&&&+++++,/688O8DH1+###%%&&((()))**..55555.---!!!!!!!!!!!!!!!!!!!!!!!!!!!!!!!!!!!!!!!!!!!!!!!!!!!!!!!!!!!!!!!!!!!!!!!!!!!!!!!!!!!!!!!!!!!!!!!!!!!!!!!!!!!!!!!!!!!!!!!!!!!!!!",
"!!!!!!!!!!!!!!!!!!!!!!!!!!!!!!!!!!!!!!!!!!!!!!!!!!!!!!!!!!!!!!!!!!!!!!!!!!!!!!!!!,,*******)))''(&&&&%%%######################&+++++,,,,//00688PPDL1+#%%%%&&&((())***..5555.---!!!!!!!!!!!!!!!!!!!!!!!!!!!!!!!!!!!!!!!!!!!!!!!!!!!!!!!!!!!!!!!!!!!!!!!!!!!!!!!!!!!!!!!!!!!!!!!!!!!!!!!!!!!!!!!!!!!!!!!!!!!!!!",
"!!!!!!!!!!!!!!!!!!!!!!!!!!!!!!!!!!!!!!!!!!!!!!!!!!!!!!!!!!!!!!!!!!!!!!!!!!!!!!!!!,,-*******))('(&&&&%%%######################&+111133778888888PPPL1+%%%%%&&&((()))***...55.---!!!!!!!!!!!!!!!!!!!!!!!!!!!!!!!!!!!!!!!!!!!!!!!!!!!!!!!!!!!!!!!!!!!!!!!!!!!!!!!!!!!!!!!!!!!!!!!!!!!!!!!!!!!!!!!!!!!!!!!!!!!!!!",
"!!!!!!!!!!!!!!!!!!!!!!!!!!!!!!!!!!!!!!!!!!!!!!!!!!!!!!!!!!!!!!!!!!!!!!!!!!!!!!!!!00---*****)))((&&&&%%%###################%&&+,000000777777088PPPY;1++++++&&((()))***-.....---!!!!!!!!!!!!!!!!!!!!!!!!!!!!!!!!!!!!!!!!!!!!!!!!!!!!!!!!!!!!!!!!!!!!!!!!!!!!!!!!!!!!!!!!!!!!!!!!!!!!!!!!!!!!!!!!!!!!!!!!!!!!!!",
"!!!!!!!!!!!!!!!!!!!!!!!!!!!!!!!!!!!!!!!!!!!!!!!!!!!!!!!!!!!!!!!!!!!!!!!!!!!!!!!!!66...--****))(((&&&&%%###################&++,/000000000000078DPYgTF99991+&((((())****--..----!!!!!!!!!!!!!!!!!!!!!!!!!!!!!!!!!!!!!!!!!!!!!!!!!!!!!!!!!!!!!!!!!!!!!!!!!!!!!!!!!!!!!!!!!!!!!!!!!!!!!!!!!!!!!!!!!!!!!!!!!!!!!!",
"!!!!!!!!!!!!!!!!!!!!!!!!!!!!!!!!!!!!!!!!!!!!!!!!!!!!!!!!!!!!!!!!!!!!!!!!!!!!!!!!!666...-****))(((&&&&%%###################&+000000000000000/07DPdttvvtqp>,(((++()))*****-.----!!!!!!!!!!!!!!!!!!!!!!!!!!!!!!!!!!!!!!!!!!!!!!!!!!!!!!!!!!!!!!!!!!!!!!!!!!!!!!!!!!!!!!!!!!!!!!!!!!!!!!!!!!!!!!!!!!!!!!!!!!!!!!",
"!!!!!!!!!!!!!!!!!!!!!!!!!!!!!!!!!!!!!!!!!!!!!!!!!!!!!!!!!!!!!!!!!!!!!!!!!!!!!!!!!66665..*****)(((&&&&%%$$##############%&++,---.----0000000007<PbrrttsqnL2,///,+())*****-.----!!!!!!!!!!!!!!!!!!!!!!!!!!!!!!!!!!!!!!!!!!!!!!!!!!!!!!!!!!!!!!!!!!!!!!!!!!!!!!!!!!!!!!!!!!!!!!!!!!!!!!!!!!!!!!!!!!!!!!!!!!!!!!",
"!!!!!!!!!!!!!!!!!!!!!!!!!!!!!!!!!!!!!!!!!!!!!!!!!!!!!!!!!!!!!!!!!!!!!!!!!!!!!!!!!66665..*****))((&&&&%%$$##############&+,,----..------////007<PYmprtrpl]L=>CC1,+)))****-..---!!!!!!!!!!!!!!!!!!!!!!!!!!!!!!!!!!!!!!!!!!!!!!!!!!!!!!!!!!!!!!!!!!!!!!!!!!!!!!!!!!!!!!!!!!!!!!!!!!!!!!!!!!!!!!!!!!!!!!!!!!!!!!",
"!!!!!!!!!!!!!!!!!!!!!!!!!!!!!!!!!!!!!!!!!!!!!!!!!!!!!!!!!!!!!!!!!!!!!!!!!!!!!!!!!66666..*****))((&&&&&%$$$#############+,70-**-..-**----,//037<DYlnprpmllnnnooC/++))****-..---!!!!!!!!!!!!!!!!!!!!!!!!!!!!!!!!!!!!!!!!!!!!!!!!!!!!!!!!!!!!!!!!!!!!!!!!!!!!!!!!!!!!!!!!!!!!!!!!!!!!!!!!!!!!!!!!!!!!!!!!!!!!!!",
"!!!!!!!!!!!!!!!!!!!!!!!!!!!!!!!!!!!!!!!!!!!!!!!!!!!!!!!!!!!!!!!!!!!!!!!!!!!!!!!!!66666..*****))((&&&&&&$$$#############+,70-**---*****---/037<DPbmmrrrrpppqpppL3/,,))***-..----!!!!!!!!!!!!!!!!!!!!!!!!!!!!!!!!!!!!!!!!!!!!!!!!!!!!!!!!!!!!!!!!!!!!!!!!!!!!!!!!!!!!!!!!!!!!!!!!!!!!!!!!!!!!!!!!!!!!!!!!!!!!!",
"!!!!!!!!!!!!!!!!!!!!!!!!!!!!!!!!!!!!!!!!!!!!!!!!!!!!!!!!!!!!!!!!!!!!!!!!!!!!!!!!!6666..-*****))((&&&&&&&$$$$###########+/70-**********---007<DPYdmmrrrrtsttsqp_NC3,))**--.----..!!!!!!!!!!!!!!!!!!!!!!!!!!!!!!!!!!!!!!!!!!!!!!!!!!!!!!!!!!!!!!!!!!!!!!!!!!!!!!!!!!!!!!!!!!!!!!!!!!!!!!!!!!!!!!!!!!!!!!!!!!!!",
"!!!!!!!!!!!!!!!!!!!!!!!!!!!!!!!!!!!!!!!!!!!!!!!!!!!!!!!!!!!!!!!!!!!!!!!!!!!!!!!!!666...-*****))((&&&&&&&&$$$###########+/700-**********--007DPYde||||ww~~wwusqqpp</++,--------...!!!!!!!!!!!!!!!!!!!!!!!!!!!!!!!!!!!!!!!!!!!!!!!!!!!!!!!!!!!!!!!!!!!!!!!!!!!!!!!!!!!!!!!!!!!!!!!!!!!!!!!!!!!!!!!!!!!!!!!!!!!",
"!!!!!!!!!!!!!!!!!!!!!!!!!!!!!!!!!!!!!!!!!!!!!!!!!!!!!!!!!!!!!!!!!!!!!!!!!!!!!!!!!666....-****))((&&&&&&&&$$$$##########+/<70---********--.088PYbdemm|||rwwwvtsssqR70//,-------...!!!!!!!!!!!!!!!!!!!!!!!!!!!!!!!!!!!!!!!!!!!!!!!!!!!!!!!!!!!!!!!!!!!!!!!!!!!!!!!!!!!!!!!!!!!!!!!!!!!!!!!!!!!!!!!!!!!!!!!!!!!",
"!!!!!!!!!!!!!!!!!!!!!!!!!!!!!!!!!!!!!!!!!!!!!!!!!!!!!!!!!!!!!!!!!!!!!!!!!!!!!!!!!666.....***)))((&&&&&&&&&&$$$#########+1D70-----******--.6O8PRYbdeemm|||wzwvuuuudRD70,/0..------!!!!!!!!!!!!!!!!!!!!!!!!!!!!!!!!!!!!!!!!!!!!!!!!!!!!!!!!!!!!!!!!!!!!!!!!!!!!!!!!!!!!!!!!!!!!!!!!!!!!!!!!!!!!!!!!!!!!!!!!!!!",
"!!!!!!!!!!!!!!!!!!!!!!!!!!!!!!!!!!!!!!!!!!!!!!!!!!!!!!!!!!!!!!!!!!!!!!!!!!!!!!!!!666.....-**)))((&&&&&&&&&&$$$$####%###+1P70,,----*****--.6OODTRYYdeemm||rzzzzzzzzvvP7,//00..----!!!!!!!!!!!!!!!!!!!!!!!!!!!!!!!!!!!!!!!!!!!!!!!!!!!!!!!!!!!!!!!!!!!!!!!!!!!!!!!!!!!!!!!!!!!!!!!!!!!!!!!!!!!!!!!!!!!!!!!!!!!",
"!!!!!!!!!!!!!!!!!!!!!!!!!!!!!!!!!!!!!!!!!!!!!!!!!!!!!!!!!!!!!!!!!!!!!!!!!!!!!!!!!666.....-***))((&&&&&&&&&&&$$$########+1D70,,----*******-.6OO8DPRYbddeemmrrrrrrtrrrY<7777700.---!!!!!!!!!!!!!!!!!!!!!!!!!!!!!!!!!!!!!!!!!!!!!!!!!!!!!!!!!!!!!!!!!!!!!!!!!!!!!!!!!!!!!!!!!!!!!!!!!!!!!!!!!!!!!!!!!!!!!!!!!!!",
"!!!!!!!!!!!!!!!!!!!!!!!!!!!!!!!!!!!!!!!!!!!!!!!!!!!!!!!!!!!!!!!!!!!!!!!!!!!!!!!!!666.....-***))((&&&&&&&&&&&$$$$#######+1D70,,----********-.66O8DQTRYYbddeeeemmm||mmdRPPPP8700...!!!!!!!!!!!!!!!!!!!!!!!!!!!!!!!!!!!!!!!!!!!!!!!!!!!!!!!!!!!!!!!!!!!!!!!!!!!!!!!!!!!!!!!!!!!!!!!!!!!!!!!!!!!!!!!!!!!!!!!!!!!",
"!!!!!!!!!!!!!!!!!!!!!!!!!!!!!!!!!!!!!!!!!!!!!!!!!!!!!!!!!!!!!!!!!!!!!!!!!!!!!!!!!........-***))((&&&&&&&&&&&$$$$#######+1D70------***))))**-.56O8HLQTRYbbbddeeee|meemrutsqP800...!!!!!!!!!!!!!!!!!!!!!!!!!!!!!!!!!!!!!!!!!!!!!!!!!!!!!!!!!!!!!!!!!!!!!!!!!!!!!!!!!!!!!!!!!!!!!!!!!!!!!!!!!!!!!!!!!!!!!!!!!!!",
"!!!!!!!!!!!!!!!!!!!!!!!!!!!!!!!!!!!!!!!!!!!!!!!!!!!!!!!!!!!!!!!!!!!!!!!!!!!!!!!!6666....******))((&&&&&&&&&&&$$$#######+/<70,,---*))))))))**-..6O88DDPRRRRRRRRRRRRRYYbbdgiPD88666!!!!!!!!!!!!!!!!!!!!!!!!!!!!!!!!!!!!!!!!!!!!!!!!!!!!!!!!!!!!!!!!!!!!!!!!!!!!!!!!!!!!!!!!!!!!!!!!!!!!!!!!!!!!!!!!!!!!!!!!!!!",
"!!!!!!!!!!!!!!!!!!!!!!!!!!!!!!!!!!!!!!!!!!!!!!!!!!!!!!!!!!!!!!!!!!!!!!!!!!!!!!!66666...-*******)((&&&&&&&&&&&$$$#######+,700,,-)))))))))))***--.6688<DDLLLNLLHGC@CHLLNSRYYYYPD866!!!!!!!!!!!!!!!!!!!!!!!!!!!!!!!!!!!!!!!!!!!!!!!!!!!!!!!!!!!!!!!!!!!!!!!!!!!!!!!!!!!!!!!!!!!!!!!!!!!!!!!!!!!!!!!!!!!!!!!!!!!",
"!!!!!!!!!!!!!!!!!!!!!!!!!!!!!!!!!!!!!!!!!!!!!!!!!!!!!!!!!!!!!!!!!!!!!!!!!!!!!!6666666..-*******))((&&&&&&&&&&$$$#######+,70/,,)))))))))))))****-..6O8<<FFGGE@=9424:@CCCDLPbkzb888!!!!!!!!!!!!!!!!!!!!!!!!!!!!!!!!!!!!!!!!!!!!!!!!!!!!!!!!!!!!!!!!!!!!!!!!!!!!!!!!!!!!!!!!!!!!!!!!!!!!!!!!!!!!!!!!!!!!!!!!!!!",
"!!!!!!!!!!!!!!!!!!!!!!!!!!!!!!!!!!!!!!!!!!!!!!!!!!!!!!!!!!!!!!!!!!!!!!!!!!!!!66666666..-********)(((&&&&&&&&&&$$#######+,70/,-))))++,,,))))****--..6O77;;;=;;:;>?EHLNQTRYbdmzeP88!!!!!!!!!!!!!!!!!!!!!!!!!!!!!!!!!!!!!!!!!!!!!!!!!!!!!!!!!!!!!!!!!!!!!!!!!!!!!!!!!!!!!!!!!!!!!!!!!!!!!!!!!!!!!!!!!!!!!!!!!!!",
"!!!!!!!!!!!!!!!!!!!!!!!!!!!!!!!!!!!!!!!!!!!!!!!!!!!!!!!!!!!!!!!!!!!!!!!!!!!!556666666..-**-----*))((&&&&&&&&&&$$$######&,00/,-))))++,,,,))))****--..6077334449?IUX]_aadgikmszmebb!!!!!!!!!!!!!!!!!!!!!!!!!!!!!!!!!!!!!!!!!!!!!!!!!!!!!!!!!!!!!!!!!!!!!!!!!!!!!!!!!!!!!!!!!!!!!!!!!!!!!!!!!!!!!!!!!!!!!!!!!!!",
"!!!!!!!!!!!!!!!!!!!!!!!!!!!!!!!!!!!!!!!!!!!!!!!!!!!!!!!!!!!!!!!!!!!!!!!!!!!5556666666...--.....-*)((&&&&&&&&&&$$$$#####&+0//-*))))+,,/,,,)))*****--..000221244FXlnpqtvzzzzzzzzzzz!!!!!!!!!!!!!!!!!!!!!!!!!!!!!!!!!!!!!!!!!!!!!!!!!!!!!!!!!!!!!!!!!!!!!!!!!!!!!!!!!!!!!!!!!!!!!!!!!!!!!!!!!!!!!!!!!!!!!!!!!!!",
"!!!!!!!!!!!!!!!!!!!!!!!!!!!!!!!!!!!!!!!!!!!!!!!!!!!!!!!!!!!!!!!!!!!!!!!!!!!55666666666..-..55..**))((&&&&&&&&&&$$$$####&+,,,-***))+,,1/,,,)))*****--..//129=AHU`nllllnnpsuuvvvuttt!!!!!!!!!!!!!!!!!!!!!!!!!!!!!!!!!!!!!!!!!!!!!!!!!!!!!!!!!!!!!!!!!!!!!!!!!!!!!!!!!!!!!!!!!!!!!!!!!!!!!!!!!!!!!!!!!!!!!!!!!!",
"!!!!!!!!!!!!!!!!!!!!!!!!!!!!!!!!!!!!!!!!!!!!!!!!!!!!!!!!!!!!!!!!!!!!!!!!!!!66666666666..-.555.-**))((&&&&&&&&&&$$$$##$$%&(+)-***)),,/11,,++)))**))*---//13FMW_cinjihgggjnqstusqpqsu!!!!!!!!!!!!!!!!!!!!!!!!!!!!!!!!!!!!!!!!!!!!!!!!!!!!!!!!!!!!!!!!!!!!!!!!!!!!!!!!!!!!!!!!!!!!!!!!!!!!!!!!!!!!!!!!!!!!!!!!!",
"!!!!!!!!!!!!!!!!!!!!!!!!!!!!!!!!!!!!!!!!!!!!!!!!!!!!!!!!!!!!!!!!!!!!!!!!!!!OO6666666666.-.555.***))(((&&&&&&&&&&&$%%%$$$$$()-***)),,1111,++())*))))*-,,,1;Walzuqnjfa``^ciopqsqnloquu!!!!!!!!!!!!!!!!!!!!!!!!!!!!!!!!!!!!!!!!!!!!!!!!!!!!!!!!!!!!!!!!!!!!!!!!!!!!!!!!!!!!!!!!!!!!!!!!!!!!!!!!!!!!!!!!!!!!!!!!",
"!!!!!!!!!!!!!!!!!!!!!!!!!!!!!!!!!!!!!!!!!!!!!!!!!!!!!!!!!!!!!!!!!!!!!!!!!!!!O6666666666.-.555.***))('(&&&&&&&&&$$$$#$$$$$$()-***)),/12222/,++)))))))*,,,2C^fjqjc]ZUSSUUZ`giikigcgklkk!!!!!!!!!!!!!!!!!!!!!!!!!!!!!!!!!!!!!!!!!!!!!!!!!!!!!!!!!!!!!!!!!!!!!!!!!!!!!!!!!!!!!!!!!!!!!!!!!!!!!!!!!!!!!!!!!!!!!!!",
"!!!!!!!!!!!!!!!!!!!!!!!!!!!!!!!!!!!!!!!!!!!!!!!!!!!!!!!!!!!!!!!!!!!!!!!!!!!!!6666666666.-.555.***)))''(&&&&&&&&%$$$##$$$$$()-***))+/2;?CC70/,,))))))),,/3Dfgij`UIHGEGHIQW^`aca_[_bddeeedb!!!!!!!!!!!!!!!!!!!!!!!!!!!!!!!!!!!!!!!!!!!!!!!!!!!!!!!!!!!!!!!!!!!!!!!!!!!!!!!!!!!!!!!!!!!!!!!!!!!!!!!!!!!!!!!!!!!",
"!!!!!!!!!!!!!!!!!!!!!!!!!!!!!!!!!!!!!!!!!!!!!!!!!!!!!!!!!!!!!!!!!!!!!!!!!!!!!!..6666666...555.***)))'''&&&&&&&%%%$$####$$$()-***)++/3HNYdP<3/,)))*))),,/7PljhfWG=;99=?AHMWX[^XTSTYYbdeedbb!!!!!!!!!!!!!!!!!!!!!!!!!!!!!!!!!!!!!!!!!!!!!!!!!!!!!!!!!!!!!!!!!!!!!!!!!!!!!!!!!!!!!!!!!!!!!!!!!!!!!!!!!!!!!!!!!!",
"!!!!!!!!!!!!!!!!!!!!!!!!!!!!!!!!!!!!!!!!!!!!!!!!!!!!!!!!!!!!!!!!!!!!!!!!!!!!!!!....6666..5555.***)))'''&&&&&&&&%%%$###$$$$(+--*)),,07PRYePD<70///-,,,/03<NaWKB:422224=AGMUVXXXTTTRYYYbYYRXX!!!!!!!!!!!!!!!!!!!!!!!!!!!!!!!!!!!!!!!!!!!!!!!!!!!!!!!!!!!!!!!!!!!!!!!!!!!!!!!!!!!!!!!!!!!!!!!!!!!!!!!!!!!!!!!!!",
"!!!!!!!!!!!!!!!!!!!!!!!!!!!!!!!!!!!!!!!!!!!!!!!!!!!!!!!!!!!!!!!!!!!!!!!!!!!!!!!!-,,-66655555.-***)))''''&&&&&&&%%%$##$$$$$(+--*)),,0<YbdedYPD<770000007<LQXF4111111129AGKSSTTTTTRXXXXXTSNSUZ41++,14F]`accffM;1224FRe!!!!!!!!!!!!!!!!!!!!!!!!!!!!!!!!!!!!!!!!!!!!!!!!!!!!!!!!!!!!!!!!!!!!!!!!!!!!!!!!!!!!!!!!",
"!!!!!!!!!!!!!!!!!!!!!!!!!!!!!!!!!!!!!!!!!!!!!!!!!!!!!!!!!!!!!!!!!!!!!!!!!!!!!!!!!++,.6655555.-***)))''''(&&&&&&%%%$#$$$$%%(+--*)*-07DeeeeeeedYP<70077<DXWQM91+++++1114AFINQSTTRRRTTTUSMJGMUZ41++,14F]`accffM;1224FRee!!!!!!!!!!!!!!!!!!!!!!!!!!!!!!!!!!!!!!!!!!!!!!!!!!!!!!!!!!!!!!!!!!!!!!!!!!!!!!!!!!!!!!!",
"!!!!!!!!!!!!!!!!!!!!!!!!!!!!!!!!!!!!!!!!!!!!!!!!!!!!!!!!!!!!!!!!!!!!!!!!!!!!!!!!!!+/666555555.-**)))''''((&&&&&&&&&&&&&&&&(+--*)*--08PYeeeeeebYP<888<<DME=41,++++++114>FMXXXTRRYTTSSSSQNMNNQ21+++119JS]f^UMB:249;IYee!!!!!!!!!!!!!!!!!!!!!!!!!!!!!!!!!!!!!!!!!!!!!!!!!!!!!!!!!!!!!!!!!!!!!!!!!!!!!!!!!!!!!!!",
"!!!!!!!!!!!!!!!!!!!!!!!!!!!!!!!!!!!!!!!!!!!!!!!!!!!!!!!!!!!!!!!!!!!!!!!!!!!!!!!!!!!0666655555.-**)))''''((((((&&&&&&&&&&&(()--***--088PYeeeeeedYPPPPPDHE911++%&&&+++12:FS`__YYY[TSLNNQSUVQKG2,++++12;GWfUG::99=?BNYee!!!!!!!!!!!!!!!!!!!!!!!!!!!!!!!!!!!!!!!!!!!!!!!!!!!!!!!!!!!!!!!!!!!!!!!!!!!!!!!!!!!!!!!",
"!!!!!!!!!!!!!!!!!!!!!!!!!!!!!!!!!!!!!!!!!!!!!!!!!!!!!!!!!!!!!!!!!!!!!!!!!!!!!!!!!!!!OO6655555.-**)))''))((((((((((''''''''))--***--0688PeeeeeeeeedbbYQF=11++%%%%%%++119FWiddbYY]TNHKMQVX^SH?1,++++112>QfM:129?EGITbee!!!!!!!!!!!!!!!!!!!!!!!!!!!!!!!!!!!!!!!!!!!!!!!!!!!!!!!!!!!!!!!!!!!!!!!!!!!!!!!!!!!!!!!",
"!!!!!!!!!!!!!!!!!!!!!!!!!!!!!!!!!!!!!!!!!!!!!!!!!!!!!!!!!!!!!!!!!!!!!!!!!!!!!!!!!!!!666665555.-***)))))))((((((((('''''''(),---*---.6688PPeeeeeeeedbYLA411++%%%%%%++11>JRdbYRTXXUNKLMNQUVNIF21++++112:HXJ>49>EHKNXbee!!!!!!!!!!!!!!!!!!!!!!!!!!!!!!!!!!!!!!!!!!!!!!!!!!!!!!!!!!!!!!!!!!!!!!!!!!!!!!!!!!!!!!!",
"!!!!!!!!!!!!!!!!!!!!!!!!!!!!!!!!!!!!!!!!!!!!!!!!!!!!!!!!!!!!!!!!!!!!!!!!!!!!!!!!!!!!666665555.--****))))))))))(((((''')))))-0------..66OOPPeeeeeeedYXI=21,++%%%%%%++,2DPYdYRLNSUSQNNLLLLMLKJ41++,11129AKGB>AFIMSW_dee!!!!!!!!!!!!!!!!!!!!!!!!!!!!!!!!!!!!!!!!!!!!!!!!!!!!!!!!!!!!!!!!!!!!!!!!!!!!!!!!!!!!!!!",
"!!!!!!!!!!!!!!!!!!!!!!!!!!!!!!!!!!!!!!!!!!!!!!!!!!!!!!!!!!!!!!!!!!!!!!!!!!!!!!!!!!!!666666555.--******)))))))))))))))))))))-00-,--...-66OOPeeeeeeedYXG911+++%%%%%%&+,3PPYdRLGHLNQSUNLIHHGILN91+,111124:AEGJKLMUX^beee!!!!!!!!!!!!!!!!!!!!!!!!!!!!!!!!!!!!!!!!!!!!!!!!!!!!!!!!!!!!!!!!!!!!!!!!!!!!!!!!!!!!!!!",
"!!!!!!!!!!!!!!!!!!!!!!!!!!!!!!!!!!!!!!!!!!!!!!!!!!!!!!!!!!!!!!!!!!!!!!!!!!!!!!!!!!!6666666555.--***********)))))))))))))))*-000/0066..666OOPPeeeeedbYJ=211+++%%%%++/27PD887333;CHLNNNNKHGGGG:2111249=AHNQUWXXZ]`cfdeed!!!!!!!!!!!!!!!!!!!!!!!!!!!!!!!!!!!!!!!!!!!!!!!!!!!!!!!!!!!!!!!!!!!!!!!!!!!!!!!!!!!!!!",
"!!!!!!!!!!!!!!!!!!!!!!!!!!!!!!!!!!!!!!!!!!!!!!!!!!!!!!!!!!!!!!!!!!!!!!!!!!!!!!!!!!--666666655.--********************))))))--600/00766666.6OOPPeeeddbbL?411,+++&&%+/788P80///,/3:CCLNQSNIGE@>;949=AFJMUZ``accccfhhhhggfc!!!!!!!!!!!!!!!!!!!!!!!!!!!!!!!!!!!!!!!!!!!!!!!!!!!!!!!!!!!!!!!!!!!!!!!!!!!!!!!!!!!!!",
"!!!!!!!!!!!!!!!!!!!!!!!!!!!!!!!!!!!!!!!!!!!!!!!!!!!!!!!!!!!!!!!!!!!!!!!!!!!!!!!!!---006666666.---********************)))))-.60013788866.-.6OOPeedbdddTE4211,++++&,7PPPO7/)+++,/33CILSVQKG@;4=BHMSW]`filpppppppnnnjhccccc!!!!!!!!!!!!!!!!!!!!!!!!!!!!!!!!!!!!!!!!!!!!!!!!!!!!!!!!!!!!!!!!!!!!!!!!!!!!!!!!!!!!",
"!!!!!!!!!!!!!!!!!!!!!!!!!!!!!!!!!!!!!!!!!!!!!!!!!!!!!!!!!!!!!!!!!!!!!!!!!!!!!!!!!..0006666666.---******----***********))))-.600137<88866.666OOPPYddddTF941111++++/7POOO0,)(((+,/13:CHNMKIF?;>AFIMSW]`cfhgggccaaa`_]Z]^``a!!!!!!!!!!!!!!!!!!!!!!!!!!!!!!!!!!!!!!!!!!!!!!!!!!!!!!!!!!!!!!!!!!!!!!!!!!!!!!!!!!!",
"!!!!!!!!!!!!!!!!!!!!!!!!!!!!!!!!!!!!!!!!!!!!!!!!!!!!!!!!!!!!!!!!!!!!!!!!!!!!!!!!!6660-6666666.------*---...-************))-.60033<DD<88666666O8PYeeddTH=421111,++/7POO6-)(((((++,/13>IJLMHE@@@BFIMSW]^^_^^[XVUUUUSSQUX]_af!!!!!!!!!!!!!!!!!!!!!!!!!!!!!!!!!!!!!!!!!!!!!!!!!!!!!!!!!!!!!!!!!!!!!!!!!!!!!!!!!!",
"!!!!!!!!!!!!!!!!!!!!!!!!!!!!!!!!!!!!!!!!!!!!!!!!!!!!!!!!!!!!!!!!!!!!!!!!!!!!!!!!!6666-6666666.---------.....*************)-.6073=GURPP8866.-66OPPeeedXJ?9421111/,08PO6.-)'((&(((+,/13BHLSLIFB@>BGIMSWWVVVSQMIGGGGGHHLSX^aff!!!!!!!!!!!!!!!!!!!!!!!!!!!!!!!!!!!!!!!!!!!!!!!!!!!!!!!!!!!!!!!!!!!!!!!!!!!!!!!!!",
"!!!!!!!!!!!!!!!!!!!!!!!!!!!!!!!!!!!!!!!!!!!!!!!!!!!!!!!!!!!!!!!!!!!!!!!!!!!!!!!!!!66.-.66666..---------....-------..-*****-.6073CHSTRPD886666788PeedbTJA=4422111178PO6.-))((((((++,/13;CLJIHE@>=;:>AGHJMKIGFE@BBBEFGJNSX^aa`!!!!!!!!!!!!!!!!!!!!!!!!!!!!!!!!!!!!!!!!!!!!!!!!!!!!!!!!!!!!!!!!!!!!!!!!!!!!!!!!",
"!!!!!!!!!!!!!!!!!!!!!!!!!!!!!!!!!!!!!!!!!!!!!!!!!!!!!!!!!!!!!!!!!!!!!!!!!!!!!!!!!!!6.-..6666.----.----...-0--........------.007;CHSTTRPD88860778PedbYUIB>:4422237<PP86.--))('((((++,/12;GHIIF@=922249=@FB@?>=;=>?@EGHJLSZ`_^]!!!!!!!!!!!!!!!!!!!!!!!!!!!!!!!!!!!!!!!!!!!!!!!!!!!!!!!!!!!!!!!!!!!!!!!!!!!!!!!",
"!!!!!!!!!!!!!!!!!!!!!!!!!!!!!!!!!!!!!!!!!!!!!!!!!!!!!!!!!!!!!!!!!!!!!!!!!!!!!!!!!!!!.........---...---..0000-....5555..----0077CCJSUVXTPD<887007PedYXSIEA>=942;DPPPP880---)(''(((((++,13BFILG@;21111229>;:944499;>BFGGGMV^^^]]!!!!!!!!!!!!!!!!!!!!!!!!!!!!!!!!!!!!!!!!!!!!!!!!!!!!!!!!!!!!!!!!!!!!!!!!!!!!!!",
"!!!!!!!!!!!!!!!!!!!!!!!!!!!!!!!!!!!!!!!!!!!!!!!!!!!!!!!!!!!!!!!!!!!!!!!!!!!!!!!!!!!!!........0/0-.----00000066....55....---0007:CIUWWXTRPD<8877<PeebYTNIFEA=:4@DPPPYD80000/,+(((((((++/14:>B>9421111249>AFHFA>?@AFHJNSV[`fa^ZWS!!!!!!!!!!!!!!!!!!!!!!!!!!!!!!!!!!!!!!!!!!!!!!!!!!!!!!!!!!!!!!!!!!!!!!!!!!!!!",
"!!!!!!!!!!!!!!!!!!!!!!!!!!!!!!!!!!!!!!!!!!!!!!!!!!!!!!!!!!!!!!!!!!!!!!!!!!!!!!!!!!!!!!!!!555.0/00---,/0007776666........----/003CHWWXZXTRPDDD<<DYeedd^WMKHFB?=CLPPYYP<88880/,+((((((+++/124:4211111244:>HU_WNHHIJKMQX_ghklg_XULF!!!!!!!!!!!!!!!!!!!!!!!!!!!!!!!!!!!!!!!!!!!!!!!!!!!!!!!!!!!!!!!!!!!!!!!!!!!!",
"!!!!!!!!!!!!!!!!!!!!!!!!!!!!!!!!!!!!!!!!!!!!!!!!!!!!!!!!!!!!!!!!!!!!!!!!!!!!!!!!!!!!!!!!!!55.0///--,,/0377778O66.........----/03=HXXXZ[[]XTSNLLRbeeeeb]USMIHFEHNRRYYRDDDPP<70,+'((((((++11122111111249;>Mazj_UUUUUWW`lzyvtkaVQJFF!!!!!!!!!!!!!!!!!!!!!!!!!!!!!!!!!!!!!!!!!!!!!!!!!!!!!!!!!!!!!!!!!!!!!!!!!!!",
"!!!!!!!!!!!!!!!!!!!!!!!!!!!!!!!!!!!!!!!!!!!!!!!!!!!!!!!!!!!!!!!!!!!!!!!!!!!!!!!!!!!!!!!!!!!5.0///--,,/0377778666..........---/033CJNUXZ]^XTNNNNRbeeeedb^XWSNKINTYYYYRRLPRYD87/,)((((((+++,1111111249=>?@QczlcZ[[[UMHMU[[ZZ[]^VMGMZ!!!!!!!!!!!!!!!!!!!!!!!!!!!!!!!!!!!!!!!!!!!!!!!!!!!!!!!!!!!!!!!!!!!!!!!!!!",
"!!!!!!!!!!!!!!!!!!!!!!!!!!!!!!!!!!!!!!!!!!!!!!!!!!!!!!!!!!!!!!!!!!!!!!!!!!!!!!!!!!!!!!!!!!!!!!!!!!!!!!!!!!!06666...-.......--0033:@GLVZ]_XTLNQS[beeeeeddb_[WUQW^bYY[RRRYYbPD<70,))(((&+++++,112244:?EEEEUfzpiaaaaUG=>?AAABKVc[SIUcz!!!!!!!!!!!!!!!!!!!!!!!!!!!!!!!!!!!!!!!!!!!!!!!!!!!!!!!!!!!!!!!!!!!!!!!!!",
"!!!!!!!!!!!!!!!!!!!!!!!!!!!!!!!!!!!!!!!!!!!!!!!!!!!!!!!!!!!!!!!!!!!!!!!!!!!!!!!!!!!!!!!!!!!!!!!!!!!!!!!!!!!!......---.......-000334@HVX^`ZSLNSV^ckeeeeeeedb_[W]bebYT[^_bdebYY80-,)(((&&&&+++,124:?BGKIHGWgzsniiiiUA2222222?Si_VKZhzz!!!!!!!!!!!!!!!!!!!!!!!!!!!!!!!!!!!!!!!!!!!!!!!!!!!!!!!!!!!!!!!!!!!!!!!!",
"!!!!!!!!!!!!!!!!!!!!!!!!!!!!!!!!!!!!!!!!!!!!!!!!!!!!!!!!!!!!!!!!!!!!!!!!!!!!!!!!!!!!!!!!!!!!!!!!!!!!!!!!!!!!!.....---........00011114CHQXTQLNST^dkeedeeeeedd`^`bdbYX^YbdddbYRD870,+++(&&&+++12;?FJNSVQJGUcsplia]UG=22211114>JKMN]izz!!!!!!!!!!!!!!!!!!!!!!!!!!!!!!!!!!!!!!!!!!!!!!!!!!!!!!!!!!!!!!!!!!!!!!!!",
"!!!!!!!!!!!!!!!!!!!!!!!!!!!!!!!!!!!!!!!!!!!!!!!!!!!!!!!!!!!!!!!!!!!!!!!!!!!!!!!!!!!!!!!!!!!!!!!!!!!!!!!!!!!!!!....-----......000/,+,13=FQNNLQSV^gmkdYdeeeeeddcabbYYXYbddddbYRPD870/,+++++++119HMUZ^_aXLEQ_nlki]MA=94211111124=GU_ivv!!!!!!!!!!!!!!!!!!!!!!!!!!!!!!!!!!!!!!!!!!!!!!!!!!!!!!!!!!!!!!!!!!!!!!!!",
"!!!!!!!!!!!!!!!!!!!!!!!!!!!!!!!!!!!!!!!!!!!!!!!!!!!!!!!!!!!!!!!!!!!!!!!!!!!!!!!!!!!!!!!!!!!!!!!!!!!!!!!!!!!!!!!....--------...0/,+(+,12=ILLNSTT^gmi_RYdeeeeekidbYYY[bdeedbY[XYYeP87/,+++++,12AW^ahkln_NBM]iiiiUA44442111111112AXajuu!!!!!!!!!!!!!!!!!!!!!!!!!!!!!!!!!!!!!!!!!!!!!!!!!!!!!!!!!!!!!!!!!!!!!!!!",
"!!!!!!!!!!!!!!!!!!!!!!!!!!!!!!!!!!!!!!!!!!!!!!!!!!!!!!!!!!!!!!!!!!!!!!!!!!!!!!!!!!!!!!!!!!!!!!!!!!!!!!!!!!!!!!!!...--------..000,++++,12;@CILST_gmibYYYbdeeeekdYRYYYbdedbYYYYYbePD83/,,++,119H]_cfiknf]SZaihfaUG=;:92111111112AZ`hpps!!!!!!!!!!!!!!!!!!!!!!!!!!!!!!!!!!!!!!!!!!!!!!!!!!!!!!!!!!!!!!!!!!!!!!!",
"!!!!!!!!!!!!!!!!!!!!!!!!!!!!!!!!!!!!!!!!!!!!!!!!!!!!!!!!!!!!!!!!!!!!!!!!!!!!!!!!!!!!!!!!!!!!!!!!!!!!!!!!!!!!!!!!!!!!!!!!!!!!!000/+++++,123=CLSXbimkdbYRRYdeeeedYTRYbddedbYYYbbdeYPD<3111+114AQaacchkpkhcfhif`ZUMGEA?4211111112B]`fjnqz!!!!!!!!!!!!!!!!!!!!!!!!!!!!!!!!!!!!!!!!!!!!!!!!!!!!!!!!!!!!!!!!!!!!!!",
"!!!!!!!!!!!!!!!!!!!!!!!!!!!!!!!!!!!!!!!!!!!!!!!!!!!!!!!!!!!!!!!!!!!!!!!!!!!!!!!!!!!!!!!!!!!!!!!!!!!!!!!!!!!!!!!!!!!!!!!!!!!!!!33/,+++++,123CHS[bimmidYTLRbeeeebXNTYddeebYXYbddeedY[NH@41114?KZhfc`gkpstzqniaZUUUUNJG;211111112E^`cfkqzz!!!!!!!!!!!!!!!!!!!!!!!!!!!!!!!!!!!!!!!!!!!!!!!!!!!!!!!!!!!!!!!!!!!!!",
"!!!!!!!!!!!!!!!!!!!!!!!!!!!!!!!!!!!!!!!!!!!!!!!!!!!!!!!!!!!!!!!!!!!!!!!!!!!!!!!!!!!!!!!!!!!!!!!!!!!!!!!!!!!!!!!!!!!!!!!!!!!!!!7721,+++++,113CLXbimmkdbYRRYddemb[QTYddddbYXYbedddbYXSLF91129GQ[gfa`gkpsuzqnia]UWWXWSNB921111112@Z^_aipzz!!!!!!!!!!!!!!!!!!!!!!!!!!!!!!!!!!!!!!!!!!!!!!!!!!!!!!!!!!!!!!!!!!!!!",
"!!!!!!!!!!!!!!!!!!!!!!!!!!!!!!!!!!!!!!!!!!!!!!!!!!!!!!!!!!!!!!!!!!!!!!!!!!!!!!!!!!!!!!!!!!!!!!!!!!!!!!!!!!!!!!!!!!!!!!!!!!!!!!<<321,+++++,12;HX_immkidbYYYYbdkb[SXYddddbYXYbedbbY[XUNJ=212?QW^fcaagkpsuzqnic^WX]_]ZXK@92111112?UX]`hnzz!!!!!!!!!!!!!!!!!!!!!!!!!!!!!!!!!!!!!!!!!!!!!!!!!!!!!!!!!!!!!!!!!!!!!",
"!!!!!!!!!!!!!!!!!!!!!!!!!!!!!!!!!!!!!!!!!!!!!!!!!!!!!!!!!!!!!!!!!!!!!!!!!!!!!!!!!!!!!!!!!!!!!!!!!!!!!!!!!!!!!!!!!!!!!!!!!!!!!!PPD;21,+++++,13CT_dmmmkkkkbXS[ajc]T[bddbbYYXYdedbY[XTVUSA414GZ^`ccaagkpsvzsnic^X]`cca`WJA4111112=QUX^fnzz!!!!!!!!!!!!!!!!!!!!!!!!!!!!!!!!!!!!!!!!!!!!!!!!!!!!!!!!!!!!!!!!!!!!!",
"!!!!!!!!!!!!!!!!!!!!!!!!!!!!!!!!!!!!!!!!!!!!!!!!!!!!!!!!!!!!!!!!!!!!!!!!!!!!!!!!!!!!!!!!!!!!!!!!!!!!!!!!!!!!!!!!!!!!!!!!!!!!!!PPDC;21,++++,/2@TYdmmkdddid_^_cia]TYbddbbYYYbdedbYXXTSMI>429H]`cgfa`fjoquzsnif`[_cihhg]SI;211112=SX_finqq!!!!!!!!!!!!!!!!!!!!!!!!!!!!!!!!!!!!!!!!!!!!!!!!!!!!!!!!!!!!!!!!!!!!!",
"!!!!!!!!!!!!!!!!!!!!!!!!!!!!!!!!!!!!!!!!!!!!!!!!!!!!!!!!!!!!!!!!!!!!!!!!!!!!!!!!!!!!!!!!!!!!!!!!!!!!!!!!!!!!!!!!!!!!!!!!!!!!!!PPPLH:21,++++,1;TYdmkdbbdddddggga]TYbeddbbYYbdedYXXTTNHB;42=K^afigc`finqtzsnifa^chnllkcZS@411112=S[fnnnnn!!!!!!!!!!!!!!!!!!!!!!!!!!!!!!!!!!!!!!!!!!!!!!!!!!!!!!!!!!!!!!!!!!!!!",
"!!!!!!!!!!!!!!!!!!!!!!!!!!!!!!!!!!!!!!!!!!!!!!!!!!!!!!!!!!!!!!!!!!!!!!!!!!!!!!!!!!!!!!!!!!!!!!!!!!!!!!!!!!!!!!!!!!!!!!!!!!!!!!YYYXWG:21+++++13Q[dmebYYbdkmrlic_]XYbeddbbbbbdedYXTTTKE;944?M`fhlhc_chlptzsnigc`glsqqqia[G411112=S_jzsnjj!!!!!!!!!!!!!!!!!!!!!!!!!!!!!!!!!!!!!!!!!!!!!!!!!!!!!!!!!!!!!!!!!!!!!",
"!!!!!!!!!!!!!!!!!!!!!!!!!!!!!!!!!!!!!!!!!!!!!!!!!!!!!!!!!!!!!!!!!!!!!!!!!!!!!!!!!!!!!!!!!!!!!!!!!!!!!!!!!!!!!!!!!!!!!!!!!!!!!!DDPTWKB;21,,,,19LXdmedYbbbdikigc_[TYbedbbbbbddebYXTSNF=49:=GU`cgiga_cinptzsnigc`fkqppph`XG911112?W^fnljijn!!!!!!!!!!!!!!!!!!!!!!!!!!!!!!!!!!!!!!!!!!!!!!!!!!!!!!!!!!!!!!!!!!!!",
"!!!!!!!!!!!!!!!!!!!!!!!!!!!!!!!!!!!!!!!!!!!!!!!!!!!!!!!!!!!!!!!!!!!!!!!!!!!!!!!!!!!!!!!!!!!!!!!!!!!!!!!!!!!!!!!!!!!!!!!!!!!!!!<<DLUQMJ>311112:HTbmkdbbYYbbddda_[TYbedbbbbddddbYXTLH?424?IQX`acgca`finqtzsnifa_cippnng_WG921112AX^afgggjpz!!!!!!!!!!!!!!!!!!!!!!!!!!!!!!!!!!!!!!!!!!!!!!!!!!!!!!!!!!!!!!!!!!!",
"!!!!!!!!!!!!!!!!!!!!!!!!!!!!!!!!!!!!!!!!!!!!!!!!!!!!!!!!!!!!!!!!!!!!!!!!!!!!!!!!!!!!!!!!!!!!!!!!!!!!!!!!!!!!!!!!!!!!!!!!!!!!!!77<DUWZ]QG>9214;EQ_mkkdbYRYYbbbb_XT[bedbbbdddddbY[SJB:214FX[^`aacaa`finquzsnifa^chnnllf^UG:21112E[]^^`afjqzz!!!!!!!!!!!!!!!!!!!!!!!!!!!!!!!!!!!!!!!!!!!!!!!!!!!!!!!!!!!!!!!!!!",
"!!!!!!!!!!!!!!!!!!!!!!!!!!!!!!!!!!!!!!!!!!!!!!!!!!!!!!!!!!!!!!!!!!!!!!!!!!!!!!!!!!!!!!!!!!!!!!!!!!!!!!!!!!!!!!!!!!!!!!!!!!!!!0777<LSX]WNIF@;>?BJS[_bddbYYYYbbb_[TYbeddbbdddddbYYTLF>94?M^^_`aacaa`gkqsvzsnif_Z_chhhh`XSG=42114H__``acfilpp!!!!!!!!!!!!!!!!!!!!!!!!!!!!!!!!!!!!!!!!!!!!!!!!!!!!!!!!!!!!!!!!!!",
"!!!!!!!!!!!!!!!!!!!!!!!!!!!!!!!!!!!!!!!!!!!!!!!!!!!!!!!!!!!!!!!!!!!!!!!!!!!!!!!!!!!!!!!!!!!!!!!!!!!!!!!!!!!!!!!!!!!!!!!!!!!!00007<HLV]ZZXWUQJFAEGHS^gdddbbYYbb_Y[YdeddbddeddbbbYTLGEA?IWcaa`aacaaahlsuvzqnic^XZ^````[WNG?:422=Mccaaccfghjj!!!!!!!!!!!!!!!!!!!!!!!!!!!!!!!!!!!!!!!!!!!!!!!!!!!!!!!!!!!!!!!!!!",
"!!!!!!!!!!!!!!!!!!!!!!!!!!!!!!!!!!!!!!!!!!!!!!!!!!!!!!!!!!!!!!!!!!!!!!!!!!!!!!!!!!!!!!!!!!!!!!!!!!!!!!!!!!!!!!!!!!!!!!!!!!!0000077CIS]`chhjjZK?>=:GTggkkdbYYYbbYYbdeddbddeddbbbbRNHIKMW_hfc`aaaaaainvzzzqnia[UWXZZ[[WSMHE?;94BUhgfccfffccc!!!!!!!!!!!!!!!!!!!!!!!!!!!!!!!!!!!!!!!!!!!!!!!!!!!!!!!!!!!!!!!!!!",
"!!!!!!!!!!!!!!!!!!!!!!!!!!!!!!!!!!!!!!!!!!!!!!!!!!!!!!!!!!!!!!!!!!!!!!!!!!!!!!!!!!!!!!!!!!!!!!!!!!!!!!!!!!!!!!!!!!!!!!!!!!00000077CLS[]]]`cf]UKG?;AHQXakddbbbbbbbddeddbddedbbbbbRNHKNSX_fca`aaccccipvzzzqlh`ZUUWXZZ]ZXWSMJHFEN^lf`Z^agc`_ah!!!!!!!!!!!!!!!!!!!!!!!!!!!!!!!!!!!!!!!!!!!!!!!!!!!!!!!!!!!!!!!!!",
"!!!!!!!!!!!!!!!!!!!!!!!!!!!!!!!!!!!!!!!!!!!!!!!!!!!!!!!!!!!!!!!!!!!!!!!!!!!!!!!!!!!!!!!!!!!!!!!!!!!!!!!!!!!!!!!!!!!!!!!!!00///0077CLS[XUUW]``]ZMF=>>?K[iiddddbddieeeddbdeedbbbbbRQHNUX[^````acffccipzzzzqkf_XSUUWXZ^_``_[XWWU_hqfZMW_ha^X`iz!!!!!!!!!!!!!!!!!!!!!!!!!!!!!!!!!!!!!!!!!!!!!!!!!!!!!!!!!!!!!!!!",
"!!!!!!!!!!!!!!!!!!!!!!!!!!!!!!!!!!!!!!!!!!!!!!!!!!!!!!!!!!!!!!!!!!!!!!!!!!!!!!!!!!!!!!!!!!!!!!!!!!!!!!!!!!!!!!!!!!!!!!!!000/-//077CLS[UMIQW]`fjZJ>:42@SgikkedddemkeeddbdeedbYbbbYSJQX_^^^__`acgffcipzzzzpic^WQSUUWZ^agkihghhilqvfUFN^iaZU_jzz!!!!!!!!!!!!!!!!!!!!!!!!!!!!!!!!!!!!!!!!!!!!!!!!!!!!!!!!!!!!!!!",
"!!!!!!!!!!!!!!!!!!!!!!!!!!!!!!!!!!!!!!!!!!!!!!!!!!!!!!!!!!!!!!!!!!!!!!!!!!!!!!!!!!!!!!!!!!!!!!!!!!!!!!!!!!!!!!!!!!!!!!!!000//0077<LSX`UKBIMW]fj`UIA:4>IX_dkkedekmmeedbbddedbYYbbTLGKSZ[]^___agiiiinqzzzzpjc^WSSUWZ^`fjnnllc^U`jzfWGU`naXM[izz!!!!!!!!!!!!!!!!!!!!!!!!!!!!!!!!!!!!!!!!!!!!!!!!!!!!!!!!!!!!!!!",
"!!!!!!!!!!!!!!!!!!!!!!!!!!!!!!!!!!!!!!!!!!!!!!!!!!!!!!!!!!!!!!!!!!!!!!!!!!!!!!!!!!!!!!!!!!!!!!!!!!!!!!!!!!!!!!!!!!!!!!!!//000078<DT[_cUG=BIQZcof`ZJ?4;AHU_kkeekmmmeedbYbdedbYYbbTLAGMUX[____chlnnpquzzzzqjf_XSUWW]`finsqqq`QBSczgWHWcqcWHWgzz!!!!!!!!!!!!!!!!!!!!!!!!!!!!!!!!!!!!!!!!!!!!!!!!!!!!!!!!!!!!!!!",
"!!!!!!!!!!!!!!!!!!!!!!!!!!!!!!!!!!!!!!!!!!!!!!!!!!!!!!!!!!!!!!!!!!!!!!!!!!!!!!!!!!!!!!!!!!!!!!!!!!!!!!!!!!!!!!!!!!!!!!!!--/0078DPR_cgiWE4=EJWcxojhUE49;=J[kkkkmmmmmedbYbdedb[YYbTH>BHNUZ__^^cipquzzzzzzzqkf_XSUWX^chlqzzzz^G4G^zhXJXhzfUEUfzz!!!!!!!!!!!!!!!!!!!!!!!!!!!!!!!!!!!!!!!!!!!!!!!!!!!!!!!!!!!!!!!",
"!!!!!!!!!!!!!!!!!!!!!!!!!!!!!!!!!!!!!!!!!!!!!!!!!!!!!!!!!!!!!!!!!!!!!!!!!!!!!!!!!!!!!!!!!!!!!!!!!!!!!!!!!!!!!!!!!!!!!!!!//00788DPR`cgj]MAGMU]cjjjj]QFA?=FN[_bddkkkkidb_bdedb[YYbTG;AHQUZ___`afhiikkklptzqlh`ZUWXZ_chlqzzzzaM=Mazi]M]izfUEUfzzz!!!!!!!!!!!!!!!!!!!!!!!!!!!!!!!!!!!!!!!!!!!!!!!!!!!!!!!!!!!!!!",
"!!!!!!!!!!!!!!!!!!!!!!!!!!!!!!!!!!!!!!!!!!!!!!!!!!!!!!!!!!!!!!!!!!!!!!!!!!!!!!!!!!!!!!!!!!!!!!!!!!!!!!!!!!!!!!!!!!!!!!!!0000888<PT`chjaWMUZ^`fhhjjc]WKB;?FIQX_bddddgfcbdded_[YYbTF:AHSWZ__`a``__`````hpzqlhaZUWZ^`chlqvzzzfUFUfzj_S_jzfUEUfzzzz!!!!!!!!!!!!!!!!!!!!!!!!!!!!!!!!!!!!!!!!!!!!!!!!!!!!!!!!!!!!!",
"!!!!!!!!!!!!!!!!!!!!!!!!!!!!!!!!!!!!!!!!!!!!!!!!!!!!!!!!!!!!!!!!!!!!!!!!!!!!!!!!!!!!!!!!!!!!!!!!!!!!!!!!!!!!!!!!!!!!!!!!0007888<DW`cjnha]`chffcfjjjjjWG:;;=FNXYYbbcccffdeed_[^YbQE9@IUX[_`ac_[WWWWWWW`lzsnia[UW[_afhlqvzzzi]N]izl`W`lzfUEUfzzzzz!!!!!!!!!!!!!!!!!!!!!!!!!!!!!!!!!!!!!!!!!!!!!!!!!!!!!!!!!!!!",
"!!!!!!!!!!!!!!!!!!!!!!!!!!!!!!!!!!!!!!!!!!!!!!!!!!!!!!!!!!!!!!!!!!!!!!!!!!!!!!!!!!!!!!!!!!!!!!!!!!!!!!!!!!!!!!!!!!!!!!!!00007777CKU]fojhcffhfcacfhhhj]QGB?=?EHNTY_fhhhiieed_[^YbL@4>JXZ]_^[Z]_`[WNNNN^izsnia[UX]`chjnqzzzzj_U_jzph`hpzfUFUfzzzzz!!!!!!!!!!!!!!!!!!!!!!!!!!!!!!!!!!!!!!!!!!!!!!!!!!!!!!!!!!!!",
"!!!!!!!!!!!!!!!!!!!!!!!!!!!!!!!!!!!!!!!!!!!!!!!!!!!!!!!!!!!!!!!!!!!!!!!!!!!!!!!!!!!!!!!!!!!!!!!!!!!!!!!!!!!!!!!!!!!!!!!!00000033:AJUcxojjjhhfa```ccfha]WME=;::BLX_gllkkkeed_[^YbL=2;J^^^_XUMXal`WJJJJXhzsnia[UX^agilptzzzzlaXalztplptzgWGWgzzzzz!!!!!!!!!!!!!!!!!!!!!!!!!!!!!!!!!!!!!!!!!!!!!!!!!!!!!!!!!!!!",
"!!!!!!!!!!!!!!!!!!!!!!!!!!!!!!!!!!!!!!!!!!!!!!!!!!!!!!!!!!!!!!!!!!!!!!!!!!!!!!!!!!!!!!!!!!!!!!!!!!!!!!!!!!!!!!!!!!!!!!!!770////129AM`xxxxojhc`^^^^`chhhhWI=9429FW_hpppmmmedb[YYbJ919J``__WMFUfzfUFFFFUfzsniaZUX_fhlpquzzzznf]fnzzzzzzzhXIXhzzzzz!!!!!!!!!!!!!!!!!!!!!!!!!!!!!!!!!!!!!!!!!!!!!!!!!!!!!!!!!!!!",
"!!!!!!!!!!!!!!!!!!!!!!!!!!!!!!!!!!!!!!!!!!!!!!!!!!!!!!!!!!!!!!!!!!!!!!!!!!!!!!!!!!!!!!!!!!!!!!!!!!!!!!!!!!!!!!!!!!!!!!!!77700011244FZxooojhfcca``_`accff]UJE=4;AHQ]gjnrmmmdb[YYbL=2=M``__WMGWgzcQ????Qczsnif`Z`fjlpqtvzzzzqjfjqzzzzzzzhWHWhzzzzz!!!!!!!!!!!!!!!!!!!!!!!!!!!!!!!!!!!!!!!!!!!!!!!!!!!!!!!!!!!!",
"!!!!!!!!!!!!!!!!!!!!!!!!!!!!!!!!!!!!!!!!!!!!!!!!!!!!!!!!!!!!!!!!!!!!!!!!!!!!!!!!!!!!!!!!!!!!!!!!!!!!!!!!!!!!!!!!!!!!!!!!77777332211>Unljjgfbdfgca_```acc`^ZQH??>=FQ]cltrrmibXYYYN@4AN`___WNHXhzaM====MazsnihfagkpqstvzzzzztqnqtzzzzzzzgWGWgzzzzz!!!!!!!!!!!!!!!!!!!!!!!!!!!!!!!!!!!!!!!!!!!!!!!!!!!!!!!!!!!!",
"!!!!!!!!!!!!!!!!!!!!!!!!!!!!!!!!!!!!!!!!!!!!!!!!!!!!!!!!!!!!!!!!!!!!!!!!!!!!!!!!!!!!!!!!!!!!!!!!!!!!!!!!!!!!!!!!!!!!!!!!77<<DC921114Mlkhfcbbdikhc`_^^``afjj`WKA:2;GS^ivtrrkbX[YYQF;FS____XQJXhz_I9999I_zsniiiinqzzzzzzzzzzzzzzzzzzzzzzgWGWgzzzzz!!!!!!!!!!!!!!!!!!!!!!!!!!!!!!!!!!!!!!!!!!!!!!!!!!!!!!!!!!!!",
"!!!!!!!!!!!!!!!!!!!!!!!!!!!!!!!!!!!!!!!!!!!!!!!!!!!!!!!!!!!!!!!!!!!!!!!!!!!!!!!!!!!!!!!!!!!!!!!!!!!!!!!!!!!!!!!!!!!!!!!!<<<DPDC9211:QnkigdbYbglhc___^```cfja]WKB:>AFQ^klnpibYYbbTKAKWa``_ZUM]izhXIIIIXhzsniklnqtzzzzzzzzzzzzzuqppppquzi^N^izzzzz!!!!!!!!!!!!!!!!!!!!!!!!!!!!!!!!!!!!!!!!!!!!!!!!!!!!!!!!!!!!",
"!!!!!!!!!!!!!!!!!!!!!!!!!!!!!!!!!!!!!!!!!!!!!!!!!!!!!!!!!!!!!!!!!!!!!!!!!!!!!!!!!!!!!!!!!!!!!!!!!!!!!!!!!!!!!!!!!!!!!!!!<<DPbRD@:42>Unmked_Xahnic___`_^^`accc`WKB?=:FSafjnidYbbdYQHQZca`_[WS_jznh____hnzsnilpstvzzzzzzzzzzzzzqniiiilqzlcZclzzzzz!!!!!!!!!!!!!!!!!!!!!!!!!!!!!!!!!!!!!!!!!!!!!!!!!!!!!!!!!!!!",
"!!!!!!!!!!!!!!!!!!!!!!!!!!!!!!!!!!!!!!!!!!!!!!!!!!!!!!!!!!!!!!!!!!!!!!!!!!!!!!!!!!!!!!!!!!!!!!!!!!!!!!!!!!!!!!!!!!!!!!!!DDPYebRDC:2BXommed_W_hpic__``_^]^``chjaWMB92;HX_flidbbddYTQX_fca`^ZW`lzzzzzzzzzzsninszzzzzzzzzzzzzzzzpiaaaainvpicjpzzzzz!!!!!!!!!!!!!!!!!!!!!!!!!!!!!!!!!!!!!!!!!!!!!!!!!!!!!!!!!!!!",
"!!!!!!!!!!!!!!!!!!!!!!!!!!!!!!!!!!!!!!!!!!!!!!!!!!!!!!!!!!!!!!!!!!!!!!!!!!!!!!!!!!!!!!!!!!!!!!!!!!!!!!!!!!!!!!!!!!!!!!!!DDRbmdYRLC:H]mmmed_W`hqnigfc``^^^^`cfjf`ZQH?EGJNU[^_bbddbYX^_acfgc_[cjqtuzzzzzzztqnqtzzvvvvvvvvvutuuvnhaaacipvqnjnszzzzz!!!!!!!!!!!!!!!!!!!!!!!!!!!!!!!!!!!!!!!!!!!!!!!!!!!!!!!!!!!!",
"!!!!!!!!!!!!!!!!!!!!!!!!!!!!!!!!!!!!!!!!!!!!!!!!!!!!!!!!!!!!!!!!!!!!!!!!!!!!!!!!!!!!!!!!!!!!!!!!!!!!!!!!!!!!!!!!!!!!!!!!PPYdrmdbRLCQbmmmed_W`itqpnjfa`_^^^^afhhff`ZUMF?BGJQTYbbddbbb_`cinif`finpsvvzzzzzvtstuzvuttttttusqpqqslg`acfipvtqpsuzzzzz!!!!!!!!!!!!!!!!!!!!!!!!!!!!!!!!!!!!!!!!!!!!!!!!!!!!!!!!!!!!",
"!!!!!!!!!!!!!!!!!!!!!!!!!!!!!!!!!!!!!!!!!!!!!!!!!!!!!!!!!!!!!!!!!!!!!!!!!!!!!!!!!!!!!!!!!!!!!!!!!!!!!!!!!!!!!!!!!!!!!!!!PPYkvrmebRLXd|mmed_W`jvzzzpia`_^^^^`cfjoxxxoWE49:=FNYYbddeedb^flupjfghilpuvvzzzzzzzzzvusqqqqqssqnlnpqkf_acfjpvzzzzzzzzzz!!!!!!!!!!!!!!!!!!!!!!!!!!!!!!!!!!!!!!!!!!!!!!!!!!!!!!!!!!!!",
"!!!!!!!!!!!!!!!!!!!!!!!!!!!!!!!!!!!!!!!!!!!!!!!!!!!!!!!!!!!!!!!!!!!!!!!!!!!!!!!!!!!!!!!!!!!!!!!!!!!!!!!!!!!!!!!!!!!!!!!!PPYktrrmeb[be|edb_^[clvvzzqlhgca``^afhjjjjjj`SGA>:AJTXYYbdeb_X^ciihhhhijlnpqstuvvvvvvzqliknppqqlicfhic_X_cinqvvzzvuttssqn!!!!!!!!!!!!!!!!!!!!!!!!!!!!!!!!!!!!!!!!!!!!!!!!!!!!!!!!!!!",
"!!!!!!!!!!!!!!!!!!!!!!!!!!!!!!!!!!!!!!!!!!!!!!!!!!!!!!!!!!!!!!!!!!!!!!!!!!!!!!!!!!!!!!!!!!!!!!!!!!!!!!!!!!!!!!!!!!!!!!!!RRYittrrmkgkm|dYTX[`gnuvzzuqolifca`cfihhfhjjf`[MB9?GMSTXYdeb[SWZ_afiiihiiiknpqqtttsuvznh`finnpqia[^`c^WS[cnpsvvvvtqqppnljh!!!!!!!!!!!!!!!!!!!!!!!!!!!!!!!!!!!!!!!!!!!!!!!!!!!!!!!!!!",
"!!!!!!!!!!!!!!!!!!!!!!!!!!!!!!!!!!!!!!!!!!!!!!!!!!!!!!!!!!!!!!!!!!!!!!!!!!!!!!!!!!!!!!!!!!!!!!!!!!!!!!!!!!!!!!!!!!!!!!!!SSYitvwzwwtr||dTHQZciouvzzzzvqnigc`cgjgc`chjoxx]G4;AGKNU[bebTMNQU[cljihgfcgilnpqqqqsvzlaW^fklnpg]SWX]WQKXfqsuvvuuqpnllkiihh!!!!!!!!!!!!!!!!!!!!!!!!!!!!!!!!!!!!!!!!!!!!!!!!!!!!!!!!!",
"!!!!!!!!!!!!!!!!!!!!!!!!!!!!!!!!!!!!!!!!!!!!!!!!!!!!!!!!!!!!!!!!!!!!!!!!!!!!!!!!!!!!!!!!!!!!!!!!!!!!!!!!!!!!!!!!!!!!!!!!!Sblvvvvvvvr||dTINW^cjpppnopqoljhc`acfca`cfhjoxaUFEA?GMW[^bTLFHJMUZ`cfgca___^`afgijklnh`X^ahiikf_X[^`^XW_hppnlnnnljihhhhhhhh!!!!!!!!!!!!!!!!!!!!!!!!!!!!!!!!!!!!!!!!!!!!!!!!!!!!!!!!",
"!!!!!!!!!!!!!!!!!!!!!!!!!!!!!!!!!!!!!!!!!!!!!!!!!!!!!!!!!!!!!!!!!!!!!!!!!!!!!!!!!!!!!!!!!!!!!!!!!!!!!!!!!!!!!!!!!!!!!!!!!!gpwvuttvwtr|dTJNUZ`fljhgijoojjhc``````aacchoxj`WKA9BM[XXTLF=@FIMSW[`f`^ZWSNSWX]`ccffa_[^`cffgca_`acaa`fjplifghhgfccccfghhhh!!!!!!!!!!!!!!!!!!!!!!!!!!!!!!!!!!!!!!!!!!!!!!!!!!!!!!!",
"!!!!!!!!!!!!!!!!!!!!!!!!!!!!!!!!!!!!!!!!!!!!!!!!!!!!!!!!!!!!!!!!!!!!!!!!!!!!!!!!!!!!!!!!!!!!!!!!!!!!!!!!!!!!!!!!!!!!!!!!!!!zzvtstvzv||dXKNQU[ahfa_afjjjxjc^]ZZ]`aa``fjxxojUA4?M^XUMF>4;?EGIKU[c_ZUMHBGHKSW^^^^^^^^_```accfgghiikllnhc^_`a``___`afhhhhh!!!!!!!!!!!!!!!!!!!!!!!!!!!!!!!!!!!!!!!!!!!!!!!!!!!!!!",
"!!!!!!!!!!!!!!!!!!!!!!!!!!!!!!!!!!!!!!!!!!!!!!!!!!!!!!!!!!!!!!!!!!!!!!!!!!!!!!!!!!!!!!!!!!!!!!!!!!!!!!!!!!!!!!!!!!!!!!!!!!!!zvttuvzwt|dXKMSUZ`ffccfhjjoxjhfc``acffccfjjjjo^NBMXa[UK?4129>BGKQWZWUNHA;>AFHMSSSSSSSSUWWXZ[]^^][]^^`afa_Z[^^][Z[]^`chhhhh!!!!!!!!!!!!!!!!!!!!!!!!!!!!!!!!!!!!!!!!!!!!!!!!!!!!!!",
"!!!!!!!!!!!!!!!!!!!!!!!!!!!!!!!!!!!!!!!!!!!!!!!!!!!!!!!!!!!!!!!!!!!!!!!!!!!!!!!!!!!!!!!!!!!!!!!!!!!!!!!!!!!!!!!!!!!!!!!!!!!!!vuuvzzwwwgXJMSWZ^acgijjjoxxxojjjhhjjhhfghhjjoh`X^ah^SI:21129?FMMNSNMJB;49;>AEGGGGGGGHIJMNSUUWUSNNNNUX^[ZXXXXXWWWXZ_ahhhhh!!!!!!!!!!!!!!!!!!!!!!!!!!!!!!!!!!!!!!!!!!!!!!!!!!!!!!",
"!!!!!!!!!!!!!!!!!!!!!!!!!!!!!!!!!!!!!!!!!!!!!!!!!!!!!!!!!!!!!!!!!!!!!!!!!!!!!!!!!!!!!!!!!!!!!!!!!!!!!!!!!!!!!!!!!!!!!!!!!!!!!!vvzzz~~wgXJMSWX[^cinnloox{{{{xxxxxjjjhgfchjxxopolk_SG41,114;EMKJIHGG>42249:=>>>>>>>?@AEHJKMMJHFEEBHMUUUUUUUUSSUUW]ahhhhh!!!!!!!!!!!!!!!!!!!!!!!!!!!!!!!!!!!!!!!!!!!!!!!!!!!!!!",
"!!!!!!!!!!!!!!!!!!!!!!!!!!!!!!!!!!!!!!!!!!!!!!!!!!!!!!!!!!!!!!!!!!!!!!!!!!!!!!!!!!!!!!!!!!!!!!!!!!!!!!!!!!!!!!!!!!!!!!!!!!!!!!!vzzz~wwi]NSWZ^`cilpnljox{{{{xxooxxjjjhfafjoooonlkcZSB4122249=?AEA>;421124499999999:;;=>?@@A?>=;;:>AFGGGGFEGHIKMNUX[[[[[!!!!!!!!!!!!!!!!!!!!!!!!!!!!!!!!!!!!!!!!!!!!!!!!!!!!!!",
"!!!!!!!!!!!!!!!!!!!!!!!!!!!!!!!!!!!!!!!!!!!!!!!!!!!!!!!!!!!!!!!!!!!!!!!!!!!!!!!!!!!!!!!!!!!!!!!!!!!!!!!!!!!!!!!!!!!!!!!!!!!!!!!!zzzwwwk_TWX[`fklpsolhlo}}{{xxjoxxxjjhcafhjjjllllha^UJB9211224:?;4211112244444444444444444944444449:::::99=?BFHJKMNNNNN!!!!!!!!!!!!!!!!!!!!!!!!!!!!!!!!!!!!!!!!!!!!!!!!!!!!!!",
"!!!!!!!!!!!!!!!!!!!!!!!!!!!!!!!!!!!!!!!!!!!!!!!!!!!!!!!!!!!!!!!!!!!!!!!!!!!!!!!!!!!!!!!!!!!!!!!!!!!!!!!!!!!!!!!!!!!!!!!!!!!!!!!!!zzwwtkc[[]^cjqstvpjfjpz}}}xojox{xjjhc`cfjjjjjjlkjihcaH4111114=42111,11222222222222222222222221122222222249=?AFFFFFFFF!!!!!!!!!!!!!!!!!!!!!!!!!!!!!!!!!!!!!!!!!!!!!!!!!!!!!!",
"!!!!!!!!!!!!!!!!!!!!!!!!!!!!!!!!!!!!!!!!!!!!!!!!!!!!!!!!!!!!!!!!!!!!!!!!!!!!!!!!!!!!!!!!!!!!!!!!!!!!!!!!!!!!!!!!!!!!!!!!!!!!!!!!!zz~wwlg^_`aglrrttplilprtv}uqoxx{xxjjf`cfhffffghhiihfcSE4444;AH@:422124999::::::::99999444444444449999999=BHJMNNNNMIF!!!!!!!!!!!!!!!!!!!!!!!!!!!!!!!!!!!!!!!!!!!!!!!!!!!!!!!",
"!!!!!!!!!!!!!!!!!!!!!!!!!!!!!!!!!!!!!!!!!!!!!!!!!!!!!!!!!!!!!!!!!!!!!!!!!!!!!!!!!!!!!!!!!!!!!!!!!!!!!!!!!!!!!!!!!!!!!!!!!!!!!!!!!zz~~wnh_afgknrrstrpnmmmrtz}uuxxxxxxjf`acfc```acfhihgf^WNMKKNSWNIE?=:=?BEEEEEEEEEEEEBAAA@???????@@@AAAABEINWXZ[[[[XS!!!!!!!!!!!!!!!!!!!!!!!!!!!!!!!!!!!!!!!!!!!!!!!!!!!!!!!!",
"!!!!!!!!!!!!!!!!!!!!!!!!!!!!!!!!!!!!!!!!!!!!!!!!!!!!!!!!!!!!!!!!!!!!!!!!!!!!!!!!!!!!!!!!!!!!!!!!!!!!!!!!!!!!!!!!!!!!!!!!!!!!!!!!!zzzzzpicgiknprrrrrrrmmemrzzzz}xxx{{jf``aa_]Z[^_afihhhiklkihhgf`[WUQMMMNNNNNNQNNNNNNMMMMKKKKKKKKKLLLKKMMNX_hhhhhhhh!!!!!!!!!!!!!!!!!!!!!!!!!!!!!!!!!!!!!!!!!!!!!!!!!!!!!!!!!",
"!!!!!!!!!!!!!!!!!!!!!!!!!!!!!!!!!!!!!!!!!!!!!!!!!!!!!!!!!!!!!!!!!!!!!!!!!!!!!!!!!!!!!!!!!!!!!!!!!!!!!!!!!!!!!!!!!!!!!!!!!!!!!!!!!!zzzzqliiklmmmkdbYYRRRYbdkmrzuxoxxxjha`^[ZZZ[]^^^__`afinlkiihhc`^ZXUWWWWWWXXZXXXXWWWWWWWWWUUUUUUUUVWWWXZ`fkhc`fhll!!!!!!!!!!!!!!!!!!!!!!!!!!!!!!!!!!!!!!!!!!!!!!!!!!!!!!!!!",
"!!!!!!!!!!!!!!!!!!!!!!!!!!!!!!!!!!!!!!!!!!!!!!!!!!!!!!!!!!!!!!!!!!!!!!!!!!!!!!!!!!!!!!!!!!!!!!!!!!!!!!!!!!!!!!!!!!!!!!!!!!!!!!!!!!!zzztpllmmmkkbRPD<<<DDPPbemzuoloxxojf`ZUWXZ[]]ZWUWX[ahnllljiihfc`_^^^____``aa````_`````_______^^^__`aachkph`Zaiqq!!!!!!!!!!!!!!!!!!!!!!!!!!!!!!!!!!!!!!!!!!!!!!!!!!!!!!!!!",
"!!!!!!!!!!!!!!!!!!!!!!!!!!!!!!!!!!!!!!!!!!!!!!!!!!!!!!!!!!!!!!!!!!!!!!!!!!!!!!!!!!!!!!!!!!!!!!!!!!!!!!!!!!!!!!!!!!!!!!!!!!!!!!!!!!!!zzvsqrrrmkdRD<73337<<DPbkzsnjloxojh^UKQW[[[[UNIMSW^gnnnnlkjjiihfcfffgghhijjiiihhhijjiiihhhhhhhhhiiklnpqti^U_jzz!!!!!!!!!!!!!!!!!!!!!!!!!!!!!!!!!!!!!!!!!!!!!!!!!!!!!!!!!",
"!!!!!!!!!!!!!!!!!!!!!!!!!!!!!!!!!!!!!!!!!!!!!!!!!!!!!!!!!!!!!!!!!!!!!!!!!!!!!!!!!!!!!!!!!!!!!!!!!!!!!!!!!!!!!!!!!!!!!!!!!!!!!!!!!!!!!zvsqmmmdYRPDD<<7<<DPPYbeplighjojc`ZSKNSWUUSMIFGHIWannnnllkjihfa``aaaccgiljihggfhjlkiihhhhijhfcgikllnpqti^U_jzz!!!!!!!!!!!!!!!!!!!!!!!!!!!!!!!!!!!!!!!!!!!!!!!!!!!!!!!!!",
"!!!!!!!!!!!!!!!!!!!!!!!!!!!!!!!!!!!!!!!!!!!!!!!!!!!!!!!!!!!!!!!!!!!!!!!!!!!!!!!!!!!!!!!!!!!!!!!!!!!!!!!!!!!!!!!!!!!!!!!!!!!!!!!!!!!!!!!!!kedYRDDDDDDDDPPPYbddigcafhjc^XUNKMMNMKIGEAA@@M_pnnnnllihfa_^^^__``finkhffcchjnljhhhhiklif`chllnnpqti^U_jzz!!!!!!!!!!!!!!!!!!!!!!!!!!!!!!!!!!!!!!!!!!!!!!!!!!!!!!!!!",
"!!!!!!!!!!!!!!!!!!!!!!!!!!!!!!!!!!!!!!!!!!!!!!!!!!!!!!!!!!!!!!!!!!!!!!!!!!!!!!!!!!!!!!!!!!!!!!!!!!!!!!!!!!!!!!!!!!!!!!!!!!!!!!!!!!!!!!!!!!bbPD<<DDPPYYYbdeeddba_^`ch`XQNMJJJJHFB@?>=:9G[ppnnnnniga_]XZZ[]]^cipkhaaaahkpljhhhhjlpic^ahnnnnpqti^U_jzz!!!!!!!!!!!!!!!!!!!!!!!!!!!!!!!!!!!!!!!!!!!!!!!!!!!!!!!!!",
"!!!!!!!!!!!!!!!!!!!!!!!!!!!!!!!!!!!!!!!!!!!!!!!!!!!!!!!!!!!!!!!!!!!!!!!!!!!!!!!!!!!!!!!!!!!!!!!!!!!!!!!!!!!!!!!!!!!!!!!!!!!!!!!!!!!!!!!!!!YYPPDDPPRYYYYbbbbb__`accfg`ZUNJGJQWKE===>942AWpppnnlkhf`^XUUUUUWX_glg`ZZ]^cipjc^`achkph`X`hnnlknqti^U_jzz!!!!!!!!!!!!!!!!!!!!!!!!!!!!!!!!!!!!!!!!!!!!!!!!!!!!!!!!!",
"!!!!!!!!!!!!!!!!!!!!!!!!!!!!!!!!!!!!!!!!!!!!!!!!!!!!!!!!!!!!!!!!!!!!!!!!!!!!!!!!!!!!!!!!!!!!!!!!!!!!!!!!!!!!!!!!!!!!!!!!!!!!!!!!!!!!!!!!!!PPPPPPPRYYdbbYYY^^][_chhgf`]XNHAKWaQB49;>421=Upppplkifa`ZUMMMKMSU[cjaZQUUW`hqh^UX]_cing^W_hpnkilpti^U_jzz!!!!!!!!!!!!!!!!!!!!!!!!!!!!!!!!!!!!!!!!!!!!!!!!!!!!!!!!!",
"!!!!!!!!!!!!!!!!!!!!!!!!!!!!!!!!!!!!!!!!!!!!!!!!!!!!!!!!!!!!!!!!!!!!!!!!!!!!!!!!!!!!!!!!!!!!!!!!!!!!!!!!!!!!!!!!!!!!!!!!!!!!!!!!!!!!!!!!!!DDPPYYYYbdedb]ZXWWWW_gnjhc`_[NG>K^nW@249>4114Qqpppligc`_WNIHGFHKNX_h^SHKMS]gqcXKQW[ahnc[S]gqnjhkpti^U_jzz!!!!!!!!!!!!!!!!!!!!!!!!!!!!!!!!!!!!!!!!!!!!!!!!!!!!!!!!!",
"!!!!!!!!!!!!!!!!!!!!!!!!!!!!!!!!!!!!!!!!!!!!!!!!!!!!!!!!!!!!!!!!!!!!!!!!!!!!!!!!!!!!!!!!!!!!!!!!!!!!!!!!!!!!!!!!!!!!!!!!!!!!!!!!!!!!!!!!!!DDPPYYYbdded_ZZXXXXZaipnkif`^WMHKQWI?49;>421:Uqqpplifc`^XSKKJIMQU[`h]QGIKMZfp`SEKU[_ac^WNZcnkihkpti^U_jzz!!!!!!!!!!!!!!!!!!!!!!!!!!!!!!!!!!!!!!!!!!!!!!!!!!!!!!!!!",
"!!!!!!!!!!!!!!!!!!!!!!!!!!!!!!!!!!!!!!!!!!!!!!!!!!!!!!!!!!!!!!!!!!!!!!!!!!!!!!!!!!!!!!!!!!!!!!!!!!!!!!!!!!!!!!!!!!!!!!!!!!!!!!!!!!!!!!!!!!<<PPbbdddddb^XXXXZ[]cktqpnic^[WUMG@?>===>921>Wqqqplifa_]XUNNNMSWZ_ch[NFGIKWcn^K>GN[[[[WSMW`jihhkpti^U_jzz!!!!!!!!!!!!!!!!!!!!!!!!!!!!!!!!!!!!!!!!!!!!!!!!!!!!!!!!!",
"!!!!!!!!!!!!!!!!!!!!!!!!!!!!!!!!!!!!!!!!!!!!!!!!!!!!!!!!!!!!!!!!!!!!!!!!!!!!!!!!!!!!!!!!!!!!!!!!!!!!!!!!!!!!!!!!!!!!!!!!!!!!!!!!!!!!!!!!!!<<DPdddedddb]WXXXZ^_gnwvttlg````M>24=B@?>942AXqqqqlhc`_[XWUUUUX[_afhZMEFGHU`nZG9AM[XUSNMKU^hhhhkpti^U_jzz!!!!!!!!!!!!!!!!!!!!!!!!!!!!!!!!!!!!!!!!!!!!!!!!!!!!!!!!!",
"!!!!!!!!!!!!!!!!!!!!!!!!!!!!!!!!!!!!!!!!!!!!!!!!!!!!!!!!!!!!!!!!!!!!!!!!!!!!!!!!!!!!!!!!!!!!!!!!!!!!!!!!!!!!!!!!!!!!!!!!!!!!!!!!!!!!!!!!!<<8DPYYdeddb_]XZZ]]^^cipqrsnkgc`^QG>?ABA?>942AXqqpplifa`^]ZZZ[]_afghi`WKMNSZ`hXI>HUa]WMNNQX`hhiilnqh^U_jzz!!!!!!!!!!!!!!!!!!!!!!!!!!!!!!!!!!!!!!!!!!!!!!!!!!!!!!!!!",
"!!!!!!!!!!!!!!!!!!!!!!!!!!!!!!!!!!!!!!!!!!!!!!!!!!!!!!!!!!!!!!!!!!!!!!!!!!!!!!!!!!!!!!!!!!!!!!!!!!!!!!!!!!!!!!!!!!!!!!!!!!!!!!!!!!!!!!!!D<88<DPPbedb_][Z[^__^]`fjlptrnlg_XVSMJGBA?>942AXqppnligca____`acfikkkkf^WX[^_`aWMEN^j`WKNUW]ahijklnpf^U_jzz!!!!!!!!!!!!!!!!!!!!!!!!!!!!!!!!!!!!!!!!!!!!!!!!!!!!!!!!!",
"!!!!!!!!!!!!!!!!!!!!!!!!!!!!!!!!!!!!!!!!!!!!!!!!!!!!!!!!!!!!!!!!!!!!!!!!!!!!!!!!!!!!!!!!!!!!!!!!!!!!!!!!!!!!!!!!!!!!!!!!!!!!!!!!!!!!!!!DD<888<DPYed_Z[ZZ^`a`^Z^afinrrrri_TX^aWLBA?>942AXqpnnkihfcaccfhiklpqpnnifacfhc_[WQKXfqcWINW]`chilnnllc]U_jzz!!!!!!!!!!!!!!!!!!!!!!!!!!!!!!!!!!!!!!!!!!!!!!!!!!!!!!!!!",
"!!!!!!!!!!!!!!!!!!!!!!!!!!!!!!!!!!!!!!!!!!!!!!!!!!!!!!!!!!!!!!!!!!!!!!!!!!!!!!!!!!!!!!!!!!!!!!!!!!!!!!!!!!!!!!!!!!!!!!!!!!!!!!!!!!!!!!7<<<<8<DDPYbb_]^_````^XUX]_cimmrrmd_aafXNFBA?:42BZsqpnllkiihiijllnpqsqqpnjhijlihc`^Zajsi`X]`fhilllnnllc]U_jzz!!!!!!!!!!!!!!!!!!!!!!!!!!!!!!!!!!!!!!!!!!!!!!!!!!!!!!!!!",
"!!!!!!!!!!!!!!!!!!!!!!!!!!!!!!!!!!!!!!!!!!!!!!!!!!!!!!!!!!!!!!!!!!!!!!!!!!!!!!!!!!!!!!!!!!!!!!!!!!!!!!!!!!!!!!!!!!!!!!!!!!!!!!!!!!!!!3377<<DDDDPR_^^^`cfca_ZUNUWZ_cgkm|mmkigd]QGFB@;42B[vsplnnpnnnnnppqqqsttssqpnppqpnnkihlpupkhiklnpppnnnllc]U_jzz!!!!!!!!!!!!!!!!!!!!!!!!!!!!!!!!!!!!!!!!!!!!!!!!!!!!!!!!!",
"!!!!!!!!!!!!!!!!!!!!!!!!!!!!!!!!!!!!!!!!!!!!!!!!!!!!!!!!!!!!!!!!!!!!!!!!!!!!!!!!!!!!!!!!!!!!!!!!!!!!!!!!!!!!!!!!!!!!!!!!!!!!!!!!!!!!33333<<PPPPPRX[^_chkga^WQJMQVX^bde||||mmeYTHGFB=42E]ztplpqtttttuuuuuuvvvvvvvvvzzzzzzzzzzvzzzzzzvvuqpnnllc]U_jzz!!!!!!!!!!!!!!!!!!!!!!!!!!!!!!!!!!!!!!!!!!!!!!!!!!!!!!!!!",
"!!!!!!!!!!!!!!!!!!!!!!!!!!!!!!!!!!!!!!!!!!!!!!!!!!!!!!!!!!!!!!!!!!!!!!!!!!!!!!!!!!!!!!!!!!!!!!!!!!!!!!!!!!!!!!!!!!!!!!!!!!!!!!!!!!!//133;<DPPDDLTX]`cgilf_XUMIKMNSTXYbdeemmeebYTLG@>;9H_trpnnpqqqqstuuvvvvwwwwwwzzzzzzzzzzzzzzzzzzzzvuqnkkkjc[U_jzzz!!!!!!!!!!!!!!!!!!!!!!!!!!!!!!!!!!!!!!!!!!!!!!!!!!!!!!!!",
"!!!!!!!!!!!!!!!!!!!!!!!!!!!!!!!!!!!!!!!!!!!!!!!!!!!!!!!!!!!!!!!!!!!!!!!!!!!!!!!!!!!!!!!!!!!!!!!!!!!!!!!!!!!!!!!!!!!!!!!!!!!!!!!(+++,/037<DPPPDCHQX^agiknf^UNKHHIJLNSTRRYbeeeeedbRH@@@@L_rpnnnnppppqtvvvvwwwwwwwwzzzzzzzzzzzzzzzzzzzzvvqliiiiaZU_jzzzzzzzzzzzzz!!!!!!!!!!!!!!!!!!!!!!!!!!!!!!!!!!!!!!!!!!!!!!",
"!!!!!!!!!!!!!!!!!!!!!!!!!!!!!!!!!!!!!!!!!!!!!!!!!!!!!!!!!!!!!!!!!!!!!!!!!!!!!!!!!!!!!!!!!!!!!!!!!!!!!!!!!!!!!!!!!!!!!!!!!!!!!!((+++,//3<DPPYPG=FNZ_fjllncZNKIGGGFHILLLLRYbdeeeemYD>CCHTbmmmnnnllnnpsvvzzwwwwwww~zzzzzzzzzzzzzzzzzzzzzvplhhgg`ZU_jzzzzzzzzzzzzzz!!!!!!!!!!!!!!!!!!!!!!!!!!!!!!!!!!!!!!!!!!!!!",
"!!!!!!!!!!!!!!!!!!!!!!!!!!!!!!!!!!!!!!!!!!!!!!!!!!!!!!!!!!!!!!!!!!!!!!!!!!!!!!!!!!!!!!!!!!!!!!!!!!!!!!!!!!!!!!!!!!!!!!!!!!!!!((((++,/33<DLPRNG?HS^`fiihh^UIHGEEEBEGGHJLNRRYYYbbdYPDLNRYdmmmppmmmmprtwwwwwwwwwww~zzzzzzzzzzzzzzzzzzzzvvqplkkkc[U_kzzvttttvzzzzzzz!!!!!!!!!!!!!!!!!!!!!!!!!!!!!!!!!!!!!!!!!!!!",
"!!!!!!!!!!!!!!!!!!!!!!!!!!!!!!!!!!!!!!!!!!!!!!!!!!!!!!!!!!!!!!!!!!!!!!!!!!!!!!!!!!!!!!!!!!!!!!!!!!!!!!!!!!!!!!!!!!!!!!!!!!!!(((((++,/7<<DLQTNHAJU_afifa_WMGEEEBAAAABFHHLLNNPPRRYRRRYYbdemmrrrrrrrrrtwwwwwwww~~~zzzzzzzzzzzzzzzzzzvuvvzuqppppg^U`kzvsqqqqsvzzzzzzz!!!!!!!!!!!!!!!!!!!!!!!!!!!!!!!!!!!!!!!!!!!",
"!!!!!!!!!!!!!!!!!!!!!!!!!!!!!!!!!!!!!!!!!!!!!!!!!!!!!!!!!!!!!!!!!!!!!!!!!!!!!!!!!!!!!!!!!!!!!!!!!!!!!!!!!!!!!!!!!!!!!!!!!!!(((((((+,0<<<DLNUMIEMXacgha^XNHAAAA@??>>>@EHHHHHDCDLPRYdee|meemrww||||||wwwwww~zzzzzzzzzzzzzzzzzzzzzzzutuvzzvvvuui_U`kztqnnnnqtzzzzzzzz!!!!!!!!!!!!!!!!!!!!!!!!!!!!!!!!!!!!!!!!!!",
"!!!!!!!!!!!!!!!!!!!!!!!!!!!!!!!!!!!!!!!!!!!!!!!!!!!!!!!!!!!!!!!!!!!!!!!!!!!!!!!!!!!!!!!!!!!!!!!!!!!!!!!!!!!!!!!!!!!!!!!!!!+((((((((,07<DNQSUNIGMXacfg`ZUMG@?>=;;;;==>@BEFHGCCGHLLRRYYbbbbdkrrr|||wwwwwwww~zzzzzzzzzzzzzzzzzzzvtrrrtrrrrmmmmmkf`glsqpnppqsvzzzzzzzzz!!!!!!!!!!!!!!!!!!!!!!!!!!!!!!!!!!!!!!!!!",
"!!!!!!!!!!!!!!!!!!!!!!!!!!!!!!!!!!!!!!!!!!!!!!!!!!!!!!!!!!!!!!!!!!!!!!!!!!!!!!!!!!!!!!!!!!!!!!!!!!!!!!!!!!!!!!!!!!!!!!!!!++(&((((((,07<DXTVUNJGNX`acf_XSKG@=:44999:;=>>@BFFCCCCCGHLLNTTTT_flprwwwwww~wwvwzzzzzzzzzzzzzzzzzzzztmmmrrrmmmkeeeekkklnopppqstvzzzzzzzzzzz!!!!!!!!!!!!!!!!!!!!!!!!!!!!!!!!!!!!!!!!",
"!!!!!!!!!!!!!!!!!!!!!!!!!!!!!!!!!!!!!!!!!!!!!!!!!!!!!!!!!!!!!!!!!!!!!!!!!!!!!!!!!!!!!!!!!!!!!!!!!!!!!!!!!!!!!!!!!!!!!!!!+++(&&(((((,07<P`^XUNKHNX``ac]WMIE?;4244449::::=@EBBA@?>>?@CCGHJLT_hlqzzzzzzzzvuvzzzzzzzzzzzzzzzzzzzzrmdem|meedddddderzsokloqsvzzzzzzzzzzzzzz!!!!!!!!!!!!!!!!!!!!!!!!!!!!!!!!!!!!!!!",
"!!!!!!!!!!!!!!!!!!!!!!!!!!!!!!!!!!!!!!!!!!!!!!!!!!!!!!!!!!!!!!!!!!!!!!!!!!!!!!!!!!!!!!!!!!!!!!!!!!!!!!!!!!!!!!!!!!!!!!!(++((&(((((+,07<P`^XUNKHNX````[WQJE?;42444444999;=??@@??>>>?@@CFHHNW^cipqsuuuuuuuvzzzzvzzzzzzzzzzzzzzzrmemm|mmeeeddeemrzqlhknqstuqnllllptzzzzz!!!!!!!!!!!!!!!!!!!!!!!!!!!!!!!!!!!!!!!",
"!!!!!!!!!!!!!!!!!!!!!!!!!!!!!!!!!!!!!!!!!!!!!!!!!!!!!!!!!!!!!!!!!!!!!!!!!!!!!!!!!!!!!!!!!!!!!!!!!!!!!!!!!!!!!!!!!!!!!!(((((((((((++,07<P`]XUNKHQXa``_[WSKF?;424444444499:;=>??>>>>>>??AEGJNU[aiknqqqsstuvzzzvuvzzzzzzzzzzzzzztrm||||meeeeeeemrzpkdinssqqlg````hpzzzzz!!!!!!!!!!!!!!!!!!!!!!!!!!!!!!!!!!!!!!!",
"!!!!!!!!!!!!!!!!!!!!!!!!!!!!!!!!!!!!!!!!!!!!!!!!!!!!!!!!!!!!!!!!!!!!!!!!!!!!!!!!!!!!!!!!!!!!!!!!!!!!!!!!!!!!!!!!!!!!!(((&&(((((((++,07<P`]XUNKISZa`_^ZWUMF?:42444222244444:;?>>=====;;>@BFHKSZafjnpppqsuvzzvusuvzzzzzzzzzzzzzw||||||||meeeeemrzpibgltqqph_WWWW`lzzzzz!!!!!!!!!!!!!!!!!!!!!!!!!!!!!!!!!!!!!!!",
"!!!!!!!!!!!!!!!!!!!!!!!!!!!!!!!!!!!!!!!!!!!!!!!!!!!!!!!!!!!!!!!!!!!!!!!!!!!!!!!!!!!!!!!!!!!!!!!!!!!!!!!!!!!!!!!!!!!!+(((((((((((+++,07<P^ZWSNKISZaa`_[XUKF>:442222222244449:;==>===;;;=?@BEGKSX]`cfhiklnpqsqqqqtvuuuvzzzzzzzzww|||m||||mmmmmrvzpkdfgigfa_ZWWWW^flptzz!!!!!!!!!!!!!!!!!!!!!!!!!!!!!!!!!!!!!!!",
"!!!!!!!!!!!!!!!!!!!!!!!!!!!!!!!!!!!!!!!!!!!!!!!!!!!!!!!!!!!!!!!!!!!!!!!!!!!!!!!!!!!!!!!!!!!!!!!!!!!!!!!!!!!!!(+++++++(((((((+(((+++,07<DZWUSMKISZaaa`^XUKE>:44222221222244499:=>==;;;;==>??AFINSWZ^`afgijlnnnnpqssqqtvzzzzzzz~wwrmmmrwrrrrrrvwzqkgc`^[XWWWWWWWZ^`hpzz!!!!!!!!!!!!!!!!!!!!!!!!!!!!!!!!!!!!!!!",
"!!!!!!!!!!!!!!!!!!!!!!!!!!!!!!!!!!!!!!!!!!!!!!!!!!!!!!!!!!!!!!!!!!!!!!!!!!!!!!!!!!!!!!!!!!!!!!!!!!!!!!!!!!!!((+++++++((((((+)(((++,/07<DWUUQMKISZaacc_ZUKE=:442222111222244449;>==;;;;;;====?EGIKNUX]_`cfhijllnpqpppquzzzzzzzzzzrmemrzzzzzzzzzzqniaZUNKIMSWWWWWWW`lzz!!!!!!!!!!!!!!!!!!!!!!!!!!!!!!!!!!!!!!!",
"!!!!!!!!!!!!!!!!!!!!!!!!!!!!!!!!!!!!!!!!!!!!!!!!!!!!!!!!!!!!!!!!!!!!!!!!!!!!!!!!!!!!!!!!!!!!!!!!!!!!!!!!!!!+((+++++++((((((+++((++,/07<DWUSQMKIU]fffc_ZUKE=:4422222122222244449;;;=;:9:;;;==>?AEFGKNUWZ]^^_`cfghhiiiklnpqqtvzzzztrmrtzzzzzzzzvunh`ZUMJHGIMQSUWWWW^flnp!!!!!!!!!!!!!!!!!!!!!!!!!!!!!!!!!!!!!!",
"!!!!!!!!!!!!!!!!!!!!!!!!!!!!!!!!!!!!!!!!!!!!!!!!!!!!!!!!!!!!!!!!!!!!!!!!!!!!!!!!!!!!!!!!!!!!!!!!!!!!!!!!!!++((++,+++(((((((+++++++,/07<DWUSNMMKU_ihgf_ZUKE=:444222222222222244449:=;999::;;====>?@EHMNSUUUUWZ^___`acffhiknptzzzzwtrtwzzzzzzzvtqiaXUMGGGEGIKNSWWWWZ^`gnzzzz!!!!!!!!!!!!!!!!!!!!!!!!!!!!!!!!!!",
"!!!!!!!!!!!!!!!!!!!!!!!!!!!!!!!!!!!!!!!!!!!!!!!!!!!!!!!!!!!!!!!!!!!!!!!!!!!!!!!!!!!!!!!!!!!!!!!!!!!!!!!!!+++((++/,+((((((((++++++,,/07<DWUSNMMKWalihf_ZUJE=:444442222222222244444:=:9499::;;::99::>AGHKMKKIMSWWWWX[^___afilqzzzzzzzzzzzzzzzzuqnf[SKGAABBEFGKQWWWWWWW`lzzzzz!!!!!!!!!!!!!!!!!!!!!!!!!!!!!!!!!",
"!!!!!!!!!!!!!!!!!!!!!!!!!!!!!!!!!!!!!!!!!!!!!!!!!!!!!!!!!!!!!!!!!!!!!!!!!!!!!!!!!!!!!!!!!!!!!!!!!!!!!!!!+++++++,/++(((&((((++++++,,/07<DZWSMMMMXcnkih`ZSIB=;;;99442222222222444444994449:;;;;::999;=?AEGGFFHJMMMMSWZZ[[_`chlpqsuvzzzzzzzzvutnjg^WMIFABEEFGGKQWWWWWWW^flptzz!!!!!!!!!!!!!!!!!!!!!!!!!!!!!!!!!",
"!!!!!!!!!!!!!!!!!!!!!!!!!!!!!!!!!!!!!!!!!!!!!!!!!!!!!!!!!!!!!!!!!!!!!!!!!!!!!!!!!!!!!!!!!!!!!!!!!!!!!!!+(((++,,//++&&&&((((++++++,,/07<P^XSKMMNZfpnkiaZSIA;>?A?=942222222444422244444449;;;=;;:994999;=???@BEGGGGKNWWWXZ]_agilpstvzzzzzzztqpic^WNHGEAEEFGGHKSWWWWWWWZ^`hpzz!!!!!!!!!!!!!!!!!!!!!!!!!!!!!!!!!",
"!!!!!!!!!!!!!!!!!!!!!!!!!!!!!!!!!!!!!!!!!!!!!!!!!!!!!!!!!!!!!!!!!!!!!!!!!!!!!!!!!!!!!!!!!!!!!!!!!!!!!!++((&+,11//++&&&&(((++++++,,,/07<P`XSIMNS^gqplkaZSIA;?FJF@=94222444444422222224449=====;;944444449:;=>>????FKSSUUWXZ^`chlpquzzzzzzvqplf^WNIEEBAEFGGHHMSWWWWWWWWWW`lzz!!!!!!!!!!!!!!!!!!!!!!!!!!!!!!!!!",
"!!!!!!!!!!!!!!!!!!!!!!!!!!!!!!!!!!!!!!!!!!!!!!!!!!!!!!!!!!!!!!!!!!!!!!!!!!!!!!!!!!!!!!!!!!!!!!!!!!!!!!((((&+,31//++(((((++++++++,,,/07<P`XSIMNS^gpnljaZSIE>EISHA:442224444442222222222449:;====;994444999::;=>>??EGKMQUUWWZ_chlqtuzzzzusqnig`ZUMIEEEEGHIIJKNSWUUUUWWWWW^fll!!!!!!!!!!!!!!!!!!!!!!!!!!!!!!!!!",
"!!!!!!!!!!!!!!!!!!!!!!!!!!!!!!!!!!!!!!!!!!!!!!!!!!!!!!!!!!!!!!!!!!!!!!!!!!!!!!!!!!!!!!!!!!!!!!!!!!!!!!(((((+/32//,+((((++,,,,,,,,,,/07<P`XSIMNU]fpnkiaZQKGAHNXKA94222244444222222222224449;>>===;;:999999999:==>>@EFIMSSUUX^chntuvzzzzspnif`[WQMHFGGGIJMMMNQUUUSSUUWWWWZ^``!!!!!!!!!!!!!!!!!!!!!!!!!!!!!!!!!",
"!!!!!!!!!!!!!!!!!!!!!!!!!!!!!!!!!!!!!!!!!!!!!!!!!!!!!!!!!!!!!!!!!!!!!!!!!!!!!!!!!!!!!!!!!!!!!!!!!!!!!!&&(((+/330/,++++++,/,,,,,,,,,/07<P`XSIMNU]fnlji`XQMIGMW_NA44222244442222222222222244:>>>>>>>==;:9994449:;=>>??FKSQQNW]ainvvzzzvvqnif`[WSMKHFGHIKMNQSSUUUSQNSUWWWWWWWW!!!!!!!!!!!!!!!!!!!!!!!!!!!!!!!!!",
"!!!!!!!!!!!!!!!!!!!!!!!!!!!!!!!!!!!!!!!!!!!!!!!!!!!!!!!!!!!!!!!!!!!!!!!!!!!!!!!!!!!!!!!!!!!!!!!!!!!!!!&&(++,1:30/,,+++++,////,,,,,,/07<P`XSJMNSZclihf_XQMKIMUZMA942222224444422222222222249==>>>>>>=====;:9:;;===>??EGIJKMSWZahpppqqqsnifa^ZWUNMJHIJKMNSSUUUUSQNMSW]ZXWWWWW!!!!!!!!!!!!!!!!!!!!!!!!!!!!!!!!!",
"!!!!!!!!!!!!!!!!!!!!!!!!!!!!!!!!!!!!!!!!!!!!!!!!!!!!!!!!!!!!!!!!!!!!!!!!!!!!!!!!!!!!!!!!!!!!!!!!!!!!!!&&(+,/3;330/,++++,,/////,,,,//078P`XSJMNQZaihfc^WNNMMNSUJA942222222444442222222222244:;=>>>>>>>????>=======>?@ABEGHJMNSZaiijklnpkga_[XWUSNMIKMMNSUUUUUSSNMMUZ`^ZWWWWW!!!!!!!!!!!!!!!!!!!!!!!!!!!!!!!!!",
"!!!!!!!!!!!!!!!!!!!!!!!!!!!!!!!!!!!!!!!!!!!!!!!!!!!!!!!!!!!!!!!!!!!!!!!!!!!!!!!!!!!!!!!!!!!!!!!!!!!!!!&&+,123<730/,,,++,/00////,,//0078P`XSKMMNX_hfa`ZWNQQSQQNH@:442222224449442222222222449:=>>>>???AAEBAA??>==;=?@?>=@EHHIJS[ccfgiknhc^[XWWUUSNMMNQSUUUWWUSNMMKU^g`]WWWWW!!!!!!!!!!!!!!!!!!!!!!!!!!!!!!!!!",
"!!!!!!!!!!!!!!!!!!!!!!!!!!!!!!!!!!!!!!!!!!!!!!!!!!!!!!!!!!!!!!!!!!!!!!!!!!!!!!!!!!!!!!!!!!!!!!!!!!!!!(((+,133<730//,,,+,//001//////007<P^XUNNSUZ`hfa`ZWNSSUSSNKGE=422222224444442222222222449:===>>??@ABAAA@???>>??@????AEFHINW]_`ccffa^ZXWWWUUSQMNQSUUUUUUSNMMKINW^[ZWZ^`ci!!!!!!!!!!!!!!!!!!!!!!!!!!!!!!!!",
"!!!!!!!!!!!!!!!!!!!!!!!!!!!!!!!!!!!!!!!!!!!!!!!!!!!!!!!!!!!!!!!!!!!!!!!!!!!!!!!!!!!!!!!!!!!!!!!!!!!!+++++/133<7700/,,,,,//01310//00077<DZXUSUUW[`gca_ZUNSUWUSNNMME;422222224444442222122224449;;==>>??@AAAAAA@@@@@@A@@@???AGIMQUX]`___[XWWWWWWUUSNQSUUUWUUUQMKJIHKNUWWX_flnqz!!!!!!!!!!!!!!!!!!!!!!!!!!!!!!!",
"!!!!!!!!!!!!!!!!!!!!!!!!!!!!!!!!!!!!!!!!!!!!!!!!!!!!!!!!!!!!!!!!!!!!!!!!!!!!!!!!!!!!!!!!!!!!!!!!!!!+++++,/233<7700/,,,,,//033331000778<DWWWWWXX^agca_ZUNUWXWUNUWXJ?4422222224449422211222222449:;==>???@AABBBBBEEBAAAAB?=;?EHIKMSW^ZXWUUSUUWWWWUUSSUUUWWUUSNKIHGGHIKNUXalzzzzz!!!!!!!!!!!!!!!!!!!!!!!!!!!!!!",
"!!!!!!!!!!!!!!!!!!!!!!!!!!!!!!!!!!!!!!!!!!!!!!!!!!!!!!!!!!!!!!!!!!!!!!!!!!!!!!!!!!!!!!!!!!!!!!!!!!!+++++,123:<<7700/,,,,//033333377778DPZXXWXZ[_chfa`[WSUWZXWUUWWI?4442222222449442222222244499::;=>???@@@A@@?@@@AAABBEA??AEGIKMSWXXXXWWWWWWWWWUUSSUUUUUUSNMKHHGFGGHKNS[ckpszz!!!!!!!!!!!!!!!!!!!!!!!!!!!!!!",
"!!!!!!!!!!!!!!!!!!!!!!!!!!!!!!!!!!!!!!!!!!!!!!!!!!!!!!!!!!!!!!!!!!!!!!!!!!!!!!!!!!!!!!!!!!!!!!!!!!!+++,,/133;<<<770/,,,,//033333777888DP^[XWX[^afjhc`^XUWX[ZXWWUUI@94442222224499444222224449999::=>@@@@?????>>>>?ABEEEEEEEEEHKNSUUWXZZZZZXXWWWUUSUUUUUUSQNKIHGGFFFFHIMUZ`hpzz!!!!!!!!!!!!!!!!!!!!!!!!!!!!!!",
"!!!!!!!!!!!!!!!!!!!!!!!!!!!!!!!!!!!!!!!!!!!!!!!!!!!!!!!!!!!!!!!!!!!!!!!!!!!!!!!!!!!!!!!!!!!!!!!!!!!+++,/1133CD<<<70//,,,//03::;;<<<<<8DR`^ZWZ^_chlifa_ZWXZ][ZZWUSIA:994422222249999442222449999999;>AA@@??>>=====>@EEEEGGHGEBGKQQQQUX[]^_^ZXXWWUUSUUUUUUSNMKHGGFEEEBEGGKQW`kzz!!!!!!!!!!!!!!!!!!!!!!!!!!!!!!",
"!!!!!!!!!!!!!!!!!!!!!!!!!!!!!!!!!!!!!!!!!!!!!!!!!!!!!!!!!!!!!!!!!!!!!!!!!!!!!!!!!!!!!!!!!!!!!!!!!!,++,//1233<DDDD770/,,,,//133:;<<<<<<DPRRXX]`cgikhfa_[XZ[^][[XUSJE>=;:442222244999444444449999:;;>?ABEEEBA@?>>>>?BFGGGHIIIHGIMQNMMQUZ[^_^][XWUSSNQSSUUUSNMKHGGFEEEBEEFIMS_jzzz!!!!!!!!!!!!!!!!!!!!!!!!!!!!!",
"!!!!!!!!!!!!!!!!!!!!!!!!!!!!!!!!!!!!!!!!!!!!!!!!!!!!!!!!!!!!!!!!!!!!!!!!!!!!!!!!!!!!!!!!!!!!!!!!!//,,,/11233<<DDP<73/,,,,,/0333;<<<<<<DDPPTX^ahiijhfc`^XZ]^^^]XUQKGBA?>:422222444999944444999::;=>?AEEGGGGGEA????AEHHHHIKMKKJKMNMKHMSWZ^__^^ZWUQNMMNQSUUSNMKIGGFFEEABBEGJM]izzzz!!!!!!!!!!!!!!!!!!!!!!!!!!!!",
"!!!!!!!!!!!!!!!!!!!!!!!!!!!!!!!!!!!!!!!!!!!!!!!!!!!!!!!!!!!!!!!!!!!!!!!!!!!!!!!!!!!!!!!!!!!!!!!!//////112337<<DPRD<30/,,,,//033;<<<<<<<<<DRZ`flkjihgf`^Z[]^^^^XUNMIGGEB=942222244499::99999::::=>@ABEGHJJJJHEAAAAEGIIJJKMNNNNNNNKHFINWX^``__ZWSNMJKMNQUUSQMKIGGGFEEAAAAEHKZhzzzzz!!!!!!!!!!!!!!!!!!!!!!!!!!!",
"!!!!!!!!!!!!!!!!!!!!!!!!!!!!!!!!!!!!!!!!!!!!!!!!!!!!!!!!!!!!!!!!!!!!!!!!!!!!!!!!!!!!!!!!!!!!!!!!,,////11337<<DLTTLC31/,,,,//033;<<DDDDDDDPR_chllllkjif`^^^^^^^XUQNMKIHG?:442222244449994499::::;=>?@AEGHHHHGEAAAAEFGHHHIKMMMMMNNMJHJMQWZ____ZUNMJHIJKMMNNMMJHGGFFEEAAAAEGIU`kpszz!!!!!!!!!!!!!!!!!!!!!!!!!!!",
"!!!!!!!!!!!!!!!!!!!!!!!!!!!!!!!!!!!!!!!!!!!!!!!!!!!!!!!!!!!!!!!!!!!!!!!!!!!!!!!!!!!!!!!!!!!!!!!!,,,///11377<DPTTVLC92/,,,,//033:<<DDPPPPPPYcgjnnppnnnif``__^^^XWSQQNMKIB=442222224444444449::::;;=>??AEFFFFEEBBAAEEFFFFGIKKKKMNQMKIJKKSX^^^^XUMKHGGHHIJKKKKIHGGFEEBAAA@EFGNX`hpzz!!!!!!!!!!!!!!!!!!!!!!!!!!!",
"!!!!!!!!!!!!!!!!!!!!!!!!!!!!!!!!!!!!!!!!!!!!!!!!!!!!!!!!!!!!!!!!!!!!!!!!!!!!!!!!!!!!!!!!!!!!!!!!++,,//0077<DPRXXWKB:2/,,,,,//33:CDDPPYPPPRbhjlnpqssqqlica`_^^]XWSUUUSQMF>442222222444444449:::::::;=>?ABBBBBBBBBBBBBBBBFHJJJJMMQNMMJIGMW^^^^WSMIGEEFGGGHHIIHHGGFEEBAAA@AEFINW`kzz!!!!!!!!!!!!!!!!!!!!!!!!!!!",
"!!!!!!!!!!!!!!!!!!!!!!!!!!!!!!!!!!!!!!!!!!!!!!!!!!!!!!!!!!!!!!!!!!!!!!!!!!!!!!!!!!!!!!!!!!!!!!!!,,/123333<<DLTVWWMG?31/,,,,//033;<DDPYPPPRbhjlpqsutttplhfa_^^]ZWUWWWUNKF?:44222222444444444999999:;;=>??@ABA@??????>?ABEGHHHHIKMMMMKJIMSWX]_ZWSMJGGGGGGGHHHHGGGGFEEEBAAAEEHMS[fnn!!!!!!!!!!!!!!!!!!!!!!!!!!!",
"!!!!!!!!!!!!!!!!!!!!!!!!!!!!!!!!!!!!!!!!!!!!!!!!!!!!!!!!!!!!!!!!!!!!!!!!!!!!!!!!!!!!!!!!!!!!!!!!,,13>=;:;>CGLVWWUQKG:1//,,,//0333<<DPYPPPRbhknqstvvvvsplhc__^^ZXWXXXUMIGA>:4422222444444444444449::::;=>?@B@?>>>>=;;=?BEEFFFFHIMMMNMMKKMMU[`_[XUNKIHGGGGGGGGGGGGGGEEEBABEEGJMW_gg!!!!!!!!!!!!!!!!!!!!!!!!!!!",
"!!!!!!!!!!!!!!!!!!!!!!!!!!!!!!!!!!!!!!!!!!!!!!!!!!!!!!!!!!!!!!!!!!!!!!!!!!!!!!!!!!!!!!!!!!!!!!!!//2>MIGBA?>FMWUUUUSM>3//,,,,//0337<DPYPPPRbhknqtvzzzzvsqkf__^^]ZZZZZUMHGEA=9442222444444444444449::999:;>?B?>;;;;:94;>BBBBBBBFHJKMNNMMKIHQZca_^XUNKIGGGGGFFGGGGGGGGFEEABBEGHKSX__!!!!!!!!!!!!!!!!!!!!!!!!!!!",
"!!!!!!!!!!!!!!!!!!!!!!!!!!!!!!!!!!!!!!!!!!!!!!!!!!!!!!!!!!!!!!!!!!!!!!!!!!!!!!!!!!!!!!!!!!!!!!!31129?>=;>AFJSXXZWWUUC3//,,,,//0133<DPPPPPYdilpsuvzzzzvtqlha`_^^][ZXWSMIGEA>:4442224444444444444449999:;=>?B?>;;;;:949=>???@ABEGHIMNNNNMKJQX_^^[ZXXUNKJIHHHGIJKMMNMMKJHGGGGHIKSW]]!!!!!!!!!!!!!!!!!!!!!!!!!!!",
"!!!!!!!!!!!!!!!!!!!!!!!!!!!!!!!!!!!!!!!!!!!!!!!!!!!!!!!!!!!!!!!!!!!!!!!!!!!!!!!!!!!!!!!!!!!!!!7732244444;BKQW]][[ZZZC30/,,,,///033<<DPPPPYdlnquvzzzzzvusnifc`__^]ZWUQMJHFA?;944224444444444444444449:;==?@A?>;;;;:9499;;=>?@BEEGHJMNNSNMMSWZZZZ]^`[WSNMKKJIKNSUWWWUUSNKKJIJKMSWZZ!!!!!!!!!!!!!!!!!!!!!!!!!!!",
"!!!!!!!!!!!!!!!!!!!!!!!!!!!!!!!!!!!!!!!!!!!!!!!!!!!!!!!!!!!!!!!!!!!!!!!!!!!!!!!!!!!!!!!!!!!!!777342211129EUX[_``````D70//,,,////03;<DPPPYbinpsvzzzzzzzutplhfa`__^ZWSNMKHGB?=:94444444444444444444449:;=>?@A?>;;;;:944449:;>?BBEEGIMNQUSQNSUWWWW^cic^XUSNMMKNUXZ^`_^]XWSQMMMMMSUWW!!!!!!!!!!!!!!!!!!!!!!!!!!!",
"!!!!!!!!!!!!!!!!!!!!!!!!!!!!!!!!!!!!!!!!!!!!!!!!!!!!!!!!!!!!!!!!!!!!!!!!!!!!!!!!!!!!!!!!!!!!!77322221224>IWX]__^^```L700/,,,////33<<DPPPYbglpquvzzzzzvutpligc`_^]XUNMMKHGB@>=;9444422222224444444449:;==>???>=>>>=:9999:=>?@BBEEGHJMNSSSSUUWWXX^`f`^ZXWUUSQUWXZ]_``a`_]ZWUUUSUWWW!!!!!!!!!!!!!!!!!!!!!!!!!!!",
"!!!!!!!!!!!!!!!!!!!!!!!!!!!!!!!!!!!!!!!!!!!!!!!!!!!!!!!!!!!!!!!!!!!!!!!!!!!!!!!!!!!!!!!!!!!!!3331112249>FMXZ]_^^^`acL<70/,,////033<<DPPPYbdknqtuvzzvuuttqnkhfa_^ZWSNMMKHFBA@?>=;94422222222444444449::;;==>??????>=::::=>?@ABBEEFGHKMSSUUUWWWXZ^_a_^ZZZZXWWWXZZ[]`fihhfa`^ZXWWWXX!!!!!!!!!!!!!!!!!!!!!!!!!!!",
"!!!!!!!!!!!!!!!!!!!!!!!!!!!!!!!!!!!!!!!!!!!!!!!!!!!!!!!!!!!!!!!!!!!!!!!!!!!!!!!!!!!!!!!!!!!!!992111249?GMUZ[^^^^^`afP<70///////133<<DPPPYbdjlpstvzvuttttqplifa_]XUSMMKKHFBBBBA?>:4422222222444444449::::;;=>?AAAB?>;;;;>?BBBBBEEEFGIMQUUWWWWXZ]^^^^^]^_`_^[[ZZZZZaipppplhf`^ZXXXX!!!!!!!!!!!!!!!!!!!!!!!!!!!",
"!!!!!!!!!!!!!!!!!!!!!!!!!!!!!!!!!!!!!!!!!!!!!!!!!!!!!!!!!!!!!!!!!!!!!!!!!!!!!!!!!!!!!!!!!!!!942111129?GMSW]]^^^^^_`aP<700//////137<<DDPPPYbdknstvzvuttttqpnjhca_[WSMMMMKIHHHHFEA=9422222222444444449:::::;;=>?@AB@?>>>>?@BBBBBEEFGIKMQSUUUUUWXZZ[[[ZZ]^__^]^^____chlnpqnlif`][ZXWN!!!!!!!!!!!!!!!!!!!!!!!!!!",
"!!!!!!!!!!!!!!!!!!!!!!!!!!!!!!!!!!!!!!!!!!!!!!!!!!!!!!!!!!!!!!!!!!!!!!!!!!!!!!!!!!!!!!!!!!!B42111114?GMUWZ^^^^^^]^_`RD770/////0337<<<DDPPYYbelqtuzvutttsqpnligc`^XUMNNQNMMMMMIGE?:4422222224444444999999::;==>?@AA@????@ABBBBBEEGHKMNQSSUSSSUWXXXZXXXZ^_^^^_`ccccfghlpuqplhc_^[ZUME!!!!!!!!!!!!!!!!!!!!!!!!!",
"!!!!!!!!!!!!!!!!!!!!!!!!!!!!!!!!!!!!!!!!!!!!!!!!!!!!!!!!!!!!!!!!!!!!!!!!!!!!!!!!!!!!!!!!!!BB41111114GMU]^^__^^^^]]^^TD<70/////0337<<<<DPPPPYdkqtuzvuttssqppljhfa`ZUMNSUUUUUUUNKHA;44222222244444499999999::;;=>?AABBBBBBBBBBBBEEGJMNNQQQQQQQSUWWWWWWWZ[^^^^`chhhhgfcjpzvsqlga_^ZSKEE!!!!!!!!!!!!!!!!!!!!!!!!",
"!!!!!!!!!!!!!!!!!!!!!!!!!!!!!!!!!!!!!!!!!!!!!!!!!!!!!!!!!!!!!!!!!!!!!!!!!!!!!!!!!!!!!!!!!!::21111119INW]^^__________TD<70/////0377<<<DDPPYYdemqsuzvuutssqqqplkhc`]WSUUUUSNNNNMIGA=4442222224444499999:;;;;===>?AEEEFFFFFFFFFFFGGHJMNQSSUUUUUUUUUUUWWWXZ[]^^`chgfccffjqzvusnjgca_XQII!!!!!!!!!!!!!!!!!!!!!!!!",
"!!!!!!!!!!!!!!!!!!!!!!!!!!!!!!!!!!!!!!!!!!!!!!!!!!!!!!!!!!!!!!!!!!!!!!!!!!!!!!!!!!!!!!!!!!4411111119KQW]^^^____```aaXND73////00377<<DPPPPYdkmpqsuzvvutsqsssqpnif`^ZWWWWUNMMMMJHGA=944222222444999:999;=>>>>>??AEFGGHHHHHHHHHHHHHIKMNSUUUUUUUUUSSSSUWWXXZZ]^`chfcaacfkqzzvuqnjigf^WQQ!!!!!!!!!!!!!!!!!!!!!!!!",
"!!!!!!!!!!!!!!!!!!!!!!!!!!!!!!!!!!!!!!!!!!!!!!!!!!!!!!!!!!!!!!!!!!!!!!!!!!!!!!!!!!!!!!!!!!111111111:MUW]^^^___`acccc^TL<3////0337<<DDPPPYdkqqqqsuzzvvusqstutqqlga_^[ZXXUNJJJJHGFA=:94444444449:::::99;>????@@AEFGHIJJJJJJJJJJJKKKKKNUWWWWWWWUUQQNNSUWWWWZ[^`fhfa_`cfkqzzzztqpnkic^WW!!!!!!!!!!!!!!!!!!!!!!!!",
"!!!!!!!!!!!!!!!!!!!!!!!!!!!!!!!!!!!!!!!!!!!!!!!!!!!!!!!!!!!!!!!!!!!!!!!!!!!!!!!!!!!!!!!!!!111111112;MSWZZZZ[^_`cfggha[T<700000337<<DPPPYYYYYYbdepzzzzutssstpnkifc`_^ZWUNKHHHHGFEA?=:944444449:======;=????>>>?@AEGHJJJJJJJJJJJJKKMMQUWWWWWWWUUQSSSUWWWWWZ]_`cgfc`cfglqzzzzvtqppnif``!!!!!!!!!!!!!!!!!!!!!!!!",
"!!!!!!!!!!!!!!!!!!!!!!!!!!!!!!!!!!!!!!!!!!!!!!!!!!!!!!!!!!!!!!!!!!!!!!!!!!!!!!!!!!!!!!!!!!111111112>MQUWWWWX[^`fiiijf`[D700000377<<DPPYYYPD<DPPbmvzzzvusssqnifffca`_ZUQKHFFFFEEEA??=:9999999:=>>>>>>>??@?=====>?AEGJJJJJJJJJJJJJKMNSUWWWWWWWUUQSUUWWWWWWZ]_`cffccfghlqzzzzzvutsspkhh!!!!!!!!!!!!!!!!!!!!!!!!",
"!!!!!!!!!!!!!!!!!!!!!!!!!!!!!!!!!!!!!!!!!!!!!!!!!!!!!!!!!!!!!!!!!!!!!!!!!!!!!!!!!!!!!!!!!!111111114?MNSUUUUWX]`gkllnjgcL700003777<<DPYYYYD8788DPevzzzzutsqqkf`acfca`ZUMIGBBBBBBBAAA?=;::::::=>@@@@@@@@@@>=::::;=>AGJJJJJJJJJJJJJMNSUUWWWWWWWUUQUUWWWWWWWZ^_`acffghhinqzzzzzzzzzzvsqq!!!!!!!!!!!!!!!!!!!!!!!!",
"!!!!!!!!!!!!!!!!!!!!!!!!!!!!!!!!!!!!!!!!!!!!!!!!!!!!!!!!!!!!!!!!!!!!!!!!!!!!!!!!!!!!!!!!!1111111129AMMMMMKIMUZ`fllnnljhT<7773777<<DDPPPDD87078DPduvzzzvusqplifghihfc]UMIGBBBBEEFFEEA?>======>?@@@@??>>>>=;::;=>?@EFHGGFGGHHIJJJJKKKNSWWUUUWWUUUUWWWWWWWWZ^`cfiijkkkkpszzzzzzzzzzvuss!!!!!!!!!!!!!!!!!!!!!!!!",
"!!!!!!!!!!!!!!!!!!!!!!!!!!!!!!!!!!!!!!!!!!!!!!!!!!!!!!!!!!!!!!!!!!!!!!!!!!!!!!!!!!!!!!!!4111111129>EKJIIGEAHNX_flnnpnljRD777777<<DPPPP<8770078DPdsuvzzvusqnnlkllljig_WNJGEBBBEGHHGGEB???>>>>??@@@@?>====;::;=??AEEEFEA?AEFGHJJJJIHHKNUUUUUUUUUUWWWWWWWWXZ^`filnpppnnquzzzzzzzzzzzvvv!!!!!!!!!!!!!!!!!!!!!!!!",
"!!!!!!!!!!!!!!!!!!!!!!!!!!!!!!!!!!!!!!!!!!!!!!!!!!!!!!!!!!!!!!!!!!!!!!!!!!!!!!!!!!!!!!!4411111114?EGJHGE?=:AJW^flnpqppnYP<<<7<<<DDPPDD87000007<PbstuzzvvspnnpqqppnliaXQKGEEBBFHKJJIHFEBA@@@@@@@@@@>=:::::::=?AEEGFEB?>;>?BFHJJJJHGEHMUUSQQSSUWWWWWWWWWXX[_ahlqsuvtsqsvzzzzzzzzzzzzzz!!!!!!!!!!!!!!!!!!!!!!!!",
"!!!!!!!!!!!!!!!!!!!!!!!!!!!!!!!!!!!!!!!!!!!!!!!!!!!!!!!!!!!!!!!!!!!!!!!!!!!!!!!!!!!!!!!4421111114@EGJHFB@>=EJU[ajlnqpppdRDD<8<<<DDPD<87000//07<DPdkmvvvvtqnppppqqpnlc]UNJGFEBFHKKKKIGFEEBBBBAA@??>=;:;=====>@BEGIHHGFEAEFGIKMMMMKIHIJKMNSQNNSUWWWWWWWXZZ_afjntuvzutstvzzzzzzzzzzzzzz!!!!!!!!!!!!!!!!!!!!!!!!",
"!!!!!!!!!!!!!!!!!!!!!!!!!!!!!!!!!!!!!!!!!!!!!!!!!!!!!!!!!!!!!!!!!!!!!!!!!!!!!!!!!!!!!!!4421111129AEHJGEA@??FJSX`hjnqqqqiYPP<<<<<DDD<87000/,,/08<DPbktuvztqppnnpqtqpng_XUMIGEBFHJKMMKIGGFEEEEEA@?=;;;:=>????@BEGIKKKKJIHIJKMQUUUUQMKIGEHMSQNMNSUUWWWWWX[^`finqvvzzvutvzzzzzzzzzzzzzzz!!!!!!!!!!!!!!!!!!!!!!!!",
"!!!!!!!!!!!!!!!!!!!!!!!!!!!!!!!!!!!!!!!!!!!!!!!!!!!!!!!!!!!!!!!!!!!!!!!!!!!!!!!!!!!!!!!442111114:BFHJGE?@ABGJNW^filqqqqkdbPD<<<DDDD<7000/,,,/078<DPdstvzusqpnlpqvtqpia]WSMIGBFHJMMQMKIHGGGGGEB@>;9:::=?EEBBEEFHKNNNQQQQQQQUUWWWWWUSIE>EJSNMKMNSUUWWWWZ^_cinqtzzzzzzvzzzzzzzzzzzzzzzz!!!!!!!!!!!!!!!!!!!!!!!!",
"!!!!!!!!!!!!!!!!!!!!!!!!!!!!!!!!!!!!!!!!!!!!!!!!!!!!!!!!!!!!!!!!!!!!!!!!!!!!!!!!!!!!!!!444222224;BFHJHFBEEFHIMU[chkppqqmkdYPD<<<<<<77700/,,,/078<DPdstvzusqpljlpqqppif`ZUNKHFHIMMNQMKIHGGFEEEA@>=9:;=?BFEEBAAAEGHHHHHHHIJKMQUUUUUUUNIGJNUUWWWXXXZZZZZ]_`fjpquzzzzzzzzzzzzzzzzzzzzzzz!!!!!!!!!!!!!!!!!!!!!!!!",
"!!!!!!!!!!!!!!!!!!!!!!!!!!!!!!!!!!!!!!!!!!!!!!!!!!!!!!!!!!!!!!!!!!!!!!!!!!!!!!!!!!!!!!!444444224;BFHJHGFGGHIIJSZ`finpqqpmkbPDD<<87777700/,,+/078<<Pbstuzutqpliklnnnnjhc^XSNKHJKMNNQMKIHGGEEBAA@>=:;=?AEHGEA@?>??AAAAAAAEFGIKMNSUUUWUSNSUXZ]___`_^]^^^_`ahlpsuzzzzzzzzzzzzzzzzzzzzzzz!!!!!!!!!!!!!!!!!!!!!!!!",
"!!!!!!!!!!!!!!!!!!!!!!!!!!!!!!!!!!!!!!!!!!!!!!!!!!!!!!!!!!!!!!!!!!!!!!!!!!!!!!!!!!!!!!!449;>9424=BFHJIHHIIKJIHNW_chlnpqqqqeYPD<877777700/,,+/07<<<Pbstuzvtspkhijklllkiha[WSMKMNQQQQMKIHGGEB@@@@>=:=?AEGIGEA?>;;;;;;;;;;>?BFHJMMQUWXXZZZZZ_chhhgca__``aacilqtvzzzzzzzzzzzzzzzzzzzzzzz!!!!!!!!!!!!!!!!!!!!!!!!",
"!!!!!!!!!!!!!!!!!!!!!!!!!!!!!!!!!!!!!!!!!!!!!!!!!!!!!!!!!!!!!!!!!!!!!!!!!!!!!!!!!!!!!!!44:=?=949>AEGIIIHIIIIJKSX_chjlpqqqqkdYPD877007700/,,,/07778DYqsuzvutplhiiijjkjiha^XWUQQSSSSQMMJHGEEA@??>=;:=?BEGGGEA?>;;;;;;;;;;>?BFHJMMQUWXXZZ]^_chjkklihffgghiilptuzzzzzzzzzzzzzzzzzzzzzzzz!!!!!!!!!!!!!!!!!!!!!!!!",
"!!!!!!!!!!!!!!!!!!!!!!!!!!!!!!!!!!!!!!!!!!!!!!!!!!!!!!!!!!!!!!!!!!!!!!!!!!!!!!!!!!!!!!!44:>@?=;=?@EGHIIIHHGIMNUZ_afiknqqqspkeYD<77000700//,,/07777DYqsuvvutplhhhhhijihhc`^ZXWWUUUSQNMKHGBAA@?>=;::=?BEEFEEB?>;;;;;;;;;;>?BFHJMMQUWXXXZ^`fhjnnpqpnllllnnpqtvzzzzzzzzzzzzzzzzzzzzzzzzz!!!!!!!!!!!!!!!!!!!!!!!!",
"!!!!!!!!!!!!!!!!!!!!!!!!!!!!!!!!!!!!!!!!!!!!!!!!!!!!!!!!!!!!!!!!!!!!!!!!!!!!!!!!!!!!!!!44;>BA@????BFHHIJHGFIMUW[_acginqqqssssbP<70000700//,,/07777<Rpstvvuuplhhgfghihhhfa`_^[ZWWUSQNMKHEAA@@>=::::=?EEBBBBB?>;;;;;;;;;;>?BFHJMMQUWXXXX_cilnpsuzvussttuvzzzzzzzzzzzzzzzzzzzzzzzzzzzzz!!!!!!!!!!!!!!!!!!!!!!!!",
"!!!!!!!!!!!!!!!!!!!!!!!!!!!!!!!!!!!!!!!!!!!!!!!!!!!!!!!!!!!!!!!!!!!!!!!!!!!!!!!!!!!!!!=:9=AGGEEBA?BFHHIIHGGKNWX]_`cfhlpqqssssdPD<7007700///,/07777<Pdkpvvvvqlihhghjllkkhfa`^ZXWUSSQMMJHEA@?>=;::;=?AEEEBBBB@?>>>>>>>>??AEFGHJMMQSUWWXX^chknqtvzzvuuuuvzzzzzzzzzzzzzzzzzzzzzzzzzzzzzz!!!!!!!!!!!!!!!!!!!!!!!!",
"!!!!!!!!!!!!!!!!!!!!!!!!!!!!!!!!!!!!!!!!!!!!!!!!!!!!!!!!!!!!!!!!!!!!!!!!!!!!!!!!!!!!!B?=:?FKIHGEB?BFHHHHHHGMSXZ^_`achjnpqsssskYPD7777700/////07777<DYdmvvvvqnjihhilpppplhf`^XWUSQQQMKIGEA?>=;::;=?@BEEEBBBBA@???????AEFGGHHIJMMQSSUUWX^ahkptuzzzzvvzzzzzzzzzzzzzzzzzzzzzzzzzzzzzzzzz!!!!!!!!!!!!!!!!!!!!!!!!",
"!!!!!!!!!!!!!!!!!!!!!!!!!!!!!!!!!!!!!!!!!!!!!!!!!!!!!!!!!!!!!!!!!!!!!!!!!!!!!!!!!!!!BB?>=AIQMMJGE?BFHHHHHHHMU[^^_``afilnqssssmdbP<777700/////00777<DPYevvzzspljihkpssttpkha^XUSNNNQMKHGEA?=::::=?ABEFEEBBBBBBBBBBBBBFHJJJJJJJMMQQQQUWX^afjpvzzzzzzzzzzzzzzzzzzzzzzzzzzzzzzzzzzzzzzzz!!!!!!!!!!!!!!!!!!!!!!!!",
"!!!!!!!!!!!!!!!!!!!!!!!!!!!!!!!!!!!!!!!!!!!!!!!!!!!!!!!!!!!!!!!!!!!!!!!!!!!!!!!!!!!!EEEBAHMUSQNKHFGGHGGFGHIMU[]^____afilnqqqsmkdRD<8777000//000777<<PYettvztpnkihjnqqtuqlic_XWSMMMMMJIGEB?=::;=>?AEEGFEBBBBBBBBBBA@?BFHHHHHHHIKMMMMSUWZ_cinuvzzzzzzzzzzzzzzzzzzzzzzzzzzzzzzzzzzzzzzz!!!!!!!!!!!!!!!!!!!!!!!!",
"!!!!!!!!!!!!!!!!!!!!!!!!!!!!!!!!!!!!!!!!!!!!!!!!!!!!!!!!!!!!!!!!!!!!!!!!!!!!!!!!!!!!GGGHIMSXWWUSMJIHHGEBEGINUZ]^^^^^`cfilpqqqpmkbPD<87770000007777<<DPdrtvzuqnlihilpqsuqplg`ZWSMMMMKJIGFE?=:;=>?ABEGGGEBBBBBBBBBB@?>?BFFFFFFFHIMMMMNSUX^`hltuzzzzzzzzzzzzzzzzzzzzzzzzzzzzzzzzzzzzzzz!!!!!!!!!!!!!!!!!!!!!!!!",
"!!!!!!!!!!!!!!!!!!!!!!!!!!!!!!!!!!!!!!!!!!!!!!!!!!!!!!!!!!!!!!!!!!!!!!!!!!!!!!!!!!!!HHJMQUX[[[[XUQMJHFB?EGINUZ[]^][Z^`agjnpqqqqpebPD<7777700037777<<DPdrrvzuspligilnqsvtqphaZWQKKKJJIIHGE?=:=>@ABEFGHGEBBBBBBBBBB?>;>?BBBBBBBFHJJJJMNSWZ_flsuvzzzzzzzzzzzzzzzzzzzzzzzzzzzzzzzzzzzzzz!!!!!!!!!!!!!!!!!!!!!!!!",
"!!!!!!!!!!!!!!!!!!!!!!!!!!!!!!!!!!!!!!!!!!!!!!!!!!!!!!!!!!!!!!!!!!!!!!!!!!!!!!!!!!!!!HMQUWXZ]_a]XUNKHE?=?EHMSXXXZXWWZ^`chklpqqqpkdYPD8777770777777<<DPbmrtzvtqnjhijlnqutqqjc^XUMMKJJJIHGFB?=?AEEEEGHIHGFFFFEA????>=:;=>>>>>>>?AEEEFGIKSW]cjstvzzzzzzzzzzzzzzzzzzzzzzzzzzzzzzzzzzzzzz!!!!!!!!!!!!!!!!!!!!!!!!",
"!!!!!!!!!!!!!!!!!!!!!!!!!!!!!!!!!!!!!!!!!!!!!!!!!!!!!!!!!!!!!!!!!!!!!!!!!!!!!!!!!!!!!!QUXXXX^aha[UQKHB=9=AGKQWWWWUUSWZ_afiklpppplkdYP<877777777777<<DPbmrtzvutpkhhiilpttsslha]WNMMKJJJIHGEB@BEGGGGGHIIHHHHHE@>>>>=:99:;;;;;;;;==>??BFHMUXaiqtvzzzzzzzzzzzzzzzzzzzzzzzzzzzzzzzzzzzzzz!!!!!!!!!!!!!!!!!!!!!!!!",
"!!!!!!!!!!!!!!!!!!!!!!!!!!!!!!!!!!!!!!!!!!!!!!!!!!!!!!!!!!!!!!!!!!!!!!!!!!!!!!!!!!!!!!![[ZXW_gng_WSMH@;4:?EIMUUUUSNMUW]_afiknpppnlkbPP<877777777778<DPbmmrzzvvqlhhhhknsttupif_XSNMKKJJIHHGGEGHIIHHHIJJJJJJJF?;;;;:944444444444449:;>@EINW_iqtvzzzzzzzzzzzzzzzzzzzzzzzzzzzzzzzzzzzzzz!!!!!!!!!!!!!!!!!!!!!!!!",
"!!!!!!!!!!!!!!!!!!!!!!!!!!!!!!!!!!!!!!!!!!!!!!!!!!!!!!!!!!!!!!!!!!!!!!!!!!!!!!!!!!!!!!!UUUUUZaiaZSMHE?:4;AHKMSQNNNNNUZ`acfhikllnllkdYPD<8777777778<DPPbemrzzvvqnjihfilpqsuqlic^XUNKKKJIIHHHHIIIIIHIIJKKMKKJGA>==;;:999444444444499:=>?GMU^fnpsvvzzzzzzzzzzzzzzzzzzzzzzzzzzzzzzzzzzzz!!!!!!!!!!!!!!!!!!!!!!!!",
"!!!!!!!!!!!!!!!!!!!!!!!!!!!!!!!!!!!!!!!!!!!!!!!!!!!!!!!!!!!!!!!!!!!!!!!!!!!!!!!!!!!!!!!NNNNMW^f^UMHE?=94=EMMMMMMKMNQW^ccffghiijlkkkdbYPD<88777788<DPPYbemrvvzzspljhfhjlpsvqplhc_XSMKKJJIIJKKKKJIIIIJJKMMMKJGE@?==;;;:99999444449999;=>EJSZajlpsuvzzzzzzzzzzzzzzzzzzzzzzzzzzzzzzzzzzz!!!!!!!!!!!!!!!!!!!!!!!!",
"!!!!!!!!!!!!!!!!!!!!!!!!!!!!!!!!!!!!!!!!!!!!!!!!!!!!!!!!!!!!!!!!!!!!!!!!!!!!!!!!!!!!!!!JJJJJSZ`XNHE?=:94?GSNMKKIIKMSX`hggffffhhiiiigdbYPD<888888<DPPYbdekrvvzztqpkhcfhjnqvtsqlif^WMMKJJJJMMQMMJJJJJJJMMQMMJHGE@>====;999994444499999:;AHNW_ginqsvzzzzzzzzzzzzzzzzzzzzzzzzzzzzzzzzzzz!!!!!!!!!!!!!!!!!!!!!!!!",
"!!!!!!!!!!!!!!!!!!!!!!!!!!!!!!!!!!!!!!!!!!!!!!!!!!!!!!!!!!!!!!!!!!!!!!!!!!!!!!!!!!!!!!!MMMMMSWZSJE@=::;=EMWUNKJJIMSW[`ffcccccffhhiiiiebYPPD<<<<<DPPPYbbdemuvvzusqliffggkptssqnkhaZUSNMMMMMNQNMJJJJKKMMMNMKJHGEEBABEEBA??==:9999::;=?@EIQX_cilpsuvzzzzzzzzzzzzzzzzzzzzzzzzzzzzzzzzzzz!!!!!!!!!!!!!!!!!!!!!!!!",
"!!!!!!!!!!!!!!!!!!!!!!!!!!!!!!!!!!!!!!!!!!!!!!!!!!!!!!!!!!!!!!!!!!!!!!!!!!!!!!!!!!!!!!!MMNSUSSSKG@>:4:>AIS]WQKJJINW]_`caaaaaacccghjkkmedbPPDDDDPPPPYYYbbemtuvzvutnjgfcchlqqsspnkf`ZWUQNNNNQSNMJJJJKMMMMMKKKHGEFGHIKMKJIGE?>=;;;;>?AEHKUZafinpsvvzzzzzzzzzzzzzzzzzzzzzzzzzzzzzzzzzzzz!!!!!!!!!!!!!!!!!!!!!!!!",
"!!!!!!!!!!!!!!!!!!!!!!!!!!!!!!!!!!!!!!!!!!!!!!!!!!!!!!!!!!!!!!!!!!!!!!!!!!!!!!!!!!!!!!!QQUUWUMJGA>;94;@HNX`ZSJJJJSZ```````````aafhjloqmmkdYPPPPPRYYYYYYbdmstvzzvvqlhfa_fjpqstqpnif`]XUUSSSSSNMJJJJMMQNMKKKKIGEHKNSUWWWWNIFB?>>>>@EGKSW^cjlnqsvzzzzzzzzzzzzzzzzzzvzzzzzzzzzzzzzzzzzzz!!!!!!!!!!!!!!!!!!!!!!!!",
"!!!!!!!!!!!!!!!!!!!!!!!!!!!!!!!!!!!!!!!!!!!!!!!!!!!!!!!!!!!!!!!!!!!!!!!!!!!!!!!!!!!!!!!WWWXZUMGE@>=;9>EJQX_XSMMMMSW[ZZZXWUUUUWZ^agjlpqqmmedYYYPYYYYYYYYYdkmqtzzzzsplhf`fhlnqtqqplhc_[WWUUSSSNMJJJJMNQNMKKMMKKJNUXZ]__^^WNIGB???@EHKSX^ahlnpqsuzzzzzzzzzzzzzzzzzzzzzzzzzzzvvvvzzzzzzz!!!!!!!!!!!!!!!!!!!!!!!!",
"!!!!!!!!!!!!!!!!!!!!!!!!!!!!!!!!!!!!!!!!!!!!!!!!!!!!!!!!!!!!!!!!!!!!!!!!!!!!!!!!!!!!!!![[]^^UKEA?>>>>BHMSX^XUMMMMQUWUUSNKIIIIMUX_fknpsrrrmkedbYYYYYYYYYYbdkmrvzzzuqpkgacghkpsqqqnkhc_ZXWUUUSNMKJJJMNSNMMMMNNQSW[`acgfff^WMIFAABEHMUX^cgilnppsuzzzzzzzzzzzzzzzzzzzzzzzzzvuuuuuvzzzzzz!!!!!!!!!!!!!!!!!!!!!!!!",
"!!!!!!!!!!!!!!!!!!!!!!!!!!!!!!!!!!!!!!!!!!!!!!!!!!!!!!!!!!!!!!!!!!!!!!!!!!!!!!!!!!!!!!!`````UI??>>?@BGKQUX[XUQQQQQQQMMJGE????FKU[cknpsttvtrpmeddbbYYYYYYbddkmvzzzzutniccccinssqqpnlga]ZXWUUUQMKKJJMNSNNMMNQUWX_cijlnnnlf]UMHEEFGKUZ_ciklnpppquzzzzzzzzzzzzzzzzzzzzzzzzvutssssuvzzzzz!!!!!!!!!!!!!!!!!!!!!!!!",
"!!!!!!!!!!!!!!!!!!!!!!!!!!!!!!!!!!!!!!!!!!!!!!!!!!!!!!!!!!!!!!!!!!!!!!!!!!!!!!!!!!!!!!!ggca_UH??@AEGIMQUUWXWUUSQMMKJHFB@?=>>?EHMU^finqsstsrqlkdbbYRPPPPPYYdemuvzzzvupkhfcagkppqsqpnic_]XWUUSNMKKKJMNSSUUUWX[_`filnnplihfa_ZUQSUUX^`cfihhgghhiklnnnnnnpqttuvvvvvvzzvvvvvutssssuvzzzzzz!!!!!!!!!!!!!!!!!!!!!!!",
"!!!!!!!!!!!!!!!!!!!!!!!!!!!!!!!!!!!!!!!!!!!!!!!!!!!!!!!!!!!!!!!!!!!!!!!!!!!!!!!!!!!!!!!kkga^SG>@EGIMSUWXWUUUWXUNMIHFA>;;::;=>AEGMW_fjpqstssqlkdbYYPD<DDPPYbemsuvzzvvqnjhc`chlnqsqppkga_ZWUSQNMKKKKMQUWWX[^`cgiknqpppkgacgifa_`aacghhhhfa____`affffffchlpqqtttttuuuuuuuuutssstuvzzzzzzz!!!!!!!!!!!!!!!!!!!!!!",
"!!!!!!!!!!!!!!!!!!!!!!!!!!!!!!!!!!!!!!!!!!!!!!!!!!!!!!!!!!!!!!!!!!!!!!!!!!!!!!!!!!!!!!!qqia[NG>AGJNU[[[[XUQUX[UNJGE?=944449;>?@AHQX`hppqssqqlidbYRD<78<DPPYdkqtuzzzztpnhc^afilptsqqlif`[WUSNMMKKKKMSUXZ^afiknqstvtqpic^cltqpnppqppplig`]WWWWXZ]]]]][[`glnpqqqqssttssttuttssttuvzzzzzzzz!!!!!!!!!!!!!!!!!!!!!",
"!!!!!!!!!!!!!!!!!!!!!!!!!!!!!!!!!!!!!!!!!!!!!!!!!!!!!!!!!!!!!!!!!!!!!!!!!!!!!!!!!!!!!!!qqh^UMG@GMUX^a^[XWUUX[_XQJGB?=;9;>?AEGGHHKQU]cjlpqqqspkidbYPD<<DDPPYdkpqtvvzzuqpjf`afgjnqqqqnlic`[WUNMKJKKMNUWZ_agilnqssssqqpfXMZhuqpnnllllkhfaZSJKKKMMNNNNQSUW]```````acfcccffggggghhiknpqtuvzz!!!!!!!!!!!!!!!!!!!!!",
"!!!!!!!!!!!!!!!!!!!!!!!!!!!!!!!!!!!!!!!!!!!!!!!!!!!!!!!!!!!!!!!!!!!!!!!!!!!!!!!!!!!!!!!qqfZMJGEKU^`ch`ZUUWX[_c[SJGA=>>>AGJKMNNNNNNQW_filqqssqnlkddYPDDDDPPYdknpqtuzzvtqlhcccchlpqqtqnkhc`ZUNMKIKMNSUW^ahjnqqtusqpppq_M?Nauspnljhhhhc`^UIAAABEEEEEFGIKMQUSQNNNNSUWWWWWWXXZZZ[[_afilpquzz!!!!!!!!!!!!!!!!!!!!!",
"!!!!!!!!!!!!!!!!!!!!!!!!!!!!!!!!!!!!!!!!!!!!!!!!!!!!!!!!!!!!!!!!!!!!!!!!!!!!!!!!!!!!!!!qqcUHHHHS^hikncZQUX[_ch^UJF@=>?BHNWXZ[ZXWUNMUZ`fjpqstsqpnkkbYPPPDPPYbglnpsuvzzvupkgca`finpsuspnkif^WMKJHKMQUWX_flpsvvzzsplnpqZG4G^vspnjhcccc_]XKA99:;;::;;=?AEGGHGB????BFHHHHHIJKMMMNNUX^ahlpszz!!!!!!!!!!!!!!!!!!!!!",
"!!!!!!!!!!!!!!!!!!!!!!!!!!!!!!!!!!!!!!!!!!!!!!!!!!!!!!!!!!!!!!!!!!!!!!!!!!!!!!!!!!!!!!!nn`UHIKMXalkji`WMQUX[_cZSIGA>@EGMU^^`a```]XWX]_cinpqtsqqpnkdYPPPPPPYbdjlnpquzzzvqnkihfhiknpsqpplkiaZUQMJKMMUW]aipqtvvuuplhjlpXE4EZqqpnlihfca[UMG?9=?ABEEEEEGGHIIIHGEEEEFGHHHHHIJKMMMMMSWX^`filqqs!!!!!!!!!!!!!!!!!!!!",
"!!!!!!!!!!!!!!!!!!!!!!!!!!!!!!!!!!!!!!!!!!!!!!!!!!!!!!!!!!!!!!!!!!!!!!!!!!!!!!!!!!!!!!!jj_UHKNU^hqnif]UJMQUX[_WNHGE?EHKUZacfhhhhfa___^chnpqtttsqpnidYYPPPYYbdijllptzzzzusqnkiiiiknqqppnllf_XUSMMMMUZ`glsttuuttnichjnWA2BXppnnlkigc`WMF@=:>EIKMQNNMMMMMKKKJIIIHHHHHHHHIJKMMMMMNSUXZ^ahlnqu!!!!!!!!!!!!!!!!!!!",
"!!!!!!!!!!!!!!!!!!!!!!!!!!!!!!!!!!!!!!!!!!!!!!!!!!!!!!!!!!!!!!!!!!!!!!!!!!!!!!!!!!!!!!!hh^SHMU[cnzph`XNHJMQUX[UMHGEBGKQX`hiknnpqnjhc`^ahlnqttuusqplidYYPRYYbdhiijnqzzzzzzztpnkhfilpppppppic_ZUNMKJU[cipvvuutsqkf_chlW@2@Ullnpnnlhc_SG==;:AHSWZ_^[ZWUSNNMMMNMMMKIHHHHHIJKMMMMMMNQSUW]ahlpuu!!!!!!!!!!!!!!!!!!",
"!!!!!!!!!!!!!!!!!!!!!!!!!!!!!!!!!!!!!!!!!!!!!!!!!!!!!!!!!!!!!!!!!!!!!!!!!!!!!!!!!!!!!!!!hZNHQXahntlf^WMGIMQSUUNJGFFEINW^cijjkkkkjjihfcgilpqttuutqqnkgbYYYYbdhkkjjnqvzzzzzzusqnliklnnpppqqlhc_ZUSNMW_hkpvusqpljf`Z^`cQ?4@Sfhikjii`XQIE????FJQMMJIIIIIIIHHIIJIIIHHGGHHHIJKMNNNNQQQSSUX^agkpp!!!!!!!!!!!!!!!!!!",
"!!!!!!!!!!!!!!!!!!!!!!!!!!!!!!!!!!!!!!!!!!!!!!!!!!!!!!!!!!!!!!!!!!!!!!!!!!!!!!!!!!!!!!!!!WMIU^hjnqiaZSJEHKQNNMJGEFFGMU[`gkjjihhghikjihjlnpqttuutsqnkigbYbbbdknlljnquvzzzzzzutqpllllnnpqqtplic^XWUSZainqvtqpkhc_[WXZZK?4?N`afhgffZMEEBAEFGIKNH@;;==>?ABEEFFGGGGGGGGGHHIIMNSSSUSSQNNNUWZ`fkk!!!!!!!!!!!!!!!!!!",
"!!!!!!!!!!!!!!!!!!!!!!!!!!!!!!!!!!!!!!!!!!!!!!!!!!!!!!!!!!!!!!!!!!!!!!!!!!!!!!!!!!!!!!!!!!JJWannnng_WNHBGKQMJHGEBEGHNX`finkihfc`finnnnnnpqqttuuttspljhgcbbbelqpljnptuzzzzzzzzvsqnljlnpqtvtqpia]ZWU^flpsvsplha^ZWUSSSG>4?KZ^`cca`SE:=@EGJMMMMA4222249;=>?@AAAAAEEFGGHHIIMNUUUWUSQNMKMSUZ`hh!!!!!!!!!!!!!!!!!!",
"!!!!!!!!!!!!!!!!!!!!!!!!!!!!!!!!!!!!!!!!!!!!!!!!!!!!!!!!!!!!!!!!!!!!!!!!!!!!!!!!!!!!!!!!!!NNZfnlkiaZUKG@EGJHGEEEBGIMU^gfca_^ZZXX^ahijklllnnnpqsssspnljhgddbgkpnnlnqsuvzzzzzzzvusqpnlllpqtsqpic_^[Z`hpqqtplic`[XWUSQNG=4?IWXZ]ZXWNHAEGIHGGGGG@;4449;>ABEFGGGGGGGGGHHIIKKMNSUUWUUSNMKMNSW]``!!!!!!!!!!!!!!!!!!",
"!!!!!!!!!!!!!!!!!!!!!!!!!!!!!!!!!!!!!!!!!!!!!!!!!!!!!!!!!!!!!!!!!!!!!!!!!!!!!!!!!!!!!!!!!!UU^hplif^WMIE?AEFEA?@ABGKSZckc^WUQMMNNW[acgiijjjjjlnqqqqqpnlihgfdgknnnppqqtvzzzzzzzzvvtqpnljlpsqqpjf``_^fksqqqnifa^ZXWWUNME=4>HUUUUQNMKJIKMNIE???@??>>??BFHIIJJKKKKJJIIIIIKMMNQSUUWUUSQMMMNQUW[[!!!!!!!!!!!!!!!!!!",
"!!!!!!!!!!!!!!!!!!!!!!!!!!!!!!!!!!!!!!!!!!!!!!!!!!!!!!!!!!!!!!!!!!!!!!!!!!!!!!!!!!!!!!!!!![[aiqkg`ZSJGA>>???==>?BHNW`hqcWJHFBEGHMU[_chhhhhgfilppqqqqqnkihgfgilnpqqqqsvzzzzzzzzzzzutplhknqqpplhccaainvtqpkf`_[XXXWUMJB;4=GSNMKHGEHMUUUWJ@99:;?EHHHHJMQQQQQQQQNNMMKKKKMNQQQQSUWUUUQNMMMNQUUU!!!!!!!!!!!!!!!!!!",
"!!!!!!!!!!!!!!!!!!!!!!!!!!!!!!!!!!!!!!!!!!!!!!!!!!!!!!!!!!!!!!!!!!!!!!!!!!!!!!!!!!!!!!!!!!^^cipjf`XNHE?;====;:>BGMU^`cg[NGGGGIKMSW[^`ccaa`_^`fiknpqqqpnkihghijlnpqqqtvzzzzzzzzzzzvuqnijllnpqnigghhkptpkdYRLNSWWWUMHB@?=EJUSNMKIHKNSNMKGA=?AEFHJIHHHHIIIIHHHHHHIJKJJJKMNNNMNQSSSQNMMMMNSUUWZ!!!!!!!!!!!!!!!!!",
"!!!!!!!!!!!!!!!!!!!!!!!!!!!!!!!!!!!!!!!!!!!!!!!!!!!!!!!!!!!!!!!!!!!!!!!!!!!!!!!!!!!!!!!!!!__cinjf`WMF@=99:::99>EKUZa`^[SIAFHKMQUWX[]^__^^ZWUX^chkppqqqpnlighhiklppqqtvzzzzzzzzzzzzzspljihkpsplijklnpqkdYPD<CLUUUUIB;?BGJNWUSNMMMMNSKGEBBBGHKMMMKIHGEBBBBA@?@ABFGIIIIKMMMMMMMMMNNMMMMMNSUUX^a!!!!!!!!!!!!!!!!",
"!!!!!!!!!!!!!!!!!!!!!!!!!!!!!!!!!!!!!!!!!!!!!!!!!!!!!!!!!!!!!!!!!!!!!!!!!!!!!!!!!!!!!!!!!!``finif`WKB>;4444444>GQX`h`XQIE>EIQUX[[[[[[[ZXWUNKQW^ahnpqsqqqnkhhhhiknpqstvzzzzzzzzzzzzztqnjhcintqplnpqqppdYP<733CSSQQG=4=GQUUWWUSSSSSQNHA;?EHMSWUUQMJHE?====;:9:;=@EIIIIJKMKKJJKKKKMMMMMNNSUUZ^aa!!!!!!!!!!!!!!!",
"!!!!!!!!!!!!!!!!!!!!!!!!!!!!!!!!!!!!!!!!!!!!!!!!!!!!!!!!!!!!!!!!!!!!!!!!!!!!!!!!!!!!!!!!!!``chkg`[QG>;9444449;BKW[`f]SIHFEHKQSUUUUUUSSQQNMJHKNUZ`hjnqqqqnlkiihijknpqqssuvzzzzzzzzzzuqpjgafinllklnqpnlYD<<73>GSQQQG=4=GQUUWWUSSSSSQNHA;?EHKQWUUSNMKIGFGGGFEEEGGJMSSSQSSSSQNNNNQQSSSUUWWZ]_afii!!!!!!!!!!!!!!!",
"!!!!!!!!!!!!!!!!!!!!!!!!!!!!!!!!!!!!!!!!!!!!!!!!!!!!!!!!!!!!!!!!!!!!!!!!!!!!!!!!!!!!!!!!!!``cgic^WKB;9444444:>GQ[^`cXMEFHIKMQNNMMMMMKIIIHHGFGIJSZagjpppqpnnljiiiiknppppquzzzzzzzzzzvtqkf_afhiiiknpnkiR<733;CHQQQQG=4=GQUUWWUSSSSSQNHA;?EHKNUUSSSNNNNNNQSSQNSSUWZ][ZZXXXWWWWWWWWWWXZ[^^afhjlpp!!!!!!!!!!!!!!!",
"!!!!!!!!!!!!!!!!!!!!!!!!!!!!!!!!!!!!!!!!!!!!!!!!!!!!!!!!!!!!!!!!!!!!!!!!!!!!!!!!!!!!!!!!!!``cfh`XQG>44444224=BKW````UH>EIQQQQMJHHHHGEBBBBBBBBEEJU]ahnnpqqppnljihhiknnllpszzzzzzzzzzzutkc]_`acghjlnligD7/3:EGKQQQQG=4=GQUUWWUSSSSSNNHA;?EHJMSSSUUUUWXZ]^_____`accfcca`__^][[ZZZZZ]_`acfinqtvzz!!!!!!!!!!!!!!!",
"!!!!!!!!!!!!!!!!!!!!!!!!!!!!!!!!!!!!!!!!!!!!!!!!!!!!!!!!!!!!!!!!!!!!!!!!!!!!!!!!!!!!!!!!!!``acf]SIB=4442444=EMW^gca`WJAGIMKHGE?>=;;99444499:=>@GMUZ`hiloppppnlkihijllnnqtvzzzzzzzzzzvunhaaaacfhhhicYRD<33CGJMQMKHE@=FMXXZZWUNNNNMJHGEAEHKKKKNSUWXZ]_`acccccffghiihhgffcccaaaaaaacfghijnptuzzzz!!!!!!!!!!!!!!",
"!!!!!!!!!!!!!!!!!!!!!!!!!!!!!!!!!!!!!!!!!!!!!!!!!!!!!!!!!!!!!!!!!!!!!!!!!!!!!!!!!!!!!!!!!!``aacXME>:442244;EMZ`fkhc`WMGHJMGA=:444222111112224:>BGMUZ`filnpqppnljhiiilnpqtvvzzzzzzzzzzzqlhfc`acffccYPDD<CCHKMNQKGAEEGMW`__^XSMMMMIGBEGGJMQMIGKQWZ^`afhiijiiijkllllllkkjjiiiiihiijklnnppqtvzzzzzz!!!!!!!!!!!!!",
"!!!!!!!!!!!!!!!!!!!!!!!!!!!!!!!!!!!!!!!!!!!!!!!!!!!!!!!!!!!!!!!!!!!!!!!!!!!!!!!!!!!!!!!!!!`````UH>;9422129?KZhjnqkg`ZSJJJJB;422111111111111124=?BGKUZ`fklpqqqqnkhhhhknqstuvzzzzzzzzzzztplic`acfa`^RD<<DSSSQQQQHA;AHQX`hfc`ZSJJKKGA=BHMQUWMHBHNW]agilnppppppppqqqqqppppppqqppppqsttuvvzzzzzzzzzzz!!!!!!!!!!!!",
"!!!!!!!!!!!!!!!!!!!!!!!!!!!!!!!!!!!!!!!!!!!!!!!!!!!!!!!!!!!!!!!!!!!!!!!!!!!!!!!!!!!!!!!!!!cc`^[NG=:444229AKW`jlnqjc^WNIGB?:4222111111111111249=?EGKQW]ahjlppqqpljiihknqstuvzzzzzzzzzzztplihfca`]XTLD<DLSSQQMKHGEAHMW[`fa_[UKFFFGEEEGKNMMKIHGNT_agkknppqqqpppmmmmmpppqqqqsssqqqtuuuuvvvvvuuuttsrme!!!!!!!!!!!",
"!!!!!!!!!!!!!!!!!!!!!!!!!!!!!!!!!!!!!!!!!!!!!!!!!!!!!!!!!!!!!!!!!!!!!!!!!!!!!!!!!!!!!!!!!!ff`[WKE=942444?KZ`hnnpqiaZUMHA;44222211111111122224:?AEGJMSX^chkppqqpnlkiiknqstvvzzzzzzzzzzztplkkjf`[TNDDDDLNSQQQKGAEGHMU[^`c_ZWMG????EGIKMQKGEGIKUYddkmmprrrrrrrmmmmmmmmprsstuvuttuuvvvvvvvutsqqqpmmeeY!!!!!!!!!!",
"!!!!!!!!!!!!!!!!!!!!!!!!!!!!!!!!!!!!!!!!!!!!!!!!!!!!!!!!!!!!!!!!!!!!!!!!!!!!!!!!!!!!!!!!!!hh`XQIA=94249=HWhjnqqqqh`WSMH>411111111111112244449=?BFHIKMUZ`finpqqqpplkilnqsuvvzzzzzzzzzzzspklnph_WND<DLSSQQQQQHA;AHQW[````[WQHA;;;;AISSSSIB=BIS[bemmmrrtrrrrrrmmeeeemmrrsuvzzzzvzzzzzvvuusqppnnlkeebYY!!!!!!!!!",
"!!!!!!!!!!!!!!!!!!!!!!!!!!!!!!!!!!!!!!!!!!!!!!!!!!!!!!!!!!!!!!!!!!!!!!!!!!!!!!!!!!!!!!!!!!!h]UMGA=9429>FQ^jlnqpnnf]UKG@:42222222222222249999;>@EFHIKMUZ`finppqqqpnljlpqtuvvzzzzzzzzzvuplhknskc^TNDLNSQNMMMMJGEINWX[^^][UMHGB????FJSMKIGEAHQXYbeeemeedbYYYYPPPPPPPPPYYYYbbddddddddddbbbbYYY___YYYYPP!!!!!!!!!",
"!!!!!!!!!!!!!!!!!!!!!!!!!!!!!!!!!!!!!!!!!!!!!!!!!!!!!!!!!!!!!!!!!!!!!!!!!!!!!!!!!!!!!!!!!!!!WMJF@=944;ENZcnnpqnlj`XMG@;44222224444442249;;;;=?AEGHJMNW]afilnpsqqqpnlnpstuzzvvvvuvzzusqlifipunic^TSSSQNMMMMMMMMSW[[ZZXWWMHABEFFFFHMQKGAEGINTYbbddeedYPPDD<<<<8888<<<DDDDDPPPPPPPPPRRPPDDDDLNQSTRRPPP!!!!!!!!!",
"!!!!!!!!!!!!!!!!!!!!!!!!!!!!!!!!!!!!!!!!!!!!!!!!!!!!!!!!!!!!!!!!!!!!!!!!!!!!!!!!!!!!!!!!!!!!!HHE?=:44?K[aiqqqqnjh^UJB;44222444444444449;>>>>?@BEGHJMQW^afhknpssssqpnpqstvzzvvuutuvztqnjfaipzsnic_ZWUQMMJJJJMUWZ^`^ZWUUQHA;?FJJJJMMQHA;AHQXYddbYbddYPD<87777000077777777<<<<<<<<<<<D<<<<<<<<CDDDLLLL!!!!!!!!!",
"!!!!!!!!!!!!!!!!!!!!!!!!!!!!!!!!!!!!!!!!!!!!!!!!!!!!!!!!!!!!!!!!!!!!!!!!!!!!!!!!!!!!!!!!!!!!!HHE?===;GUahlqqssnhcXNG?;44444999::994444:=????@BEFGHJMQW]afilnqssssqqpqqtuvzzzvvuuvvzuqpkgahnvspnh`[XUQSSSNMMQWZ[^^ZWUQMKHE?EHMMMMKKKHFAHNTYYbYPPPPPD<877000000000000007777777777777777777777;CCCCHHGC!!!!!!!!",
"!!!!!!!!!!!!!!!!!!!!!!!!!!!!!!!!!!!!!!!!!!!!!!!!!!!!!!!!!!!!!!!!!!!!!!!!!!!!!!!!!!!!!!!!!!!!!HHE@=?@BM]ilnqstvng_UJA>:4499;=>>==;9499:=>AA@@BEGGGHJMQW]afinpqssstsqqqstuvzzzzvvvvzzutqlhahnssqqjc]XUSUWZWSMUX^^[ZWSMKIGGGFHKMMMMKIGHHHNTYYYYPD88<<777000//////////////00000000000033333333333:;CCC@>;!!!!!!!",
"!!!!!!!!!!!!!!!!!!!!!!!!!!!!!!!!!!!!!!!!!!!!!!!!!!!!!!!!!!!!!!!!!!!!!!!!!!!!!!!!!!!!!!!!!!!!!HHE@>AGJWcqqqqsvznc[NG>;949;>?@BA@?=:49:=>?BBBBEGHHHHJMQW[`fjppqsstttssttuvvzzzzzzzzzzvutnichlqsuznf^ZWSW]`[WQW[`^ZWUMJHFBFHJMMQQQQKGBGKQTYdbYPD8777700///////,,,,,,,,,,,/////////////////00123333:;>=;;;!!!!!!",
"!!!!!!!!!!!!!!!!!!!!!!!!!!!!!!!!!!!!!!!!!!!!!!!!!!!!!!!!!!!!!!!!!!!!!!!!!!!!!!!!!!!!!!!!!!!!!HHFE@GMU^hqqqqpppf]SJE>==;=>???>==;9444:=>?BEEEFGHHHHJMQWZ_chlpqtttsssstuuvzzzzzzzzzzzvuupjfilpqsupic`[WZ^`[WQSUWUNMJIHHGGHJMKIHIJKIGFJQTRYYPPP<770000/////,,,,,,,,,,,,,,,//////////////////01123333:9333!!!!!!",
"!!!!!!!!!!!!!!!!!!!!!!!!!!!!!!!!!!!!!!!!!!!!!!!!!!!!!!!!!!!!!!!!!!!!!!!!!!!!!!!!!!!!!!!!!!!!!HHGFEKU^cjqqqqnkh^UIGB???>??@?=;94444449=>?BEFGGGHHHHJMQUX^afjnqutssssttuvvzzzzzzzzzzzvvuplijlnpqtpnjfa^__`[WQNMKHGEEEFGIKMMMIGAEFGGHHNTYYYPPDD870000////,,,,,,,,,,,,,,,,,,///////////////////11123333333!!!!!!",
"!!!!!!!!!!!!!!!!!!!!!!!!!!!!!!!!!!!!!!!!!!!!!!!!!!!!!!!!!!!!!!!!!!!!!!!!!!!!!!!!!!!!!!!!!!!!!HHHHHS^hjnqqqqkg`WKBA@?@ABBBB>;444222249=>?BEGHHHHHHHJMQUX[_chlqvusqsstuuvzzzzzzzzzzzzzvvqnklllnpqqqqlhaaa`[WQKGB?>;>?BGKQQQQHA;>?BFHJTYdYPPD<<7000////,,,,,,,,,++++,,,,,,,,////////////////////111133333!!!!!!",
"!!!!!!!!!!!!!!!!!!!!!!!!!!!!!!!!!!!!!!!!!!!!!!!!!!!!!!!!!!!!!!!!!!!!!!!!!!!!!!!!!!!!!!!!!!!!!JJKKMW`jlnqpnnh`ZSJEEEBA?>;9422222222244:=@EFGHHHHHHHJMQUWZ^afjputqqqstuuvzzzzzvvuuvvzzvvtqnnllihfhjlha^^__ZWQJF??>>@EGIMQNMKGA>?BFILTRPPPPD<7770/////,,,,,,,,,+++++,,,,,,,,//////////////////////11222333!!!!!",
"!!!!!!!!!!!!!!!!!!!!!!!!!!!!!!!!!!!!!!!!!!!!!!!!!!!!!!!!!!!!!!!!!!!!!!!!!!!!!!!!!!!!!!!!!!!!!MMNQS[cnnpqnljaZSMIGGFFA>;421111111112244=@GGGHHHHHHHJMQUWX]`chnsqqqqstuuvvzzzvuttstuvvzzutqpnlf_X^cic_XZ[^XUQIE>>??EHKMNQMIGEB?BFHLTYPPDD<<7700//////,,,,,,,,++++++,,,,,,,,,////////,/////////////11133337!!!!",
"!!!!!!!!!!!!!!!!!!!!!!!!!!!!!!!!!!!!!!!!!!!!!!!!!!!!!!!!!!!!!!!!!!!!!!!!!!!!!!!!!!!!!!!!!!!!!QQUUW`hqqqqnjh^UJIHHHHHA=4211111111111224;@HHHHHHHHHHJMQUUWZ^`glqqqpqstuuvvzzvutsqqstvvzzzvvqnk`WKU^f_ZUWXZWUQHA;>?BGKQQQQKGBBBBFHJTYdPD888770//////,,,,,,,,,+++++++,,,,,,,,,,///////,,,,///////////00033377!!!",
"!!!!!!!!!!!!!!!!!!!!!!!!!!!!!!!!!!!!!!!!!!!!!!!!!!!!!!!!!!!!!!!!!!!!!!!!!!!!!!!!!!!!!!!!!!!!!QQUUW`hqqqqnjh^UJIHHHHHA=4211111111111224;@HHHHHHHHHHJMQUUWZ^`glqqqpqstuuvvzzvutsqqstvvzzzvvqnk`WKU^f_ZUWXZWUQHA;>?BGKQQQQKGBBBBFHJTYdPD888770//////,,,,,,,,,+++++++,,,,,,,,,,///////,,,,///////////00033377!!!"
};