/* XPM */
static char * result[] = {
"300 300 92 1",
"! c #000000",
"# c #C3ACA6",
"$ c #B18D78",
"% c #A97D5E",
"& c #7E7774",
"' c #8A6649",
"( c #746353",
") c #666565",
"* c #5F6060",
"+ c #5B5B5C",
", c #6D5036",
"- c #595450",
". c #545353",
"/ c #515152",
"0 c #4F4F4F",
"1 c #4F4D4D",
"2 c #4B4C4D",
"3 c #4A4A4A",
"4 c #494849",
"5 c #474647",
"6 c #444545",
"7 c #524234",
"8 c #434343",
"9 c #414141",
": c #4B3928",
"; c #3F3C3A",
"< c #3E3C3B",
"= c #3C3D3D",
"> c #3B3B3B",
"? c #3A3A3A",
"@ c #383838",
"A c #373737",
"B c #383835",
"C c #3A302A",
"D c #353636",
"E c #343434",
"F c #333333",
"G c #323131",
"H c #303030",
"I c #2F2F2F",
"J c #2E2E2E",
"K c #2E2D2C",
"L c #2C2C2C",
"M c #2B2B2B",
"N c #312720",
"O c #2A2A2A",
"P c #292929",
"Q c #282828",
"R c #282927",
"S c #292626",
"T c #262727",
"U c #252425",
"V c #2A221B",
"W c #232323",
"X c #222222",
"Y c #202121",
"Z c #251D19",
"[ c #221714",
"] c #1F1F20",
"^ c #1E1E1E",
"_ c #1D1D1D",
"` c #1B1B1C",
"a c #1C1B19",
"b c #1A1919",
"c c #181819",
"d c #171617",
"e c #1B1511",
"f c #141516",
"g c #131313",
"h c #1B100D",
"i c #121111",
"j c #101111",
"k c #100E0D",
"l c #0F0F11",
"m c #0E0E0F",
"n c #0D0D0E",
"o c #100C0B",
"p c #0B0B0B",
"q c #0A0A0A",
"r c #110705",
"s c #09090B",
"t c #080808",
"u c #070707",
"v c #060606",
"w c #050505",
"x c #040405",
"y c #040302",
"z c #020202",
"{ c #010102",
"| c #040000",
"} c #000005",
"~ c #000000",
"!!!!!!!!!!!!!!!!!!!!!!!!!!!!!!!!!!!!!!!!!!!!!!!!!!!!!!!!!!!!!!!!!!!!!!!!!!!!!!!!!!!!!!!!!!!!!!!!!!!!!!!!!!!!!!!!!!!!!!!!!!!!!!!!!!!!!!!!!!!!!!!!!!!!!!!!!!!!!!!!!!!!!!!!!!!!!!!!!!!!!!!!!!!!!!!!!!!!!!!!!!!!!!!!!!!!!!!!!!!!!!!!!!!!!!!!!!!!!!!!!!!!!!!!!!!!!!!!!!!!!!!!!!!!!!!!!!!!!!!!!!!!!!!!!!!!!!!!!!!!",
"!!!!!!!!!!!!!!!!!!!!!!!!!!!!!!!!!!!!!!!!!!!!!!!!!!!!!!!!!!!!!!!!!!!!!!!!!!!!!!!!!!!!!!!!!!!!!!!!!!!!!!!!!!!!!!!!!!!!!!!!!!!!!!!!!!!!!!!!!!!!!!!!!!!!!!!!!!!!!!!!!!!!!!!!!!!!!!!!!!!!!!!!!!!!!!!!!!!!!!!!!!!!!!!!!!!!!!!!!!!!!!!!!!!!!!!!!!!!!!!!!!!!!!!!!!!!!!!!!!!!!!!!!!!!!!!!!!!!!!!!!!!!!!!!!!!!!!!!!!!!",
"!!!!!!!!!!!!!!!!!!!!!!!!!!!!!!!!!!!!!!!!!!!!!!!!!!!!!!!!!!!!!!!!!!!!!!!!!!!!!!!!!!!!!!!!!!!!!!!!!!!!!!!!!!!!!!!!!!!!!!!!!!!!!!!!!!!!!!!!!!!!!!!!!!!!!!!!!!!!!!!!!!!!!!!!!!!!!!!!!!!!!!!!!!!!!!!!!!!!!!!!!!!!!!!!!!!!!!!!!!!!!!!!!!!!!!!!!!!!!!!!!!!!!!!!!!!!!!!!!!!!!!!!!!!!!!!!!!!!!!!!!!!!!!!!!!!!!!!!!!!!",
"!!!!!!!!!!!!!!!!!!!!!!!!!!!!!!!!!!!!!!!!!!!!!!!!!!!!!!!!!!!!!!!!!!!!!!!!!!!!!!!!!!!!!!!!!!!!!!!!!!!!!!!!!!!!!!!!!!!!!!!!!!!!!!!!!!!!!!!!!!!!!!!!!!!!!!!!!!!!!!!!!!!!!!!!!!!!!!!!!!!!!!!!!!!!!!!!!!!!!!!!!!!!!!!!!!!!!!!!!!!!!!!!!!!!!!!!!!!!!!!!!!!!!!!!!!!!!!!!!!!!!!!!!!!!!!!!!!!!!!!!!!!!!!!!!!!!!!!!!!!!",
"!!!!!!!!!!!!!!!!!!!!!!!!!!!!!!!!!!!!!!!!!!!!!!!!!!!!!!!!!!!!!!!!!!!!!!!!!!!!!!!!!!!!!!!!!!!!!!!!!!!!!!!!!!!!!!!!!!!!!!!!!!!!!!!!!!!!!!!!!!!!!!!!!!!!!!!!!!!!!!!!!!!!!!!!!!!!!!!!!!!!!!!!!!!!!!!!!!!!!!!!!!!!!!!!!!!!!!!!!!!!!!!!!!!!!!!!!!!!!!!!!!!!!!!!!!!!!!!!!!!!!!!!!!!!!!!!!!!!!!!!!!!!!!!!!!!!!!!!!!!!",
"!!!!!!!!!!!!!!!!!!!!!!!!!!!!!!!!!!!!!!!!!!!!!!!!!!!!!!!!!!!!!!!!!!!!!!!!!!!!!!!!!!!!!!!!!!!!!!!!!!!!!!!!!!!!!!!!!!!!!!!!!!!!!!!!!!!!!!!!!!!!!!!!!!!!!!!!!!!!!!!!!!!!!!!!!!!!!!!!!!!!!!!!!!!!!!!!!!!!!!!!!!!!!!!!!!!!!!!!!!!!!!!!!!!!!!!!!!!!!!!!!!!!!!!!!!!!!!!!!!!!!!!!!!!!!!!!!!!!!!!!!!!!!!!!!!!!!!!!!!!!",
"!!!!!!!!!!!!!!!!!!!!!!!!!!!!!!!!!!!!!!!!!!!!!!!!!!!!!!!!!!!!!!!!!!!!!!!!!!!!!!!!!!!!!!!!!!!!!!!!!!!!!!!!!!!!!!!!!!!!!!!!!!!!!!!!!!!!!!!!!!!!!!!!!!!!!!!!!!!!!!!!!!!!!!!!!!!!!!!!!!!!!!!!!!!!!!!!!!!!!!!!!!!!!!!!!!!!!!!!!!!!!!!!!!!!!!!!!!!!!!!!!!!!!!!!!!!!!!!!!!!!!!!!!!!!!!!!!!!!!!!!!!!!!!!!!!!!!!!!!!!!",
"!!!!!!!!!!!!!!!!!!!!!!!!!!!!!!!!!!!!!!!!!!!!!!!!!!!!!!!!!!!!!!!!!!!!!!!!!!!!!!!!!!!!!!!!!!!!!!!!!!!!!!!!!!!!!!!!!!!!!!!!!!!!!!!!!!!!!!!!!!!!!!!!!!!!!!!!!!!!!!!!!!!!!!!!!!!!!!!!!!!!!!!!!!!!!!!!!!!!!!!!!!!!!!!!!!!!!!!!!!!!!!!!!!!!!!!!!!!!!!!!!!!!!!!!!!!!!!!!!!!!!!!!!!!!!!!!!!!!!!!!!!!!!!!!!!!!!!!!!!!!",
"!!!!!!!!!!!!!!!!!!!!!!!!!!!!!!!!!!!!!!!!!!!!!!!!!!!!!!!!!!!!!!!!!!!!!!!!!!!!!!!!!!!!!!!!!!!!!!!!!!!!!!!!!!!!!!!!!!!!!!!!!!!!!!!!!!!!!!!!!!!!!!!!!!!!!!!!!!!!!!!!!!!!!!!!!!!!!!!!!!!!!!!!!!!!!!!!!!!!!!!!!!!!!!!!!!!!!!!!!!!!!!!!!!!!!!!!!!!!!!!!!!!!!!!!!!!!!!!!!!!!!!!!!!!!!!!!!!!!!!!!!!!!!!!!!!!!!!!!!!!!",
"!!!!!!!!!!!!!!!!!!!!!!!!!!!!!!!!!!!!!!!!!!!!!!!!!!!!!!!!!!!!!!!!!!!!!!!!!!!!!!!!!!!!!!!!!!!!!!!!!!!!!!!!!!!!!!!!!!!!!!!!!!!!!!!!!!!!!!!!!!!!!!!!!!!!!!!!!!!!!!!!!!!!!!!!!!!!!!!!!!!!!!!!!!!!!!!!!!!!!!!!!!!!!!!!!!!!!!!!!!!!!!!!!!!!!!!!!!!!!!!!!!!!!!!!!!!!!!!!!!!!!!!!!!!!!!!!!!!!!!!!!!!!!!!!!!!!!!!!!!!!",
"!!!!!!!!!!!!!!!!!!!!!!!!!!!!!!!!!!!!!!!!!!!!!!!!!!!!!!!!!!!!!!!!!!!!!!!!!!!!!!!!!!!!!!!!!!!!!!!!!!!!!!!!!!!!!!!!!!!!!!!!!!!!!!!!!!!!!!!!!!!!!!!!!!!!!!!!!!!!!!!!!!!!!!!!!!!!!!!!!!!!!!!!!!!!!!!!!!!!!!!!!!!!!!!!!!!!!!!!!!!!!!!!!!!!!!!!!!!!!!!!!!!!!!!!!!!!!!!!!!!!!!!!!!!!!!!!!!!!!!!!!!!!!!!!!!!!!!!!!!!!",
"!!!!!!!!!!!!!!!!!!!!!!!!!!!!!!!!!!!!!!!!!!!!!!!!!!!!!!!!!!!!!!!!!!!!!!!!!!!!!!!!!!!!!!!!!!!!!!!!!!!!!!!!!!!!!!!!!!!!!!!!!!!!!!!!!!!!!!!!!!!!!!!!!!!!!!!!!!!!!!!!!!!!!!!!!!!!!!!!!!!!!!!!!!!!!!!!!!!!!!!!!!!!!!!!!!!!!!!!!!!!!!!!!!!!!!!!!!!!!!!!!!!!!!!!!!!!!!!!!!!!!!!!!!!!!!!!!!!!!!!!!!!!!!!!!!!!!!!!!!!!",
"!!!!!!!!!!!!!!!!!!!!!!!!!!!!!!!!!!!!!!!!!!!!!!!!!!!!!!!!!!!!!!!!!!!!!!!!!!!!!!!!!!!!!!!!!!!!!!!!!!!!!!!!!!!!!!!!!!!!!!!!!!!!!!!!!!!!!!!!!!!!!!!!!!!!!!!!!!!!!!!!!!!!!!!!!!!!!!!!!!!!!!!!!!!!!!!!!!!!!!!!!!!!!!!!!!!!!!!!!!!!!!!!!!!!!!!!!!!!!!!!!!!!!!!!!!!!!!!!!!!!!!!!!!!!!!!!!!!!!!!!!!!!!!!!!!!!!!!!!!!!",
"!!!!!!!!!!!!!!!!!!!!!!!!!!!!!!!!!!!!!!!!!!!!!!!!!!!!!!!!!!!!!!!!!!!!!!!!!!!!!!!!!!!!!!!!!!!!!!!!!!!!!!!!!!!!!!!!!!!!!!!!!!!!!!!!!!!!!!!!!!!!!!!!!!!!!!!!!!!!!!!!!!!!!!!!!!!!!!!!!!!!!!!!!!!!!!!!!!!!!!!!!!!!!!!!!!!!!!!!!!!!!!!!!!!!!!!!!!!!!!!!!!!!!!!!!!!!!!!!!!!!!!!!!!!!!!!!!!!!!!!!!!!!!!!!!!!!!!!!!!!!",
"!!!!!!!!!!!!!!!!!!!!!!!!!!!!!!!!!!!!!!!!!!!!!!!!!!!!!!!!!!!!!!!!!!!!!!!!!!!!!!!!!!!!!!!!!!!!!!!!!!!!!!!!!!!!!!!!!!!!!!!!!!!!!!!!!!!!!!!!!!!!!!!!!!!!!!!!!!!!!!!!!!!!!!!!!!!!!!!!!!!!!!!!!!!!!!!!!!!!!!!!!!!!!!!!!!!!!!!!!!!!!!!!!!!!!!!!!!!!!!!!!!!!!!!!!!!!!!!!!!!!!!!!!!!!!!!!!!!!!!!!!!!!!!!!!!!!!!!!!!!!",
"!!!!!!!!!!!!!!!!!!!!!!!!!!!!!!!!!!!!!!!!!!!!!!!!!!!!!!!!!!!!!!!!!!!!!!!!!!!!!!!!!!!!!!!!!!!!!!!!!!!!!!!!!!!!!!!!!!!!!!!!!!!!!!!!!!!!!!!!!!!!!!!!!!!!!!!!!!!!!!!!!!!!!!!!!!!!!!!!!!!!!!!!!!!!!!!!!!!!!!!!!!!!!!!!!!!!!!!!!!!!!!!!!!!!!!!!!!!!!!!!!!!!!!!!!!!!!!!!!!!!!!!!!!!!!!!!!!!!!!!!!!!!!!!!!!!!!!!!!!!!",
"!!!!!!!!!!!!!!!!!!!!!!!!!!!!!!!!!!!!!!!!!!!!!!!!!!!!!!!!!!!!!!!!!!!!!!!!!!!!!!!!!!!!!!!!!!!!!!!!!!!!!!!!!!!!!!!!!!!!!!!!!!!!!!!!!!!!!!!!!!!!!!!!!!!!!!!!!!!!!!!!!!!!!!!!!!!!!!!!!!!!!!!!!!!!!!!!!!!!!!!!!!!!!!!!!!!!!!!!!!!!!!!!!!!!!!!!!!!!!!!!!!!!!!!!!!!!!!!!!!!!!!!!!!!!!!!!!!!!!!!!!!!!!!!!!!!!!!!!!!!!",
"!!!!!!!!!!!!!!!!!!!!!!!!!!!!!!!!!!!!!!!!!!!!!!!!!!!!!!!!!!!!!!!!!!!!!!!!!!!!!!!!!!!!!!!!!!!!!!!!!!!!!!!!!!!!!!!!!!!!!!!!!!!!!!!!!!!!!!!!!!!!!!!!!!!!!!!!!!!!!!!!!!!!!!!!!!!!!!!!!!!!!!!!!!!!!!!!!!!!!!!!!!!!!!!!!!!!!!!!!!!!!!!!!!!!!!!!!!!!!!!!!!!!!!!!!!!!!!!!!!!!!!!!!!!!!!!!!!!!!!!!!!!!!!!!!!!!!!!!!!!!",
"!!!!!!!!!!!!!!!!!!!!!!!!!!!!!!!!!!!!!!!!!!!!!!!!!!!!!!!!!!!!!!!!!!!!!!!!!!!!!!!!!!!!!!!!!!!!!!!!!!!!!!!!!!!!!!!!!!!!!!!!!!!!!!!!!!!!!!!!!!!!!!!!!!!!!!!!!!!!!!!!!!!!!!!!!!!!!!!!!!!!!!!!!!!!!!!!!!!!!!!!!!!!!!!!!!!!!!!!!!!!!!!!!!!!!!!!!!!!!!!!!!!!!!!!!!!!!!!!!!!!!!!!!!!!!!!!!!!!!!!!!!!!!!!!!!!!!!!!!!!!",
"!!!!!!!!!!!!!!!!!!!!!!!!!!!!!!!!!!!!!!!!!!!!!!!!!!!!!!!!!!!!!!!!!!!!!!!!!!!!!!!!!!!!!!!!!!!!!!!!!!!!!!!!!!!!!!!!!!!!!!!!!!!!!!!!!!!!!!!!!!!!!!!!!!!!!!!!!!!!!!!!!!!!!!!!!!!!!!!!!!!!!!!!!!!!!!!!!!!!!!!!!!!!!!!!!!!!!!!!!!!!!!!!!!!!!!!!!!!!!!!!!!!!!!!!!!!!!!!!!!!!!!!!!!!!!!!!!!!!!!!!!!!!!!!!!!!!!!!!!!!!",
"!!!!!!!!!!!!!!!!!!!!!!!!!!!!!!!!!!!!!!!!!!!!!!!!!!!!!!!!!!!!!!!!!!!!!!!!!!!!!!!!!!!!!!!!!!!!!!!!!!!!!!!!!!!!!!!!!!!!!!!!!!!!!!!!!!!!!!!!!!!!!!!!!!!!!!!!!!!!!!!!!!!!!!!!!!!!!!!!!!!!!!!!!!!!!!!!!!!!!!!!!!!!!!!!!!!!!!!!!!!!!!!!!!!!!!!!!!!!!!!!!!!!!!!!!!!!!!!!!!!!!!!!!!!!!!!!!!!!!!!!!!!!!!!!!!!!!!!!!!!!",
"!!!!!!!!!!!!!!!!!!!!!!!!!!!!!!!!!!!!!!!!!!!!!!!!!!!!!!!!!!!!!!!!!!!!!!!!!!!!!!!!!!!!!!!!!!!!!!!!!!!!!!!!!!!!!!!!!!!!!!!!!!!!!!!!!!!!!!!!!!!!!!!!!!!!!!!!!!!!!!!!!!!!!!!!!!!!!!!!!!!!!!!!!!!!!!!!!!!!!!!!!!!!!!!!!!!!!!!!!!!!!!!!!!!!!!!!!!!!!!!!!!!!!!!!!!!!!!!!!!!!!!!!!!!!!!!!!!!!!!!!!!!!!!!!!!!!!!!!!!!!",
"!!!!!!!!!!!!!!!!!!!!!!!!!!!!!!!!!!!!!!!!!!!!!!!!!!!!!!!!!!!!!!!!!!!!!!!!!!!!!!!!!!!!!!!!!!!!!!!!!!!!!!!!!!!!!!!!!!!!!!!!!!!!!!!!!!!!!!!!!!!!!!!!!!!!!!!!!!!!!!!!!!!!!!!!!!!!!!!!!!!!!!!!!!!!!!!!!!!!!!!!!!!!!!!!!!!!!!!!!!!!!!!!!!!!!!!!!!!!!!!!!!!!!!!!!!!!!!!!!!!!!!!!!!!!!!!!!!!!!!!!!!!!!!!!!!!!!!!!!!!!",
"!!!!!!!!!!!!!!!!!!!!!!!!!!!!!!!!!!!!!!!!!!!!!!!!!!!!!!!!!!!!!!!!!!!!!!!!!!!!!!!!!!!!!!!!!!!!!!!!!!!!!!!!!!!!!!!!!!!!!!!!!!!!!!!!!!!!!!!!!!!!!!!!!!!!!!!!!!!!!!!!!!!!!!!!!!!!!!!!!!!!!!!!!!!!!!!!!!!!!!!!!!!!!!!!!!!!!!!!!!!!!!!!!!!!!!!!!!!!!!!!!!!!!!!!!!!!!!!!!!!!!!!!!!!!!!!!!!!!!!!!!!!!!!!!!!!!!!!!!!!!",
"!!!!!!!!!!!!!!!!!!!!!!!!!!!!!!!!!!!!!!!!!!!!!!!!!!!!!!!!!!!!!!!!!!!!!!!!!!!!!!!!!!!!!!!!!!!!!!!!!!!!!!!!!!!!!!!!!!!!!!!!!!!!!!!!!!!!!!!!!!!!!!!!!!!!!!!!!!!!!!!!!!!!!!!!!!!!!!!!!!!!!!!!!!!!!!!!!!!!!!!!!!!!!!!!!!!!!!!!!!!!!!!!!!!!!!!!!!!!!!!!!!!!!!!!!!!!!!!!!!!!!!!!!!!!!!!!!!!!!!!!!!!!!!!!!!!!!!!!!!!!",
"!!!!!!!!!!!!!!!!!!!!!!!!!!!!!!!!!!!!!!!!!!!!!!!!!!!!!!!!!!!!!!!!!!!!!!!!!!!!!!!!!!!!!!!!!!!!!!!!!!!!!!!!!!!!!!!!!!!!!!!!!!!!!!!!!!!!!!!!!!!!!!!!!!!!!!!!!!!!!!!!!!!!!!!!!!!!!!!!!!!!!!!!!!!!!!!!!!!!!!!!!!!!!!!!!!!!!!!!!!!!!!!!!!!!!!!!!!!!!!!!!!!!!!!!!!!!!!!!!!!!!!!!!!!!!!!!!!!!!!!!!!!!!!!!!!!!!!!!!!!!",
"!!!!!!!!!!!!!!!!!!!!!!!!!!!!!!!!!!!!!!!!!!!!!!!!!!!!!!!!!!!!!!!!!!!!!!!!!!!!!!!!!!!!!!!!!!!!!!!!!!!!!!!!!!!!!!!!!!!!!!!!!!!!!!!!!!!!!!!!!!!!!!!!!!!!!!!!!!!!!!!!!!!!!!!!!!!!!!!!!!!!!!!!!!!!!!!!!!!!!!!!!!!!!!!!!!!!!!!!!!!!!!!!!!!!!!!!!!!!!!!!!!!!!!!!!!!!!!!!!!!!!!!!!!!!!!!!!!!!!!!!!!!!!!!!!!!!!!!!!!!!",
"!!!!!!!!!!!!!!!!!!!!!!!!!!!!!!!!!!!!!!!!!!!!!!!!!!!!!!!!!!!!!!!!!!!!!!!!!!!!!!!!!!!!!!!!!!!!!!!!!!!!!!!!!!!!!!!!!!!!!!!!!!!!!!!!!!!!!!!!!!!!!!!!!!!!!!!!!!!!!!!!!!!!!!!!!!!!!!!!!!!!!!!!!!!!!!!!!!!!!!!!!!!!!!!!!!!!!!!!!!!!!!!!!!!!!!!!!!!!!!!!!!!!!!!!!!!!!!!!!!!!!!!!!!!!!!!!!!!!!!!!!!!!!!!!!!!!!!!!!!!!",
"!!!!!!!!!!!!!!!!!!!!!!!!!!!!!!!!!!!!!!!!!!!!!!!!!!!!!!!!!!!!!!!!!!!!!!!!!!!!!!!!!!!!!!!!!!!!!!!!!!!!!!!!!!!!!!!!!!!!!!!!!!!!!!!!!!!!!!!!!!!!!!!!!!!!!!!!!!!!!!!!!!!!!!!!!!!!!!!!!!!!!!!!!!!!!!!!!!!!!!!!!!!!!!!!!!!!!!!!!!!!!!!!!!!!!!!!!!!!!!!!!!!!!!!!!!!!!!!!!!!!!!!!!!!!!!!!!!!!!!!!!!!!!!!!!!!!!!!!!!!!",
"!!!!!!!!!!!!!!!!!!!!!!!!!!!!!!!!!!!!!!!!!!!!!!!!!!!!!!!!!!!!!!!!!!!!!!!!!!!!!!!!!!!!!!!!!!!!!!!!!!!!!!!!!!!!!!!!!!!!!!!!!!!!!!!!!!!!!!!!!!!!!!!!!!!!!!!!!!!!!!!!!!!!!!!!!!!!!!!!!!!!!!!!!!!!!!!!!!!!!!!!!!!!!!!!!!!!!!!!!!!!!!!!!!!!!!!!!!!!!!!!!!!!!!!!!!!!!!!!!!!!!!!!!!!!!!!!!!!!!!!!!!!!!!!!!!!!!!!!!!!!",
"!!!!!!!!!!!!!!!!!!!!!!!!!!!!!!!!!!!!!!!!!!!!!!!!!!!!!!!!!!!!!!!!!!!!!!!!!!!!!!!!!!!!!!!!!!!!!!!!!!!!!!!!!!!!!!!!!!!!!!!!!!!!!!!!!!!!!!!!!!!!!!!!!!!!!!!!!!!!!!!!!!!!!!!!!!!!!!!!!!!!!!!!!!!!!!!!!!!!!!!!!!!!!!!!!!!!!!!!!!!!!!!!!!!!!!!!!!!!!!!!!!!!!!!!!!!!!!!!!!!!!!!!!!!!!!!!!!!!!!!!!!!!!!!!!!!!!!!!!!!!",
"!!!!!!!!!!!!!!!!!!!!!!!!!!!!!!!!!!!!!!!!!!!!!!!!!!!!!!!!!!!!!!!!!!!!!!!!!!!!!!!!!!!!!!!!!!!!!!!!!!!!!!!!!!!!!!!!!!!!!!!!!!!!!!!!!!!!!!!!!!!!!!!!!!!!!!!!!!!!!!!!!!!!!!!!!!!!!!!!!!!!!!!!!!!!!!!!!!!!!!!!!!!!!!!!!!!!!!!!!!!!!!!!!!!!!!!!!!!!!!!!!!!!!!!!!!!!!!!!!!!!!!!!!!!!!!!!!!!!!!!!!!!!!!!!!!!!!!!!!!!!",
"!!!!!!!!!!!!!!!!!!!!!!!!!!!!!!!!!!!!!!!!!!!!!!!!!!!!!!!!!!!!!!!!!!!!!!!!!!!!!!!!!!!!!!!!!!!!!!!!!!!!!!!!!!!!!!!!!!!!!!!!!!!!!!!!!!!!!!!!!!!!!!!!!!!!!!!!!!!!!!!!!!!!!!!!!!!!!!!!!!!!!!!!!!!!!!!!!!!!!!!!!!!!!!!!!!!!!!!!!!!!!!!!!!!!!!!!!!!!!!!!!!!!!!!!!!!!!!!!!!!!!!!!!!!!!!!!!!!!!!!!!!!!!!!!!!!!!!!!!!!!",
"!!!!!!!!!!!!!!!!!!!!!!!!!!!!!!!!!!!!!!!!!!!!!!!!!!!!!!!!!!!!!!!!!!!!!!!!!!!!!!!!!!!!!!!!!!!!!!!!!!!!!!!!!!!!!!!!!!!!!!!!!!!!!!!!!!!!!!!!!!!!!!!!!!!!!!!!!!!!!!!!!!!!!!!!!!!!!!!!!!!!!!!!!!!!!!!!!!!!!!!!!!!!!!!!!!!!!!!!!!!!!!!!!!!!!!!!!!!!!!!!!!!!!!!!!!!!!!!!!!!!!!!!!!!!!!!!!!!!!!!!!!!!!!!!!!!!!!!!!!!!",
"!!!!!!!!!!!!!!!!!!!!!!!!!!!!!!!!!!!!!!!!!!!!!!!!!!!!!!!!!!!!!!!!!!!!!!!!!!!!!!!!!!!!!!!!!!!!!!!!!!!!!!!!!!!!!!!!!!!!!!!!!!!!!!!!!!!!!!!!!!!!!!!!!!!!!!!!!!!!!!!!!!!!!!!!!!!!!!!!!!!!!!!!!!!!!!!!!!!!!!!!!!!!!!!!!!!!!!!!!!!!!!!!!!!!!!!!!!!!!!!!!!!!!!!!!!!!!!!!!!!!!!!!!!!!!!!!!!!!!!!!!!!!!!!!!!!!!!!!!!!!",
"!!!!!!!!!!!!!!!!!!!!!!!!!!!!!!!!!!!!!!!!!!!!!!!!!!!!!!!!!!!!!!!!!!!!!!!!!!!!!!!!!!!!!!!!!!!!!!!!!!!!!!!!!!!!!!!!!!!!!!!!!!!!!!!!!!!!!!!!!!!!!!!!!!!!!!!!!!!!!!!!!!!!!!!!!!!!!!!!!!!!!!!!!!!!!!!!!!!!!!!!!!!!!!!!!!!!!!!!!!!!!!!!!!!!!!!!!!!!!!!!!!!!!!!!!!!!!!!!!!!!!!!!!!!!!!!!!!!!!!!!!!!!!!!!!!!!!!!!!!!!",
"!!!!!!!!!!!!!!!!!!!!!!!!!!!!!!!!!!!!!!!!!!!!!!!!!!!!!!!!!!!!!!!!!!!!!!!!!!!!!!!!!!!!!!!!!!!!!!!!!!!!!!!!!!!!!!!!!!!!!!!!!!!!!!!!!!!!!!!!!!!!!!!!!!!!!!!!!!!!!!!!!!!!!!!!!!!!!!!!!!!!!!!!!!!!!!!!!!!!!!!!!!!!!!!!!!!!!!!!!!!!!!!!!!!!!!!!!!!!!!!!!!!!!!!!!!!!!!!!!!!!!!!!!!!!!!!!!!!!!!!!!!!!!!!!!!!!!!!!!!!!",
"!!!!!!!!!!!!!!!!!!!!!!!!!!!!!!!!!!!!!!!!!!!!!!!!!!!!!!!!!!!!!!!!!!!!!!!!!!!!!!!!!!!!!!!!!!!!!!!!!!!!!!!!!!!!!!!!!!!!!!!!!!!!!!!!!!!!!!!!!!!!!!!!!!!!!!!!!!!!!!!!!!!!!!!!!!!!!!!!!!!!!!!!!!!!!!!!!!!!!!!!!!!!!!!!!!!!!!!!!!!!!!!!!!!!!!!!!!!!!!!!!!!!!!!!!!!!!!!!!!!!!!!!!!!!!!!!!!!!!!!!!!!!!!!!!!!!!!!!!!!!",
"!!!!!!!!!!!!!!!!!!!!!!!!!!!!!!!!!!!!!!!!!!!!!!!!!!!!!!!!!!!!!!!!!!!!!!!!!!!!!!!!!!!!!!!!!!!!!!!!!!!!!!!!!!!!!!!!!!!!!!!!!!!!!!!!!!!!!!!!!!!!!!!!!!!!!!!!!!!!!!!!!!!!!!!!!!!!!!!!!!!!!!!!!!!!!!!!!!!!!!!!!!!!!!!!!!!!!!!!!!!!!!!!!!!!!!!!!!!!!!!!!!!!!!!!!!!!!!!!!!!!!!!!!!!!!!!!!!!!!!!!!!!!!!!!!!!!!!!!!!!!",
"!!!!!!!!!!!!!!!!!!!!!!!!!!!!!!!!!!!!!!!!!!!!!!!!!!!!!!!!!!!!!!!!!!!!!!!!!!!!!!!!!!!!!!!!!!!!!!!!!!!!!!!!!!!!!!!!!!!!!!!!!!!!!!!!!!!!!!!!!!!!!!!!!!!!!!!!!!!!!!!!!!!!!!!!!!!!!!!!!!!!!!!!!!!!!!!!!!!!!!!!!!!!!!!!!!!!!!!!!!!!!!!!!!!!!!!!!!!!!!!!!!!!!!!!!!!!!!!!!!!!!!!!!!!!!!!!!!!!!!!!!!!!!!!!!!!!!!!!!!!!",
"!!!!!!!!!!!!!!!!!!!!!!!!!!!!!!!!!!!!!!!!!!!!!!!!!!!!!!!!!!!!!!!!!!!!!!!!!!!!!!!!!!!!!!!!!!!!!!!!!!!!!!!!!!!!!!!!!!!!!!!!!!!!!!!!!!!!!!!!!!!!!!!!!!!!!!!!!!!!!!!!!!!!!!!!!!!!!!!!!!!!!!!!!!!!!!!!!!!!!!!!!!!!!!!!!!!!!!!!!!!!!!!!!!!!!!!!!!!!!!!!!!!!!!!!!!!!!!!!!!!!!!!!!!!!!!!!!!!!!!!!!!!!!!!!!!!!!!!!!!!!",
"!!!!!!!!!!!!!!!!!!!!!!!!!!!!!!!!!!!!!!!!!!!!!!!!!!!!!!!!!!!!!!!!!!!!!!!!!!!!!!!!!!!!!!!!!!!!!!!!!!!!!!!!!!!!!!!!!!!!!!!!!!!!!!!!!!!!!!!!!!!!!!!!!!!!!!!!!!!!!!!!!!!!!!!!!!!!!!!!!!!!!!!!!!!!!!!!!!!!!!!!!!!!!!!!!!!!!!!!!!!!!!!!!!!!!!!!!!!!!!!!!!!!!!!!!!!!!!!!!!!!!!!!!!!!!!!!!!!!!!!!!!!!!!!!!!!!!!!!!!!!",
"!!!!!!!!!!!!!!!!!!!!!!!!!!!!!!!!!!!!!!!!!!!!!!!!!!!!!!!!!!!!!!!!!!!!!!!!!!!!!!!!!!!!!!!!!!!!!!!!!!!!!!!!!!!!!!!!!!!!!!!!!!!!!!!!!!!!!.8H]!!!!!!!!!!!!!!!!!!!!!!!!!!!!!!!!!!!!!!!!!!!!!!!!!!!!!!!!!!!!!!!!!!!!!!!!!!!!!!!!!!!!!!!!!!!!!!!!!!!!!!!!!!!!!!!!!!!!!!!!!!!!!!!!!!!!!!!!!!!!!!!!!!!!!!!!!!!!!!!!!!!",
"!!!!!!!!!!!!!!!!!!!!!!!!!!!!!!!!!!!!!!!!!!!!!!!!!!!!!!!!!!!!!!!!!!!!!!!!!!!!!!!!!!!!!!!!!!!!!!!!!!!!!!!!!!!!!!!!!!!!!!!!!!!!!!!!!!!!..8H]]!!!!!!!!!!!!!!!!!!!!!!!!!!!!!!!!!!!!!!!!!!!!!!!!!!!!!!!!!!!!!!!!!!!!!!!!!!!!!!!!!!!!!!!!!!!!!!!!!!!!!!!!!!!!!!!!!!!!!!!!!!!!!!!!!!!!!!!!!!!!!!!!!!!!!!!!!!!!!!!!!!",
"!!!!!!!!!!!!!!!!!!!!!!!!!!!!!!!!!!!!!!!!!!!!!!!!!!!!!!!!!!!!!!!!!!!!!!!!!!!!!!!!!!!!!!!!!!!!!!!!!!!!!!!!!!!!!!!!!!!!!!!!!!!!!!!!!!!!++2=JHF!!!!!!!!!!!!!!!!!!!!!!!!!!!!!!!!!!!!!!!!!!!!!!!!!!!!!!!!!!!!!!!!!!!!!!!!!!!!!!!!!!!!!!!!!!!!!!!!!!!!!!!!!!!!!!!!!!!!!!!!!!!!!!!!!!!!!!!!!!!!!!!!!!!!!!!!!!!!!!!!!",
"!!!!!!!!!!!!!!!!!!!!!!!!!!!!!!!!!!!!!!!!!!!!!!!!!!!!!!!!!!!!!!!!!!!!!!!!!!!!!!!!!!!!!!!!!!!!!!!!!!!!!!!!!!!!!!!!!!!!!!!!!!!!!!!!!!!!)).2===;!!!!!!!!!!!!!!!!!!!!!!!!!!!!!!!!!!!!!!!!!!!!!!!!!!!!!!!!!!!!!!!!!!!!!!!!!!!!!!!!!!!!!!!!!!!!!!!!!!!!!!!!!!!!!!!!!!!!!!!!!!!!!!!!!!!!!!!!!!!!!!!!!!!!!!!!!!!!!!!!",
"!!!!!!!!!!!!!!!!!!!!!!!!!!!!!!!!!!!!!!!!!!!!!!!!!!!!!!!!!!!!!!!!!!!!!!!!!!!!!!!!!!!!!!!!!!!!!!!!!!!!!!!!!!!!!!!!!!!!!!!!!!!!!!!!!!!!))*+259;;!!!!!!!!!!!!!!!!!!!!!!!!!!!!!!!!!!!!!!!!!!!!!!!!!!!!!!!!!!!!!!!!!!!!!!!!!!!!!!!!!!!!!!!!!!!!!!!!!!!!!!!!!!!!!!!!!!!!!!!!!!!!!!!!!!!!!!!!!!!!!!!!!!!!!!!!!!!!!!!",
"!!!!!!!!!!!!!!!!!!!!!!!!!!!!!!!!!!!!!!!!!!!!!!!!!!!!!!!!!!!!!!!!!!!!!!!!!!!!!!!!!!!!!!!!!!!!!!!!!!!!!!!!!!!!!!!!!!!!!!!!!!!!!!!!!!!>2.26>>?@@!!!!!!!!!!!!!!!!!!!!!!!!!!!!!!!!!!!!!!!!!!!!!!!!!!!!!!!!!!!!!!!!!!!!!!!!!!!!!!!!!!!!!!!!!!!!!!!!!!!!!!!!!!!!!!!!!!!!!!!!!!!!!!!!!!!!!!!!!!!!!!!!!!!!!!!!!!!!!!!",
"!!!!!!!!!!!!!!!!!!!!!!!!!!!!!!!!!!!!!!!!!!!!!!!!!!!!!!!!!!!!!!!!!!!!!!!!!!!!!!!!!!!!!!!!!!!!!!!!!!!!!!!!!!!!!!!!!!!!!!!!!yrrrryyqngUE9@HPLGBB!!!!!!!!!!!!!!!!!!!!!!!!!!!!!!!!!!!!!!!!!!!!!!!!!!!!!!!!!!!!!!!!!!!!!!!!!!!!!!!!!!!!!!!!!!!!!!!!!!!!!!!!!!!!!!!!!!!!!!!!!!!!!!!!!!!!!!!!!!!!!!!!!!!!!!!!!!!!!!!",
"!!!!!!!!!!!!!!!!!!!!!!!!!!!!!!!!!!!!!!!!!!!!!!!!!!!!!!!!!!!!!!!!!!!!!!!!!!!!!!!!!!!!!!!!!!!!!!!!!!!!!!!!!!!!!!!!!!!!!!!!yyrrrryyqng`XMU_d]OEE!!!!!!!!!!!!!!!!!!!!!!!!!!!!!!!!!!!!!!!!!!!!!!!!!!!!!!!!!!!!!!!!!!!!!!!!!!!!!!!!!!!!!!!!!!!!!!!!!!!!!!!!!!!!!!!!!!!!!!!!!!!!!!!!!!!!!!!!!!!!!!!!!!!!!!!!!!!!!!!",
"!!!!!!!!!!!!!!!!!!!!!!!!!!!!!!!!!!!!!!!!!!!!!!!!!!!!!!!!!!!!!!!!!!!!!!!!!!!!!!!!!!!!!!!!!!!!!!!!!!!!!!!!!!!!!!!!!!!!!!!rrrrrrrvwtpmf`X`dld_W^d!!!!!!!!!!!!!!!!!!!!!!!!!!!!!!!!!!!!!!!!!!!!!!!!!!!!!!!!!!!!!!!!!!!!!!!!!!!!!!!!!!!!!!!!!!!!!!!!!!!!!!!!!!!!!!!!!!!!!!!!!!!!!!!!!!!!!!!!!!!!!!!!!!!!!!!!!!!!!!",
"!!!!!!!!!!!!!!!!!!!!!!!!!!!!!!!!!!!!!!!!!!!!!!!!!!!!!!!!!!!!!!!!!!!!!!!!!!!!!!!!!!!!!!!!!!!!!!!!!!!!!!!!!!!!!!!!!!!!!!rrrrrrrruvtqnjfcflpnkiktzxvt!!!!!!!!!!!!!!!!!!!!!!!!!!!!!!!!!!!!!!!!!!!!!!!!!!!!!!!!!!!!!!!!!!!!!!!!!!!!!!!!!!!!!!!!!!!!!!!!!!!!!!!!!!!!!!!!!!!!!!!!!!!!!!!!!!!!!!!!!!!!!!!!!!!!!!!!!!",
"!!!!!!!!!!!!!!!!!!!!!!!!!!!!!!!!!!!!!!!!!!!!!!!!!!!!!!!!!!!!!!!!!!!!!!!!!!!!!!!!!!!!!!!!!!!!!!!!!!!!!!!!!!!!!!!!!!!!!rrrrrrrrruvutqpmjntwyz!{{zxvtt!!!!!!!!!!!!!!!!!!!!!!!!!!!!!!!!!!!!!!!!!!!!!!!!!!!!!!!!!!!!!!!!!!!!!!!!!!!!!!!!!!!!!!!!!!!!!!!!!!!!!!!!!!!!!!!!!!!!!!!!!!!!!!!!!!!!!!!!!!!!!!!!!!!!!!!!!",
"!!!!!!!!!!!!!!!!!!!!!!!!!!!!!!!!!!!!!!!!!!!!!!!!!!!!!!!!!!!!!!!!!!!!!!!!!!!!!!!!!!!!!!!!!!!!!!!!!!!!!!!!!!!!!!!!!!!!h[[hhroheeegiiikkoqtyyz{zzywuqqq!!!!!!!!!!!!!!!!!!!!!!!!!!!!!!!!!!!!!!!!!!!!!!!!!!!!!!!!!!!!!!!!!!!!!!!!!!!!!!!!!!!!!!!!!!!!!!!!!!!!!!!!!!!!!!!!!!!!!!!!!!!!!!!!!!!!!!!!!!!!!!!!!!!!!!!!",
"!!!!!!!!!!!!!!!!!!!!!!!!!!!!!!!!!!!!!!!!!!!!!!!!!!!!!!!!!!!!!!!!!!!!!!!!!!!!!!!!!!!!!!!!!!!!!!!!!!!!!!!!!!!!!!!!!!!r[VNZhriaSUXY^abekrrryy|zzyyvqppppqss!!!!!!!!!!!!!!!!!!!!!!!!!!!!!!!!!!!!!!!!!!!!!!!!!!!!!!!!!!!!!!!!!!!!!!!!!!!!!!!!!!!!!!!!!!!!!!!!!!!!!!!!!!!!!!!!!!!!!!!!!!!!!!!!!!!!!!!!!!!!!!!!!!!!",
"!!!!!!!!!!!!!!!!!!!!!!!!!!!!!!!!!!!!!!!!!!!!!!!!!!!!!!!!!!!!!!!!!!!!!!!!!!!!!!!!!!!!!!!!!!!!!!!!!!!!!!!!!!!!!!!!!!rr[N;NevdUEGIKPSV[hrrrr||zywwtqooppqsss!!!!!!!!!!!!!!!!!!!!!!!!!!!!!!!!!!!!!!!!!!!!!!!!!!!!!!!!!!!!!!!!!!!!!!!!!!!!!!!!!!!!!!!!!!!!!!!!!!!!!!!!!!!!!!!!!!!!!!!!!!!!!!!!!!!!!!!!!!!!!!!!!!!",
"!!!!!!!!!!!!!!!!!!!!!!!!!!!!!!!!!!!!!!!!!!!!!!!!!!!!!!!!!!!!!!!!!!!!!!!!!!!!!!!!!!!!!!!!!!!!!!!!!!!!!!!!!!!!!!!!!!rr[NCKUbUI@@BBEFGS[rrrrryyyywvutttuttttt!!!!!!!!!!!!!!!!!!!!!!!!!!!!!!!!!!!!!!!!!!!!!!!!!!!!!!!!!!!!!!!!!!!!!!!!!!!!!!!!!!!!!!!!!!!!!!!!!!!!!!!!!!!!!!!!!!!!!!!!!!!!!!!!!!!!!!!!!!!!!!!!!!",
"!!!!!!!!!!!!!!!!!!!!!!!!!!!!!!!!!!!!!!!!!!!!!!!!!!!!!!!!!!!!!!!!!!!!!!!!!!!!!!!!!!!!!!!!!!!!!!!!!!!!!!!!!!!!!!!!!!rr[VCCIJE@;999998CVhhrrrrrryyyywwwxvutttt!!!!!!!!!!!!!!!!!!!!!!!!!!!!!!!!!!!!!!!!!!!!!!!!!!!!!!!!!!!!!!!!!!!!!!!!!!!!!!!!!!!!!!!!!!!!!!!!!!!!!!!!!!!!!!!!!!!!!!!!!!!!!!!!!!!!!!!!!!!!!!!!!",
"!!!!!!!!!!!!!!!!!!!!!!!!!!!!!!!!!!!!!!!!!!!!!!!!!!!!!!!!!!!!!!!!!!!!!!!!!!!!!!!!!!!!!!!!!!!!!!!!!!!!!!!!!!!!!!!!!!rrhZNC;888854310.9K[hhrrrrr||||~~{{ywuuttt!!!!!!!!!!!!!!!!!!!!!!!!!!!!!!!!!!!!!!!!!!!!!!!!!!!!!!!!!!!!!!!!!!!!!!!!!!!!!!!!!!!!!!!!!!!!!!!!!!!!!!!!!!!!!!!!!!!!!!!!!!!!!!!!!!!!!!!!!!!!!!!!",
"!!!!!!!!!!!!!!!!!!!!!!!!!!!!!!!!!!!!!!!!!!!!!!!!!!!!!!!!!!!!!!!!!!!!!!!!!!!!!!!!!!!!!!!!!!!!!!!!!!!!!!!!!!!!!!!!!!rrhZSKF@;;951..+*1;NVZ[hhhrrrr||||{zxwwwvwx!!!!!!!!!!!!!!!!!!!!!!!!!!!!!!!!!!!!!!!!!!!!!!!!!!!!!!!!!!!!!!!!!!!!!!!!!!!!!!!!!!!!!!!!!!!!!!!!!!!!!!!!!!!!!!!!!!!!!!!!!!!!!!!!!!!!!!!!!!!!!!!",
"!!!!!!!!!!!!!!!!!!!!!!!!!!!!!!!!!!!!!!!!!!!!!!!!!!!!!!!!!!!!!!!!!!!!!!!!!!!!!!!!!!!!!!!!!!!!!!!!!!!!!!!!!!!!!!!!!!rrhZSOKKE;94.+))&*1;CNVZ[ehrrrrr||{zzyyyxyyz!!!!!!!!!!!!!!!!!!!!!!!!!!!!!!!!!!!!!!!!!!!!!!!!!!!!!!!!!!!!!!!!!!!!!!!!!!!!!!!!!!!!!!!!!!!!!!!!!!!!!!!!!!!!!!!!!!!!!!!!!!!!!!!!!!!!!!!!!!!!!!",
"!!!!!!!!!!!!!!!!!!!!!!!!!!!!!!!!!!!!!!!!!!!!!!!!!!!!!!!!!!!!!!!!!!!!!!!!!!!!!!!!!!!!!!!!!!!!!!!!!!!!!!!!!!!!!!!!!!rrhZQSUUKE;3+))&&)+19BCNVZ[hrrrrr|{{{{{{{{zzz!!!!!!!!!!!!!!!!!!!!!!!!!!!!!!!!!!!!!!!!!!!!!!!!!!!!!!!!!!!!!!!!!!!!!!!!!!!!!!!!!!!!!!!!!!!!!!!!!!!!!!!!!!!!!!!!!!!!!!!!!!!!!!!!!!!!!!!!!!!!!",
"!!!!!!!!!!!!!!!!!!!!!!!!!!!!!!!!!!!!!!!!!!!!!!!!!!!!!!!!!!!!!!!!!!!!!!!!!!!!!!!!!!!!!!!!!!!!!!!!!!!!!!!!!!!!!!!!!!rreZMPSUKB;1*)&&&&&)+19;CNVZ[hhhrrtruuvyyywvww!!!!!!!!!!!!!!!!!!!!!!!!!!!!!!!!!!!!!!!!!!!!!!!!!!!!!!!!!!!!!!!!!!!!!!!!!!!!!!!!!!!!!!!!!!!!!!!!!!!!!!!!!!!!!!!!!!!!!!!!!!!!!!!!!!!!!!!!!!!!",
"!!!!!!!!!!!!!!!!!!!!!!!!!!!!!!!!!!!!!!!!!!!!!!!!!!!!!!!!!!!!!!!!!!!!!!!!!!!!!!!!!!!!!!!!!!!!!!!!!!!!!!!!!!!!!!!!!!rreXJLPSIA</)&&$#$&&&).39BCNVZ[hhhhhorrrrrrrrvyxwv!!!!!!!!!!!!!!!!!!!!!!!!!!!!!!!!!!!!!!!!!!!!!!!!!!!!!!!!!!!!!!!!!!!!!!!!!!!!!!!!!!!!!!!!!!!!!!!!!!!!!!!!!!!!!!!!!!!!!!!!!!!!!!!!!!!!!!!!",
"!!!!!!!!!!!!!!!!!!!!!!!!!!!!!!!!!!!!!!!!!!!!!!!!!!!!!!!!!!!!!!!!!!!!!!!!!!!!!!!!!!!!!!!!!!!!!!!!!!!!!!!!!!!!!!!!!!rreUGIMQHA<.)&$#####&&)+19;CKNV[[[[hhhhrrrrrrvyxwvv!!!!!!!!!!!!!!!!!!!!!!!!!!!!!!!!!!!!!!!!!!!!!!!!!!!!!!!!!!!!!!!!!!!!!!!!!!!!!!!!!!!!!!!!!!!!!!!!!!!!!!!!!!!!!!!!!!!!!!!!!!!!!!!!!!!!!!!",
"!!!!!!!!!!!!!!!!!!!!!!!!!!!!!!!!!!!!!!!!!!!!!!!!!!!!!!!!!!!!!!!!!!!!!!!!!!!!!!!!!!!!!!!!!!!!!!!!!!!!!!!!!!!!!!!!!!rreXJIGGA>9/*&&&#####&&&).18BCCNNNVVNNNNNNVVZ[beeikp!!!!!!!!!!!!!!!!!!!!!!!!!!!!!!!!!!!!!!!!!!!!!!!!!!!!!!!!!!!!!!!!!!!!!!!!!!!!!!!!!!!!!!!!!!!!!!!!!!!!!!!!!!!!!!!!!!!!!!!!!!!!!!!!!!!!!!",
"!!!!!!!!!!!!!!!!!!!!!!!!!!!!!!!!!!!!!!!!!!!!!!!!!!!!!!!!!!!!!!!!!!!!!!!!!!!!!!!!!!!!!!!!!!!!!!!!!!!!!!!!!!!!!!!!!!rrh^PHD>=992.+)&&######&&)*.59;BBCCCB;;859;CCCKNVZeo!!!!!!!!!!!!!!!!!!!!!!!!!!!!!!!!!!!!!!!!!!!!!!!!!!!!!!!!!!!!!!!!!!!!!!!!!!!!!!!!!!!!!!!!!!!!!!!!!!!!!!!!!!!!!!!!!!!!!!!!!!!!!!!!!!!!!!",
"!!!!!!!!!!!!!!!!!!!!!!!!!!!!!!!!!!!!!!!!!!!!!!!!!!!!!!!!!!!!!!!!!!!!!!!!!!!!!!!!!!!!!!!!!!!!!!!!!!!!!!!!!!!!!!!!!!rriaUH>6666654+)&&######&&&*/14689;841-+)+-4577;CN[o!!!!!!!!!!!!!!!!!!!!!!!!!!!!!!!!!!!!!!!!!!!!!!!!!!!!!!!!!!!!!!!!!!!!!!!!!!!!!!!!!!!!!!!!!!!!!!!!!!!!!!!!!!!!!!!!!!!!!!!!!!!!!!!!!!!!!!",
"!!!!!!!!!!!!!!!!!!!!!!!!!!!!!!!!!!!!!!!!!!!!!!!!!!!!!!!!!!!!!!!!!!!!!!!!!!!!!!!!!!!!!!!!!!!!!!!!!!!!!!!!!!!!!!!!!!yykaTH?66556890+)&&######&&&)*+../100/1349;CCCKNV[hq!!!!!!!!!!!!!!!!!!!!!!!!!!!!!!!!!!!!!!!!!!!!!!!!!!!!!!!!!!!!!!!!!!!!!!!!!!!!!!!!!!!!!!!!!!!!!!!!!!!!!!!!!!!!!!!!!!!!!!!!!!!!!!!!!!!!!!",
"!!!!!!!!!!!!!!!!!!!!!!!!!!!!!!!!!!!!!!!!!!!!!!!!!!!!!!!!!!!!!!!!!!!!!!!!!!!!!!!!!!!!!!!!!!!!!!!!!!!!!!!!!!!!!!!!!!||kaTH?864369>82.)&&######&&&&)))**++.5@OUX_abegioqw!!!!!!!!!!!!!!!!!!!!!!!!!!!!!!!!!!!!!!!!!!!!!!!!!!!!!!!!!!!!!!!!!!!!!!!!!!!!!!!!!!!!!!!!!!!!!!!!!!!!!!!!!!!!!!!!!!!!!!!!!!!!!!!!!!!!!!",
"!!!!!!!!!!!!!!!!!!!!!!!!!!!!!!!!!!!!!!!!!!!!!!!!!!!!!!!!!!!!!!!!!!!!!!!!!!!!!!!!!!!!!!!!!!!!!!!!!!!!!!!!!!!!!!!!!!!!n`QH?96426<EA?=/)&&######$&&&&&&&)*+9Tnqtvxz!!!!!!!!!!!!!!!!!!!!!!!!!!!!!!!!!!!!!!!!!!!!!!!!!!!!!!!!!!!!!!!!!!!!!!!!!!!!!!!!!!!!!!!!!!!!!!!!!!!!!!!!!!!!!!!!!!!!!!!!!!!!!!!!!!!!!!!!!!!!",
"!!!!!!!!!!!!!!!!!!!!!!!!!!!!!!!!!!!!!!!!!!!!!!!!!!!!!!!!!!!!!!!!!!!!!!!!!!!!!!!!!!!!!!!!!!!!!!!!!!!!!!!!!!!!!!!!!!!!j^TH?952/246554+)&&#######&&&&&)+06>M`pnnnnpqtwyyzzzyxxx!!!!!!!!!!!!!!!!!!!!!!!!!!!!!!!!!!!!!!!!!!!!!!!!!!!!!!!!!!!!!!!!!!!!!!!!!!!!!!!!!!!!!!!!!!!!!!!!!!!!!!!!!!!!!!!!!!!!!!!!!!!!!!!!",
"!!!!!!!!!!!!!!!!!!!!!!!!!!!!!!!!!!!!!!!!!!!!!!!!!!!!!!!!!!!!!!!!!!!!!!!!!!!!!!!!!!!!!!!!!!!!!!!!!!!!!!!!!!!!!!!!!!!!dYTH?940.......)&&&#########$$&*9DP^djpmjggfflpvwxywvtuwy!!!!!!!!!!!!!!!!!!!!!!!!!!!!!!!!!!!!!!!!!!!!!!!!!!!!!!!!!!!!!!!!!!!!!!!!!!!!!!!!!!!!!!!!!!!!!!!!!!!!!!!!!!!!!!!!!!!!!!!!!!!!!!!",
"!!!!!!!!!!!!!!!!!!!!!!!!!!!!!!!!!!!!!!!!!!!!!!!!!!!!!!!!!!!!!!!!!!!!!!!!!!!!!!!!!!!!!!!!!!!!!!!!!!!!!!!!!!!!!!!!!!!!!TTI?93/+**))**)&&&&##########&.P`m!xuqlf``_^cjqtvwuqnqvyy!!!!!!!!!!!!!!!!!!!!!!!!!!!!!!!!!!!!!!!!!!!!!!!!!!!!!!!!!!!!!!!!!!!!!!!!!!!!!!!!!!!!!!!!!!!!!!!!!!!!!!!!!!!!!!!!!!!!!!!!!!!!!!",
"!!!!!!!!!!!!!!!!!!!!!!!!!!!!!!!!!!!!!!!!!!!!!!!!!!!!!!!!!!!!!!!!!!!!!!!!!!!!!!!!!!!!!!!!!!!!!!!!!!!!!!!!!!!!!!!!!!!!!TTJB92+)*++/25/*)&&#########$&4YclulcYTPJLLMW`gjjnigdgkooo!!!!!!!!!!!!!!!!!!!!!!!!!!!!!!!!!!!!!!!!!!!!!!!!!!!!!!!!!!!!!!!!!!!!!!!!!!!!!!!!!!!!!!!!!!!!!!!!!!!!!!!!!!!!!!!!!!!!!!!!!!!!!",
"!!!!!!!!!!!!!!!!!!!!!!!!!!!!!!!!!!!!!!!!!!!!!!!!!!!!!!!!!!!!!!!!!!!!!!!!!!!!!!!!!!!!!!!!!!!!!!!!!!!!!!!!!!!!!!!!!!!!!UUJD=0*)).49EK?5.)&#########&)=dfjm`O@>=9=>@IT^`bda^XZaeehhhe[!!!!!!!!!!!!!!!!!!!!!!!!!!!!!!!!!!!!!!!!!!!!!!!!!!!!!!!!!!!!!!!!!!!!!!!!!!!!!!!!!!!!!!!!!!!!!!!!!!!!!!!!!!!!!!!!!!!!!!!!!",
"!!!!!!!!!!!!!!!!!!!!!!!!!!!!!!!!!!!!!!!!!!!!!!!!!!!!!!!!!!!!!!!!!!!!!!!!!!!!!!!!!!!!!!!!!!!!!!!!!!!!!!!!!!!!!!!!!!!!!UULE>/)&)0?KZhZG9*&########&&+FmjgfQ=2///026>FRTX]USKSVZ[hhhe[[!!!!!!!!!!!!!!!!!!!!!!!!!!!!!!!!!!!!!!!!!!!!!!!!!!!!!!!!!!!!!!!!!!!!!!!!!!!!!!!!!!!!!!!!!!!!!!!!!!!!!!!!!!!!!!!!!!!!!!!!",
"!!!!!!!!!!!!!!!!!!!!!!!!!!!!!!!!!!!!!!!!!!!!!!!!!!!!!!!!!!!!!!!!!!!!!!!!!!!!!!!!!!!!!!!!!!!!!!!!!!!!!!!!!!!!!!!!!!!!!YYPG?4+).9KV[h[VK5+&&&&&##&&*5H`QD6/*))))+06=EMPSWSSSSVVZZ[ZVSSU!!!!!!!!!!!!!!!!!!!!!!!!!!!!!!!!!!!!!!!!!!!!!!!!!!!!!!!!!!!!!!!!!!!!!!!!!!!!!!!!!!!!!!!!!!!!!!!!!!!!!!!!!!!!!!!!!!!!!!!",
"!!!!!!!!!!!!!!!!!!!!!!!!!!!!!!!!!!!!!!!!!!!!!!!!!!!!!!!!!!!!!!!!!!!!!!!!!!!!!!!!!!!!!!!!!!!!!!!!!!!!!!!!!!!!!!!!!!!!!__TI@82.8GZ[hrh[ZK;2+)&&&&).9@IT9+&&&&&&&)/6=DJLOSSSNNVVVUUSKGKOU+&##$&*9]_`ddddF0))*+9Nr!!!!!!!!!!!!!!!!!!!!!!!!!!!!!!!!!!!!!!!!!!!!!!!!!!!!!!!!!!!!!!!!!!!!!!!!!!!!!!!!!!!!!!!!!!!!!!",
"!!!!!!!!!!!!!!!!!!!!!!!!!!!!!!!!!!!!!!!!!!!!!!!!!!!!!!!!!!!!!!!!!!!!!!!!!!!!!!!!!!!!!!!!!!!!!!!!!!!!!!!!!!!!!!!!!!!!!bbWKA>96GZhhrrrrrh[V;/)*+.6DWPJF.&#####&&)+6=@HIKKNNVVSSSKJFB=ELU+&##$&*9]_`ddddF0))*+9Nrr!!!!!!!!!!!!!!!!!!!!!!!!!!!!!!!!!!!!!!!!!!!!!!!!!!!!!!!!!!!!!!!!!!!!!!!!!!!!!!!!!!!!!!!!!!!!!",
"!!!!!!!!!!!!!!!!!!!!!!!!!!!!!!!!!!!!!!!!!!!!!!!!!!!!!!!!!!!!!!!!!!!!!!!!!!!!!!!!!!!!!!!!!!!!!!!!!!!!!!!!!!!!!!!!!!!!!ccXME=82;N[hhrrrrhe[K;1456=@F92+&$######&&*2=FTSSSVVVSOKKKJIGFGHH*$###&).ALYdYOE8/*+.0BVrr!!!!!!!!!!!!!!!!!!!!!!!!!!!!!!!!!!!!!!!!!!!!!!!!!!!!!!!!!!!!!!!!!!!!!!!!!!!!!!!!!!!!!!!!!!!!!",
"!!!!!!!!!!!!!!!!!!!!!!!!!!!!!!!!!!!!!!!!!!!!!!!!!!!!!!!!!!!!!!!!!!!!!!!!!!!!!!!!!!!!!!!!!!!!!!!!!!!!!!!!!!!!!!!!!!!!!ddYQG=5/8CV[hrrrrhhhZNCCGGA=9+)&#########&)/=JaZZZVVVSKEGHJKMPID>)$####&)0>PdO=//..148GZrr!!!!!!!!!!!!!!!!!!!!!!!!!!!!!!!!!!!!!!!!!!!!!!!!!!!!!!!!!!!!!!!!!!!!!!!!!!!!!!!!!!!!!!!!!!!!!",
"!!!!!!!!!!!!!!!!!!!!!!!!!!!!!!!!!!!!!!!!!!!!!!!!!!!!!!!!!!!!!!!!!!!!!!!!!!!!!!!!!!!!!!!!!!!!!!!!!!!!!!!!!!!!!!!!!!!!!dd^TJ=3+3;NV[rrrrrrrhhh[[ZI90)&##########&&.=Qiee[ZZXOG?BFJPUYK?5&$####&&)2HfF/&*.59=@S[rr!!!!!!!!!!!!!!!!!!!!!!!!!!!!!!!!!!!!!!!!!!!!!!!!!!!!!!!!!!!!!!!!!!!!!!!!!!!!!!!!!!!!!!!!!!!!!",
"!!!!!!!!!!!!!!!!!!!!!!!!!!!!!!!!!!!!!!!!!!!!!!!!!!!!!!!!!!!!!!!!!!!!!!!!!!!!!!!!!!!!!!!!!!!!!!!!!!!!!!!!!!!!!!!!!!!!!ff_UL@8038;CVhhhrrrrhhh[ZXE5+&&##########&)4DUh[ZSSSSLHDEFGILOG@9)&####&&)/>U@3+.39>DHU[rr!!!!!!!!!!!!!!!!!!!!!!!!!!!!!!!!!!!!!!!!!!!!!!!!!!!!!!!!!!!!!!!!!!!!!!!!!!!!!!!!!!!!!!!!!!!!!",
"!!!!!!!!!!!!!!!!!!!!!!!!!!!!!!!!!!!!!!!!!!!!!!!!!!!!!!!!!!!!!!!!!!!!!!!!!!!!!!!!!!!!!!!!!!!!!!!!!!!!!!!!!!!!!!!!!!!!!ff`XPE<4331;N[[hrrrrhhh[ZV@2*&$##########&)?KZhZSGIKMKIGGFEEEFED@+&##$&&&).5D=8369?FKTZerr!!!!!!!!!!!!!!!!!!!!!!!!!!!!!!!!!!!!!!!!!!!!!!!!!!!!!!!!!!!!!!!!!!!!!!!!!!!!!!!!!!!!!!!!!!!!!",
"!!!!!!!!!!!!!!!!!!!!!!!!!!!!!!!!!!!!!!!!!!!!!!!!!!!!!!!!!!!!!!!!!!!!!!!!!!!!!!!!!!!!!!!!!!!!!!!!!!!!!!!!!!!!!!!!!!!!!ggbYSHB94.+3BV[hrrrrrhheZS=.)&###########&+LU[hVI<@EHIKLHEB?><@EH.&#$&&&&)+/59=ADEFLU]bhrr!!!!!!!!!!!!!!!!!!!!!!!!!!!!!!!!!!!!!!!!!!!!!!!!!!!!!!!!!!!!!!!!!!!!!!!!!!!!!!!!!!!!!!!!!!!!!",
"!!!!!!!!!!!!!!!!!!!!!!!!!!!!!!!!!!!!!!!!!!!!!!!!!!!!!!!!!!!!!!!!!!!!!!!!!!!!!!!!!!!!!!!!!!!!!!!!!!!!!!!!!!!!!!!!!!!!!ff`WOHB;83/4;BNZhhrrhhh[[ZB0)&&#########&*9ZK@81+*.29>DHGGGD?<===/)&&))+.28>GJMTTUUY_cdhhhh!!!!!!!!!!!!!!!!!!!!!!!!!!!!!!!!!!!!!!!!!!!!!!!!!!!!!!!!!!!!!!!!!!!!!!!!!!!!!!!!!!!!!!!!!!!!",
"!!!!!!!!!!!!!!!!!!!!!!!!!!!!!!!!!!!!!!!!!!!!!!!!!!!!!!!!!!!!!!!!!!!!!!!!!!!!!!!!!!!!!!!!!!!!!!!!!!!!!!!!!!!!!!!!!!!!!ff_UKGB?;95553BNhhhrhhh[[[G4*&&$#######&5BNeE.&&&&&)/5=EGIKGB=9530.+.259@HMU_`bcdddfgiigeedc!!!!!!!!!!!!!!!!!!!!!!!!!!!!!!!!!!!!!!!!!!!!!!!!!!!!!!!!!!!!!!!!!!!!!!!!!!!!!!!!!!!!!!!!!!!",
"!!!!!!!!!!!!!!!!!!!!!!!!!!!!!!!!!!!!!!!!!!!!!!!!!!!!!!!!!!!!!!!!!!!!!!!!!!!!!!!!!!!!!!!!!!!!!!!!!!!!!!!!!!!!!!!!!!!!!dd^SGGEBB@?5/+5C[hhrhh[[[eK9+)&&$#####$1rrrr;&####&&*/5@FKTID=50.18?FJTY`flntttttqqqqpmgddccc!!!!!!!!!!!!!!!!!!!!!!!!!!!!!!!!!!!!!!!!!!!!!!!!!!!!!!!!!!!!!!!!!!!!!!!!!!!!!!!!!!!!!!!!!!",
"!!!!!!!!!!!!!!!!!!!!!!!!!!!!!!!!!!!!!!!!!!!!!!!!!!!!!!!!!!!!!!!!!!!!!!!!!!!!!!!!!!!!!!!!!!!!!!!!!!!!!!!!!!!!!!!!!!!!!``XQKIHGGGF<5/5;CNZhhhhhheO=/*)&&&####&5rhh[4&#####$&)*/6>HFD@940369@FLTY`cfggffdcbaa`^YWY^_ab!!!!!!!!!!!!!!!!!!!!!!!!!!!!!!!!!!!!!!!!!!!!!!!!!!!!!!!!!!!!!!!!!!!!!!!!!!!!!!!!!!!!!!!!!",
"!!!!!!!!!!!!!!!!!!!!!!!!!!!!!!!!!!!!!!!!!!!!!!!!!!!!!!!!!!!!!!!!!!!!!!!!!!!!!!!!!!!!!!!!!!!!!!!!!!!!!!!!!!!!!!!!!!!!!YYWQMMLKLLME=5554;NZ[hhhhhS?2+)&&&&$##&;rhZN.&#######&&)+4?BDF?95566=@FLTYY^_]YXURMMMMKJIOUY^ad!!!!!!!!!!!!!!!!!!!!!!!!!!!!!!!!!!!!!!!!!!!!!!!!!!!!!!!!!!!!!!!!!!!!!!!!!!!!!!!!!!!!!!!!",
"!!!!!!!!!!!!!!!!!!!!!!!!!!!!!!!!!!!!!!!!!!!!!!!!!!!!!!!!!!!!!!!!!!!!!!!!!!!!!!!!!!!!!!!!!!!!!!!!!!!!!!!!!!!!!!!!!!!!!UUTTQQRRTUWMF>5.*1;NZhrhhhSD4/*))&&&&&)Br[NB*&########$&)+8>EKE@=8636=@FKTTRROKIFB<<<<<>>EKUYadd!!!!!!!!!!!!!!!!!!!!!!!!!!!!!!!!!!!!!!!!!!!!!!!!!!!!!!!!!!!!!!!!!!!!!!!!!!!!!!!!!!!!!!!",
"!!!!!!!!!!!!!!!!!!!!!!!!!!!!!!!!!!!!!!!!!!!!!!!!!!!!!!!!!!!!!!!!!!!!!!!!!!!!!!!!!!!!!!!!!!!!!!!!!!!!!!!!!!!!!!!!!!!!!ZZXSLMMORTWOHD94/38;N[rhe[SA62+*))))))1ChZK;+&$########$&)+09DB@>96310/36=?BFD?=9966889=<BGKT]ba_!!!!!!!!!!!!!!!!!!!!!!!!!!!!!!!!!!!!!!!!!!!!!!!!!!!!!!!!!!!!!!!!!!!!!!!!!!!!!!!!!!!!!!",
"!!!!!!!!!!!!!!!!!!!!!!!!!!!!!!!!!!!!!!!!!!!!!!!!!!!!!!!!!!!!!!!!!!!!!!!!!!!!!!!!!!!!!!!!!!!!!!!!!!!!!!!!!!!!!!!!!!!!!hhZSHIKLOTUPJFA=8531;Vrh[ZM@62/++*)*/5EVhZC;.)&$########$&&*0=>?B=51.*))+.15985321012369=?BELW__]Y!!!!!!!!!!!!!!!!!!!!!!!!!!!!!!!!!!!!!!!!!!!!!!!!!!!!!!!!!!!!!!!!!!!!!!!!!!!!!!!!!!!!!",
"!!!!!!!!!!!!!!!!!!!!!!!!!!!!!!!!!!!!!!!!!!!!!!!!!!!!!!!!!!!!!!!!!!!!!!!!!!!!!!!!!!!!!!!!!!!!!!!!!!!!!!!!!!!!!!!!!!!!!rr[SEGHJMRUQMJHGE8-(7NrhZUK@9622/+*2AXZ[hVF81+)&##########&&+8=?E<60*&&&&)*.30..+++../36==<<GR]YYYY!!!!!!!!!!!!!!!!!!!!!!!!!!!!!!!!!!!!!!!!!!!!!!!!!!!!!!!!!!!!!!!!!!!!!!!!!!!!!!!!!!!!",
"!!!!!!!!!!!!!!!!!!!!!!!!!!!!!!!!!!!!!!!!!!!!!!!!!!!!!!!!!!!!!!!!!!!!!!!!!!!!!!!!!!!!!!!!!!!!!!!!!!!!!!!!!!!!!!!!!!!!!!rZSGIKMPTUTQOLJH<5-;Vrh[ZSH?=862/+6DWZ[eVG<842)&$#########&)+/383.+)&&&))+06666899=?DEFGGFEMYda^WTJ!!!!!!!!!!!!!!!!!!!!!!!!!!!!!!!!!!!!!!!!!!!!!!!!!!!!!!!!!!!!!!!!!!!!!!!!!!!!!!!!!!!",
"!!!!!!!!!!!!!!!!!!!!!!!!!!!!!!!!!!!!!!!!!!!!!!!!!!!!!!!!!!!!!!!!!!!!!!!!!!!!!!!!!!!!!!!!!!!!!!!!!!!!!!!!!!!!!!!!!!!!!!!ZPJLOTTUWUUUQMLE;9CZrhh[ZPFD>96429FUXZ[VK?BBE3*&&########$&))+/+))&&&&)*.39>BFIMQUY`^YWTOKWcnf_UME=!!!!!!!!!!!!!!!!!!!!!!!!!!!!!!!!!!!!!!!!!!!!!!!!!!!!!!!!!!!!!!!!!!!!!!!!!!!!!!!!!!",
"!!!!!!!!!!!!!!!!!!!!!!!!!!!!!!!!!!!!!!!!!!!!!!!!!!!!!!!!!!!!!!!!!!!!!!!!!!!!!!!!!!!!!!!!!!!!!!!!!!!!!!!!!!!!!!!!!!!!!!!!MMPTUUWWWXYWTOLIGS[rrhh[XPJF@==9@HSWZ[VKEMWaI8.&&########$&&)*)&&&&&))+06>GPYafmpvzqmd`YTajyjaTIA==!!!!!!!!!!!!!!!!!!!!!!!!!!!!!!!!!!!!!!!!!!!!!!!!!!!!!!!!!!!!!!!!!!!!!!!!!!!!!!!!!",
"!!!!!!!!!!!!!!!!!!!!!!!!!!!!!!!!!!!!!!!!!!!!!!!!!!!!!!!!!!!!!!!!!!!!!!!!!!!!!!!!!!!!!!!!!!!!!!!!!!!!!!!!!!!!!!!!!!!!!!!!ZZWUTTUWXY^WPJJJKW[rrhhe[]UPJHD@HQZZZZVSKSZeSE8*&&########$&&&&&&)))*.148=GWfimqux{vqmgdafmqjcYRF>FW!!!!!!!!!!!!!!!!!!!!!!!!!!!!!!!!!!!!!!!!!!!!!!!!!!!!!!!!!!!!!!!!!!!!!!!!!!!!!!!!",
"!!!!!!!!!!!!!!!!!!!!!!!!!!!!!!!!!!!!!!!!!!!!!!!!!!!!!!!!!!!!!!!!!!!!!!!!!!!!!!!!!!!!!!!!!!!!!!!!!!!!!!!!!!!!!!!!!!!!!!!!eeZWPRTWX]_WMGHKLXeoorrhhe[ZWTMHQY[ZZVUUUZ[eZSH5*&&#########$$&&))*+/39999H_pquwxz{ywuqnmmmkifcWK@Oc!!!!!!!!!!!!!!!!!!!!!!!!!!!!!!!!!!!!!!!!!!!!!!!!!!!!!!!!!!!!!!!!!!!!!!!!!!!!!!!!",
"!!!!!!!!!!!!!!!!!!!!!!!!!!!!!!!!!!!!!!!!!!!!!!!!!!!!!!!!!!!!!!!!!!!!!!!!!!!!!!!!!!!!!!!!!!!!!!!!!!!!!!!!!!!!!!!!!!!!!!!!rreXLPTWY^`UKBGKQ]ekorrrrhhh[_YT]bh[ZSWZZ[ehe[aH6+&&##########$&*+/48=D>96Jd!!!!!!!!!!{zytmfgij_ODWi!!!!!!!!!!!!!!!!!!!!!!!!!!!!!!!!!!!!!!!!!!!!!!!!!!!!!!!!!!!!!!!!!!!!!!!!!!!!!!!!",
"!!!!!!!!!!!!!!!!!!!!!!!!!!!!!!!!!!!!!!!!!!!!!!!!!!!!!!!!!!!!!!!!!!!!!!!!!!!!!!!!!!!!!!!!!!!!!!!!!!!!!!!!!!!!!!!!!!!!!!!!rrZK9?GOUY`WMGIKS]eohhhhhrhhhe`]_[e[ZSZZ[[eh[Z]OE9.)&&########&)05=AGLRJE>Tg!!!!!!!!!!{zypiadgjaWK]j{{!!!!!!!!!!!!!!!!!!!!!!!!!!!!!!!!!!!!!!!!!!!!!!!!!!!!!!!!!!!!!!!!!!!!!!!!!!!!!!",
"!!!!!!!!!!!!!!!!!!!!!!!!!!!!!!!!!!!!!!!!!!!!!!!!!!!!!!!!!!!!!!!!!!!!!!!!!!!!!!!!!!!!!!!!!!!!!!!!!!!!!!!!!!!!!!!!!!!!!!!!rrV;.4=IPW^WPKKKP^eoheZ[hrrhhhecb[[ZZUZ[heee[ZWSSS?2+&&######&&.>FMWY_bYRHYj!!!!!!!!!!{zzpdYafjc^Tamzz!!!!!!!!!!!!!!!!!!!!!!!!!!!!!!!!!!!!!!!!!!!!!!!!!!!!!!!!!!!!!!!!!!!!!!!!!!!!!!",
"!!!!!!!!!!!!!!!!!!!!!!!!!!!!!!!!!!!!!!!!!!!!!!!!!!!!!!!!!!!!!!!!!!!!!!!!!!!!!!!!!!!!!!!!!!!!!!!!!!!!!!!!!!!!!!!!!!!!!!!!rrN3)+5DJT]WSKMOO^grhZNZhrrrrrkie[ZZZVZehhe[ZVSZehZK=+&&####&&)6T]bijnpgaUbn!!!!!!!!!!{{znbU^djfa^fnyy!!!!!!!!!!!!!!!!!!!!!!!!!!!!!!!!!!!!!!!!!!!!!!!!!!!!!!!!!!!!!!!!!!!!!!!!!!!!!!",
"!!!!!!!!!!!!!!!!!!!!!!!!!!!!!!!!!!!!!!!!!!!!!!!!!!!!!!!!!!!!!!!!!!!!!!!!!!!!!!!!!!!!!!!!!!!!!!!!!!!!!!!!!!!!!!!!!!!!!!!!rrN8+.28@KYWUSSSSairi[ZZ[[hhrrokeZVVZZ[ehh[ZZZZ[eh[SF4*&&$#&&).?Y_bfjkqjc^gq!!!!!!!!!!{{{ncW_djgdbcddgn!!!!!!!!!!!!!!!!!!!!!!!!!!!!!!!!!!!!!!!!!!!!!!!!!!!!!!!!!!!!!!!!!!!!!!!!!!!!!",
"!!!!!!!!!!!!!!!!!!!!!!!!!!!!!!!!!!!!!!!!!!!!!!!!!!!!!!!!!!!!!!!!!!!!!!!!!!!!!!!!!!!!!!!!!!!!!!!!!!!!!!!!!!!!!!!!!!!!!!!!rrV?////8FUWWXXXXbirke[ZVNZhrrrreZOVZ[ehh[[VZZ[ehh[XP?4+)&$&)+6Ibbbcgmqkgckt!!!!!!!!!{{{{pdXadjjigaXP]i!!!!!!!!!!!!!!!!!!!!!!!!!!!!!!!!!!!!!!!!!!!!!!!!!!!!!!!!!!!!!!!!!!!!!!!!!!!!!",
"!!!!!!!!!!!!!!!!!!!!!!!!!!!!!!!!!!!!!!!!!!!!!!!!!!!!!!!!!!!!!!!!!!!!!!!!!!!!!!!!!!!!!!!!!!!!!!!!!!!!!!!!!!!!!!!!!!!!!!!!rrZG81.*1?TWY^__ZekroheZNCN[rrrr[VGSZehhh[ZSZ[hhhheaYOE=.)&&+5DUgdc`fmtpkjpv!!!!!!!!{{{!!pfYafjkkk^K<Rf!!!!!!!!!!!!!!!!!!!!!!!!!!!!!!!!!!!!!!!!!!!!!!!!!!!!!!!!!!!!!!!!!!!!!!!!!!!!!",
"!!!!!!!!!!!!!!!!!!!!!!!!!!!!!!!!!!!!!!!!!!!!!!!!!!!!!!!!!!!!!!!!!!!!!!!!!!!!!!!!!!!!!!!!!!!!!!!!!!!!!!!!!!!!!!!!!!!!!!!!rr[UH=3.18?GPY^aaekroke[VNVZ[hhr[VKSZhhhh[ZSZ[hhee[ZXOH@/)&)/=JYfdb`fmtqnkqw!!!!pdWUTTOLJE?9J_qqqqg^P`n!!!!!!!!!!!!!!!!!!!!!!!!!!!!!!!!!!!!!!!!!!!!!!!!!!!!!!!!!!!!!!!!!!!!!!!!!!!!!",
"!!!!!!!!!!!!!!!!!!!!!!!!!!!!!!!!!!!!!!!!!!!!!!!!!!!!!!!!!!!!!!!!!!!!!!!!!!!!!!!!!!!!!!!!!!!!!!!!!!!!!!!!!!!!!!!!!!!!!!!!rrhd`L=11119GW^adiorooie[ZZZV[ekbXKVZhee[[ZUZ[hh[[ZXUOJF2*&*4HT^ddbbfmtqpntx!!!{cI5420/++***9Wwwwwqjfmu{{!!!!!!!!!!!!!!!!!!!!!!!!!!!!!!!!!!!!!!!!!!!!!!!!!!!!!!!!!!!!!!!!!!!!!!!!!!!",
"!!!!!!!!!!!!!!!!!!!!!!!!!!!!!!!!!!!!!!!!!!!!!!!!!!!!!!!!!!!!!!!!!!!!!!!!!!!!!!!!!!!!!!!!!!!!!!!!!!!!!!!!!!!!!!!!!!!!!!!!rrrqs`H81.*1?TYbgkorrokkkh[VKWblbXOV[he[[ZZUZ[he[ZVUSPMJ6+&+=W]`dcbbgmtqqpuy!!{{U5))&&&&&&&&.O!!!!!{{{{{{!!!!!!!!!!!!!!!!!!!!!!!!!!!!!!!!!!!!!!!!!!!!!!!!!!!!!!!!!!!!!!!!!!!!!!!!!!!",
"!!!!!!!!!!!!!!!!!!!!!!!!!!!!!!!!!!!!!!!!!!!!!!!!!!!!!!!!!!!!!!!!!!!!!!!!!!!!!!!!!!!!!!!!!!!!!!!!!!!!!!!!!!!!!!!!!!!!!!!!rrrsscTD8/*/6@LXdioroheehheZZadibXSV[he[[ZZV[ehe[VVSSKF@3+)/?Y_cgdb`flqnjfmu!vpjO6+))&&&&&&&.@`gnvtqqquvv!!!!!!!!!!!!!!!!!!!!!!!!!!!!!!!!!!!!!!!!!!!!!!!!!!!!!!!!!!!!!!!!!!!!!!!!!!!",
"!!!!!!!!!!!!!!!!!!!!!!!!!!!!!!!!!!!!!!!!!!!!!!!!!!!!!!!!!!!!!!!!!!!!!!!!!!!!!!!!!!!!!!!!!!!!!!!!!!!!!!!!!!!!!!!!!!!!!!!!rrrssf`T@3+./3?Pbgoroe[[eheeeegfaXSZ[he[[[ZZ[hh[ZVSSSG?80+)2D^bfjgc`djpjc]fq!pdYH9/*)&&&&&)).6AP`nmjgjnqq!!!!!!!!!!!!!!!!!!!!!!!!!!!!!!!!!!!!!!!!!!!!!!!!!!!!!!!!!!!!!!!!!!!!!!!!!!!",
"!!!!!!!!!!!!!!!!!!!!!!!!!!!!!!!!!!!!!!!!!!!!!!!!!!!!!!!!!!!!!!!!!!!!!!!!!!!!!!!!!!!!!!!!!!!!!!!!!!!!!!!!!!!!!!!!!!!!!!!!rrrsslfcJ6++++5Gaekrh[VZ[ekotoid_XSZ[he[[[[[[hh[ZSSSSD90.+*4F`dinic_dipd]P`n!jYHA=6+)&&&&)*.../=Qgdb`cgmm!!!!!!!!!!!!!!!!!!!!!!!!!!!!!!!!!!!!!!!!!!!!!!!!!!!!!!!!!!!!!!!!!!!!!!!!!!!",
"!!!!!!!!!!!!!!!!!!!!!!!!!!!!!!!!!!!!!!!!!!!!!!!!!!!!!!!!!!!!!!!!!!!!!!!!!!!!!!!!!!!!!!!!!!!!!!!!!!!!!!!!!!!!!!!!!!!!!!!!rronlllfUE62/+4@S_grheZ[[[ehoieb_XSZ[he[[[[[ehh[ZUSKG92+./2=M`cgjfb_djpjd`gq!nbUIA92.*))&*.4555EXjgd`cfjmq!!!!!!!!!!!!!!!!!!!!!!!!!!!!!!!!!!!!!!!!!!!!!!!!!!!!!!!!!!!!!!!!!!!!!!!!!!",
"!!!!!!!!!!!!!!!!!!!!!!!!!!!!!!!!!!!!!!!!!!!!!!!!!!!!!!!!!!!!!!!!!!!!!!!!!!!!!!!!!!!!!!!!!!!!!!!!!!!!!!!!!!!!!!!!!!!!!!!!rroifgllcUI=4.3<GUerohe[ZZ[[eeeb^WSV[he[[[[eehh[ZUMG?4+)+4@IU`bdgdb`djppnnqw!qi`UH>985/+)+2>>??M`midbcdgmt!!!!!!!!!!!!!!!!!!!!!!!!!!!!!!!!!!!!!!!!!!!!!!!!!!!!!!!!!!!!!!!!!!!!!!!!!!",
"!!!!!!!!!!!!!!!!!!!!!!!!!!!!!!!!!!!!!!!!!!!!!!!!!!!!!!!!!!!!!!!!!!!!!!!!!!!!!!!!!!!!!!!!!!!!!!!!!!!!!!!!!!!!!!!!!!!!!!!!rrhe`flslfcL9.26<Karokh[ZVVZ[[[bZUOV[he[[[[hhee[ZVK@8.)&+9TW]`abcba`djquy!!!!wpj_OAFHL=/*/9IIJJXdpjgbcddmu!!!!!!!!!!!!!!!!!!!!!!!!!!!!!!!!!!!!!!!!!!!!!!!!!!!!!!!!!!!!!!!!!!!!!!!!!!",
"!!!!!!!!!!!!!!!!!!!!!!!!!!!!!!!!!!!!!!!!!!!!!!!!!!!!!!!!!!!!!!!!!!!!!!!!!!!!!!!!!!!!!!!!!!!!!!!!!!!!!!!!!!!!!!!!!!!!!!!rrrhecfflfffWH==99BKXZbee[ZZZZZ[aZVSZ[hh[[[ehhee[ZZKB93.*4E]^_`abcbb`gmuwz!!!!wpj`QEHJO=/).4?@ADTduqmjigdjptt!!!!!!!!!!!!!!!!!!!!!!!!!!!!!!!!!!!!!!!!!!!!!!!!!!!!!!!!!!!!!!!!!!!!!!!!",
"!!!!!!!!!!!!!!!!!!!!!!!!!!!!!!!!!!!!!!!!!!!!!!!!!!!!!!!!!!!!!!!!!!!!!!!!!!!!!!!!!!!!!!!!!!!!!!!!!!!!!!!!!!!!!!!!!!!!!!rrrrhiddccfff`]TH>69<?KXeeee[[ZZ[[ZZVZ[hhe[ehhhe[[[ZSF;964@Pcb``bbbbbbgpwyz!!!!wpj`TGJMT>/)+/589=Pdxwutnjdgimm!!!!!!!!!!!!!!!!!!!!!!!!!!!!!!!!!!!!!!!!!!!!!!!!!!!!!!!!!!!!!!!!!!!!!!!!",
"!!!!!!!!!!!!!!!!!!!!!!!!!!!!!!!!!!!!!!!!!!!!!!!!!!!!!!!!!!!!!!!!!!!!!!!!!!!!!!!!!!!!!!!!!!!!!!!!!!!!!!!!!!!!!!!!!!!!!rrrrrhifc`]`fllllWD421/<Pdikoe[VZZ[[ZZ[ehhe[ehhhe[[[[NG;@AEQ_ifc`bbbbbbjqz{{!!!!wpj`UILQU?/)*+/258Kd!!!!umddddd!!!!!!!!!!!!!!!!!!!!!!!!!!!!!!!!!!!!!!!!!!!!!!!!!!!!!!!!!!!!!!!!!!!!!!!!",
"!!!!!!!!!!!!!!!!!!!!!!!!!!!!!!!!!!!!!!!!!!!!!!!!!!!!!!!!!!!!!!!!!!!!!!!!!!!!!!!!!!!!!!!!!!!!!!!!!!!!!!!!!!!!!!!!!!!!h[[ehokgdb_]]]]`cf]MD=508?JUbkhe[[[[[[[ehhhe[ehhh[[[[[VC;DGLU_dcb`bbdcccjqz{{!!!!wpjbUJMTWD4+./0022>Pdmu!umgc`^bi!!!!!!!!!!!!!!!!!!!!!!!!!!!!!!!!!!!!!!!!!!!!!!!!!!!!!!!!!!!!!!!!!!!!!!!",
"!!!!!!!!!!!!!!!!!!!!!!!!!!!!!!!!!!!!!!!!!!!!!!!!!!!!!!!!!!!!!!!!!!!!!!!!!!!!!!!!!!!!!!!!!!!!!!!!!!!!!!!!!!!!!!!!!!!r[ZS^dnidba^YWTLT]``]WH91235DWiihhee[eehhhhhe[ehhh[Z[[[VKBGMUX^````bcdddcjq{{!!!!!wpjbUJPU]H9//220..4>K^m!vpgb]U`j!!!!!!!!!!!!!!!!!!!!!!!!!!!!!!!!!!!!!!!!!!!!!!!!!!!!!!!!!!!!!!!!!!!!!!!",
"!!!!!!!!!!!!!!!!!!!!!!!!!!!!!!!!!!!!!!!!!!!!!!!!!!!!!!!!!!!!!!!!!!!!!!!!!!!!!!!!!!!!!!!!!!!!!!!!!!!!!!!!!!!!!!!!!!rr[SFT`lgda_]YPH@HT]`flU@2/+*5Kgikohhehhoohhhe[ehhh[Z[[[VKBIS^^^]^_`bdgfddjt{{!!!!!wpjbWKQW]L?5544/+*+28Kd!vpjbWL_m!!!!!!!!!!!!!!!!!!!!!!!!!!!!!!!!!!!!!!!!!!!!!!!!!!!!!!!!!!!!!!!!!!!!!!!",
"!!!!!!!!!!!!!!!!!!!!!!!!!!!!!!!!!!!!!!!!!!!!!!!!!!!!!!!!!!!!!!!!!!!!!!!!!!!!!!!!!!!!!!!!!!!!!!!!!!!!!!!!!!!!!!!!!![[ZSJUclfdbba`PD6?HT]fl`O@6/*3@S^eokhehoroohh[[[hhh[ZZ[[SG;DLWXY]^^_bgjjjjpv{!!!!!!wpjbWKTY`J9/++*)&&&)*9Y{wtpbTFXj!!!!!!!!!!!!!!!!!!!!!!!!!!!!!!!!!!!!!!!!!!!!!!!!!!!!!!!!!!!!!!!!!!!!!!!",
"!!!!!!!!!!!!!!!!!!!!!!!!!!!!!!!!!!!!!!!!!!!!!!!!!!!!!!!!!!!!!!!!!!!!!!!!!!!!!!!!!!!!!!!!!!!!!!!!!!!!!!!!!!!!!!!!!!SSSTT]clffcdddP=26?IUcsf`TA4+06?Maoohhoorrohh[Z[hhh[ZZZ[NB5<FMTX^^^^cippqtvy!!!!!!!wpjbWKT]cH5*)&&&&&&&&/OyxwvdP>Tg!!!!!!!!!!!!!!!!!!!!!!!!!!!!!!!!!!!!!!!!!!!!!!!!!!!!!!!!!!!!!!!!!!!!!!!",
"!!!!!!!!!!!!!!!!!!!!!!!!!!!!!!!!!!!!!!!!!!!!!!!!!!!!!!!!!!!!!!!!!!!!!!!!!!!!!!!!!!!!!!!!!!!!!!!!!!!!!!!!!!!!!!!!!!FFJTY`flffdfgjP9+29DTcsnlfO9+./2AXooooorrrooe[Z[hhe[VZZ[N;18?HOU^^]]djtvy{{!!!!!!!!wpjbWKU`fG0)&&$####$$)Exy{!dL9Ld!!!!!!!!!!!!!!!!!!!!!!!!!!!!!!!!!!!!!!!!!!!!!!!!!!!!!!!!!!!!!!!!!!!!!!!",
"!!!!!!!!!!!!!!!!!!!!!!!!!!!!!!!!!!!!!!!!!!!!!!!!!!!!!!!!!!!!!!!!!!!!!!!!!!!!!!!!!!!!!!!!!!!!!!!!!!!!!!!!!!!!!!!!!!SSUY]]]Y]`cfglYF6=EMYcllll]H96409GWZaehhokkhe[Z[hheZXZZ[K;16?IPW^__`bdgjjmmmnqx!!!!wpjbWKTX`I9/)&&&&$&&&+Jwxz!dL9Ld!!!!!!!!!!!!!!!!!!!!!!!!!!!!!!!!!!!!!!!!!!!!!!!!!!!!!!!!!!!!!!!!!!!!!!!",
"!!!!!!!!!!!!!!!!!!!!!!!!!!!!!!!!!!!!!!!!!!!!!!!!!!!!!!!!!!!!!!!!!!!!!!!!!!!!!!!!!!!!!!!!!!!!!!!!!!!!!!!!!!!!!!!!!![[b``UMFOY`flm`TFLT]`fglllc]TD8/49@ISZ[eeeegebbehheZWZZ[K;.5@LTW^_`b``__`````iq!!!!wpjbWKOTULF>/)&&&&&&)2Qvxz!dL9Ld!!!!!!!!!!!!!!!!!!!!!!!!!!!!!!!!!!!!!!!!!!!!!!!!!!!!!!!!!!!!!!!!!!!!!!!",
"!!!!!!!!!!!!!!!!!!!!!!!!!!!!!!!!!!!!!!!!!!!!!!!!!!!!!!!!!!!!!!!!!!!!!!!!!!!!!!!!!!!!!!!!!!!!!!!!!!!!!!!!!!!!!!!!!!rrkf`TD6DO`flngc]`ffffcflllllT=//019GVZZ[[bddddehheZWZZ[K9.5@OTX^`bd_XQQQQQQQ`n!!!!wpjbWKKLLPUY?/)&&&))+=Wuwz!dL9Ld!!!!!!!!!!!!!!!!!!!!!!!!!!!!!!!!!!!!!!!!!!!!!!!!!!!!!!!!!!!!!!!!!!!!!!!",
"!!!!!!!!!!!!!!!!!!!!!!!!!!!!!!!!!!!!!!!!!!!!!!!!!!!!!!!!!!!!!!!!!!!!!!!!!!!!!!!!!!!!!!!!!!!!!!!!!!!!!!!!!!!!!!!!!!rreQ@92/6DO]fslfcffffc`cfffll]J=85259;GSZadiiiihhheZWZZ[C5*3@UWY^YXUY^`XPHHHHYj!!!!wpjd_WY]^]]]F5++**+/4F`wxz!fO9Of!!!!!!!!!!!!!!!!!!!!!!!!!!!!!!!!!!!!!!!!!!!!!!!!!!!!!!!!!!!!!!!!!!!!!!!",
"!!!!!!!!!!!!!!!!!!!!!!!!!!!!!!!!!!!!!!!!!!!!!!!!!!!!!!!!!!!!!!!!!!!!!!!!!!!!!!!!!!!!!!!!!!!!!!!!!!!!!!!!!!!!!!!!!!wwZ<.+*).6DTcssllllff`_``ccflcYTD920/.8FU_fnnkkooheZWZZ[E1)0@Y]]^UMGTbn`PAAAAUi!!!!wpjgdbdgmgc_L>24458=?Tfzz{!gQ=Qg!!!!!!!!!!!!!!!!!!!!!!!!!!!!!!!!!!!!!!!!!!!!!!!!!!!!!!!!!!!!!!!!!!!!!!!",
"!!!!!!!!!!!!!!!!!!!!!!!!!!!!!!!!!!!!!!!!!!!!!!!!!!!!!!!!!!!!!!!!!!!!!!!!!!!!!!!!!!!!!!!!!!!!!!!!!!!!!!!!!!!!!!!!!!yyS1&&&&).6H`ssssslfc`]]^^`cffffT?2.*).=P^gtttqrrre[WZZ[B.&.A``_^PE9Of!fO9999Of!!!!wpjjjjpw!qi`UH?DFILMP`n!!!!gT?Tg!!!!!!!!!!!!!!!!!!!!!!!!!!!!!!!!!!!!!!!!!!!!!!!!!!!!!!!!!!!!!!!!!!!!!!!",
"!!!!!!!!!!!!!!!!!!!!!!!!!!!!!!!!!!!!!!!!!!!!!!!!!!!!!!!!!!!!!!!!!!!!!!!!!!!!!!!!!!!!!!!!!!!!!!!!!!!!!!!!!!!!!!!!!!||Z;-*)&)*+=Usssnlgddcb`_^``ccff]LA92+06>JYgkputrrhaWZZ[E1)2E``_^QG=Qg!cI5555Ic!!!!wpjmppux!qg^PE9=@EFGHYj!!!!gT?Tg!!!!!!!!!!!!!!!!!!!!!!!!!!!!!!!!!!!!!!!!!!!!!!!!!!!!!!!!!!!!!!!!!!!!!!!",
"!!!!!!!!!!!!!!!!!!!!!!!!!!!!!!!!!!!!!!!!!!!!!!!!!!!!!!!!!!!!!!!!!!!!!!!!!!!!!!!!!!!!!!!!!!!!!!!!!!!!!!!!!!!!!!!!!!zzeN;1+))))2Msnllgd[ddgda___``cc`]YJ?5421=IYdnwvurhaUVZZG5+6G`__^TH?Tg!bE1111Eb!!!!wpjpqwxz!pdYL?59=@@@AUg!!!!gQ=Qg!!!!!!!!!!!!!!!!!!!!!!!!!!!!!!!!!!!!!!!!!!!!!!!!!!!!!!!!!!!!!!!!!!!!!!!",
"!!!!!!!!!!!!!!!!!!!!!!!!!!!!!!!!!!!!!!!!!!!!!!!!!!!!!!!!!!!!!!!!!!!!!!!!!!!!!!!!!!!!!!!!!!!!!!!!!!!!!!!!!!!!!!!!!!!!oeV;1))&&+Fokgdb[[eimgd__^]_`cfll`TD6/*0=L^jzywvkaUVZZK<0=J__^^TIAUi!_?....?_!!!!wpjpw!!!!pdWG=258====Pf!!!!gP=Pg!!!!!!!!!!!!!!!!!!!!!!!!!!!!!!!!!!!!!!!!!!!!!!!!!!!!!!!!!!!!!!!!!!!!!!!",
"!!!!!!!!!!!!!!!!!!!!!!!!!!!!!!!!!!!!!!!!!!!!!!!!!!!!!!!!!!!!!!!!!!!!!!!!!!!!!!!!!!!!!!!!!!!!!!!!!!!!!!!!!!!!!!!!!!!!th[C8-*)&/IpoigeaZbgpid__^^__`cflc]TD8/26=J^mnqtibZZZ[SB6DPb``_UMGYj!gT????Tg!!!!xupux!wqmd_UG9149=AGM_m!!!{jYHYj!!!!!!!!!!!!!!!!!!!!!!!!!!!!!!!!!!!!!!!!!!!!!!!!!!!!!!!!!!!!!!!!!!!!!!!",
"!!!!!!!!!!!!!!!!!!!!!!!!!!!!!!!!!!!!!!!!!!!!!!!!!!!!!!!!!!!!!!!!!!!!!!!!!!!!!!!!!!!!!!!!!!!!!!!!!!!!!!!!!!!!!!!!!!~~wrhVC5-*)3OqooheZUagpjd_____^^`cccc`TD852/=L`flqieZ[[[VK?JWcb`_XQK^m!qg____gq!!!!zxwxz!qg^YXUF9/49>IUbjt!!{{ncUcp!!!!!!!!!!!!!!!!!!!!!!!!!!!!!!!!!!!!!!!!!!!!!!!!!!!!!!!!!!!!!!!!!!!!!!!",
"!!!!!!!!!!!!!!!!!!!!!!!!!!!!!!!!!!!!!!!!!!!!!!!!!!!!!!!!!!!!!!!!!!!!!!!!!!!!!!!!!!!!!!!!!!!!!!!!!!!!!!!!!!!!!!!!!!~~||reNB8-*8TsrrreZQ^gqjd^__`_^Y]_`cln`TE8.)0>T_fnie[[ehZSIS^fdb`YUQ`n!!!!!!!!!!!!!!!!!!!m^KOQUE6.39?Qdvxz!{{zqjdmt!!!!!!!!!!!!!!!!!!!!!!!!!!!!!!!!!!!!!!!!!!!!!!!!!!!!!!!!!!!!!!!!!!!!!!!",
"!!!!!!!!!!!!!!!!!!!!!!!!!!!!!!!!!!!!!!!!!!!!!!!!!!!!!!!!!!!!!!!!!!!!!!!!!!!!!!!!!!!!!!!!!!!!!!!!!!!!!!!!!!!!!!!!!!||||yhZNB8/@XtrrreZQ_jupjgdc`_^]]^_cflf]UH>59=AHPX]Z[[[h[ZSX_bdfgc_Xcmvxy{{{!!!!!!!zxwqpmbWKOQUE6.39AKXdmt!{{zvpmqw!!!!!!!!!!!!!!!!!!!!!!!!!!!!!!!!!!!!!!!!!!!!!!!!!!!!!!!!!!!!!!!!!!!!!!!",
"!!!!!!!!!!!!!!!!!!!!!!!!!!!!!!!!!!!!!!!!!!!!!!!!!!!!!!!!!!!!!!!!!!!!!!!!!!!!!!!!!!!!!!!!!!!!!!!!!!!!!!!!!!!!!!!!!!|||||rh[NC9K[rrrre^T`jxvtqlfa`_]]^^`flfff`WOE=48=@ISZ[[h[[[[a_djpjd`djptwzz{{{{{{{{xupjc^WQKOQUD6.39DGKQ`m{{zzxvtwy!!!{{!!!!!!!!!!!!!!!!!!!!!!!!!!!!!!!!!!!!!!!!!!!!!!!!!!!!!!!!!!!!!!!!!!",
"!!!!!!!!!!!!!!!!!!!!!!!!!!!!!!!!!!!!!!!!!!!!!!!!!!!!!!!!!!!!!!!!!!!!!!!!!!!!!!!!!!!!!!!!!!!!!!!!!!!!!!!!!!!!!!!!!!|||z{yrr[NGVerrrre^T`mz{{!qjb`_^^]]`cflssssnT9+./1=HZZ[hhhheaYdnyqmfgijptyzz{{{{{{{vpjbWKKKKOQUD6.49EDA?Tg{{zz{{!!!!!{{{!!!!!!!!!!!!!!!!!!!!!!!!!!!!!!!!!!!!!!!!!!!!!!!!!!!!!!!!!!!!!!!!!!",
"!!!!!!!!!!!!!!!!!!!!!!!!!!!!!!!!!!!!!!!!!!!!!!!!!!!!!!!!!!!!!!!!!!!!!!!!!!!!!!!!!!!!!!!!!!!!!!!!!!!!!!!!!!!!!!!!!!kkovzyvrh[V[hroh[Z]Xcnzz{!vpifdb`_^`dgllllln_J=63/8AOSZZ[hh[ZT]cjjiiiijmpqtuwwxxxyywtpdXKOTWY^`M?49@HFA?Tg{{zzz{{zyxxwwup!!!!!!!!!!!!!!!!!!!!!!!!!!!!!!!!!!!!!!!!!!!!!!!!!!!!!!!!!!!!!!!!!",
"!!!!!!!!!!!!!!!!!!!!!!!!!!!!!!!!!!!!!!!!!!!!!!!!!!!!!!!!!!!!!!!!!!!!!!!!!!!!!!!!!!!!!!!!!!!!!!!!!!!!!!!!!!!!!!!!!!aagpyyyyrogkrrhZKSX_fpyz{!yuqnjfcb_cfjgfffllf`YF8.4=FKSUZeh[WKQW^bfjjjijjjmpqttuvwxwwwgYKTYbdfgYH=@GMGD=Qf{{zzzzzxvutqqpmg!!!!!!!!!!!!!!!!!!!!!!!!!!!!!!!!!!!!!!!!!!!!!!!!!!!!!!!!!!!!!!!!",
"!!!!!!!!!!!!!!!!!!!!!!!!!!!!!!!!!!!!!!!!!!!!!!!!!!!!!!!!!!!!!!!!!!!!!!!!!!!!!!!!!!!!!!!!!!!!!!!!!!!!!!!!!!!!!!!!!!SS_iyzz!z|yyyreS?IWcjsyz{!{{{upjgc`dglgc`cglss}Y=+06>DGLW[hZSFGJLXdnmjigfdgjnppqquvxz!m^KWbjmpqcUFIMTJD=Pf{{zzzyyvtppnmjjgg!!!!!!!!!!!!!!!!!!!!!!!!!!!!!!!!!!!!!!!!!!!!!!!!!!!!!!!!!!!!!!!",
"!!!!!!!!!!!!!!!!!!!!!!!!!!!!!!!!!!!!!!!!!!!!!!!!!!!!!!!!!!!!!!!!!!!!!!!!!!!!!!!!!!!!!!!!!!!!!!!!!!!!!!!!!!!!!!!!!!!SbpzzzzzyyyyreS@HT^dltqqqstvsnlfc_bcdcb`cfglsscL9965=GQWZZSE9>AFMW`cdgdb_^^]_`cfimnppf]PX`gijmcYPTWYUPKYixuqpppqnmjiigggggg!!!!!!!!!!!!!!!!!!!!!!!!!!!!!!!!!!!!!!!!!!!!!!!!!!!!!!!!!!!!!!",
"!!!!!!!!!!!!!!!!!!!!!!!!!!!!!!!!!!!!!!!!!!!!!!!!!!!!!!!!!!!!!!!!!!!!!!!!!!!!!!!!!!!!!!!!!!!!!!!!!!!!!!!!!!!!!!!!!!!!iuzzyyyzzyyreSAGMU_fnmigjmsnnnfc_____`acccjnsl`TD6.8FWUSSE9259?EJQX`d`]UQKGJOTX`dddfb]UY`cddfc`]_`b``^dmtpjfggigdccdddggggg!!!!!!!!!!!!!!!!!!!!!!!!!!!!!!!!!!!!!!!!!!!!!!!!!!!!!!!!!!!!!",
"!!!!!!!!!!!!!!!!!!!!!!!!!!!!!!!!!!!!!!!!!!!!!!!!!!!!!!!!!!!!!!!!!!!!!!!!!!!!!!!!!!!!!!!!!!!!!!!!!!!!!!!!!!!!!!!!!!!!!!!zywxz{yyreSDGJOXbidb^cflllnlc]YWUY_bb``flssnmP6*4E^UMG93+049=?DLXc^UOG>8=?DJTYYYYYYY]_```bcdfgggjjmnppic]_`b``^__`bdggggg!!!!!!!!!!!!!!!!!!!!!!!!!!!!!!!!!!!!!!!!!!!!!!!!!!!!!!!!!!!!",
"!!!!!!!!!!!!!!!!!!!!!!!!!!!!!!!!!!!!!!!!!!!!!!!!!!!!!!!!!!!!!!!!!!!!!!!!!!!!!!!!!!!!!!!!!!!!!!!!!!!!!!!!!!!!!!!!!!!!!!!zywyz{|yyeSAGJOW_ddccfgllnslffc```cffccflllnn]H8ETbXLD4+)*.38=DIPWTLH>60369?EJJJJJJJKMPTTUXY]YYXYYY`bdb^WXY]YXWXYY`dggggg!!!!!!!!!!!!!!!!!!!!!!!!!!!!!!!!!!!!!!!!!!!!!!!!!!!!!!!!!!!!",
"!!!!!!!!!!!!!!!!!!!!!!!!!!!!!!!!!!!!!!!!!!!!!!!!!!!!!!!!!!!!!!!!!!!!!!!!!!!!!!!!!!!!!!!!!!!!!!!!!!!!!!!!!!!!!!!!!!!!!!!zyyz{!z||gSBGJQU]bcfilllnsssnlllffllgfffffllsf`U]bgYK?/)&&).49EGHJHED80+.0369=======>?AEHKLOPMJHGGGLTYXUTTTTTTQTUU^bggggg!!!!!!!!!!!!!!!!!!!!!!!!!!!!!!!!!!!!!!!!!!!!!!!!!!!!!!!!!!!!",
"!!!!!!!!!!!!!!!!!!!!!!!!!!!!!!!!!!!!!!!!!!!!!!!!!!!!!!!!!!!!!!!!!!!!!!!!!!!!!!!!!!!!!!!!!!!!!!!!!!!!!!!!!!!!!!!!!!!!!!!!zz{{!~~|gU@FJQUX]cgpnnlssssssssssnnlljffcflssstspm^K=+&$&&*09FDA?>==2+)*+./133333334569>ADEFA>9998>FMMOOMMLLKKMOQYbggggg!!!!!!!!!!!!!!!!!!!!!!!!!!!!!!!!!!!!!!!!!!!!!!!!!!!!!!!!!!!!",
"!!!!!!!!!!!!!!!!!!!!!!!!!!!!!!!!!!!!!!!!!!!!!!!!!!!!!!!!!!!!!!!!!!!!!!!!!!!!!!!!!!!!!!!!!!!!!!!!!!!!!!!!!!!!!!!!!!!!!!!!!z{!!~||iXGKOUY_cgmqlf`fn}}}}ssssssnllffcflnssspnmcWJ8+))))*.246962/+)&))++......../0023555643100/369====99=>@DGHMTXXXXX!!!!!!!!!!!!!!!!!!!!!!!!!!!!!!!!!!!!!!!!!!!!!!!!!!!!!!!!!!!!",
"!!!!!!!!!!!!!!!!!!!!!!!!!!!!!!!!!!!!!!!!!!!!!!!!!!!!!!!!!!!!!!!!!!!!!!!!!!!!!!!!!!!!!!!!!!!!!!!!!!!!!!!!!!!!!!!!!!!!!!!!!!{!!|||k_MQUW^cimpqg_T`l}}}}ssnssssllfd`fglnnnnnngb]MA8.*&)))+/5/+))&&&)**++++++++++++++...++++**+./////..1489>ADFHHHHH!!!!!!!!!!!!!!!!!!!!!!!!!!!!!!!!!!!!!!!!!!!!!!!!!!!!!!!!!!!!",
"!!!!!!!!!!!!!!!!!!!!!!!!!!!!!!!!!!!!!!!!!!!!!!!!!!!!!!!!!!!!!!!!!!!!!!!!!!!!!!!!!!!!!!!!!!!!!!!!!!!!!!!!!!!!!!!!!!!!!!!!!!!!!z|ykbUWXYbgpqtudUFWg}}}}usmssssnlfc`cfllllmnnmmjgdb>+&&&&)*1+)&&&$&&)))*******))))))))))))))))))))))))*.14699999999!!!!!!!!!!!!!!!!!!!!!!!!!!!!!!!!!!!!!!!!!!!!!!!!!!!!!!!!!!!!",
"!!!!!!!!!!!!!!!!!!!!!!!!!!!!!!!!!!!!!!!!!!!!!!!!!!!!!!!!!!!!!!!!!!!!!!!!!!!!!!!!!!!!!!!!!!!!!!!!!!!!!!!!!!!!!!!!!!!!!!!!!!!!!~||od]]]^aehe[ZNCCNZhou}xussssssnlf`cffffffggijjgfcK9.+++06>5/+))&)*...////////........+++++++........28?AEHHHHE?9!!!!!!!!!!!!!!!!!!!!!!!!!!!!!!!!!!!!!!!!!!!!!!!!!!!!!!!!!!!!!",
"!!!!!!!!!!!!!!!!!!!!!!!!!!!!!!!!!!!!!!!!!!!!!!!!!!!!!!!!!!!!!!!!!!!!!!!!!!!!!!!!!!!!!!!!!!!!!!!!!!!!!!!!!!!!!!!!!!!!!!!!!!!!!~~zqg____a[[VN::::CNV[o{{xxxusssslf``cdc`_`bcdgjigf]QGFDDGKQG?951/148999999999999866655555555555666689?HTUWXXXXTK!!!!!!!!!!!!!!!!!!!!!!!!!!!!!!!!!!!!!!!!!!!!!!!!!!!!!!!!!!!!!!",
"!!!!!!!!!!!!!!!!!!!!!!!!!!!!!!!!!!!!!!!!!!!!!!!!!!!!!!!!!!!!!!!!!!!!!!!!!!!!!!!!!!!!!!!!!!!!!!!!!!!!!!!!!!!!!!!!!!!!!!!!!!!!!!!!tibbbb[ZV::,7:::::Vh!!!!}}sssslf```b_YUXY^bfjiigjmpmjiggf`XQLIFGGGGGGHHIHHGGGGGGFEDDDDDDDDDEDEDDFGHT_gggggggg!!!!!!!!!!!!!!!!!!!!!!!!!!!!!!!!!!!!!!!!!!!!!!!!!!!!!!!!!!!!!!!",
"!!!!!!!!!!!!!!!!!!!!!!!!!!!!!!!!!!!!!!!!!!!!!!!!!!!!!!!!!!!!!!!!!!!!!!!!!!!!!!!!!!!!!!!!!!!!!!!!!!!!!!!!!!!!!!!!!!!!!!!!!!!!!!!!vogee[VN:7,',,,,77CZorw!xusssslfc_]WWWWXY]]]^_`bfjpnmjjigd`YWTOPQQTTTTUUUUTTTTTTTQPPPOOOOOOOOPPPTUW`fmid`dinn!!!!!!!!!!!!!!!!!!!!!!!!!!!!!!!!!!!!!!!!!!!!!!!!!!!!!!!!!!!!!!!",
"!!!!!!!!!!!!!!!!!!!!!!!!!!!!!!!!!!!!!!!!!!!!!!!!!!!!!!!!!!!!!!!!!!!!!!!!!!!!!!!!!!!!!!!!!!!!!!!!!!!!!!!!!!!!!!!!!!!!!!!!!!!!!!!!wqohe[N:7,'''''',,:N[hr!xsnsssnlf^ULPTWXYYUQLQUXbipppnmjjgdc`^YY]^^__``bb````_`````__^^^^^^^^^_`bbdimqi`Ubjvv!!!!!!!!!!!!!!!!!!!!!!!!!!!!!!!!!!!!!!!!!!!!!!!!!!!!!!!!!!!!!!!",
"!!!!!!!!!!!!!!!!!!!!!!!!!!!!!!!!!!!!!!!!!!!!!!!!!!!!!!!!!!!!!!!!!!!!!!!!!!!!!!!!!!!!!!!!!!!!!!!!!!!!!!!!!!!!!!!!!!!!!!!!!!!!!!!!zwtoh[:7,''%%%$%',,:N[o!wqlnssslf]ODIQXXXXOG?EJP]gqqpppmmmjjifdddfgggijmmjjjigijmmjjjigggggggijjmpqtvxj]L_m!!!!!!!!!!!!!!!!!!!!!!!!!!!!!!!!!!!!!!!!!!!!!!!!!!!!!!!!!!!!!!!!!",
"!!!!!!!!!!!!!!!!!!!!!!!!!!!!!!!!!!!!!!!!!!!!!!!!!!!!!!!!!!!!!!!!!!!!!!!!!!!!!!!!!!!!!!!!!!!!!!!!!!!!!!!!!!!!!!!!!!!!!!!!!!!!!!!!uoh[N:7,'''''''(,7:CV[htnjfjlnlc`UJDGKPOLKF?9=?@Qbqqqppnmmjgdb``bbbcdgjnmjgggfimnmjjiigijmifdgjmnpqtvxj]L_m!!!!!!!!!!!!!!!!!!!!!!!!!!!!!!!!!!!!!!!!!!!!!!!!!!!!!!!!!!!!!!!!!",
"!!!!!!!!!!!!!!!!!!!!!!!!!!!!!!!!!!!!!!!!!!!!!!!!!!!!!!!!!!!!!!!!!!!!!!!!!!!!!!!!!!!!!!!!!!!!!!!!!!!!!!!!!!!!!!!!!!!!!!!!!!!!!!!!h[[N:7,'%''(,,,7:CNV[ehigdbdgld^UMHDEGHFD@=96655G^qqqqpppjgdb_Y]]^_``djqmiddddgmqnmiiggjmpjd`dinppptvxj]L_m!!!!!!!!!!!!!!!!!!!!!!!!!!!!!!!!!!!!!!!!!!!!!!!!!!!!!!!!!!!!!!!!!",
"!!!!!!!!!!!!!!!!!!!!!!!!!!!!!!!!!!!!!!!!!!!!!!!!!!!!!!!!!!!!!!!!!!!!!!!!!!!!!!!!!!!!!!!!!!!!!!!!!!!!!!!!!!!!!!!!!!!!!!!!!!!!!!!!!NN:7,''%'',7:NVZ[[hhheba_]`dg`UJGEAAAA>985431/.=Xqqqqqppjgb_YUUWXYYYcjtmgbbbbgmtpmggggmptjcYbippppqvxj]L_m!!!!!!!!!!!!!!!!!!!!!!!!!!!!!!!!!!!!!!!!!!!!!!!!!!!!!!!!!!!!!!!!!",
"!!!!!!!!!!!!!!!!!!!!!!!!!!!!!!!!!!!!!!!!!!!!!!!!!!!!!!!!!!!!!!!!!!!!!!!!!!!!!!!!!!!!!!!!!!!!!!!!!!!!!!!!!!!!!!!!!!!!!!!!!!!!!!!!!CC:,'''%',7:CVVZ[[[[[a^abcddg`WOGA=AIQD91123.+)6Ttqqqpnmid`YTLLLLOTU_gpg`UWYYcjtmd]`bcgmqi`U`gqppmquxj]L_m!!!!!!!!!!!!!!!!!!!!!!!!!!!!!!!!!!!!!!!!!!!!!!!!!!!!!!!!!!!!!!!!!",
"!!!!!!!!!!!!!!!!!!!!!!!!!!!!!!!!!!!!!!!!!!!!!!!!!!!!!!!!!!!!!!!!!!!!!!!!!!!!!!!!!!!!!!!!!!!!!!!!!!!!!!!!!!!!!!!!!!!!!!!!!!!!!!!!!::,,'''',,:CN[[ZZZZZYXX_diggd`YTH?6DQbI8+.03+)&1Mttqqpmjfb`UMGFEDGJMXcmbUILOT`iug]OTY_djqg]P^gtpmjptxj]L_m!!!!!!!!!!!!!!!!!!!!!!!!!!!!!!!!!!!!!!!!!!!!!!!!!!!!!!!!!!!!!!!!!",
"!!!!!!!!!!!!!!!!!!!!!!!!!!!!!!!!!!!!!!!!!!!!!!!!!!!!!!!!!!!!!!!!!!!!!!!!!!!!!!!!!!!!!!!!!!!!!!!!!!!!!!!!!!!!!!!!!!!!!!!!!!!!!!!!!::,''''',7CN[h[ZXWUTTTT^gpmgd`^XH=3DYpQ5)+.3+)&.Iuttqnjgd`^TH?>=9?DHT_gYK?DGJYgudTDIPXbgpdXJYgupmgmqxj]L_m!!!!!!!!!!!!!!!!!!!!!!!!!!!!!!!!!!!!!!!!!!!!!!!!!!!!!!!!!!!!!!!!!",
"!!!!!!!!!!!!!!!!!!!!!!!!!!!!!!!!!!!!!!!!!!!!!!!!!!!!!!!!!!!!!!!!!!!!!!!!!!!!!!!!!!!!!!!!!!!!!!!!!!!!!!!!!!!!!!!!!!!!!!!!!!!!!!!!!,,,'''',7:NV[h[ZWUUTTUWajtpmjd`YPG>DIQ@4+.03+)&/Luuttnjfc`]TJDDA@FIOX`gYI=?DGUdt`J9DLX^bd]QGUcpmjgmqxj]L_m!!!!!!!!!!!!!!!!!!!!!!!!!!!!!!!!!!!!!!!!!!!!!!!!!!!!!!!!!!!!!!!!!",
"!!!!!!!!!!!!!!!!!!!!!!!!!!!!!!!!!!!!!!!!!!!!!!!!!!!!!!!!!!!!!!!!!!!!!!!!!!!!!!!!!!!!!!!!!!!!!!!!!!!!!!!!!!!!!!!!!!!!!!!!!!!!!!!!!,,,''',,:CVZ[h[ZUUUTUWYdmwvtqid^XTME=5431123.*)3Puuutpjdb_YTMHGGGKQW^cgXG9=?DTcqYD3=HXXXXQJFT`mjigmqxj]L_m!!!!!!!!!!!!!!!!!!!!!!!!!!!!!!!!!!!!!!!!!!!!!!!!!!!!!!!!!!!!!!!!!",
"!!!!!!!!!!!!!!!!!!!!!!!!!!!!!!!!!!!!!!!!!!!!!!!!!!!!!!!!!!!!!!!!!!!!!!!!!!!!!!!!!!!!!!!!!!!!!!!!!!!!!!!!!!!!!!!!!!!!!!!!!!!!!!!!!,,,''',::N[[[eaXTTTUWY^fpzzywnf_```F3)+18543.+)6Tuuuupid`^XUPLLMMTX_bdgWG99=?O`pU=.6FXTOJGFDO]ggggmqxj]L_m!!!!!!!!!!!!!!!!!!!!!!!!!!!!!!!!!!!!!!!!!!!!!!!!!!!!!!!!!!!!!!!!!",
"!!!!!!!!!!!!!!!!!!!!!!!!!!!!!!!!!!!!!!!!!!!!!!!!!!!!!!!!!!!!!!!!!!!!!!!!!!!!!!!!!!!!!!!!!!!!!!!!!!!!!!!!!!!!!!!!!!!!!!!!!!!!!!!!!,,,''',::N[[[[ZXTUWYYYYcjtuvwqkfc`]J<3468643.+)6Tuuttnjdb`]YWUWXY_bdgij`PDGHKU`gT@3?ObYPGGHIT`gijjnqugYL_m!!!!!!!!!!!!!!!!!!!!!!!!!!!!!!!!!!!!!!!!!!!!!!!!!!!!!!!!!!!!!!!!!",
"!!!!!!!!!!!!!!!!!!!!!!!!!!!!!!!!!!!!!!!!!!!!!!!!!!!!!!!!!!!!!!!!!!!!!!!!!!!!!!!!!!!!!!!!!!!!!!!!!!!!!!!!!!!!!!!!!!!!!!!!!!!!!!!!!77,,',,7:Nh[[ZXWUX]_^YY`fkptyuqog_UPKGA=8643.+)6Tutqqnjgdb____`bcfjmmmmd]TUXY^`bTE9HYm`PDGLQYbijmmppqfYL_m!!!!!!!!!!!!!!!!!!!!!!!!!!!!!!!!!!!!!!!!!!!!!!!!!!!!!!!!!!!!!!!!!",
"!!!!!!!!!!!!!!!!!!!!!!!!!!!!!!!!!!!!!!!!!!!!!!!!!!!!!!!!!!!!!!!!!!!!!!!!!!!!!!!!!!!!!!!!!!!!!!!!!!!!!!!!!!!!!!!!!!!!!!!!!!!!!!!!!::7,,,,7:Vh[ZWWWWY`b`YW]bdiqyyyyi_PU^bQE8643.+)6Tutqpmjgfcbcdfgjmpqutqpjfbcfgc_XPIDTdvdQ?GPY`dijnppppdYL_m!!!!!!!!!!!!!!!!!!!!!!!!!!!!!!!!!!!!!!!!!!!!!!!!!!!!!!!!!!!!!!!!!",
"!!!!!!!!!!!!!!!!!!!!!!!!!!!!!!!!!!!!!!!!!!!!!!!!!!!!!!!!!!!!!!!!!!!!!!!!!!!!!!!!!!!!!!!!!!!!!!!!!!!!!!!!!!!!!!!!!!!!!!!!!!!!!!!!,,77,,,7::N[ZZX]^````YUOUX_diorryoe_abdUG9864/+)8Uwuqppnmjjgjjmnpqquwvutpmijmnjgd`YUbmwj`TY`dgjnppppppdYL_m!!!!!!!!!!!!!!!!!!!!!!!!!!!!!!!!!!!!!!!!!!!!!!!!!!!!!!!!!!!!!!!!!",
"!!!!!!!!!!!!!!!!!!!!!!!!!!!!!!!!!!!!!!!!!!!!!!!!!!!!!!!!!!!!!!!!!!!!!!!!!!!!!!!!!!!!!!!!!!!!!!!!!!!!!!!!!!!!!!!!!!!!!!!!!!!!!!!((,,77::::CNZZ]]`cfcb_WOHLQW^bgkrrrokiheXI;9850+)8XzwqppqqqpppqqtuuvwxxwwutqqtutqpmjintyqmgjmpqqtqqppppdYL_m!!!!!!!!!!!!!!!!!!!!!!!!!!!!!!!!!!!!!!!!!!!!!!!!!!!!!!!!!!!!!!!!!",
"!!!!!!!!!!!!!!!!!!!!!!!!!!!!!!!!!!!!!!!!!!!!!!!!!!!!!!!!!!!!!!!!!!!!!!!!!!!!!!!!!!!!!!!!!!!!!!!!!!!!!!!!!!!!!!!!!!!!!!!!!!!!!!(((((7:::::NNSWY_cgmgb]TIAFJOU]aeorr||rohZK?;981+)9Y!xtpquxxxxxyyyyyyzzzzzzzzz{{{!!!!!{{z{{!!{{zzyvtppppdYL_m!!!!!!!!!!!!!!!!!!!!!!!!!!!!!!!!!!!!!!!!!!!!!!!!!!!!!!!!!!!!!!!!!",
"!!!!!!!!!!!!!!!!!!!!!!!!!!!!!!!!!!!!!!!!!!!!!!!!!!!!!!!!!!!!!!!!!!!!!!!!!!!!!!!!!!!!!!!!!!!!!!!!!!!!!!!!!!!!!!!!!!!!!!!!!!!!!%''(,-7:NC::CKUX_cgjnf_ULG?AFGKSUZ[hhorroh[VNC;530-?^yvtpqtuuvvwxyyzzzzzzzzzz{{{{!!!!!!!{{{!!!!{{zyvqmmmmcXL_m!!!!!!!!!!!!!!!!!!!!!!!!!!!!!!!!!!!!!!!!!!!!!!!!!!!!!!!!!!!!!!!!!",
"!!!!!!!!!!!!!!!!!!!!!!!!!!!!!!!!!!!!!!!!!!!!!!!!!!!!!!!!!!!!!!!!!!!!!!!!!!!!!!!!!!!!!!!!!!!!!!!!!!!!!!!!!!!!!!!!!!!!!!!!!%%%$%%'(,7:CNC:8BKU]bgjmpdYMHD>?@AEHKSNVZ[hhhhhe[N;4444GZutqpqqqqqquxzzzzzz|||zzz{{!!!!!!!!!!{!!!!!!{zzupjjjjbWL_m!!!!!!!!!!!!!!!!!!!!!!!!!!!!!!!!!!!!!!!!!!!!!!!!!!!!!!!!!!!!!!!!!",
"!!!!!!!!!!!!!!!!!!!!!!!!!!!!!!!!!!!!!!!!!!!!!!!!!!!!!!!!!!!!!!!!!!!!!!!!!!!!!!!!!!!!!!!!!!!!!!!!!!!!!!!!!!!!!!!!!!!!!!!!%%%%$%%%(,CCNVC;29GU_dmnpqdUGD?====<@BCCCNV[hhhrrrVC17;;N[rqqppppppptwzz{{z||||||~!!!!!!!!!!!!!!!!!!!{{ztngggg`UL_m!!!!!!!!!!!!!!!!!!!!!!!!!!!!!!!!!!!!!!!!!!!!!!!!!!!!!!!!!!!!!!!!!",
"!!!!!!!!!!!!!!!!!!!!!!!!!!!!!!!!!!!!!!!!!!!!!!!!!!!!!!!!!!!!!!!!!!!!!!!!!!!!!!!!!!!!!!!!!!!!!!!!!!!!!!!!!!!!!!!!!!!!!!!$$%$$$%%',7:CNVC;4>JY`fjjig]L@?=99989<;;BCCNVVVZ[[[VC;CCNZerrtttqqqqtvyzzzz|||||||~!!!!!!!!!!!!!!!!!{{{zzvqnmmmcXM_m!{zxxxxz{!!!!!!!!!!!!!!!!!!!!!!!!!!!!!!!!!!!!!!!!!!!!!!!!!!!!!!!!",
"!!!!!!!!!!!!!!!!!!!!!!!!!!!!!!!!!!!!!!!!!!!!!!!!!!!!!!!!!!!!!!!!!!!!!!!!!!!!!!!!!!!!!!!!!!!!!!!!!!!!!!!!!!!!!!!!!!!!!!#$$$$$$%',,7;CCNG>6AO_bfjfb_QF=9998666689;BBCCCCCNNVVNNVZ[hhrruyvvrrrvyyzz||||||~~~!!!!!!!!!!!!!!!!!{zyzz{yvtttqg]M_m!zwuuuuwz!!!!!!!!!!!!!!!!!!!!!!!!!!!!!!!!!!!!!!!!!!!!!!!!!!!!!!!!",
"!!!!!!!!!!!!!!!!!!!!!!!!!!!!!!!!!!!!!!!!!!!!!!!!!!!!!!!!!!!!!!!!!!!!!!!!!!!!!!!!!!!!!!!!!!!!!!!!!!!!!!!!!!!!!!!!!!!!!###$$$$$%'777;BGMG?9FTbdgib]TH>666654433359;;;;;;;;CCNZhhrrrrrrw|||r||||||||||~!!!!!!!!!!!!!!!!!!!!!!{yxyz{{zzzyyj_O_m!xuppppux!!!!!!!!!!!!!!!!!!!!!!!!!!!!!!!!!!!!!!!!!!!!!!!!!!!!!!!!",
"!!!!!!!!!!!!!!!!!!!!!!!!!!!!!!!!!!!!!!!!!!!!!!!!!!!!!!!!!!!!!!!!!!!!!!!!!!!!!!!!!!!!!!!!!!!!!!!!!!!!!!!!!!!!!!!!!!!!######$$$%',7:CKKMG@=GTbcdg`WOF=54311001113589;;;;9;;BCNNVZ[[[[houvy||||||||zzz~!!!!!!!!!!!!!!!!!!!zwvvwywvuuttrrrkd_fnwvtqqtuwz!!!!!!!!!!!!!!!!!!!!!!!!!!!!!!!!!!!!!!!!!!!!!!!!!!!!!!!!",
"!!!!!!!!!!!!!!!!!!!!!!!!!!!!!!!!!!!!!!!!!!!!!!!!!!!!!!!!!!!!!!!!!!!!!!!!!!!!!!!!!!!!!!!!!!!!!!!!!!!!!!!!!!!!!!!!!!!%$#######$%',7CSSPMGA=GT`bcd^TJD=52/...../012358;998899;;BCCNNNSZeoqw||||||~zzzz{!!!!!!!!!!!!!!!!!!!wtorryrrooohhhhkkmnpqqqtuwxz{!!!!!!!!!!!!!!!!!!!!!!!!!!!!!!!!!!!!!!!!!!!!!!!!!!!!!!!!",
"!!!!!!!!!!!!!!!!!!!!!!!!!!!!!!!!!!!!!!!!!!!!!!!!!!!!!!!!!!!!!!!!!!!!!!!!!!!!!!!!!!!!!!!!!!!!!!!!!!!!!!!!!!!!!!!!!!%%$#######$%',:N`YTMHD>GT``bcYPG?950+**+++.////25988854334589;;BES^gnv!!!!!!!{zyz{!!!!!!!!!!!!!!!!!!!vohor|rrhhh[[[[ou!wqmpquwz!!!!!!!!!!!!!!!!!!!!!!!!!!!!!!!!!!!!!!!!!!!!!!!!!!!!!!!!!!!",
"!!!!!!!!!!!!!!!!!!!!!!!!!!!!!!!!!!!!!!!!!!!!!!!!!!!!!!!!!!!!!!!!!!!!!!!!!!!!!!!!!!!!!!!!!!!!!!!!!!!!!!!!!!!!!!!!!%%$$#######$%',:N`YTMHD?HU````XQIA940+***+++..../14455443344588;;@HS^djquwyyyyyyyz{!{{z{{!!!!!!!!!!!!!wrorrrrrhhhhhhhrv!voikqvwxyvqnnnnqx!!!!!!!!!!!!!!!!!!!!!!!!!!!!!!!!!!!!!!!!!!!!!!!!!!",
"!!!!!!!!!!!!!!!!!!!!!!!!!!!!!!!!!!!!!!!!!!!!!!!!!!!!!!!!!!!!!!!!!!!!!!!!!!!!!!!!!!!!!!!!!!!!!!!!!!!!!!!!!!!!!!!!%%$$#######$$%',7C`YTLHD?IUb``_XQKD940+***++**++...013543113334469<BGOXbjmquvvwwxyz{!{zyz{!!!!!!!!!!!!!yrrrrrrrrhhhhhhrw!tkeipwwvvng````iq!!!!!!!!!!!!!!!!!!!!!!!!!!!!!!!!!!!!!!!!!!!!!!!!!!",
"!!!!!!!!!!!!!!!!!!!!!!!!!!!!!!!!!!!!!!!!!!!!!!!!!!!!!!!!!!!!!!!!!!!!!!!!!!!!!!!!!!!!!!!!!!!!!!!!!!!!!!!!!!!!!!!%%%$$#######$$%',7C`YTLHD?JUb`^YWTOE94/+******)*++++..14322211111358=?AKWbfmqqqtvwyz{!zywyz!!!!!!!!!!!!!|||rrrrrrrhhhhrry!tiagpxvuqg^QQQQ`n!!!!!!!!!!!!!!!!!!!!!!!!!!!!!!!!!!!!!!!!!!!!!!!!!!",
"!!!!!!!!!!!!!!!!!!!!!!!!!!!!!!!!!!!!!!!!!!!!!!!!!!!!!!!!!!!!!!!!!!!!!!!!!!!!!!!!!!!!!!!!!!!!!!!!!!!!!!!!!!!!!!%%%$$#######$$$%',7C]UQKGD?JUbb`_XTOD93/+****))))**+++..112221111024589=DJTY`dfgjmpqtuwvuuvxzyyyz{!!!!!!!|||rrrrrrrrrrrrvy!tkedgjgdb^WQQQQ]dnqx!!!!!!!!!!!!!!!!!!!!!!!!!!!!!!!!!!!!!!!!!!!!!!!",
"!!!!!!!!!!!!!!!!!!!!!!!!!!!!!!!!!!!!!!!!!!!!!!!!!!!!!!!!!!!!!!!!!!!!!!!!!!!!!!!!!!!!!!!!!!!!!!!!!!!!!!!(((((((%%%$$#######$$$%',7CWTOJGD?JUbbb`YUOD93/+***))))))***++../132110001234569@GKQUY`bdgjmnpqqqtvwwvvxz!!!!!!!~||yrrrv|ywvwyyy|!ukgd`]XTPPQQQQQU]`iq!!!!!!!!!!!!!!!!!!!!!!!!!!!!!!!!!!!!!!!!!!!!!!!",
"!!!!!!!!!!!!!!!!!!!!!!!!!!!!!!!!!!!!!!!!!!!!!!!!!!!!!!!!!!!!!!!!!!!!!!!!!!!!!!!!!!!!!!!!!!!!!!!!!!!!!!((((((((%%$$########$$$%',7CTOLIGD?JUbbcc^UOD92/+**))))&))))**+++.0321000000111149=?DGLTY^`cfgjmnpqquttqvy!!!!!!!!!!wrorw!!!!!!!!!!vpibWLHD?FJQQQQQQQ`n!!!!!!!!!!!!!!!!!!!!!!!!!!!!!!!!!!!!!!!!!!!!!!!",
"!!!!!!!!!!!!!!!!!!!!!!!!!!!!!!!!!!!!!!!!!!!!!!!!!!!!!!!!!!!!!!!!!!!!!!!!!!!!!!!!!!!!!!!!!!!!!!!!!!!!!(''((((''%%$$$######$$$$%',7CTOKIGD@LYfddd^UMD92/+***)))))))))**++..00010/./0001134699=DHOTUYY]_`cfggijjjmpqtuvxz!!!!yvrvy!!!!!!!{zypg`WLEA?=@FIKOQQQQ]dnpt!!!!!!!!!!!!!!!!!!!!!!!!!!!!!!!!!!!!!!!!!!!!",
"!!!!!!!!!!!!!!!!!!!!!!!!!!!!!!!!!!!!!!!!!!!!!!!!!!!!!!!!!!!!!!!!!!!!!!!!!!!!!!!!!!!!!!!!!!!!!!!!!!!!(('''(,''%%$$$$$$$$$$$$$$%',7CTOKHGEDO_jggd_UMD91/++***)))))))))**+++../10...//0011123459?EHKOOOMTW]^^_`bcdfgjmptx{!!!zywyz!!!!!!!zxujbULE===9=?DGKQQQQU]`gp!!!!!!!!!!!!!!!!!!!!!!!!!!!!!!!!!!!!!!!!!!!!",
"!!!!!!!!!!!!!!!!!!!!!!!!!!!!!!!!!!!!!!!!!!!!!!!!!!!!!!!!!!!!!!!!!!!!!!!!!!!!!!!!!!!!!!!!!!!!!!!!!!!((('%'','%$$$$$$$$$$$$$$$$%',7CTOKHGFDQbnjif_ULA91/+++***)))))))))****++/1/.+..//00//..//36=?DFDD@FKQQQQUX]^^_bfjpv{{!!!!!!!!!!!!!!yuqdXJD=668899=DIQQQQQQQ`n!!!!!!!!!!!!!!!!!!!!!!!!!!!!!!!!!!!!!!!!!!!!",
"!!!!!!!!!!!!!!!!!!!!!!!!!!!!!!!!!!!!!!!!!!!!!!!!!!!!!!!!!!!!!!!!!!!!!!!!!!!!!!!!!!!!!!!!!!!!!!!!!!%''''(((,'%$$$$$$$$$$$$$$$$%',7CWQKFFGGUcpmjg`UK@81000..++*)))))))******++..++../0000//...02469==99>AFFGGJPUWXX^`dintvwyz{!!!!!!{zyxqmg]PE?968999==DIQQQQQQQ]dnqx!!!!!!!!!!!!!!!!!!!!!!!!!!!!!!!!!!!!!!!!!",
"!!!!!!!!!!!!!!!!!!!!!!!!!!!!!!!!!!!!!!!!!!!!!!!!!!!!!!!!!!!!!!!!!!!!!!!!!!!!!!!!!!!!!!!!!!!!!!!!!%%%$%(7,,('%$$$$$$$$$$$$$$$$%',7C]TJDFGHWdqpmjbUK?6035641.+*)))***********+++++..000100/..+...02445589====DHPQTTWY^bgjpqwxz{!!!!{{xvqjd]QG?=96999==>DJQQQQQQQU]`iq!!!!!!!!!!!!!!!!!!!!!!!!!!!!!!!!!!!!!!!!!",
"!!!!!!!!!!!!!!!!!!!!!!!!!!!!!!!!!!!!!!!!!!!!!!!!!!!!!!!!!!!!!!!!!!!!!!!!!!!!!!!!!!!!!!!!!!!!!!!!%%%$$%(C7,('%$$$$$%%%$$$$$$$%%',7C`UJ@EGKYguqpmbWJ?6049A951.*))**++++****))))**++.1111100..+++*+../013344559DJKLMPTUY`dintvy{{!!{{zvqndYPG@998699==>?EJQQQQQQQQQQ`n!!!!!!!!!!!!!!!!!!!!!!!!!!!!!!!!!!!!!!!!!",
"!!!!!!!!!!!!!!!!!!!!!!!!!!!!!!!!!!!!!!!!!!!!!!!!!!!!!!!!!!!!!!!!!!!!!!!!!!!!!!!!!!!!!!!!!!!!!!!!%%$$$%(B7,'%%$$$$$%%%$$$$$$$$%',7C`UJ@EHKYgtqnmbUJ@939@J?6/+*))**+++*****))))***++./011110...+++...//0133449=DFILMPQW_cipvxy{{{{ywupjg`ULF?9999=>?@ADGKPOOMOPQQQQ]dnn!!!!!!!!!!!!!!!!!!!!!!!!!!!!!!!!!!!!!!!",
"!!!!!!!!!!!!!!!!!!!!!!!!!!!!!!!!!!!!!!!!!!!!!!!!!!!!!!!!!!!!!!!!!!!!!!!!!!!!!!!!!!!!!!!!!!!!!!!!%%$$$%(7,('%%$$$$$%%%$$$$$$$$%',7C`UJ@EHLYfqpmjbUID=6?HTD6.+*))*********)))))))**++.03322100/........./1133599?FKKLLU]cipxyz{{{{wtpjd`XQIE?9===?AEFGGILOMKJLOQQQQU]``!!!!!!!!!!!!!!!!!!!!!!!!!!!!!!!!!!!!!!!",
"!!!!!!!!!!!!!!!!!!!!!!!!!!!!!!!!!!!!!!!!!!!!!!!!!!!!!!!!!!!!!!!!!!!!!!!!!!!!!!!!!!!!!!!!!!!!!!!!$$$$%'(7,('%$$$$$$%%%%$$$$$$$%',7C`UJ@EHLYfqpmj`UIE?=FQ_H6.+*))********))))))))))**+/3333333110/...++../0133459DJIIHQYbjqzz{{{zzupjd`XTKGD>9=?@DFHIJKLLMKIGJMQQQQQQQQ!!!!!!!!!!!!!!!!!!!!!!!!!!!!!!!!!!!!!!!",
"!!!!!!!!!!!!!!!!!!!!!!!!!!!!!!!!!!!!!!!!!!!!!!!!!!!!!!!!!!!!!!!!!!!!!!!!!!!!!!!!!!!!!!!!!!!!!!!!$$%%%(,7,('%%$$$$$%%%%%$$$$$%%',7C`UJAEGKWcnjif^TIGD?GOWE6.+*))**********))))))))**+.11333333211110/./001123459=@ADEJPWbiqqtuuvwqjfb]UQLHEA>?ADFHJKLLLLKIHGKTYUTQQQQQ!!!!!!!!!!!!!!!!!!!!!!!!!!!!!!!!!!!!!!!",
"!!!!!!!!!!!!!!!!!!!!!!!!!!!!!!!!!!!!!!!!!!!!!!!!!!!!!!!!!!!!!!!!!!!!!!!!!!!!!!!!!!!!!!!!!!!!!!!!$$%'((-7,('%%$$$$$%%%%%%$$$%%%',7C`UJAEGIUbjgdcYQHGGFHKOA6.+*))))***++++*)))))))))*+./013333333444432211111345689=>AEHKUbjjmmpqtmgb^XTQMKGE@DEGHJLMMOLKJHGEMW`]UQQQQQ!!!!!!!!!!!!!!!!!!!!!!!!!!!!!!!!!!!!!!!",
"!!!!!!!!!!!!!!!!!!!!!!!!!!!!!!!!!!!!!!!!!!!!!!!!!!!!!!!!!!!!!!!!!!!!!!!!!!!!!!!!!!!!!!!!!!!!!!!!$$%'--77,('%%$$$$$%'''%%%$$%%%'',C`UKDEGHT_gdb`WPHIIJIIH>5/+*)))))**++.+*))))))))))*+./1333344566986654321024543259>?@AKXcdfgjmpic]XUQPOMJGEGGIKLOOPPMJHGFDO]g`YQQQQQ!!!!!!!!!!!!!!!!!!!!!!!!!!!!!!!!!!!!!!!",
"!!!!!!!!!!!!!!!!!!!!!!!!!!!!!!!!!!!!!!!!!!!!!!!!!!!!!!!!!!!!!!!!!!!!!!!!!!!!!!!!!!!!!!!!!!!!!!!$$$%'---7,('%%$$$$$%%''''%%%%%'',7C]TMGHJLU`gdb`WPHJKMKJHD=91+*))))***++++**))))))))*++./11233445686665544334555445699>@HPY^`cddfb]UUTQPOOKIGHIKLMOOOMKHFED@HQ]XUTW]`dj!!!!!!!!!!!!!!!!!!!!!!!!!!!!!!!!!!!!!!",
"!!!!!!!!!!!!!!!!!!!!!!!!!!!!!!!!!!!!!!!!!!!!!!!!!!!!!!!!!!!!!!!!!!!!!!!!!!!!!!!!!!!!!!!!!!!!!!%%$$%'(--7,(''%$$$$$%%''(''%%''',,7CWTOKMOPX`gdb_WOHKMQMKHGGE90**)))))**++++**)))))))**++.00123345566666655555565555446=?EIMTY`_^^XUPPPPPPOLJHIKLMOPOMLIGDA?>DHMPQT^dnqv!!!!!!!!!!!!!!!!!!!!!!!!!!!!!!!!!!!!!!",
"!!!!!!!!!!!!!!!!!!!!!!!!!!!!!!!!!!!!!!!!!!!!!!!!!!!!!!!!!!!!!!!!!!!!!!!!!!!!!!!!!!!!!!!!!!!!!%%%$$%'((-7,(''%%$$$$%%'((((''''',,:CQQQQTTU]bgdb_WOHLPUPLHLPUA4+**)))))**++.+*))))))****+../0123445566888889986666852049?@DEKTYWUQOLJLMPPPPMLJKMOOPPMLJGD@?==>?DHMUbp!!!!!!!!!!!!!!!!!!!!!!!!!!!!!!!!!!!!!!!!!",
"!!!!!!!!!!!!!!!!!!!!!!!!!!!!!!!!!!!!!!!!!!!!!!!!!!!!!!!!!!!!!!!!!!!!!!!!!!!!!!!!!!!!!!!!!!!!!$$$$$%'(--7,,,'%%%$$$%%'(-(((((,,,,:CWUTQTUX_difb`XTKOTUTPLMPQ@4++**))))**++.++*)))))***++..//013455555655555566688965469=?DGJPUUTTTQPQQQQPPMLJKMOOOOLJHFD?>=9==?DGKXcmqw!!!!!!!!!!!!!!!!!!!!!!!!!!!!!!!!!!!!!!",
"!!!!!!!!!!!!!!!!!!!!!!!!!!!!!!!!!!!!!!!!!!!!!!!!!!!!!!!!!!!!!!!!!!!!!!!!!!!!!!!!!!!!!!!!!!!!!$$$$%%((-1777,''%%$$$%%'(----,,,,,,:N]XUTUXYbfmgd`YUOTUXUTQPOO@5..++*)))))*+..++**))))*++....//135555554443333468999999999>DGJLOQTUUUWUUTTQPOLKLLMMOOKIGD@>==9999>@ELU`iq!!!!!!!!!!!!!!!!!!!!!!!!!!!!!!!!!!!!!!",
"!!!!!!!!!!!!!!!!!!!!!!!!!!!!!!!!!!!!!!!!!!!!!!!!!!!!!!!!!!!!!!!!!!!!!!!!!!!!!!!!!!!!!!!!!!!!!##$$%&((-77777,'%%$$$%%'(---1777777:N`]WTUY_cinjdb^WTUWYXWUTOK?6/..++*))))*+....++***)*+.......036655543311111359999==>=98=DIIIIMTXY]^YWUTQPOLKLLMMMMJHFD?==999989==DIP`m!!!!!!!!!!!!!!!!!!!!!!!!!!!!!!!!!!!!!!",
"!!!!!!!!!!!!!!!!!!!!!!!!!!!!!!!!!!!!!!!!!!!!!!!!!!!!!!!!!!!!!!!!!!!!!!!!!!!!!!!!!!!!!!!!!!!!$$$$%&'((-77:::,('%%$$%%%'(--177:::::CNNSTY`cgjmifb_XTUXYYXXTOJA9310/.+))))*+.....++++*+...../00346899986543333589===>?@?>=@EIGFEIOUXY_]YXUQMKJHIJKLMMKHFD?==99998999?FK^m!!!!!!!!!!!!!!!!!!!!!!!!!!!!!!!!!!!!!!",
"!!!!!!!!!!!!!!!!!!!!!!!!!!!!!!!!!!!!!!!!!!!!!!!!!!!!!!!!!!!!!!!!!!!!!!!!!!!!!!!!!!!!!!!!!!!%%$$$%&(((,77:CC7,'%%$$$%%'((-177::::::CNNU]bijjmifd`YUWYYYYYUOID=8643/+**)))*++......++....//0134699=====96544469>>??@DEDDADGHFD?FKTWY_^]YUQLIGEGGIKLOKHGD?==99996889=AGYj!!!!!!!!!!!!!!!!!!!!!!!!!!!!!!!!!!!!!!",
"!!!!!!!!!!!!!!!!!!!!!!!!!!!!!!!!!!!!!!!!!!!!!!!!!!!!!!!!!!!!!!!!!!!!!!!!!!!!!!!!!!!!!!!!!!%%%%%%&((((,7::CN;7('%$$$$%%'(-177::::::::NU`fnmmjigd`]UXY]]]]UOHE@==982.+*)))**+...//.....////135689=?AAAA>966669=@@AADFGGGGGHHD?9@HPUY``__WQJGEADFGILOKIGD?===99966669>DUi!!!!!!!!!!!!!!!!!!!!!!!!!!!!!!!!!!!!!!",
"!!!!!!!!!!!!!!!!!!!!!!!!!!!!!!!!!!!!!!!!!!!!!!!!!!!!!!!!!!!!!!!!!!!!!!!!!!!!!!!!!!!!!!!!!!$$%%%%&(((,,7:CNSB4-'%$$$$%%'((-77:::::::CN^cippppmmjd`Y]]]]]YUOIGED@>=5/+*))))**+.........////0234569=>>>>=9666699=>>>@DFFFFGGHEA>AFIPW_^^^UOHFA??ADFGHGFEA?==999966669=?M`mqw!!!!!!!!!!!!!!!!!!!!!!!!!!!!!!!!!!!",
"!!!!!!!!!!!!!!!!!!!!!!!!!!!!!!!!!!!!!!!!!!!!!!!!!!!!!!!!!!!!!!!!!!!!!!!!!!!!!!!!!!!!!!!!!!$$$%%%''(,,7:CNSTB5-(%$$$$%%''(-77::NNNC:NVcgmpqqqqqpjd``_^]YYUPJIIHFD@81+**))))**++++++++.////001345699999998866999999=@DDDDFGIGD@ADDJT]]]]ULGD?==>?@ADDDD@>==9998666599=GT`iq!!!!!!!!!!!!!!!!!!!!!!!!!!!!!!!!!!!",
"!!!!!!!!!!!!!!!!!!!!!!!!!!!!!!!!!!!!!!!!!!!!!!!!!!!!!!!!!!!!!!!!!!!!!!!!!!!!!!!!!!!!!!!!!!$$$$%%''',7:CNSTTD8-(%$$$$%%%'(-7:CNNVVNNV[imnqtuwwvvpjdb`^]YYUPKLMOKIG93++*)))))********+.///////0234688888888888888889>AAAAEGIGGEA?=FPYYYYTKE@=999===>??@?>==99986665699@HP`m!!!!!!!!!!!!!!!!!!!!!!!!!!!!!!!!!!!",
"!!!!!!!!!!!!!!!!!!!!!!!!!!!!!!!!!!!!!!!!!!!!!!!!!!!!!!!!!!!!!!!!!!!!!!!!!!!!!!!!!!!!!!!!!!$$$&((((,,7:CSSTTF=5('%$$$%%%'(-77:CNVVNNV[impquwyxxxqnidb^]YYUTOPQQLGD94/.+*))))********++....../0013455686555554435689=>>>>@DGGGFDA?EJPUY_WQKGA=======>>?>====9999866699?EKXdqq!!!!!!!!!!!!!!!!!!!!!!!!!!!!!!!!!",
"!!!!!!!!!!!!!!!!!!!!!!!!!!!!!!!!!!!!!!!!!!!!!!!!!!!!!!!!!!!!!!!!!!!!!!!!!!!!!!!!!!!!!!!!!!$$&(310-135;GSQPPID=-(%%$$$%%'((-77:NVVNNV[impuwxzzzzwqpic_^]YWUTTTULG@=63/+**)))********++++++..////013458543333100258999999>@EFGGFEDDFGOX`^XTMGD?>==============99986899=AGQ^gg!!!!!!!!!!!!!!!!!!!!!!!!!!!!!!!!!",
"!!!!!!!!!!!!!!!!!!!!!!!!!!!!!!!!!!!!!!!!!!!!!!!!!!!!!!!!!!!!!!!!!!!!!!!!!!!!!!!!!!!!!!!!!!&&(2FD=66439EPPOOLJH3(%%$$$%%%'((,7:CVVNNV[imqvxz!!!!zwumd_^]YYWUUWWMF>=962.+**))**************+.//.../0358530000/..0388888889>ADGHGGFD@>IUcb_]UMGD?=====99========9996889=?DJT^^!!!!!!!!!!!!!!!!!!!!!!!!!!!!!!!!!",
"!!!!!!!!!!!!!!!!!!!!!!!!!!!!!!!!!!!!!!!!!!!!!!!!!!!!!!!!!!!!!!!!!!!!!!!!!!!!!!!!!!!!!!!!!'(&).622/269AJUTTTTTO8(%%%$$%%%''(,77CNNNNVejptwyz!!!!zxvpgb`_]YYXUUTKF?=963/.+*)***************++..../01358530000/...134455689=>@EGGGGFDAIT^]YXWUTMHDA@??>=?ADEGGFEDA?====?@DJQYY!!!!!!!!!!!!!!!!!!!!!!!!!!!!!!!!!",
"!!!!!!!!!!!!!!!!!!!!!!!!!!!!!!!!!!!!!!!!!!!!!!!!!!!!!!!!!!!!!!!!!!!!!!!!!!!!!!!!!!!!!!!!,(())***++08DIQYYYYWWW;('%%$$%%%%'((77:NNNV[enquyz{!!!!zywpjdc`_^YYUTOIFA>9640.++****************+++../012456530000/....001345899=?AFGHJHGEJPWUUUY]`XQJHFDDA@DGKMPTQOMJGDDA?ADFJPUU!!!!!!!!!!!!!!!!!!!!!!!!!!!!!!!!!",
"!!!!!!!!!!!!!!!!!!!!!!!!!!!!!!!!!!!!!!!!!!!!!!!!!!!!!!!!!!!!!!!!!!!!!!!!!!!!!!!!!!!!!!!,,,-+*)&&)).9MTX__^^^__B,'%%$$%%%%%'(,7:CNVV[iptwz{{!!!!{yxqnifb`_^]UPJHFD?=841/.++******************+./023456430000/....../0358899=?EGILKIHJMPQQTYcjc]TOKGGEDHMTW]`^]YUPKIGEFFGJMTT!!!!!!!!!!!!!!!!!!!!!!!!!!!!!!!!!",
"!!!!!!!!!!!!!!!!!!!!!!!!!!!!!!!!!!!!!!!!!!!!!!!!!!!!!!!!!!!!!!!!!!!!!!!!!!!!!!!!!!!!!!!,,())))))*+3?QUY^^^]_``C,'%%$%%%%%%'(,7:CNVV[hpqvyz{!{{{zyxtpjgd`_]YTMHGFD?=85310..++****************+./0113454323331/..../13458899=>AEHKKKKLOPQTUY`d`]UTQOLKIMQUWY^``b`^YUTOMLKMPTT!!!!!!!!!!!!!!!!!!!!!!!!!!!!!!!!!",
"!!!!!!!!!!!!!!!!!!!!!!!!!!!!!!!!!!!!!!!!!!!!!!!!!!!!!!!!!!!!!!!!!!!!!!!!!!!!!!!!!!!!!!!--*)&&))+.2=GTWY^]]]_`cC7''%%%%%%%'((,7:CNVV[emquxyz{{zyyxxupmidb_YWQKGFED?98654310.+***))))*********+.//0012344445531////1355688999=?DGJKMOOPPTUWY_b_YWWWWUTQTUUWXY`djigfb`YWTPQTTT!!!!!!!!!!!!!!!!!!!!!!!!!!!!!!!!!",
"!!!!!!!!!!!!!!!!!!!!!!!!!!!!!!!!!!!!!!!!!!!!!!!!!!!!!!!!!!!!!!!!!!!!!!!!!!!!!!!!!!!!!!!..)&&&)*.5=EMWXY]]YY_bfC7''%%%%%%%'(,,7:NNVV[emptwxz{zyxxxxuqpjfb_YUOJFEDD?98888643/.**))))))********+.////00134666853000035888889999=@EILOTQQPTUYYY]YYY]^`^YXXWWWWWbjttqqnid`]UUUTT!!!!!!!!!!!!!!!!!!!!!!!!!!!!!!!!!",
"!!!!!!!!!!!!!!!!!!!!!!!!!!!!!!!!!!!!!!!!!!!!!!!!!!!!!!!!!!!!!!!!!!!!!!!!!!!!!!!!!!!!!!.*)&&&&).4=FKTYYY]]YY^`bC7,''%%%%%''(,,7::NNVZ[ekqwxz{zyxxxxuqpmgdb^XQKFFFFD@>>>>9961.+*))))))*****++++./////002345685433334588888999=?DGIKMOOMMQTWWXXXWWY]_^YYY]^^^^cgnptvqnjd`YXUUPH!!!!!!!!!!!!!!!!!!!!!!!!!!!!!!!!",
"!!!!!!!!!!!!!!!!!!!!!!!!!!!!!!!!!!!!!!!!!!!!!!!!!!!!!!!!!!!!!!!!!!!!!!!!!!!!!!!!!!!!!8+)&&&&&*4=EOTWY]]]YYY]^_N:,''%%%%%'((,,7:::NNVZ[hovxy{zyxxxwvtqnjgc`]ULGGHIGGEEEE@=94/+**)))))*****++.......//0123456655555568888899=?DFGIJKLKKKMQTUUUUUUWY^]]Y_`ccccdgintyvqpic_YXUME9!!!!!!!!!!!!!!!!!!!!!!!!!!!!!!!",
"!!!!!!!!!!!!!!!!!!!!!!!!!!!!!!!!!!!!!!!!!!!!!!!!!!!!!!!!!!!!!!!!!!!!!!!!!!!!!!!!!!!!88+)&&&&&+=EOYY]^^]]YYYYYYC:7,'%%%%%'((,777:::NNVZeovxy{zyxxwwvtqpmifb`WMGHJLLLLLLLGD>60++*)))))*****+.........//001356688888888888899=AGGHIIIIIIIKOQQTTTTTUX]]]]`dgggggddmt!zwungb_YWKD99!!!!!!!!!!!!!!!!!!!!!!!!!!!!!!",
"!!!!!!!!!!!!!!!!!!!!!!!!!!!!!!!!!!!!!!!!!!!!!!!!!!!!!!!!!!!!!!!!!!!!!!!!!!!!!!!!!!!!//)&&&&&&.?GPYY]^^^^^^^^__NC7,'%%%%%'(,,77:::NNV[ehovwy{zyyxwwvvuqpmgd`YTKLMOLJHHHHE@=61.+*)))))***+++...../000011235699999999999999==?AFGIKKLLLLLLMOOOOPQTUWXYY]`dggfddddmu!zywqmgdb_TI@@!!!!!!!!!!!!!!!!!!!!!!!!!!!!!!",
"!!!!!!!!!!!!!!!!!!!!!!!!!!!!!!!!!!!!!!!!!!!!!!!!!!!!!!!!!!!!!!!!!!!!!!!!!!!!!!!!!!!!**)&&&&&&.DIQYY]]^^^_```bbVC:,'%%%%''(,,7:::NNVZeootuwy{zzyxwvwwwuqpjf`]WTQQQLHFFFFA?=61.++*******++.../...013333344699==>>>>>>>>>>>??@DEGJOOOOOOOMLKKKKMPTTUUWY]`difcbbddmu!{zyupmjgd]TII!!!!!!!!!!!!!!!!!!!!!!!!!!!!!!",
"!!!!!!!!!!!!!!!!!!!!!!!!!!!!!!!!!!!!!!!!!!!!!!!!!!!!!!!!!!!!!!!!!!!!!!!!!!!!!!!!!!!!))&&&&&&)/GLTYYY]^^_`bccddYNC7(%%%%''(,,7::NNVVekvvuuwy{{zzywvwxyxvungb_]XWUTLGAAAA?=962/.+*******+./////..03555555699=??AAAAAAAAAAADDDDDGLQQTTTTTOLIIHHKOTTTTUX]`didb^`cfmu!!{{xvqpmjc]TT!!!!!!!!!!!!!!!!!!!!!!!!!!!!!!",
"!!!!!!!!!!!!!!!!!!!!!!!!!!!!!!!!!!!!!!!!!!!!!!!!!!!!!!!!!!!!!!!!!!!!!!!!!!!!!!!!!!!!&&&&&&&&)0GJPUUUWXY^`cfgggaWO7('''%''(,,:::NNVVVVVZ[eot{{{{yxwwwxtpmjfc`_YUTMHD>>>>=99641/.+++++++./1111110245443334569=?AAAAAAAAAAAADDEFILQQTTTTTOLIJJKMPTTTTUY^`dgdc`cdgnu!!!{zxvtqpjd``!!!!!!!!!!!!!!!!!!!!!!!!!!!!!!",
"!!!!!!!!!!!!!!!!!!!!!!!!!!!!!!!!!!!!!!!!!!!!!!!!!!!!!!!!!!!!!!!!!!!!!!!!!!!!!!!!!!!!&&&&&&&&)2FIMTTTQUXY`djjjmf`X:,'''''(,,7::NVVVVN:::NV[oz{{{zywwwvpjfdddb`^UOID?99999996541/......./133333334454211113469=AAAAAAAAAAAAADGHJMPQQTTTTOLIKLOPQTTTTUY^`cfddddgipv!!!!{zyxwwqmii!!!!!!!!!!!!!!!!!!!!!!!!!!!!!!",
"!!!!!!!!!!!!!!!!!!!!!!!!!!!!!!!!!!!!!!!!!!!!!!!!!!!!!!!!!!!!!!!!!!!!!!!!!!!!!!!!!!!!&&&&&&&&*4FHKOMMLQUY`gmnpplfcC,'''''(,,7::NVVVV:,,,::Vhz{{!{yxwvumf`bdfdb`ULE?=8888888666420//////13555555555531////0136=AAAAAAAAAAAAAEGJLMPQQTTTTOLILOTTTTTTTUY_`bddfggijpv!!!!!!!!!!zwuu!!!!!!!!!!!!!!!!!!!!!!!!!!!!!!",
"!!!!!!!!!!!!!!!!!!!!!!!!!!!!!!!!!!!!!!!!!!!!!!!!!!!!!!!!!!!!!!!!!!!!!!!!!!!!!!!!!!!&&&&&&&&).6EFFGED?GMU`fnppqnjfN7((''(,,7:::NNC::,,',,:Nhxz{!{zywutnjfgijgdcYOG@=888899999964321111134555554333310//0134599>==9==>?@AAAADDDGKPPOOOPPOMLMPTTTTTTTWY`cfjjmmmmmqw!!!!!!!!!!zyww!!!!!!!!!!!!!!!!!!!!!!!!!!!!!!",
"!!!!!!!!!!!!!!!!!!!!!!!!!!!!!!!!!!!!!!!!!!!!!!!!!!!!!!!!!!!!!!!!!!!!!!!!!!!!!!!!!!+&&&&&&&).29DA@?=96>GT^fnpqtpnlV:,,,,,,77::::::,,'''',:Nexxz{{zywuqpnmnnpmjg^TGA=98889=?>==9854433334555554311110//024569999965699=?AAAA@?>DHOMMLLLLMOOPQTTTTTTTW]`djpqqtqqquy!!!!!!!!!!{zzz!!!!!!!!!!!!!!!!!!!!!!!!!!!!!!",
"!!!!!!!!!!!!!!!!!!!!!!!!!!!!!!!!!!!!!!!!!!!!!!!!!!!!!!!!!!!!!!!!!!!!!!!!!!!!!!!!!++)&&&&&&*59=A?=952/6AP]dpqqutqqZC77,,,77::N:::,'''%%',:N[vxz{{zzwtpqtuuttpnjbUID=99889?DAA@>9986555555555531///////14699=9985303589>AAAA>=9?GOLKIIJJLPTTTTTTTTTTX^bgnvwyzxwuwz!!!!!!!!!!!!!!!!!!!!!!!!!!!!!!!!!!!!!!!!!!!!",
"!!!!!!!!!!!!!!!!!!!!!!!!!!!!!!!!!!!!!!!!!!!!!!!!!!!!!!!!!!!!!!!!!!!!!!!!!!!!!!!!!++)&&&&&)+59=A>985319ALXbmnquttqeN::7,77:::C::,,'%%%%',7:NekqzzzzxuqqqqtuvtpndYOGA=9989>DDDD@=999888866554310/0111113589=??>=99699=?DGGGGD@>?ADFGJIHHJMPQQTTTTTUW^bfmqxyz{yxwxz!!!!!!!!!!!!!!!!!!!!!!!!!!!!!!!!!!!!!!!!!!!!",
"!!!!!!!!!!!!!!!!!!!!!!!!!!!!!!!!!!!!!!!!!!!!!!!!!!!!!!!!!!!!!!!!!!!!!!!!!!!!!!!!!++)&&&&&).69>A=965549AJU`gmpuuuuiZN::77::::::,,''%%%$%',::N[kxyz{xvtqqpqvxvtpg_TLG?=989>ADEGD?==9999996542000/135444589=?DDDDA@?@ADFILLLLIGD@=9?EJIGFHJMOPQTTTUXY`fjpuzz{{zyxz{!!!!!!!!!!!!!!!!!!!!!!!!!!!!!!!!!!!!!!!!!!!!",
"!!!!!!!!!!!!!!!!!!!!!!!!!!!!!!!!!!!!!!!!!!!!!!!!!!!!!!!!!!!!!!!!!!!!!!!!!!!!!!!!!**))&&))*/89>A=95568=AGQ]djpuuvvoh[N::::::::7,''%%%$$%',,::Newxz{ywuqpnqvzxvtjbYTJE?=89>AEGIGD?>=====98530.///259988999?DGHHIIIIIIILOTTTTPLJ@939AKHGDGHKMOQQTTUY_djpux!!!!{{z{{!!!!!!!!!!!!!!!!!!!!!!!!!!!!!!!!!!!!!!!!!!!!",
"!!!!!!!!!!!!!!!!!!!!!!!!!!!!!!!!!!!!!!!!!!!!!!!!!!!!!!!!!!!!!!!!!!!!!!!!!!!!!!!!!++*)))))+089>A>98999>@EMXcgmqtuvpkhVN::::777,,''%%%$$%',,7:Newxz{ywvqpmpqvutqjd`WOHD?9>@EFGIGD??==99996531./014899986669=>>?????@ADFILMMOOMMG@=AHOOPPQTUUUUUUWY^`fmqvy!!!!!{{{!!!!!!!!!!!!!!!!!!!!!!!!!!!!!!!!!!!!!!!!!!!!!",
"!!!!!!!!!!!!!!!!!!!!!!!!!!!!!!!!!!!!!!!!!!!!!!!!!!!!!!!!!!!!!!!!!!!!!!!!!!!!!!!!!++++++*)+089>A?=9==??@AJU`fjqquvtpo[N:::7,,,,,''%%%$$%',,7:N[vxz{yxvqnjmpqqqpmgc]TKGD?ADGGHIGD@?==99866531/02469>=9654345666666699=?DGHJLMOPMJHKOTWY^__`^]YYYY_`bgntwy!!!!!!{!!!!!!!!!!!!!!!!!!!!!!!!!!!!!!!!!!!!!!!!!!!!!!",
"!!!!!!!!!!!!!!!!!!!!!!!!!!!!!!!!!!!!!!!!!!!!!!!!!!!!!!!!!!!!!!!!!!!!!!!!!!!!!!!!!...03.+)+189>A@?>?@DA??HT_dipqtvvvvhVN:7,,,'''''%%%$$%',,7:N[vxz{zxwqmijmmnnpmjgbXPKGDEGIIIIGD@?==98555531/1469=@=964300000000003589>AEGILPTUUWWWW_cigggdb__``bbdjpvxz!!!!!!!!!!!!!!!!!!!!!!!!!!!!!!!!!!!!!!!!!!!!!!!!!!!!!",
"!!!!!!!!!!!!!!!!!!!!!!!!!!!!!!!!!!!!!!!!!!!!!!!!!!!!!!!!!!!!!!!!!!!!!!!!!!!!!!!!!../141.+.369=@??????@ADKU_cgmpqvvvvoeZN:,,''''''%%%$$%',,,,:Zuxy{zyxqnijjjmmmmjgb]UQLIIJKJJIGEA?=996554310/1489===965300000000003589>AEGILPTUUUY]_cgmmmnjiffgggjjptxy{!!!!!!!!!!!!!!!!!!!!!!!!!!!!!!!!!!!!!!!!!!!!!!!!!!!!!",
"!!!!!!!!!!!!!!!!!!!!!!!!!!!!!!!!!!!!!!!!!!!!!!!!!!!!!!!!!!!!!!!!!!!!!!!!!!!!!!!!!../354101459=???@?>=@EGOU_bfjmquvvwqohV:7,''''('%%%$$%',,,,:Vuwxzzyxtniiigijmjigd`YWTPPOMLJIGED?=86654310//1489999985300000000003589>AEGILPTUUUY`dgmpqtuqpnnpppqtvxz{{!!!{!!!!!!!!!!!!!!!!!!!!!!!!!!!!!!!!!!!!!!!!!!!!!!!!!",
"!!!!!!!!!!!!!!!!!!!!!!!!!!!!!!!!!!!!!!!!!!!!!!!!!!!!!!!!!!!!!!!!!!!!!!!!!!!!!!!!!..03865555589>?@A?=9?GLTX_bdgjpuvvwwww[C7,'%''(''%%%$%',,,'7Ntvxzzyytniggfgijiigdb`^YXUTPMKIGFD?9665531////1599888885300000000003589>AEGILPTTUU^djnptwy!zywwxxyz{{!!!!!!{{{!!!!!!!!!!!!!!!!!!!!!!!!!!!!!!!!!!!!!!!!!!!!!!!!",
"!!!!!!!!!!!!!!!!!!!!!!!!!!!!!!!!!!!!!!!!!!!!!!!!!!!!!!!!!!!!!!!!!!!!!!!!!!!!!!!!1/.26==9986589>??@?==DHPUY_`cdinquvwwwweN:7,'''(''%%%%%',,,,7Nektzzzzupjiggimnnmmifb`YWTPLKJIGEA>9654310//01469998888543333333345699=?AEGIKMPQTU]cimqvxz!{zyyyyz{{!!!!!!!!{!!!!!!!!!!!!!!!!!!!!!!!!!!!!!!!!!!!!!!!!!!!!!!!!!",
"!!!!!!!!!!!!!!!!!!!!!!!!!!!!!!!!!!!!!!!!!!!!!!!!!!!!!!!!!!!!!!!!!!!!!!!!!!!!!!!841/49D@?=98589>>???>=EKUWY_`bcgmqquwwwwhZN:,''',''%%%%%''',,7:Veozzzzvqmjigjpqqqqnid`YUQMJIIIGD@=964310//024589998888655555555699==>?@AEGIJKLOTU]bgmqxy{!{{zz{{{{!!!!!!!!!!!!!!!!!!!!!!!!!!!!!!!!!!!!!!!!!!!!!!!!!!!!!!!!!!!",
"!!!!!!!!!!!!!!!!!!!!!!!!!!!!!!!!!!!!!!!!!!!!!!!!!!!!!!!!!!!!!!!!!!!!!!!!!!!!!!885316?IGEA=9589>>>>>??GOXY]_``bfjpquwwwwoh[C:,,,,''%%%%%''',,7:CVhzz{{wqnmjimqwwxxqmgbYTOKGHHIFD?=9641////1468999988888888888889>AAAAAAAEGIIIILQUYbfmtz{{!!!!!!!!!!!!!!!!!!!!!!!!!!!!!!!!!!!!!!!!!!!!!!!!!!!!!!!!!!!!!!!!!!!!",
"!!!!!!!!!!!!!!!!!!!!!!!!!!!!!!!!!!!!!!!!!!!!!!!!!!!!!!!!!!!!!!!!!!!!!!!!!!!!!!99986>FMLJHD?9==>==9=>?GOXY]^^__bfjnquvvwqkeV:7,,,'''%%%%''',,,::Vhyyz{xtpmjgmpuvxyupjd^UPJGGGGEA?=9841//0135699=99888888888865589>>>>>>>@DGGGGJMQW_cjqyz{!!!!!!!!!!!!!!!!!!!!!!!!!!!!!!!!!!!!!!!!!!!!!!!!!!!!!!!!!!!!!!!!!!!!",
"!!!!!!!!!!!!!!!!!!!!!!!!!!!!!!!!!!!!!!!!!!!!!!!!!!!!!!!!!!!!!!!!!!!!!!!!!!!!!!===>?FKTTQPJFA@?>=989=?GOWYY]]YY`cfjptuuvtoo[N::,,,''''''''(,,,::Vhwyz!yuqnjgjptvwyvqpg`UPJEEEEDA?=9951/0134689===98888888888543589999999>@EEEEGJMTY`gpxy{!!!!!!!!!!!!!!!!!!!!!!!!!!!!!!!!!!!!!!!!!!!!!!!!!!!!!!!!!!!!!!!!!!!!",
"!!!!!!!!!!!!!!!!!!!!!!!!!!!!!!!!!!!!!!!!!!!!!!!!!!!!!!!!!!!!!!!!!!!!!!!!!!!!!!>>AFIMTXXXXTMIFA>9859=@GOWXYYYXWY`bgmqquvvuth[V:7,,,''''''(,,,,::Neuwy!ywtpjgjnquwzxuqibWPIDDDAA@@>=952/1356899=?=988888888885303588888889>AAAAEGJPW^dnwyz!!!!!!!!!!!!!!!!!!!!!!!!!!!!!!!!!!!!!!!!!!!!!!!!!!!!!!!!!!!!!!!!!!!!",
"!!!!!!!!!!!!!!!!!!!!!!!!!!!!!!!!!!!!!!!!!!!!!!!!!!!!!!!!!!!!!!!!!!!!!!!!!!!!!!!>EIMQTUY_`YTLGD>95159>EKTUUUUTQUY`dimpquuutkeZN:7,,,'''''(,,,,::N[rvy!zxvqmgjmnqvyxvumd]ULGEDAAA@?=9842469999=>?>=999996555531/023333333569999=@DJQYcmwxz!!!!!!!!!!!!!!!!!!!!!!!!!!!!!!!!!!!!!!!!!!!!!!!!!!!!!!!!!!!!!!!!!!!!",
"!!!!!!!!!!!!!!!!!!!!!!!!!!!!!!!!!!!!!!!!!!!!!!!!!!!!!!!!!!!!!!!!!!!!!!!!!!!!!!!!IPTTTU]bg`XOID>82.16=DIQQQQOMKQW^bdjmpqtttoieVC:7,,'''''(,,,,::N[ruy{zyxqmgijjptxxwwpgbYPHGEDAAA?>=98589=====?@??>>>>9533331/../000000001234589>ELUbjvxz!!!!!!!!!!!!!!!!!!!!!!!!!!!!!!!!!!!!!!!!!!!!!!!!!!!!!!!!!!!!!!!!!!!!",
"!!!!!!!!!!!!!!!!!!!!!!!!!!!!!!!!!!!!!!!!!!!!!!!!!!!!!!!!!!!!!!!!!!!!!!!!!!!!!!!!!XXUUT^gpg^TJE>50+/49?GMMLLJHGLTY_bfjmqqqtqpk[N::,,,,,,',,,,,::N[rrw{{zzuniiggmqwxxyqjd^UKHFDDAA@?>==9=>@??>?@AAAAAAA950000/.............../0359?GQ_jvxz!!!!!!!!!!!!!!!!!!!!!!!!!!!!!!!!!!!!!!!!!!!!!!!!!!!!!!!!!!!!!!!!!!!!",
"!!!!!!!!!!!!!!!!!!!!!!!!!!!!!!!!!!!!!!!!!!!!!!!!!!!!!!!!!!!!!!!!!!!!!!!!!!!!!!!!!PPOMLWbjbUJE>94/+06?DGJIHHHGGOW`bdfgjmnpppnkeVN:7,,,,,,,,,,7::V[orv{{zzvpmjgfjptvwyupjc]UMHDDDA@???????@@???@ADDEDDA=632100/........+++..../135=EMYfptwzz{!!!!!!!!!!!!!!!!!!!!!!!!!!!!!!!!!!!!!!!!!!!!!!!!!!!!!!!!!!!!!!!!!",
"!!!!!!!!!!!!!!!!!!!!!!!!!!!!!!!!!!!!!!!!!!!!!!!!!!!!!!!!!!!!!!!!!!!!!!!!!!!!!!!!!HHGGGQ]dYOE>941.+29EFGGFEDFGITYcddfggjjmnmmke[VN::7,,,,,,77:CNV[houzz{{wtpmgdgmpqwzvqpic^UKEDDAA@@ADDDDA@@@@AADFGFDA=95421000/......+++.....0139AKWbmptwyz!!!!!!!!!!!!!!!!!!!!!!!!!!!{!!!!!!!!!!!!!!!!!!!!!!!!!!!!!!!!!!!!!",
"!!!!!!!!!!!!!!!!!!!!!!!!!!!!!!!!!!!!!!!!!!!!!!!!!!!!!!!!!!!!!!!!!!!!!!!!!!!!!!!!!AAAAAJU`TH>941/..4=JHFDD@?DGJU`gggffffgijjjjie[VN::7,,,,7:::NZ[ehouzz{{xvqmgcfimpvzxwupjdYPFEDAAAAEGIGEAAAAAAAEGIGEA>=95311110......+++....../06>HT_gjpuwz!!!!!!!!!!!!!!!!!!!!!!!!!!{{{!!!!!!!!!!!!!!!!!!!!!!!!!!!!!!!!!!!!",
"!!!!!!!!!!!!!!!!!!!!!!!!!!!!!!!!!!!!!!!!!!!!!!!!!!!!!!!!!!!!!!!!!!!!!!!!!!!!!!!!!EEFFGKPUJA952//019EQLGDAA@FKQX`ddddddddfgijjiih[VNC::::7:::NVZ[[ekqyzz{ywupjdfggmqxwwvqmibWMJHFFEEGHIGEAAAADDEFGGFDA?=9986899865421/....//01459?IU^djptwyz!!!!!!!!!!!!!!!{!!!!!!!!!!!{!!!!!!!!!!!!!!!!!!!!!!!!!!!!!!!!!!!!!",
"!!!!!!!!!!!!!!!!!!!!!!!!!!!!!!!!!!!!!!!!!!!!!!!!!!!!!!!!!!!!!!!!!!!!!!!!!!!!!!!!!GGHJLKKJD=53/./36?KYQIDAA@HPY^`cbbbbbbcddgimkoohe[VN:::::NNVVZ[[[hoxyz{zyxqmgfdcipvvwwtpmf`UTMIHHGHIJGEAAAADFGGFEDDD?=99=>?DEDA@=953100003469?DLWbfjptwzz{!!!!!!!!!!!!!!{{{!!!!!!!!!!!!!!!!!!!!!!!!!!!!!!!!!!!!!!!!!!!!!!!!",
"!!!!!!!!!!!!!!!!!!!!!!!!!!!!!!!!!!!!!!!!!!!!!!!!!!!!!!!!!!!!!!!!!!!!!!!!!!!!!!!!!IILOTLGA=630.+05>HT`UJAAAAJU```````````bbdgmpqvqok[ZNNNNNVVZZZZ[[howxz{{zzunidb_dmtuwxvtqjd`YTMLKJJJJGEAAAAEGIGEDDDD?=9>DGJMQQPPH@985333359=DJT]dmpquwz!!!!!!!!!!!!!!!!{{z{{!!!!!!!!!!!!!!!!!!!!!!!!!!!!!!!!!!!!!!!!!!!!!!!",
"!!!!!!!!!!!!!!!!!!!!!!!!!!!!!!!!!!!!!!!!!!!!!!!!!!!!!!!!!!!!!!!!!!!!!!!!!!!!!!!!!QQTUWME=95310.39AJT_UKEEEEJQXWWUTQOOOOTWYbgmpqvuqohe[VVNVVZZZZZZ[ekquy{{{{wqnid`dinquxvuqnid_XQPMLKKKHEAAAAEGIGFDDEEDDAGLTUY^^]]QH@=845559>DJT]bgnpquwy!!!!!!!!!!!!!!!!!{{{!!!!{{{zzzz{{!!!!!!!!!!!!!!!!!!!!!!!!!!!!!!!!!!!",
"!!!!!!!!!!!!!!!!!!!!!!!!!!!!!!!!!!!!!!!!!!!!!!!!!!!!!!!!!!!!!!!!!!!!!!!!!!!!!!!!!XXYY]MD96433338>FKTYTLGGGGIMQOLJGD@???FLT^dmptwvvuoohe[ZZZZZZZZZZ[horvz{{{yvqmgbdgimqwvvupmic^UTPMMLKHFDAAAEGJHGEFGGHIJQX`bdgffd]QG@96689>FLU]cgjpqqtwy{!!!!!!!!!!!!!!!!!{!!!!{{zyyyyyz{!!!!!!!!!!!!!!!!!!!!!!!!!!!!!!!!!!!",
"!!!!!!!!!!!!!!!!!!!!!!!!!!!!!!!!!!!!!!!!!!!!!!!!!!!!!!!!!!!!!!!!!!!!!!!!!!!!!!!!!`````O@5433458=DIMTXTMIIIIIIIGEA=955449DLXcmptwxyywvtohee[[ZZVZZZ[ehotz{{!{yxqjddddjpwwvvtpngbYUTPOMLIFDDAAEGJHGFGHILQU^cjmpqpppdYMF?999=DLU_djmpqqqtvy{{!!!!!!!!!!!!!!!!!!!!{{zyxwwwwyz!!!!!!!!!!!!!!!!!!!!!!!!!!!!!!!!!!!",
"!!!!!!!!!!!!!!!!!!!!!!!!!!!!!!!!!!!!!!!!!!!!!!!!!!!!!!!!!!!!!!!!!!!!!!!!!!!!!!!!!ggd`_L?45569=@EIMPQTQPMKIGFDA>985423349>EOYdjpvwwywvuoie[[ZVNCNNNV[ehqyz{!{zytmgfdbgmqtvwuqpjd_YUPOLKHFDDDAFHKKLLOTUX^`djppqqpjgdb^UOIJLMTY`cfjigggggjmpppppppquxxyzzzzzz{{zzzzzyxwwwwyz!!!!!!!!!!!!!!!!!!!!!!!!!!!!!!!!!!!",
"!!!!!!!!!!!!!!!!!!!!!!!!!!!!!!!!!!!!!!!!!!!!!!!!!!!!!!!!!!!!!!!!!!!!!!!!!!!!!!!!!mmgbYJ=359=@FJMPTQPMPQTMHE@>96300//01369=GQ_dmtuwxwvuoie[ZVN:::::NV[howyz{{zzvpmgc`dipquwvtqmgb^WQOKIGEDDDDFIMPQTX]`cgjmquttqmgbdgjfb_`bbdgiiigdb^^^^`bdddddddinquvxxxxxyyyyyyyyyxwwwxyz{!!!!!!!!!!!!!!!!!!!!!!!!!!!!!!!!!!",
"!!!!!!!!!!!!!!!!!!!!!!!!!!!!!!!!!!!!!!!!!!!!!!!!!!!!!!!!!!!!!!!!!!!!!!!!!!!!!!!!!uujbXH=36=AHPXXXXTMIMTXPHA=951.+++..03456?IU`iqtvwwvvpie[ZV::,,::CN[eovxy{{{{xtpic]bfjptxwvupjf`XQMKHGEDDDDGJOTW]bdjmquwxzxvtjcYdnxvtqqtuttqnjg`YQQPPTUYYYYYXX`gnptvvvvwwxxwwxxyxxwwxxyz{{!!!!!!!!!!!!!!!!!!!!!!!!!!!!!!!!!",
"!!!!!!!!!!!!!!!!!!!!!!!!!!!!!!!!!!!!!!!!!!!!!!!!!!!!!!!!!!!!!!!!!!!!!!!!!!!!!!!!!uug]OF=5=EMUY`^XTQPMTX_TJA=8410.03569==>?DIOYcmpqvvvwqkie[ZN:7:::CV[ektvxzz{{yvtmf`bdgmpvvvvqnjd`XTLGFDADDEHLPW^bgjpquwwwwvutdUFWgyvtqpppnnmidbUKADDDEFGGHHIKLTY```````bcdddddfgggggggjmpquxyz!!!!!!!!!!!!!!!!!!!!!!!!!!!!!",
"!!!!!!!!!!!!!!!!!!!!!!!!!!!!!!!!!!!!!!!!!!!!!!!!!!!!!!!!!!!!!!!!!!!!!!!!!!!!!!!!!uudUFA=9DO]`dg`WMPQTX_cXKA=623336=ADFHHHGHHIT^djpuvwwuqokheVN::::NVZekptvxy{!zxvpiccccgntuvxupmid`WOGED?DEGJMTYbimpuvxywuqttu_G5Hbywtpnmiiggd`YL?6668999999=?DGIMKIGGGGJLPPPPQTTUUWWXX^bdjnqvy{{!!!!!!!!!!!!!!!!!!!!!!!!!!!",
"!!!!!!!!!!!!!!!!!!!!!!!!!!!!!!!!!!!!!!!!!!!!!!!!!!!!!!!!!!!!!!!!!!!!!!!!!!!!!!!!!uucO>>>>JYgjmpdWIMTX_cg]MA951358?HTUUXUUTMHELU`fmtuwxwutpok[VNC::NVZ[hnqtwyz!{zyqmgdb`djqtwywtqmjf]QGDA?DFILPT_fpqwzz{{wtpqquW=+=]zwtpmgddcc_YTD6../00//001469==?=8555589>>>>?@ADEGGGGMTYbgnqw{{!!!!!!!!!!!!!!!!!!!!!!!!!!!",
"!!!!!!!!!!!!!!!!!!!!!!!!!!!!!!!!!!!!!!!!!!!!!!!!!!!!!!!!!!!!!!!!!!!!!!!!!!!!!!!!!pp`M>@DFTbnmmj`TFIMTX_cWJ@=6359=FOY^_````YUPUY_djqtvxwvvqpoeZNNNCNVZ[emnqtvy!{{zvqmjgdgjmptwvtqpmjbWMIFADFGLTYbjquxzzyytnimpqU9+9WvuqqnjgdcbXOF=4.146899999==??@@?=99999=>>>>?@ADEGGGGKPUY`djpuvw!!!!!!!!!!!!!!!!!!!!!!!!!!",
"!!!!!!!!!!!!!!!!!!!!!!!!!!!!!!!!!!!!!!!!!!!!!!!!!!!!!!!!!!!!!!!!!!!!!!!!!!!!!!!!!mm^L>DHO^gvpjdYLAFIMTX_TH?=959>DLWbdfggiidb^^^^cipqvxxxwuqpieZVNNNVZ[ejmnptx{{{{ywuqmjjjjmqvutqqpnf_UOJFEEELU`gnwxxyyxxpjcgmqT6*8Tqqqqpmjgc`QE952/39?DGIHGGFFEEDDDA@????>>>>>?@ADEGGGGHKOTW]bgpquy!!!!!!!!!!!!!!!!!!!!!!!!!",
"!!!!!!!!!!!!!!!!!!!!!!!!!!!!!!!!!!!!!!!!!!!!!!!!!!!!!!!!!!!!!!!!!!!!!!!!!!!!!!!!!ggYJ>FOXdp!qi`TH>AFIMTXOF>=98=DIT`gjmpqtupmgd`]bgnquxxyywvtoieZVNVV[[eijjmqv{{!!!{{xtpmifjptttttqqjd^UOHGDALXdjqzzyyxwvmd^cipP5)5Onpqqqppic^K=210/6?JPW^YXUTMJHGFGGGGGFD@>>>>?@ADEGGFFGHIKOQYbintyy!!!!!!!!!!!!!!!!!!!!!!!!",
"!!!!!!!!!!!!!!!!!!!!!!!!!!!!!!!!!!!!!!!!!!!!!!!!!!!!!!!!!!!!!!!!!!!!!!!!!!!!!!!!!!gUH?IU`gpxnd]PF=?EIJLOGA=999@HQYcjmmmmmmmmjgdcfjpquxxyyxvupke[ZVVZ[eimmmmpvz{{!!!{ywuqnjmpqqqttuupid^UMJHFQ^gmtzywvqpmf`W]`dI5*5Jfijmmjj`UI@944559AIGEA@@????????@A@@??>==>>??ADGHHHHIIIJKLTYbgmtt!!!!!!!!!!!!!!!!!!!!!!!!",
"!!!!!!!!!!!!!!!!!!!!!!!!!!!!!!!!!!!!!!!!!!!!!!!!!!!!!!!!!!!!!!!!!!!!!!!!!!!!!!!!!!!PF@L]gmpujbWKA9>DIHGFA=999=EMX`gmmmjiggijmmjimnqtvxxyyxwvqkieaZ[[[ekqpnmpuyz{!!!!{yxvqpppnpqquvxtpjd]TPLJUbjpuzxuqmgd_XTTUWD4+5G`bdigfdUF998699=?DG>5001134689999=========>??@EGJKKLKJIHHGLTW`fmm!!!!!!!!!!!!!!!!!!!!!!!!",
"!!!!!!!!!!!!!!!!!!!!!!!!!!!!!!!!!!!!!!!!!!!!!!!!!!!!!!!!!!!!!!!!!!!!!!!!!!!!!!!!!!!!AAQbppppg^TH?8=DIFA>=989=>HT`djpmjgdc`djppppqqquvxxyyxxwtpmigdee[hovqpmptxy{!!!!!!!zwuqpmnpquxzxuqjbYUTOYdpqwzwqpgbYUQLKKJ=3+5DUY`dcb`K9/259=AFFGG6.)))*+.0135566666999==>??@EHLMOPMKIGFDGJMW`gg!!!!!!!!!!!!!!!!!!!!!!!!",
"!!!!!!!!!!!!!!!!!!!!!!!!!!!!!!!!!!!!!!!!!!!!!!!!!!!!!!!!!!!!!!!!!!!!!!!!!!!!!!!!!!!!HHWdqpmjbWLD=59=A?=9998=?EO]gdcb_YWUUT]bgjmmnnppqqtuwwwwtqpkgfeeehktqppquwyz!!!!!!!zywuqppppqvxwuqjd^YXU`iquvxtnjd`XUTOKIG=2+4@TUWYWTQG>69=@?=====50++..036899=========>??@DDGHKLOPMLJHGDGHKTY``!!!!!!!!!!!!!!!!!!!!!!!!",
"!!!!!!!!!!!!!!!!!!!!!!!!!!!!!!!!!!!!!!!!!!!!!!!!!!!!!!!!!!!!!!!!!!!!!!!!!!!!!!!!!!!!PP^gtnjd]QG?94699964568=DJWcmd]QLIFGGHPX`dgjjmmmmmnquuvvutqnjggeegkpqqqtuvxz!!!!!!!{zzxvtqnmpqwvutmf``_]dmwvvvpjdb]WUTPLHE91+3?MMMLIGEDA@DFG?9445554334489??@AADDDDAA@@@@@DEGGIJLMPOLKIGEFGIMTXX!!!!!!!!!!!!!!!!!!!!!!!!",
"!!!!!!!!!!!!!!!!!!!!!!!!!!!!!!!!!!!!!!!!!!!!!!!!!!!!!!!!!!!!!!!!!!!!!!!!!!!!!!!!!!!!XXbjumg`UJA=63345421358?HT`iudTA>989=>FOX_cggiiggfjnqtuvvuuqmjggegjnptvvuuwz!!!!!!!!!!{yxqnimpuuttngccbbjqzxvtmf`^XUTTTLGA80+2=JGFD?=9?GMOOPA5../049>>>>AFIIIIIIIIHHGFDDDDEGIIIIKMPOMLIGEFGGILOO!!!!!!!!!!!!!!!!!!!!!!!!",
"!!!!!!!!!!!!!!!!!!!!!!!!!!!!!!!!!!!!!!!!!!!!!!!!!!!!!!!!!!!!!!!!!!!!!!!!!!!!!!!!!!!!YYcjtmf`TH>94011210/38=FOY`cgXH====?DFJQX]`ccbb`^Y`djmptuuvqpmjgggjmnqtuuvxz!!!!!!!!!!{zyupjmnpqqupjggggmqxqkhZNCCKQPPOG>85429ALJGFD@?DGKHFD=624699>A@?>???????>>>???ADAAADFGGGGHIKJJIHGEFGGJLOQW!!!!!!!!!!!!!!!!!!!!!!!",
"!!!!!!!!!!!!!!!!!!!!!!!!!!!!!!!!!!!!!!!!!!!!!!!!!!!!!!!!!!!!!!!!!!!!!!!!!!!!!!!!!!!!__djqmf`TF952..///..39DLWb`]XK?69>DGJOQUXY]_^]YUTMU]cgmqtuvuqqnjggijmpqtuvxz{!!!!!!!!!!{{wqnmjimqwqpjmmpqqukeZC777BMMLL@8048=AHPLJGGFEGHJD=9888=?DEEFD@>=988886545689=@@@@DEGFEEFFGGGGGFEFGHJLOTYb!!!!!!!!!!!!!!!!!!!!!!",
"!!!!!!!!!!!!!!!!!!!!!!!!!!!!!!!!!!!!!!!!!!!!!!!!!!!!!!!!!!!!!!!!!!!!!!!!!!!!!!!!!!!!``djpjd`QD830.......3=IT`g`TI@939@IMTXXXXXXXUUTLGDITYbipquwvvupmiiggjmpquwxz{{!!!!!!!!!!!xupmgdjqxuqpqtvutqeVN:,(-;JJII=2+2=ILOTPLJJKKJIH?6049>EJTOLIFA>9511110/./0159????ADEDDAADDDDEEEEFGHJLOU]bb!!!!!!!!!!!!!!!!!!!!!",
"!!!!!!!!!!!!!!!!!!!!!!!!!!!!!!!!!!!!!!!!!!!!!!!!!!!!!!!!!!!!!!!!!!!!!!!!!!!!!!!!!!!!``dimg`XI=30.++++..08DQX`dYK@>99>DIJLOOOOMLJJIHEA?DHMW`impuuuuqpmjjijmmpquvwwyz!!!!!!!!!!yvqmgbfjppnmpquqpnZC7,,(1;JIII=2+2=ILOTPLJJKKJIH>6049>DIPMLJGFD?=9===9999==AGKJJIJKKJIHHHHIIJJKLOPTUY^bfjj!!!!!!!!!!!!!!!!!!!!!",
"!!!!!!!!!!!!!!!!!!!!!!!!!!!!!!!!!!!!!!!!!!!!!!!!!!!!!!!!!!!!!!!!!!!!!!!!!!!!!!!!!!!!``dgjcYQD80..+++*+/3=IX]`cTE99>@DGIHGFFFFED@???>=9=?AKWbgmqttutqpnmjjjjmpqqqtvy{!!!!!!!!!zxvmd^bdijjjmpqpmjN7(,-18?IIII=2+2=ILOTPLJJKKJIG>6049>DGLLKKJHGGGGHIJJIHJKMQUYXWUUUUTQPPPPPPPTTUXY]bdimptt!!!!!!!!!!!!!!!!!!!!!",
"!!!!!!!!!!!!!!!!!!!!!!!!!!!!!!!!!!!!!!!!!!!!!!!!!!!!!!!!!!!!!!!!!!!!!!!!!!!!!!!!!!!!``cdg`TI=3.+++**)+18DQ````M>39@IIIIFA>>>>=98888888899ALYbipqtuuttqnmjigjmpppptw{{!!!!!!!!{yxmdY^`bdgimnqnjgC,%(-9=DIIII=2+2=ILOTPLJJKKJHG>6049>AGJKKLLLLPTWYY^^^^_`bcdfdcb`_^]YXXWWWWWY^`bcdjpvxz!!!!!!!!!!!!!!!!!!!!!!!",
"!!!!!!!!!!!!!!!!!!!!!!!!!!!!!!!!!!!!!!!!!!!!!!!!!!!!!!!!!!!!!!!!!!!!!!!!!!!!!!!!!!!!``bddYK@81++***++19FP]gdb`PA6=@GD?=953100..++++../135=EMW`gjnqqttqppmjgjmnppquxz{{!!!!!!!{zyqibbbbcdggijbZV:7(-4=AFIFD?9529GTUUWQLGGHHFA?=969?DDDDGJOQTUY^`bcdddddfggjjiggfdddcbbbbbbbdfgijmptxy{!!!!!!!!!!!!!!!!!!!!!!!",
"!!!!!!!!!!!!!!!!!!!!!!!!!!!!!!!!!!!!!!!!!!!!!!!!!!!!!!!!!!!!!!!!!!!!!!!!!!!!!!!!!!!!``bbcTE93/+**)*+09GW`fmid`TG=>AE=62/.+**)))))))))*+/38=ELW`djpqqutqqnmijjjnptvxzz{!!!!!!!!{{ungdc`bdfddcVN::779;DFGID=699=GT`_^]TKEEFF@=89==AFIF@=DIPUY`bdijjmjjjmmnnpppnmmmmjjjjjijjmmnpqqtvxz{{!!!!!!!!!!!!!!!!!!!!!!!",
"!!!!!!!!!!!!!!!!!!!!!!!!!!!!!!!!!!!!!!!!!!!!!!!!!!!!!!!!!!!!!!!!!!!!!!!!!!!!!!!!!!!!`````M>30.+*))*.5DUgmpumg`UJAAAA80+*))&&&&&&&&&&&))+148=DLW`fmpquuuupmiiiimqvwxyz{!!!!!!!!!!xtpjd`bcdb`]N:77CKJJIIII?606?IT`gdc`UJAADD=628>GILPG?8?HTYbgjnqqqttqqttuuuuuttttttuuttqtvwxxyzz{{!!!!!!!!!!!!!!!!!!!!!!!!!!!",
"!!!!!!!!!!!!!!!!!!!!!!!!!!!!!!!!!!!!!!!!!!!!!!!!!!!!!!!!!!!!!!!!!!!!!!!!!!!!!!!!!!!!cc`]XH=2/+****.6DP`mpqumd]TH@=84/+*))))&&&&&&&&&))*.259=DIQYbgmpttuuqpmjjimqvwxyz{!!!!!!!!!!xtnjifcb`XSNC:7:CJJIIFD?=96>GQX`db^XMD999=999=DGGED@?=GSZadkkpttuuuttqqqqqqqttuuvvwwwvuvxyyyyzzzzzyyyxywwrh!!!!!!!!!!!!!!!!!",
"!!!!!!!!!!!!!!!!!!!!!!!!!!!!!!!!!!!!!!!!!!!!!!!!!!!!!!!!!!!!!!!!!!!!!!!!!!!!!!!!!!!!dd`XQD91.+**++5DU`gpqtujbWMG?60+*)))))))&&&&&))))*+/469=AGJT]dgmqtuvtqpmjjmqvwxzz{{!!!!!!!!!xqnmmmf`XSCCCCCCGJIIID=69=?GOX]`c^WQF=55559=@DGID=9=?DMZehkoqtvvvvvuurooooorqtuvwxyzyxxyyzzzzzzzyxwvuutrrhh[!!!!!!!!!!!!!!!!",
"!!!!!!!!!!!!!!!!!!!!!!!!!!!!!!!!!!!!!!!!!!!!!!!!!!!!!!!!!!!!!!!!!!!!!!!!!!!!!!!!!!!!gg`TI?61.+)+.1?Tgmpuuuui`TJE>3+))))))))))))))*++++.1589>@DFMU`djqquvutqpmjnqvwyzz{{{!!!!!!!!wqmpqtg_QC:7:CJJIIIII?606?IQX````XQI?600006?JJJJ?818?JW[hrrruwyywwwvvrohhhorrtvwyz{!{{z{{!{{zzyywvtqqpoohh[[[!!!!!!!!!!!!!!!",
"!!!!!!!!!!!!!!!!!!!!!!!!!!!!!!!!!!!!!!!!!!!!!!!!!!!!!!!!!!!!!!!!!!!!!!!!!!!!!!!!!!!!!gYMF=61.+*.39I]mpqutqpdYLD=5/+)))))))))))))*+....03599>@DGOW`djpqtvvutqpmpqvxyzz{{{{{{{!{zytnimqwmdYSC:CGJIGGGGGA=9?GQUX]YYXOG?=855559AJGD?=96?ISZ[hhhrhhh[[ZVVNNNNNNNNVVVZZ[[eeeeeeeeeee[[ZZZZZaZZZZVVV!!!!!!!!!!!!!!!",
"!!!!!!!!!!!!!!!!!!!!!!!!!!!!!!!!!!!!!!!!!!!!!!!!!!!!!!!!!!!!!!!!!!!!!!!!!!!!!!!!!!!!!!PGA951.+*09GUcpqtuqpm`TG=50+*)))**********+.00002469=>AEHPYbdjnqtwvvvtqpqtwxy{{zzzzyz{{ywupjdjqyqjc^SKKKIGGEEEEEEEJQXXWWUTQG>6899999?EID=69=?HSZ[[[hhh[ZNN::::77,,,77::::::CCNNNNNNNNNNNCCCCCCCCCNNNNNN!!!!!!!!!!!!!!!",
"!!!!!!!!!!!!!!!!!!!!!!!!!!!!!!!!!!!!!!!!!!!!!!!!!!!!!!!!!!!!!!!!!!!!!!!!!!!!!!!!!!!!!!!>>941/.+4DXbjuuuupmg]MA80+**)**+++....+++.033334589=>AFIQYbfimptwwwwutqtuwxz{{zzyyxyz{xuqmfbjq!wpjd_UQMIGEAAAAGLTW]`]WTOLI?6059AAAAEGI?606?ISZhe[[[[hVN::,,,,'''''',,,,,,,777777777777777777777;;BCCCC!!!!!!!!!!!!!!!",
"!!!!!!!!!!!!!!!!!!!!!!!!!!!!!!!!!!!!!!!!!!!!!!!!!!!!!!!!!!!!!!!!!!!!!!!!!!!!!!!!!!!!!!!>>951110=MbgnuvwwpicUG=50+++++...//....../144445899=>AFIQYbfjpquwwwwvutuvxyz{{{zzyyzz{yvtmgbiqzwtpg`XTMIJJJHGEIPWXY]WQLIFD>959>EEEEDDD>96?GSVZ[VN:CCN:7,,,''''''''''''''''(,,,,,,,,,,,,,,,,,,,1777;;;;8!!!!!!!!!!!!!!",
"!!!!!!!!!!!!!!!!!!!!!!!!!!!!!!!!!!!!!!!!!!!!!!!!!!!!!!!!!!!!!!!!!!!!!!!!!!!!!!!!!!!!!!!>>952458GYjnquwxzpf_OA63/+...0133220..../13665589===>AFIQYbfjpquwwwxwvuvwxyz{{{{zzzz{{yxvpibipwwvvmcYUOJMQUPKGMU]YXWQKGD?===9>DGGGGD?=>>?GSZZZVN:7777,,'''%%%%%%%%%%%%%%%'''''''''''''''''(((((--1358530!!!!!!!!!!!!!",
"!!!!!!!!!!!!!!!!!!!!!!!!!!!!!!!!!!!!!!!!!!!!!!!!!!!!!!!!!!!!!!!!!!!!!!!!!!!!!!!!!!!!!!!>>9536=ATduuuuwz!pdXH=30...034586552/../13588889=>>>>AFIQX`fmqtvwwxxxwwxxyzz{{{{{{{{{{zyxpjcinuwy{pf]UPJQY`XQIQX`]WTLGA>989>AEGIIIID=8=DISZe[VN:,,,,'''%%%%%%%$$$$$$$$$%%%%%%%%%%%%%%%%%%''''((((--131100!!!!!!!!!!!!",
"!!!!!!!!!!!!!!!!!!!!!!!!!!!!!!!!!!!!!!!!!!!!!!!!!!!!!!!!!!!!!!!!!!!!!!!!!!!!!!!!!!!!!!!>>995=EM]guuuuttqfYJA93210134443210..+./13589999=>>>>AFIPW_cipquxxxwwwwxyyz{{{{{{{{{{{zyyqmfjnquwyqjd`XTW]`XQIKMQLHEA?>>==?AED@?@AD?=9BKSVVZVNC:,'''''%%%%%%$$$$$$$$$$$$$$%%%%%%%%%%%%%%%%%''''((((------!!!!!!!!!!!!",
"!!!!!!!!!!!!!!!!!!!!!!!!!!!!!!!!!!!!!!!!!!!!!!!!!!!!!!!!!!!!!!!!!!!!!!!!!!!!!!!!!!!!!!!>>=99DO]dmuuuupmi]M@=84443455410..+++*+.135899===>>>>AFIOUY`fmpuyxwwwwxxyzz{!{{{{{{{{{zzytpjmnqtvxtpmfbY^_`XQIGFD?=9999=?DEFG@=699==>>GSZVVNN::,,''''%%%%$$$$$$$$$$$$$$$$$%%%%%%%%%%%%%%%%%%%''''((((((((!!!!!!!!!!!!",
"!!!!!!!!!!!!!!!!!!!!!!!!!!!!!!!!!!!!!!!!!!!!!!!!!!!!!!!!!!!!!!!!!!!!!!!!!!!!!!!!!!!!!!!>>>>>JYgmpuuuumg`QD865556888830.+*))))+.13589=>>>>>>>AFIMTX_dinuzywvwwxyyz{{!!{{{{{{{{{zzvqmnnpqtvvuungbbb`XQID=8530358=DIIII?603589>AKVeZNN::7,''%%%%%$$$$$$$$$$$$$$$$$$$$%%%%%%%%%%%%%%%%%%%%''''((((((!!!!!!!!!!!!",
"!!!!!!!!!!!!!!!!!!!!!!!!!!!!!!!!!!!!!!!!!!!!!!!!!!!!!!!!!!!!!!!!!!!!!!!!!!!!!!!!!!!!!!!AADDEQ`mpqutqpg`UJA99986530.+*))))))))*+/2599=>>>>>>>AFIMTU]bfmqyxvuvwxyyz{{!{{zzyyzz{{zzxuqppnjgdimpib]]^^WPIA9543359=@FIGFD=63589@GKNNNN::7,,''%%%%%$$$$$$$$$$$$$$$$$$$$$%%%%%%%%%%%%%%%%%%%%%%%''((((((!!!!!!!!!!!",
"!!!!!!!!!!!!!!!!!!!!!!!!!!!!!!!!!!!!!!!!!!!!!!!!!!!!!!!!!!!!!!!!!!!!!!!!!!!!!!!!!!!!!!!FFGIJXdpqtuqpmbWJF@==99630+)&&&&&&&))))+.15===>>>>>>>AFILPUY_cipwvvuvwxyyzz{{{zyxxwxyzz{{yxvtpnf_U]cjc^UWXYUOI@933459>DFGIF@=98589>GRVNN:::7,'''%%%%%%$$$$$$$$$$$$$$$$$$$$$%%%%%%%%%%%%%%%%%%%%%%%'''''''((!!!!!!!!!!",
"!!!!!!!!!!!!!!!!!!!!!!!!!!!!!!!!!!!!!!!!!!!!!!!!!!!!!!!!!!!!!!!!!!!!!!!!!!!!!!!!!!!!!!!IILOT`iuuuupmg]MA@?>>>>61.)&&&&&&&&&&))*+05>>>>>>>>>>AFILOTW]`gnvuutuwxyyzz{{zyxwvuwxzz{{{zzvqm`QDMYd_UMQTWTMI?60358=DIIIID=88889>AKVeN:7,,,''%%%%%%$$$$$$$$$$$$$$$$$$$$$$$%%%%%%%%%%%%$$%%%%%%%%%%''''''(((!!!!!!!!!",
"!!!!!!!!!!!!!!!!!!!!!!!!!!!!!!!!!!!!!!!!!!!!!!!!!!!!!!!!!!!!!!!!!!!!!!!!!!!!!!!!!!!!!!!IILOT`iuuuupmg]MA@?>>>>61.)&&&&&&&&&&))*+05>>>>>>>>>>AFILOTW]`gnvuutuwxyyzz{{zyxwvuwxzz{{{zzvqm`QDMYd_UMQTWTMI?60358=DIIIID=88889>AKVeN:7,,,''%%%%%%$$$$$$$$$$$$$$$$$$$$$$$%%%%%%%%%%%%$$%%%%%%%%%%''''''(((!!!!!!!!!"
};