/* XPM */
static char * result[] = {
"64 64 92 1",
"! c #000000",
"# c #EC0000",
"$ c #E00000",
"% c #D40000",
"& c #C80000",
"' c #BC0000",
"( c #B00000",
") c #A40000",
"* c #980000",
"+ c #880000",
", c #7C0000",
"- c #700000",
". c #646464",
"/ c #5C5C5C",
"0 c #545454",
"1 c #4C4C4C",
"2 c #484848",
"3 c #404040",
"4 c #383838",
"5 c #343434",
"6 c #303030",
"7 c #2C2C2C",
"8 c #640000",
"9 c #580000",
": c #202020",
"; c #4C0000",
"< c #400000",
"= c #000000",
"> c #000000",
"? c #000000",
"@ c #000000",
"A c #000000",
"B c #000000",
"C c #000000",
"D c #000000",
"E c #000000",
"F c #000000",
"G c #000000",
"H c #000000",
"I c #000000",
"J c #000000",
"K c #000000",
"L c #000000",
"M c #000000",
"N c #000000",
"O c #000000",
"P c #000000",
"Q c #000000",
"R c #000000",
"S c #000000",
"T c #000000",
"U c #000000",
"V c #000000",
"W c #000000",
"X c #000000",
"Y c #000000",
"Z c #000000",
"[ c #000000",
"] c #000000",
"^ c #000000",
"_ c #000000",
"` c #000000",
"a c #000000",
"b c #000000",
"c c #000000",
"d c #000000",
"e c #000000",
"f c #000000",
"g c #000000",
"h c #000000",
"i c #000000",
"j c #000000",
"k c #000000",
"l c #000000",
"m c #000000",
"n c #000000",
"o c #000000",
"p c #000000",
"q c #000000",
"r c #000000",
"s c #000000",
"t c #000000",
"u c #000000",
"v c #000000",
"w c #000000",
"x c #000000",
"y c #000000",
"z c #000000",
"{ c #000000",
"| c #000000",
"} c #000000",
"~ c #000000",
"4444444444444444444444444444444444444444444444444444444444444444",
"0402222202222220242222222000000222222222000000022224442200222224",
"4##%%%%%%%%%)220##%%%%%%%%%%%%%%%%%%)240####$$$$$$%%%%%&&&&''')2",
"2#&((%+)%+&)8720#'+'+'+','*'*',','&)-724%)&(&((&-&,&(&+(),&*&),7",
"2%),)+)*-)+-8720%'++)+-))-*))-*)-)*-9720%)),8)+-+),+))+),+)9)-87",
"2%,))-*))-)9<720%+')+)-)+)-)-+,)-*,-9722%-)8+)8)-),)+)8)*,),)-;7",
"2&),+*,)-+)-<720''+)++*)-+-)+-*,+-)-<742'-),)+8)--))-)+)),)9)+;7",
"2',))-)*-*-9<722'&+)-)-)-)-*+-,)-*,-9742'*)8+),+-+,)+)8),+),)-<7",
"2')-+9-,9-+-<740**--;+--+-;-+-+-;+--<742'--9--;+;-9+;-;+8;-+-+<7",
"2,888<<<<<<<<742,88999999999<<<<<<<<<742+8888888888999999999<<<7",
"2277777777:::740277777:::::77::::7777720477777777777:::::7777777",
"044442222444442422222224440222442222220420000/../002234304022204",
"#%%%''''''''''')202##%%%%%%&&&&&&&'''''''''''''''''')230##%%%%%%",
"(++(*,(,*+(8(+)<420#-(&,'8+'++&*)+,+)+)+),&8&+*'&*&)<424#&,(+(+(",
"+)+),++8)+8+))-<722%(-),))+)8)-8+),),)8))+8)+)-+)-)-<420&(,)+,)*",
"-))+*8),++*8)+-<742%-)+*++8++-)+8)+,8,++)9+,)-)-))--<732&,))),),",
")++)+,,+,)*8)8-<742%-)),)8+)8-)8+),+,)8)+9)8)-+-)-)-<742&(,),)*,",
"-)8)-+,*8)8+))-<720%(9),)+8+9+-8)+,9,)8+9+)8+)-+)-)-<:42(,))9),+",
"-(8-;,-*-*-9*--<720()-+9-*-+8-+9-*-*8+-++9*--+;-*-+-<:30(),-9-*-",
"<;;;;;;;;;;;;<<<420)8888888888888999999999999999999<<:24)8<8<<8<",
"777:777:::777::742424577777755445777:::::777::::7777742027777777",
"0024420404224444220222343434322204023444332203443222020403430222",
"0##%%%%%%%''''''''''''''''')200##%%%%%%%%%%''''''''''''''''''')2",
"0#+(',',',(+(+(&+(+(+'(8(&-<420#'-%)(+)(+(*(,8)+-+),+)*+),+)9)<7",
"4#(+)*),-+))+*+)+8)-)+8+)-(<72/%'*)8)8+-*+8)8+)8)-),)+)8)*,),-<7",
"2'8))-+9)8)-)+*)8+)-+)+8,)-<70.%',),)8)-*),),)+8)--)*-*+)),)9-<7",
"2'(+);)9-+)+-,),+8,)8)+8)-9<70/%-)-*+8+*-)8+8+),+-+,)+)8),+),-<7",
"0'-8);+,)8)9)8)+8+)+8)8+,,(<720%&-)-)+)+-)8)9--;);)9);))+8;-+-<7",
"2&)8---9-;--+8+--+--8-*-*--<740&)-*-+9----8+-+;)9-);-+;)9);)--<7",
"2)*88888888888888;;;;;;;;;<<740)88888888888888999999999999<9,9<7",
"2247777777777777777744477777722277777777:::::74447:::77777777777",
"00000224244420..000222334434430222040202343432002234322204022204",
"'''''''''')240%%%%%%%%''''''''''''''''')200&#%%%%%%%%%''''''''''",
")()(*&((&)<424%)8)-))8)+))-)+8))8))-),)<420%),)-))8),+,)-)+),)-)",
"),+)*),)+-<720%8),+),)*-)++-++)+8)-+)8)<400%)9)-)+8)+),++*-*,*+-",
"+,)*,),*)-<724%8)),*)-)-)+)9);++)+-*),)<40.%),)-)+)+)),)-*+)*,)-",
")+,)*)*,+-<420%*8),),9*+++-+)8)+8+*-+),<40.%,))-)8)),,),)+**+,-+",
")+,),),*)-<422%8),9*)-++)+)-+;8*8)*-),)<420&),))-)++,),)-*+),+)-",
"--+*--*---<422*8))9),-)-)8)9+8)+8*-*)8,<720&)9)-))+)+),)-*-*,))-",
"<<;;;;;;;<<722)88888888899999999999999<<722)8888888888888889999<",
"7777777777772027::::774447:::::77777777742227777442477:::7777777",
"0204244224444224442222200224440222042424220204020/.0122402020404",
"4#%%%%%%%'''''''''''''''''''''')404##%%%%%%%%''''''''''''''''')2",
"0%)++)8)),*),)-+)8),)+)8)8)),-)<420#))8)8)9)-)9)+9*+-)+,),*-+)<7",
"2%)8)+8)+*,)8+9)*8)9+*+8),),)-*<722%+)8+8,9+9*,)9)8)-+-)+,*)8+<7",
"2%+8)8+-8)8)+,+)8*++9,);*9+8++-<742%+)88+),9),9*)9)--)-),)-+8)<7",
"4%)+)+8)+,*),)9+)8)9+)9*),)))-,<742%)8)+8)9)-*,,9+8),+*+*,-)+)<7",
"0%)8+)8)8)8)8)-)88)9+,),+8*8+-)<:40%)88)8,9)9)9*9)8+-)-,),*+8-<7",
"4&)8)8+-+*,)+++)*8+,98);)-*,)-)<:40&-)8+8)9,),9*-+8)-)-),*-)8)<7",
"0)888888888;;;;;;;;;;;;;;;;;;;;<720)88888888899999;;;;;;;;;;;<<7",
"4277777777774447::::777::::77::77242777777:::75457:7777:::777777",
"040402022220..020402023444320224220402222222210001222246::642202",
"%%%%%'''''''''''')202##%%%%%%%%''''''''''''''')240#%%%%%''''''''",
",)9))8*8),&,)8),)<722%))))8);),)8)8)*)8)8)9)-8<420%)8+)9)-)-)8)-",
"),,),)8*,8)9,8+8+<722%,)-)8-;,*,)+8+*8,+-+9)8)<520%8)9)-)-+)-)+;",
"),9,)8*8,),9)+8*,<723%,,-)8,,)9);))8)8)8+9++8-<720%8)--))+-+-8-+",
",*9*88)8),)9,-8)8<723%);-)8);),*8)8+,8)8)+9-*8<720%)89)+--)-)8-)",
"8),)8)8+)8),9+),+<723%;))8),-+9,;)8)8,,8+-9+-8<722%8)+)-)+--9)-)",
"8),,8**8*8,9)8)8*<722%;)-)8,,+;*8+;),8)+8)9)9+<742%8)9-9)-)-98);",
",*9)88+8,,)9)8-+,<720&);-)8);+8)8)-8)8,)8+-+8+<742&889)9)-)-)8)-",
";;;;;;;;;;;;;;;;<<722)<<<<<;;;;;;;;;;;;;;;;;;<<:20)<<;;;;;;;;;;;",
"777777777777777777720245577777777777777:::::7:::422777777:::::77",
"4040444222220042222000002220222022422234434432343022402222343222",
"0000000000000000000000000000000000000000000000000000000000000000"
};