/* XPM */
static char * result[] = {
"64 64 92 1",
"! c #000000",
"# c #DECD02",
"$ c #809EA5",
"% c #AB8F12",
"& c #6D8084",
"' c #5B6567",
"( c #625249",
") c #495254",
"* c #D12F11",
"+ c #772215",
", c #49383D",
"- c #3D241E",
". c #353734",
"/ c #342C28",
"0 c #242423",
"1 c #301E18",
"2 c #1A1A18",
"3 c #000000",
"4 c #000000",
"5 c #000000",
"6 c #000000",
"7 c #000000",
"8 c #000000",
"9 c #000000",
": c #000000",
"; c #000000",
"< c #000000",
"= c #000000",
"> c #000000",
"? c #000000",
"@ c #000000",
"A c #000000",
"B c #000000",
"C c #000000",
"D c #000000",
"E c #000000",
"F c #000000",
"G c #000000",
"H c #000000",
"I c #000000",
"J c #000000",
"K c #000000",
"L c #000000",
"M c #000000",
"N c #000000",
"O c #000000",
"P c #000000",
"Q c #000000",
"R c #000000",
"S c #000000",
"T c #000000",
"U c #000000",
"V c #000000",
"W c #000000",
"X c #000000",
"Y c #000000",
"Z c #000000",
"[ c #000000",
"] c #000000",
"^ c #000000",
"_ c #000000",
"` c #000000",
"a c #000000",
"b c #000000",
"c c #000000",
"d c #000000",
"e c #000000",
"f c #000000",
"g c #000000",
"h c #000000",
"i c #000000",
"j c #000000",
"k c #000000",
"l c #000000",
"m c #000000",
"n c #000000",
"o c #000000",
"p c #000000",
"q c #000000",
"r c #000000",
"s c #000000",
"t c #000000",
"u c #000000",
"v c #000000",
"w c #000000",
"x c #000000",
"y c #000000",
"z c #000000",
"{ c #000000",
"| c #000000",
"} c #000000",
"~ c #000000",
"!!!!!!!!!!!!!!!!!!!!!!!!!!!!!!!!!!!!!!!!!!!!!!!!!!!!!!!!!!!!!!!!",
"''''''''''''')')')')))!!!!!!!!!!!!!!!!!!!!))')')''''''''''')')''",
"))))))))))))))))))))))!202!2022202!202222!))))))))))))))))))))))",
"))))))))))))))))))))))!0.2!..00..2!..00.2!))))))))))))))))))))))",
")))))))))))))))),$')))!0.02..00..02..00.0!)),$')))))))))))))))))",
")))))))))))))))),'')))!0.2!..00..2!..00.0!)),'')))))))))))))))))",
")))))))),))))))),,))))!0.02..00..02..00.0!)),,,)))))))))))))))))",
"))))))),2,))))))))))))!0.2!..00..2!..00.0!))),,)))))))))))))))))",
"'''''''(((''''''''''''!0.02..00..02..00.0!'''(('''''''''''''''''",
"))))))),,,))))')')))))!0.0!..00..0!..00.0!))),))))))')')')))))))",
"'''''''(('''''''''''''!0.02..00..02..00.0!''''('''''''''''''''''",
"'''''''(((''''''''''''!0.02..00..02..00.0!'''(''''''''''''''''''",
"'''''''(('''''''''''''!2.02..00..02..00.0!''''''''''''''''''''''",
"'''''''(('''''''''''''!1.02..00..02..00.0!''''''''''''''''''''''",
"''''''''('''''''''''''!1.02..00..02..00.0!''''''''''''''''''''''",
"'''''''(('''''''''''''!1002..00..02..00.0!''''''''''''''''''''''",
"''''''''('''''''''''''!!+02..00..02..00.0!''''''''''''''''''''''",
"''''''''('''''''''''''!2+220.00..02..00.0!''''''''''''''''''''''",
"''''''''''''''''''''''!02*2%000..02..00.0!''''''''''''''''''''''",
"''''''''('''''''''''''!0.!*0#00..02..00.0!'''''''''''''''''')&''",
"''''''''''''''''''''''!0.01+#00..02..00.0!''''''''''''''''')$'''",
"''''''''''''''''''''''!0.0%!#20.002..00.0!'''''''''''''''''&''''",
"''''''''''''''''''''''!0.0%0#+20%02..00.0!''''''''''''''')''''''",
"''''''''''''''''''''''!0.0#0#!**1#2..00.2!'''''''''''')')'''''''",
"''''''''''''''''''''''!0.0#02#21+#+000201!''''''''''')&)')&'''''",
"''''''''''''''''''''''!00#!.0!%%!#!****+!!'''''''''')$)')$''''''",
"''''''''''''''''''''''!0!#2..2!20!#02!!01!''''''''')$'')&'''''''",
"''')''''''''''''''''''!!%!2..020.0#002001!'''''''''&'')'''''''''",
"'''')'''''''''''''''''!1002..00..0!#000%!!''''''''''''''''''''''",
"'''))'''''''''''''''''!!002..00..022###20!''''''''''''''''''''''",
"'')))'''''''''''''''''!0.02..00..0202!!00!''''''''''''''''''''''",
"''))''''''''''''''''''!0.02..00..02.000.0!''''''''''''''''''''''",
"'')))'''''''''''''''''!0.02..00..02..00.0!''''''''''''''''''''''",
"''')'''''''''''',$)'''!0.02..00..02..00.0!'',$)'''''''''''''''''",
"'''')''''''''''',))'''!0.02..00..02..00.0!'',))'''''''''''''''''",
"'''''''''''''''',,''''!0.02..00..02..00.0!'',,''''''''''''''''''",
"''''''''''''''''''''''!0.02..00..02..00.0!''''''''''''''''''''''",
"$$$$$$$$$$$$$$$$$$$'$'!/.02..00..02..00./!'$'$$$$$$'$'$'$'$$$$$$",
"!!!!!!!!!!!!!!!!!!!!!!!/.02..00..02..00./!!!!!!!!!!!!!!!!!!!!!!!",
"!!!!!!!!!!!!!!!!!!!!!!2..02..00..02..00..2!!!!!!!!!!!!!!!!!!!!!!",
"02!2022202!2022202!2020..02..00..02..00..0!2022202!2022202!20222",
".2!..02..2!..02..2!..00..02..00..02..00..2!..02..2!..02..2!..02.",
".2!..00..2!..00..2!..00..02..00..02..00..0!..00..2!..00..2!..00.",
".2!..00..2!..00..2!..00..02..00..02..00..2!..00..2!..00..2!..00.",
".02..00..02..00..02..00..02..00..02..00..02..00..02..00..02..00.",
".2!..00..2!..00..2!..00..02..00..02..00..2!..00..2!..00..2!..00.",
".02..00..02..00..02..00..02..00..02..00..02..00..02..00..02..00.",
".0!..00..0!..00..0!..00..02..00..02..00..0!..00..0!..00..0!..00.",
".02..00..02..00..02..00..02..00..02..00..02..00..02..00..02..00.",
".02..00..02..00..02..00..02..00..02..00..02..00..02..00..02..00.",
".22..00..22.000..22..00..22.000..22..00..22.000..22..00..22.000.",
".02..00..02..00..02..00..02..00..02..00..02..00..02..00..02..00.",
"02!.000.02!.000.02!.000.02!.000.02!.000.02!.000.02!.000.02!.000.",
".220.00..220.00..220.00..220.00..220.00..220.00..220.00..220.00.",
"02!.002.02!.002.02!.002.02!.002.02!.002.02!.002.02!.002.02!.002.",
"0!!002!00!!002!00!!002!00!!002!00!!002!00!!002!00!!002!00!!002!0",
"$$$$$$$$$&$$$$&$&$&$&$&&&&&&$&$&$&$$$$$$$$$$$$$$$$$$$$$$$&$$$$&$",
"'''''''')'''''''''''''''')'''''')''''''')''''''')')''''')'''''''",
"')''''')'''''''''''''''))''''''''''''''(((''''''')''''')''''''''",
")''$)''''''$)''''''$)'')''($)''''''$)'('(''$)''')''$)''''''$)'''",
"'',))''''',))''''',))')')',))'')'',))''('',))'')'',))''''',))'')",
")',,'''''',,'''''',,''')'',,(''''',,''(''',,''))'',,'''''',,'')'",
"'''''''''''''''''''''')''''((''''''''('''''''')'''''''''''''')')",
",------,-,-,,,,,,,-,-,2,2,2222,2,,,,,,,,-,-,,-,-,------,-,-,,,,,"
};