/* XPM */
static char * result[] = {
"64 64 92 1",
"! c #000000",
"# c #BAC6C4",
"$ c #BEC3BF",
"% c #ABB9BB",
"& c #B4B6AF",
"' c #AEB4B0",
"( c #A2B3B4",
") c #ADB0A9",
"* c #809EA5",
"+ c #9E977B",
", c #779197",
"- c #868B80",
". c #7F8072",
"/ c #6D8084",
"0 c #667476",
"1 c #5B6567",
"2 c #495254",
"3 c #342C28",
"4 c #010101",
"5 c #010101",
"6 c #010101",
"7 c #010101",
"8 c #010101",
"9 c #010101",
": c #010101",
"; c #010101",
"< c #010101",
"= c #010101",
"> c #010101",
"? c #010101",
"@ c #010101",
"A c #010101",
"B c #010101",
"C c #010101",
"D c #010101",
"E c #010101",
"F c #010101",
"G c #010101",
"H c #010101",
"I c #010101",
"J c #010101",
"K c #010101",
"L c #010101",
"M c #010101",
"N c #010101",
"O c #010101",
"P c #010101",
"Q c #010101",
"R c #010101",
"S c #010101",
"T c #010101",
"U c #010101",
"V c #010101",
"W c #010101",
"X c #010101",
"Y c #010101",
"Z c #010101",
"[ c #010101",
"] c #010101",
"^ c #010101",
"_ c #010101",
"` c #010101",
"a c #010101",
"b c #010101",
"c c #010101",
"d c #010101",
"e c #010101",
"f c #010101",
"g c #010101",
"h c #010101",
"i c #010101",
"j c #010101",
"k c #010101",
"l c #010101",
"m c #010101",
"n c #010101",
"o c #010101",
"p c #010101",
"q c #010101",
"r c #010101",
"s c #010101",
"t c #010101",
"u c #010101",
"v c #010101",
"w c #010101",
"x c #010101",
"y c #010101",
"z c #010101",
"{ c #010101",
"| c #010101",
"} c #010101",
"~ c #010101",
"+-/////////+/014#%%%***..)++/014#$'&&+++++++..2443323220))++/013",
"./////--///--/03&-////+*////0/03%-///+--///--/0..+))++))-///0/03",
"+//////-//--///2-///-+///////0/2*///+-////--/////////+--/////0/2",
"+//*//-/---///13+//**//////////3*//*//-/---////0////+-/////////3",
"*/-*/-/--/////12+/+///////////03*/-*/-/--/////0////*//////////03",
"*/+///-//////1/2++-/////////,123*/+///-//////0/0//-*/-//////,123",
"*+///-////0/0//2*+-/-/-////,1122*+///-////0/000/0///-/-////,1122",
".*////////1////2)+--/-////,,1123.*////////1///00///-/-////,,1123",
".////////11////2)+-/--///,110122.////////11//0//////--///,110122",
"1///////,10/0//2+-/////0/10//0121///////,10/0//////////0/10//012",
"11/////,10/0///2+/////0/00////1211/////,10/0//////////0/00////12",
"11////,10/0/0//2+-///0/0///////211////,10/0/0////////0/0///////2",
"10///,10/0/////3+///0/0////////310///,10/0//////////0/0////////3",
"0//,111///////03+-////////////030//,111///////0/0/////////////03",
"0111110//110//13-/-///////////140111110//110//1/0111/////110//13",
"3333232222232334)+--/-/////////443332322222323443333232222232334",
"**%%***..1111004+--/-/////////14#&-+++++++++/013()-++-12111**01*",
"*/*///+*//1100/3+/////////////13%-///+--///--/03(-//*-/-21*--/0/",
"/*//-+//////0/03-//*////////0/03%///+-////--///2*//*-/--21(-//1/",
"///**////////003+/*////1/////0/3%//*////---/-/13*/*//-//*1*///01",
"//+/////////0/02+*-///0/1/////02*/-*///---/-//12*////////**///00",
"/0/////////0/013--/-///01//////3*/+/////-/-//1/21/////////*////0",
"0///////////,1121/-/////1/0////2*+/////-////0//3210/0////0////10",
"/0//-/-/////,1/22--////001/////2.*/////////////21211/0/00/0/11/0",
"0//---/////,1012122*///0//0///,2./////////////0310//1110////////",
"///--//////,11/21111*/0//////,121////////////0030//////1///////0",
"//--/-/////01/121*(***/0///,,01221.////////011130/////0/0//,////",
"+--/-/////01/1/3*--///////,00/0321.//0//,,01/0/20/////////,00///",
"/-/-//0///1/0/02*-/////////0/0022+0/0/,//01/0/031/0///////,0//1/",
"0////1///010/0/30////////////023+./0/0//01/1/00310/0/////,0/00/1",
"10/11///001/001310/11//////02334-.0001/000//0/13110/0///,1100211",
"33232222222233443323222222334344-.//1/1/00/////43333232222232334",
"4#%%***))+-//0%)))323220))++/014-/////011//+/013#&-+++++++++/013",
"3)-///+++-////////))++))-///0/03.-/////////--/03%-///+--///--/03",
"3)///----////////////+--/////0/2.///+-/////-///2%///+-////--///2",
"2)//**/-////////////+-/////////3*//*//////-///13%//*////---/-/13",
"3+/+//-/-///0//////*//////////03*/-*/-/--/////12*/-*///---/-//12",
"2++-/-/--//0//////-*/-//////,123*/+//////////1/2*/+/////-/-//1/2",
"2)-///-///0/0/////-/-/-////,1122*+///-////0/0//2*+/////-////0//2",
"0)-//////0/0//////--/-////,,1123.*////////1////2.*/////////////2",
")-////////0///////-/--///,110122.////////11////2.././/////////02",
")///////,10//////-/////0/10//0121///////,10/0//2+/.//////////002",
"+//////,10////////////0/00////1211/////,10/0///2+././//////01112",
"+/////,,1////////////0/0///////211////,10/0/0//2*.///0//,,01/0/2",
"/0///,110///////////0/0////////310///,10/0/////3+///0/0/011/0/03",
"0/0//11110////////////////////030//,111///////03*//0/0/000/1/003",
"10//0222211//01//111/////110//130111110//110//14*/00////0///0/13",
"332333232222333433332322222323343333232222232334&//////////0///4",
"#&-+++++++++/013()-++-12111**01//&-+++++++++/013+//////////0///4",
"%-///+--///--/03(-//*-/-21*--/0//-///+--///--/03&-////+*//000013",
"%///+-////--///2*//*-/--21(-////////+-////--///2+///-+////0/0/13",
"%//*////---/-/13*/*//-//*1*////////*////---/-/13&//**////0///,13",
"*/-*///---/-//12*////////**////////////---/-//12&/+//////////112",
"*/+/////-/-//1/21/////////*/////////////-/-//1/2++-/-/-/////,113",
"*+/////-////0//2210/0////0/////////////-////0//2+-/-/-/////,1102",
".*/////////////21211/0/00/0////////////////////2+-//-/////,10//2",
"./////////////0210//1110//////////////////////02+//--////,10///2",
"1////////////0020//////1/////////////////////002+//-////110/0/12",
".1/////////011120/////0/0//,///////////////01112+/--//0110/0//12",
"11////////01/0/20/////////,00/0//////0//,,01/0/2+--///////0///03",
".00///0///1/0/031/0///////,0/////00/0/,,111/0/03/-////0//0/0///2",
".0/0/0///0/1/00310/0/////,0/00///0/0/01101/1/0030////1/////////3",
".-/000//0/0/0/13110/0///,1100///0/00011/1/1/0/1310/11////////013",
"-/.////0/0/////433332322222323343333232222232334432322222222333!"
};