/* XPM */
static char * result[] = {
"64 64 92 1",
"! c #000000",
"# c #BAC6C4",
"$ c #BEC3BF",
"% c #ABB9BB",
"& c #B4B6AF",
"' c #AEB4B0",
"( c #A2B3B4",
") c #A5B36E",
"* c #ADB0A9",
"+ c #76A15E",
", c #809EA5",
"- c #779197",
". c #7F8072",
"/ c #6D8084",
"0 c #667476",
"1 c #547049",
"2 c #495254",
"3 c #342C28",
"4 c #010101",
"5 c #010101",
"6 c #010101",
"7 c #010101",
"8 c #010101",
"9 c #010101",
": c #010101",
"; c #010101",
"< c #010101",
"= c #010101",
"> c #010101",
"? c #010101",
"@ c #010101",
"A c #010101",
"B c #010101",
"C c #010101",
"D c #010101",
"E c #010101",
"F c #010101",
"G c #010101",
"H c #010101",
"I c #010101",
"J c #010101",
"K c #010101",
"L c #010101",
"M c #010101",
"N c #010101",
"O c #010101",
"P c #010101",
"Q c #010101",
"R c #010101",
"S c #010101",
"T c #010101",
"U c #010101",
"V c #010101",
"W c #010101",
"X c #010101",
"Y c #010101",
"Z c #010101",
"[ c #010101",
"] c #010101",
"^ c #010101",
"_ c #010101",
"` c #010101",
"a c #010101",
"b c #010101",
"c c #010101",
"d c #010101",
"e c #010101",
"f c #010101",
"g c #010101",
"h c #010101",
"i c #010101",
"j c #010101",
"k c #010101",
"l c #010101",
"m c #010101",
"n c #010101",
"o c #010101",
"p c #010101",
"q c #010101",
"r c #010101",
"s c #010101",
"t c #010101",
"u c #010101",
"v c #010101",
"w c #010101",
"x c #010101",
"y c #010101",
"z c #010101",
"{ c #010101",
"| c #010101",
"} c #010101",
"~ c #010101",
"#$'&&)))))))/01443323220**))/013#$'&&)))))))/014#%%%,,,..*))/01!",
"%+///)++///++/03%***))**+///0/03%+///)++///++/03&+////),////0/03",
",///)+////++///2%+///)++/////0/2,///)+////++///2+///+)///////0/2",
",//,//+/+++///13%///)+/////////3,//,//+/+++///13)//,,//////////3",
",/+,/+/++/////12,//,//////////03,/+,/+/++/////12)/)///////////03",
",/)///+//////1/2,/+,/+//////-123,/)///+//////1/2))+/////////-123",
",)///+////0/0//2,)+/+/+////-1122,)///+////0/0//2,)+/+/+////-1122",
".,////////1////2*)++/+////--1123.,////////1////2*)++/+////--1123",
".////////11////2*)+/++///-110122.////////11////2*)+/++///-110122",
"1///////-10/0//2)+/////0/10//0121///////-10/0//2)+/////0/10//012",
"11/////-10/0///2+/////0/00////1211/////-10/0///2+/////0/00////12",
"11////-10/0/0//2/////0/0///////211////-10/0/0//2/////0/0///////2",
"10///-10/0/////3////0/0////////310///-10/0/////3////0/0////////3",
"0//-111///////030/////////////030//-111///////030/////////////03",
"0111110//110//140111/////110//130111110//110//130111/////110//14",
"4333232222232344333323222223233433332322222323344333232222232344",
"#&+)))))))))/013(*+))+12111,,013#%%%,,,..1111004((,,,12110001114",
"%+///)++///++/03(+//,+/+21,++/03&+////),//1100/3*+////120////013",
"%///)+////++///2,//,+/++21(+///2+///+)//////0/03+//,//01////0/03",
"%//,////+++/+/13,/,//+//,1,///13)//,,////////003)/,////1/////0/3",
",/+,///+++/+//12,////////,,///12)/)/////////0/02),+///0/1/////02",
",/)/////+/+//1/21/////////,////2))+////////0/013++/+///01//////3",
",)/////+////0//2210/0////0/////2)+//////////-1121/+/////1/0////2",
".,/////////////21211/0/00/0////2)+//+/+/////-1/22++////001/////2",
"./////////////0210//1110///////2)//+++/////-1012122,///0//0///-2",
"1////////////0020//////1///////2)//++//////-11/21111,/0//////-12",
"11/////////011120/////0/0//-///3)/++/+/////01/121,(,,,/0///--012",
"11///0//--01/0/20/////////-00/03)++/+/////01/1/3,++///////-00/03",
"100/0/--111/0/031/0///////-0//23/+/+//0///1/0/02,+/////////0/002",
"00/0/01101/1/00310/0/////-0/00340////1///010/0/30////////////023",
"0/00011/1/1/0/13110/0///-110024410/11///001/001310/11//////02334",
"3333232222232334333323222223233433232222222233443323222222334344",
"#$'&&)))))))/013#&+)))))))))/0134%%%,,,**)+//00343323220**))/014",
"%+///)++///++/03%+///)++///++/033*+///)))+////14%***))**+///0/03",
",///)+////++///2%///)+////++///23*///++++/////13%+///)++/////0/2",
",//,//+/+++///13%//,////+++/+/132*//,,/+//////13%///)+/////////3",
",/+,/+/++/////12,/+,///+++/+//123)/)//+/+///0//2,//,//////////03",
",/)///+//////1/2,/)/////+/+//1/22))+/+/++//0///3,/+,/+//////-123",
",)///+////0/0//2,)/////+////0//22*+///+///0/0//2,)+/+/+////-1122",
".,////////1////2.,/////////////20*+//////0/0///2*)++/+////--1123",
".////////11////2./////////////02*+////////0////2*)+/++///-110122",
"1///////-10/0//21////////////002*///////-10///12)+/////0/10//012",
"11/////-10/0///211/////////01112)//////-10////12+/////0/00////12",
"11////-10/0/0//211///0//--01/0/2)/////--1/////03/////0/0///////2",
"10///-10/0/////3100/0/--111/0/03/0///-110//////2////0/0////////3",
"0//-111///////0300/0/01101/1/0030/0//11110/////30/////////////03",
"0111110//110//140/00011/1/1/0/1310//0222211//0130111/////110//13",
"3333232222232334333323222223233433233323222233343333232222232334",
"#&+)))))))))/013#%,,,,,..1111004#&+)))))))))/013(*+))+12111,,013",
"%+///)++///++/03$+////),//110/13%+///)++///++/03(+//,+/+21,++/03",
"%///)+////++///2'///+)////////13%///)+////++///2,//,+/++21(+///2",
"%//,////+++/+/13&//,,////////-13%//,////+++/+/13,/,//+//,1,///13",
",/+,///+++/+//12&/)//////////112,/+,///+++/+//12,////////,,///12",
",/)/////+/+//1/2))+/+/+/////-113,/)/////+/+//1/21/////////,////2",
",)/////+////0//2)+/+/+/////-1102,)/////+////0//2210/0////0/////2",
".,/////////////2)+//+/////-10//2.,/////////////21211/0/00/0////2",
"./////////////02)//++////-10///2./////////////0210//1110///////2",
"1////////////002)//+////110/0/121////////////0020//////1///////2",
"11/////////01112)/++//0110/0//1211/////////011120/////0/0//-///3",
"11///0//--01/0/2)++///////0///0311///0//--01/0/20/////////-00/03",
"100/0/--111/0/03/+////0//0/0///2100/0/--111/0/031/0///////-0//23",
"00/0/01101/1/0030////1/////////300/0/01101/1/00310/0/////-0/0033",
"0/00011/1/1/0/1310/11////////0130/00011/1/1/0/13110/0///-110023!",
"333323222223233443232222222233343333232222232334333323222223233!"
};