/* XPM */
static char * result[] = {
"64 64 92 1",
"! c #000000",
"# c #936B37",
"$ c #956537",
"% c #895D33",
"& c #7C582D",
"' c #784E23",
"( c #70522A",
") c #724D2A",
"* c #674A24",
"+ c #694727",
", c #5F4323",
"- c #503F1C",
". c #4F391C",
"/ c #51351B",
"0 c #4F351D",
"1 c #483718",
"2 c #422E19",
"3 c #432D16",
"4 c #3D3016",
"5 c #372A13",
"6 c #372814",
"7 c #342611",
"8 c #332311",
"9 c #2A2110",
": c #261D0E",
"; c #271B0D",
"< c #1B1309",
"= c #000000",
"> c #000000",
"? c #000000",
"@ c #000000",
"A c #000000",
"B c #000000",
"C c #000000",
"D c #000000",
"E c #000000",
"F c #000000",
"G c #000000",
"H c #000000",
"I c #000000",
"J c #000000",
"K c #000000",
"L c #000000",
"M c #000000",
"N c #000000",
"O c #000000",
"P c #000000",
"Q c #000000",
"R c #000000",
"S c #000000",
"T c #000000",
"U c #000000",
"V c #000000",
"W c #000000",
"X c #000000",
"Y c #000000",
"Z c #000000",
"[ c #000000",
"] c #000000",
"^ c #000000",
"_ c #000000",
"` c #000000",
"a c #000000",
"b c #000000",
"c c #000000",
"d c #000000",
"e c #000000",
"f c #000000",
"g c #000000",
"h c #000000",
"i c #000000",
"j c #000000",
"k c #000000",
"l c #000000",
"m c #000000",
"n c #000000",
"o c #000000",
"p c #000000",
"q c #000000",
"r c #000000",
"s c #000000",
"t c #000000",
"u c #000000",
"v c #000000",
"w c #000000",
"x c #000000",
"y c #000000",
"z c #000000",
"{ c #000000",
"| c #000000",
"} c #000000",
"~ c #000000",
"*.,.,.,.,6&.44..,2&.,,..,...,2&.,.,:*4..(.+.,6&4..).,,,6$...4.+6",
"*.,.,...,6&.5...,2&.,,,.....,2&.,.,9*5..(.+.,6*,..+4.,.6$.....,6",
"*4,......6*,545.,2&.,,,.,4..,6&.,.,6*;5.,.,.,6&,,.+4,,.6&,.,.,+2",
"*4,.,..5.6-,5.5.,6&.,,4..4..,6&4..,:*;5.).+.,6&,.,+,,,,6&,.,..,6",
"*.....),.6$,5.5.,6&4.,..,5,.,6&.4.,:1;5.)+,.,9&,,.+,,,,6&,,,,,,6",
"&.,.,.,,,6%,5...,6&.4...,4+.,6*44.,:*5..(.+.,6&,,,+,,.,6&,,,,.,2",
"&,,...,.,6%,4.4.,6*44,..,.+.,6*.4.,9*.,.(++.,6&,,.+,,.,6&,4,,,.2",
"&,..,.,4,6%,4...,2*.4.,.,,+.)6&.4.,9*,,.),+.,6&.,,+.,.,6&,.,,,,6",
"&...,.,4,6%,).+.,6&.44,..,+.,6&,..,6&,..,,,.+2&,,,..,.,6&..4.,,2",
"&.+.,.,4.2%,(...,0&,..,..,+.,6&.,.,6&,..),+.+2*.,,.,..,6&,...,,6",
"*,+4+.,542&,(4..)0&.,.,.,,+.+9*.+.,2&.,.,,..+6*.,..,..,9$.,..,.2",
"*,+4,,,5.2*,(..5,0&,,.,.,.+4+9*,..,6$.,.,,..+6%.,..,..,:$4,...,6",
"*,+4.,,5.2&.(..5)6&.,.,,,4+.+6*...,2$4..,,..+2%.,...,.,:&.,.,..2",
"*.+4+.,5.9*.,...,6&.,.,,,.,.+6&..+.2*,4,+,,.+2%4,.....,:*.,....2",
"*.+4..,5.6&.)..4,6&4...,,.,.,6*,4+.0&.4,,.,.,2%4....,.,9*.,.,4.6",
"*.,4.,,5.9*.)+,.,614..,.,.,.,6&,.+.0*..,,.,.,6%4+..4..59-.,..4.6",
"&.,.,.,4.:*.(.+.)9*5,..,....,6&,5+.2*..,,.4.,6%4..,4,4.91.,.,5,6",
"&.+4..,..<1.(++.46-.,.,.,...,6&,5+.2*,.,,.,.,6&4..,4,..91...,4,6",
"&.+.,.,5.<1.),+.59-.,...,.5.,6*,54,2*....,,.)6&.,.,4.4.9*.,.,.,6",
"&.+,+.,55<1.,,,.56-.,.,.,...+6*+54,6*,....,.)6%4..,....9&...,,,9",
"&.+.+,,5.:*.),+..9*.,.,.,.5.)6*+;5.2*,.,,,,.)6%.,...,.4:&....,,9",
"&4,.+,,4.6&.,,..,6&.,4,.+...,2*+5446*,.,,,,.,6%,+..,,,.9&..4.,.9",
"&4,.+.,4.2&.,...,2&.44,,,...,2*+;546&,.,,,+,,6%.+..),.,6$.,4,,.9",
"%..+.,.,,6*,.,..,2*.44,,....,6*,5446&,.,,,(,+9&.+..),,,6&.)4,..9",
"%..+.,.,,6*+,.,.+6*.4.,,)...,6&,;5.9&,.,..(,+9&.+.,.,.,6$.).,4.9",
"%..+.,,,.2*+.,4.(6%..,,,(.+.,6&+;5461..,,.+,+6&.+.,.,.,6$.,.,..9",
"%..+.,.,.6*+..4.(2%..,,,(.+.,9&+;4.61.4...,,,6&.+.,.,4.6$.),..46",
"%....,,,.2*+.,4.(2%4.,,,(.+.,9&+;4,61.,,,,+,,6&.+.,..4.2$.,,...9",
"%.,..,.,.6*,..4.(2%4.,,.(.+.,9*+54,6&5.,..,,,6*.+.)..5,2&.,.4.46",
"$..+4),..2-,,.4.,6%4..,.,.,..9*+44,:&.,.,,,.,6*.......,2*.,.5.49",
"%.,..,...2-,....,6%5..,.).+..9*+.4,:$4..,.,.,6*,..44,.,6*.,.4.56",
"&..+.).,.2-.,.,.+6&54,,.,,,..6*).4,9$..4,,..,6*.+.54...6&.4.4.56",
"&,4+.,,,.61.,.,.,6&54.,4..+..6*).4,6#,.,.,,.+6$,....,..6&.,.,.56",
"&,.+.),,.61.,.+.,6%44.,4.,+..6&(,.,6#.4,.,,.+6$.+.,.,.+6&.,.,.46",
"&.4+4),,.:85,.(.,6%44.,4..+..2*(,.,6#,,,.,,.+2%4+.,,,.46&.,.,.46",
"&.4,.),..<15..(.,6%4..,44.,.,6*),.,6#,,,.,..+2*.+.,,..46&.,....6",
"&.,.)...4:-.,.(.,6%4.,,45.+4.2&,,.,6#,.,,...+6%4+.+...46&.,.)4+6",
"&4,.)...,:*.,.(.+9&4.,,45,..,6&),,,6#,.,....,6*4,.).+.,2&..,(.+6",
"&4,.(,.,.9*,,.+.+9&4..,5.,...2&,,,,6#,..,...,6&,,.(,+4+2&54,(4+6",
"&4,.(.5,,9*.,.,.+6&4..,5.,..)2&,,,.6#,..44..,9*,..(,+4,2&5.,(.+9",
"&4,.,.5,.6&,,...+6&.+.,4.,,..6&,.,.6$...;4..,9&,..(,+4.2&5.,(.+6",
"$4..,).,.2&.,.,.+6&.+.,4,.,..6&+,,,6$.,.55,.,9&,,.(.+4+6&5.4,.,6",
"*..,.(.4,6&,,...+6*.+.,4,,,..6*.4,.0&,...4,.,9&,,.(.+4.6&5..).+6",
"*.,.,(,,.2*.,,..,6*...,4,.4.,6*+4+40&,....,.,9&.,.+.,4.2&5.4)+,6",
"*.,.,,,..9&,.,,.,6*,..,4+.,.,2&..+.0&,.,.,,.)6&.,.).,.,6&4.5(.+6",
"*,..,.,,.6&..,,.,6*.+4)4+.,.,6&+4+.2&..,,,,.,6&.,.).+4.6&..;(++6",
"*,..,4).,6&..,..,6$,..,4+.,.,0&).+.0*..,,,,.(6&.,.).+.,6&5.;),+6",
"*,..,5)4,6&......6$.+.).+,,.,0&),..2*,..,,,.(2*.,.,.+,+6&55;,,,6",
"*,,.,5,.,6&.,....2%4+.,.,,,4,0&,,,.2*,.,+.,.(2*.,.,.+.+2&5.5),+6",
"*,,.,5..,6&......2*.+.,.,,+.)6&.,.)6&...+4,.(2*.,.+4,.+2&4..,,.6",
"$,,.,5..,6&.,4...6#4+,,.,,(4,6&.,.)6&.,.+.,.(2&.,.+4,.+6&4.,,,.6",
"&.,.,;4.,6&..4...6#4,.,.),(4,6&4..)6$,,...,.)2&.,.+.,.+6&.,,,,.6",
"&.,4.;5.,6*.,5,..6#,,,,.,,+.,6*..,)6&,,...,.)2&.,.+.,.+6&.,,+,,6",
"&.,.4;5..2*.,4,.,6#,..,.),,.,6*.,.,6&.,.....,6&.,.+.,.+6&,,.+.,6",
"&..44;..,6&.,.,..6#,.,..,++.,6*..,.6&.,.....,6&4..+...+6&.,.+.,6",
"&,..4;,.,2*.,,,.,6#,,...,.,.,9*.,.,6*.,...5.,6&.4.+....6&,,.+.46",
"&.,.45,.,6&..,,..6#,,.,.,+,.,9&...,6&.,.....,6*44.+..,.6&.,.,.,6",
"&),,.4,..9*,.,,.)6#.,,,,,.,.,6&.,..2*,,,.,5.,2*.4.)...+9$,..,,,6",
"'),.,.).,7&.,,,.)6&.,,,,,,..,6&.+4,6&.,,....,6&.4.+.),.6&...,.,6",
"'),,,.,.)7*,,.,.,6&.,,,.,,,.,2&..4,6*.+,..4.,0&,..).).+6$.,..,,6",
"'.,.,.).)3&.,4,.,6&.,,.,.,,.,2*.44,9&.+,,...)0&.,.),+4+6&,,..,,6",
"'.,.,.).,3&.,.,.,2*.,....,,.,6*.4.,9&.+,,4+.,0&,,.(,..+6$,,..,+6",
"'.,4..).)/&...,.,2*.,....,..,6%.,,)9*,+,,.+.,6&.,.(.+4+9$,,.5,(6",
"'.54.,).,/&...,.)2*.,,......,2%4+,):-,,,,4+.,6&.,.(..4,6$,..5.(6"
};